luts/hamburger_filmlike/kodak5219.cube
TITLE "Custom LUT"
LUT_3D_SIZE 9
# S-Log3/Sony S-Gamut3.cine (Venice) -> LA - FUJI_LUT/LA - FUJI_LUT, CineEI Shift 0.00, Black Level 3.29% IRE, Input 109% -> Output 100% - Created with LUTCalc v4.03 by Ben Turley January 2022
0.00033044 0.00000000 0.00000000
0.07811889 0.00000000 0.00000000
0.22940377 0.00696679 0.00000000
0.39930117 0.01462080 0.00460513
0.55819171 0.02556288 0.00396670
0.69241807 0.01630211 0.00100650
0.83024676 0.00000000 0.00000000
0.85427678 0.00000000 0.00000000
0.99997111 0.09157680 0.00000000
0.01963526 0.06212586 0.00635229
0.07803161 0.06538472 0.00459496
0.21647111 0.06155571 0.01356988
0.39086492 0.05334557 0.00502984
0.56287953 0.04730616 0.00000000
0.70365098 0.03581253 0.00003825
0.84099067 0.00177822 0.00000000
0.86253174 0.00000000 0.00000000
0.99997111 0.10282191 0.00000000
0.06240758 0.17703434 0.03632581
0.08865416 0.17974301 0.03693787
0.19449255 0.19807837 0.01588644
0.36484675 0.19366014 0.06006166
0.57021449 0.16509488 0.00693346
0.73097001 0.09506371 0.00000000
0.85787096 0.02784869 0.00000000
0.87497746 0.00000000 0.00000000
0.99997111 0.12361653 0.00000000
0.11783363 0.32308027 0.08750929
0.13756047 0.32654002 0.08752857
0.20010161 0.34156300 0.08023017
0.35705531 0.39359444 0.02283302
0.60517714 0.41066447 0.08555261
0.74751367 0.40537844 0.14620210
0.88958609 0.30514352 0.00000000
0.90835800 0.02129251 0.00000000
0.99997111 0.18916215 0.00000000
0.19742727 0.51548160 0.14879110
0.21590395 0.52370015 0.14447648
0.25048709 0.53476186 0.13784122
0.39464095 0.56331809 0.12939249
0.56226287 0.63713463 0.03314583
0.79291485 0.63176927 0.05180471
0.93714881 0.60439540 0.05202640
0.90600307 0.70473703 0.04564763
0.99997111 0.49246368 0.03239703
0.27988122 0.72190030 0.20360156
0.28973495 0.72370979 0.20014192
0.31865978 0.72708780 0.19518922
0.42123182 0.73932001 0.18825772
0.61239500 0.77028209 0.17322680
0.72345820 0.82389227 0.03092556
0.89694115 0.81564838 0.00604122
0.99988536 0.85864249 0.00000000
0.99997111 0.84015809 0.00000000
0.39078236 0.87227296 0.22987168
0.40361850 0.87380742 0.22868372
0.42712116 0.87658242 0.22704189
0.50732857 0.88715828 0.22615982
0.64935883 0.90406908 0.22066831
0.76373182 0.93402912 0.14020812
0.81867310 0.97090193 0.00000000
0.84241511 0.97582103 0.00000000
0.99997111 0.99654353 0.00000000
0.63598422 0.98141203 0.17239664
0.64251160 0.98191640 0.17228712
0.65210870 0.98265321 0.17208985
0.68091675 0.98468010 0.17147710
0.72989574 0.98830711 0.14884340
0.79537080 0.99386974 0.10631576
0.77525594 0.99976447 0.00544570
0.82164775 0.99937143 0.00000000
0.61647136 0.99728972 0.00000000
0.80302868 0.99997111 0.32790968
0.80459226 0.99997111 0.32672666
0.80703205 0.99997111 0.32486755
0.81437741 0.99997111 0.31908614
0.83507011 0.99997111 0.31058220
0.86763823 0.99997111 0.30591384
0.83562850 0.99997111 0.19255167
0.87924313 0.99997111 0.07436455
0.85485446 0.99997111 0.00000000
0.00000000 0.00000000 0.04960776
0.05881392 0.00189573 0.04670853
0.22037241 0.00839105 0.05012968
0.39835239 0.02005547 0.04739187
0.56019196 0.02952846 0.04150966
0.69563776 0.01810971 0.02164774
0.82617266 0.00000000 0.00000000
0.85361506 0.00000000 0.00000000
0.99997111 0.08458067 0.00000000
0.02036001 0.06126345 0.05999513
0.06496684 0.05613706 0.05439583
0.21906569 0.05720783 0.04822687
0.39193559 0.05641961 0.04586527
0.56343621 0.05114775 0.03643651
0.70722334 0.03840748 0.01960468
0.83697939 0.00173627 0.00000000
0.86187227 0.00000000 0.00000000
0.99997111 0.09529285 0.00000000
0.06978887 0.17592807 0.08102859
0.09627670 0.17301217 0.08167420
0.20869679 0.19152147 0.06908801
0.37766555 0.18605758 0.08697900
0.58006667 0.15971117 0.04181241
0.73135865 0.09402717 0.01623718
0.85386719 0.02776718 0.00000000
0.87436742 0.00000000 0.00000000
0.99997111 0.11498936 0.00000000
0.12899035 0.32153990 0.11443987
0.15130734 0.32354962 0.11900970
0.21275177 0.33997114 0.11472632
0.37011574 0.39204607 0.06478510
0.60754160 0.40816533 0.12151865
0.74614588 0.39933969 0.15744536
0.88933920 0.28767798 0.00000000
0.90780977 0.01794625 0.00000000
0.99997111 0.17832143 0.00000000
0.20998803 0.51198142 0.17255231
0.22859028 0.52179462 0.17045620
0.26207632 0.53322874 0.16368552
0.40214946 0.56312755 0.15509072
0.56711236 0.63514713 0.05851370
0.79759187 0.62925802 0.07798628
0.93611090 0.60409851 0.07439895
0.90947221 0.69423065 0.05156964
0.99997111 0.47729293 0.02813363
0.28683331 0.72034697 0.22187493
0.29649177 0.72211832 0.21809885
0.32518235 0.72560559 0.21288406
0.42537475 0.73860165 0.20532727
0.61448252 0.76916475 0.19078588
0.72654334 0.82251114 0.04753507
0.90019505 0.81306431 0.01558897
0.99990049 0.85416619 0.00000000
0.99997111 0.83738932 0.00000000
0.38898855 0.86911779 0.24005728
0.40181243 0.87066618 0.23884648
0.42504094 0.87344404 0.23726794
0.50372525 0.88398728 0.23631307
0.64623505 0.90085572 0.23120389
0.76500450 0.93095429 0.15427334
0.82192276 0.96789852 0.00000000
0.84928148 0.97396594 0.00000000
0.99997111 0.99628269 0.00000000
0.62926056 0.98020621 0.19148189
0.63617111 0.98074610 0.19136290
0.64658855 0.98152860 0.19114677
0.67620011 0.98363889 0.19045017
0.72625024 0.98742628 0.16604323
0.79626412 0.99335841 0.12797501
0.78206251 0.99976231 0.01577726
0.82655009 0.99936893 0.00000000
0.62709261 0.99728571 0.00000000
0.80225430 0.99997111 0.33527944
0.80381541 0.99997111 0.33412047
0.80625018 0.99997111 0.33230386
0.81358482 0.99997111 0.32682165
0.83427985 0.99997111 0.31918460
0.86723012 0.99997111 0.31496867
0.83877659 0.99997111 0.20223850
0.88094022 0.99997111 0.08051801
0.85694497 0.99997111 0.00000000
0.00000000 0.00210186 0.17341453
0.05499949 0.00402473 0.16728247
0.17802674 0.01546514 0.17481572
0.38191592 0.03324429 0.16602508
0.56938974 0.03952736 0.14134315
0.71155355 0.01838415 0.08816307
0.81951101 0.00000000 0.00000000
0.85257065 0.00000000 0.00000000
0.99997111 0.07352785 0.00000000
0.01092411 0.04244080 0.17010000
0.05734171 0.03944910 0.16308764
0.17562907 0.05097739 0.16889464
0.37868067 0.05926270 0.16063750
0.57079266 0.05894468 0.13945311
0.71795155 0.04086192 0.08097186
0.83062506 0.00167021 0.00000000
0.86082477 0.00000000 0.00000000
0.99997111 0.08447991 0.00000000
0.06970953 0.18082065 0.18818873
0.09800947 0.17881481 0.18575105
0.17603621 0.17542592 0.18469435
0.38342525 0.17164182 0.16209346
0.58672822 0.15674283 0.14255816
0.73233217 0.09538737 0.07409638
0.84758232 0.02763835 0.00000000
0.87339639 0.00000000 0.00000000
0.99997111 0.10202492 0.00000000
0.13293370 0.33820589 0.22214838
0.15852563 0.33477292 0.22454690
0.20718607 0.33074533 0.21723100
0.38890936 0.37721035 0.18481089
0.60442644 0.39628466 0.23923195
0.74618880 0.38689515 0.18217280
0.88905741 0.25371850 0.00000000
0.90694553 0.01294241 0.00000000
0.99997111 0.16329128 0.00000000
0.20910956 0.52099959 0.26184213
0.23000178 0.51746366 0.26166239
0.26086790 0.51906842 0.25238409
0.40229819 0.55064537 0.23454611
0.58430673 0.62213544 0.15319368
0.80371506 0.62526340 0.11988750
0.93439335 0.60373208 0.10731096
0.91500015 0.67786940 0.06194617
0.99997111 0.45593132 0.02193400
0.29326134 0.70719400 0.27550221
0.30348966 0.70992625 0.27097853
0.33153400 0.71518211 0.26304824
0.42797827 0.73106718 0.25109678
0.61651886 0.76599450 0.22901717
0.73188339 0.82049434 0.07850644
0.90538818 0.80901956 0.03471210
0.99992448 0.84717895 0.00000000
0.99997111 0.83303423 0.00000000
0.38650546 0.86357046 0.25782415
0.39880879 0.86509746 0.25641714
0.42145852 0.86788455 0.25494180
0.49785330 0.87838574 0.25417899
0.64111826 0.89578977 0.25036034
0.76699033 0.92574255 0.18262035
0.82691655 0.96270940 0.01071125
0.86020864 0.97079379 0.00000000
0.99997111 0.99584347 0.00000000
0.61878151 0.97809633 0.22103028
0.62605851 0.97870816 0.22093236
0.63734839 0.97959078 0.22075221
0.66850228 0.98191271 0.22013895
0.72062869 0.98592143 0.20133268
0.79767274 0.99239394 0.15861174
0.79235529 0.99975889 0.03718277
0.83406959 0.99936496 0.00000000
0.64401088 0.99727935 0.00000000
0.80102601 0.99997111 0.34679599
0.80258378 0.99997111 0.34574334
0.80501154 0.99997111 0.34409924
0.81232659 0.99997111 0.33906860
0.83302779 0.99997111 0.33192223
0.86658065 0.99997111 0.32787919
0.84373917 0.99997111 0.21717995
0.88354844 0.99997111 0.09031228
0.86025693 0.99997111 0.00000000
0.00000000 0.01470267 0.32280721
0.06265236 0.01539679 0.31421414
0.18010625 0.03015070 0.31453177
0.36429029 0.05590675 0.34007404
0.57208235 0.06651888 0.36870680
0.73502690 0.06483940 0.34811002
0.83480441 0.00000000 0.13553462
0.84931780 0.00000000 0.00000000
0.99997111 0.03656374 0.00000000
0.00694661 0.03872240 0.31630794
0.06099999 0.03596088 0.30764601
0.17633418 0.04899545 0.30821156
0.35926142 0.07441342 0.33534442
0.56981000 0.08329133 0.36375507
0.73511696 0.07939258 0.34245880
0.84020203 0.00000000 0.13816504
0.85754116 0.00000000 0.00000000
0.99997111 0.04744756 0.00000000
0.05691135 0.16313390 0.32719352
0.08612454 0.15596064 0.31824866
0.16728347 0.14602040 0.31901317
0.35584210 0.15445719 0.33605783
0.57105681 0.13113096 0.35186974
0.73519989 0.10224763 0.33342760
0.84857790 0.02010224 0.14422381
0.87033097 0.00000000 0.00000000
0.99997111 0.06693364 0.00000000
0.13406298 0.36743390 0.38482010
0.15966019 0.36667601 0.38429741
0.20081191 0.37082223 0.39072164
0.34344816 0.36182008 0.38227378
0.58965243 0.34640774 0.34341611
0.76176087 0.32106708 0.30552837
0.88273049 0.18856642 0.15078505
0.90428695 0.00082822 0.00000000
0.99997111 0.12547431 0.00000000
0.20582334 0.56038849 0.44105613
0.22532726 0.55860942 0.44152163
0.25145676 0.55509910 0.43752126
0.36048638 0.53340515 0.39798278
0.58118347 0.58157838 0.34261237
0.79967753 0.58723907 0.39198531
0.92443821 0.59912276 0.27758813
0.92994925 0.60920311 0.09761526
0.99997111 0.39254452 0.00577853
0.26846154 0.71971775 0.46248971
0.28084614 0.71642848 0.45814827
0.30653845 0.70917898 0.44793558
0.38704039 0.69986255 0.41795606
0.57565307 0.73601414 0.40793403
0.76347833 0.79416976 0.28737218
0.92292411 0.79623893 0.12744491
0.99997111 0.82542640 0.00000000
0.99997111 0.81922328 0.00000000
0.35092133 0.84075770 0.42875473
0.36168439 0.84143125 0.42494007
0.38190762 0.84304843 0.41961067
0.45182591 0.85325262 0.40814862
0.60322789 0.87760864 0.40269139
0.77807699 0.90159737 0.37243913
0.84181878 0.94622505 0.09379751
0.89087564 0.95917301 0.00000000
0.99997111 0.99427073 0.00000000
0.58710607 0.96990906 0.33301960
0.59504321 0.97075772 0.33307232
0.60789896 0.97200290 0.33311997
0.64108037 0.97522778 0.33246091
0.70352322 0.98038764 0.33125018
0.80203084 0.98781203 0.30375660
0.82306332 0.99974823 0.13536424
0.85720245 0.99935258 0.00000000
0.68661429 0.99725940 0.00000000
0.79717014 0.99997111 0.38969000
0.79872201 0.99997111 0.38867205
0.80113512 0.99997111 0.38707983
0.80838152 0.99997111 0.38222151
0.82910027 0.99997111 0.37527254
0.86453117 0.99997111 0.37013882
0.85916044 0.99997111 0.26826920
0.89122190 0.99997111 0.12470637
0.87028028 0.99997111 0.00000000
0.01756660 0.04488092 0.50125375
0.09782954 0.04587443 0.49701386
0.20482604 0.05450295 0.50122867
0.37897353 0.07807244 0.51817918
0.56134586 0.09918175 0.55936215
0.71386108 0.09438146 0.58260318
0.83717581 0.02945144 0.61339664
0.87304491 0.00000000 0.32079219
0.99997111 0.00000000 0.00000000
0.02062292 0.06293434 0.50254918
0.09130965 0.05845737 0.49659107
0.19825202 0.06620947 0.50049517
0.37458901 0.08825180 0.51562122
0.55914787 0.10902421 0.55726287
0.71506890 0.10529520 0.57960105
0.84206453 0.04384536 0.60239411
0.87886904 0.00000000 0.32057100
0.99997111 0.00000000 0.00000000
0.03040839 0.10109439 0.50524604
0.08194252 0.08481924 0.49530098
0.18761506 0.08656891 0.49886617
0.36699389 0.10627675 0.51083681
0.55542556 0.12594981 0.55360207
0.71700565 0.12452008 0.57489665
0.84974458 0.07192643 0.58649608
0.88724740 0.00000000 0.31978395
0.99997111 0.00000000 0.00000000
0.15715414 0.37594156 0.57472140
0.17585752 0.37341452 0.56907387
0.20391817 0.36978918 0.56574277
0.31231119 0.34854008 0.56053123
0.55939805 0.34303165 0.56881943
0.74576258 0.27397769 0.55660630
0.87328293 0.15742084 0.54462947
0.91120685 0.00000000 0.31368200
0.99997111 0.01859757 0.00000000
0.19609825 0.58247254 0.60857604
0.21127321 0.58304387 0.60994062
0.23551232 0.58617266 0.61434376
0.29908360 0.59140410 0.62217621
0.53403108 0.57627599 0.61104803
0.78695673 0.55176835 0.55842926
0.92171099 0.52584961 0.51607793
0.98563950 0.38377359 0.26300971
0.99997111 0.20112536 0.00000000
0.24613429 0.76304388 0.64832318
0.25586456 0.76241189 0.64695760
0.27350053 0.76147660 0.64411090
0.34250367 0.75267850 0.62481793
0.51602574 0.74208799 0.59034956
0.76345480 0.78004161 0.53113581
0.94602251 0.76774655 0.56550904
0.99970507 0.75266324 0.32012106
0.99997111 0.77541775 0.00000000
0.32196941 0.87369153 0.62657987
0.33188824 0.87182232 0.62328718
0.35017000 0.87000137 0.61821328
0.41112115 0.86630839 0.60308671
0.54067856 0.87451096 0.58625049
0.75377899 0.89747677 0.58277070
0.88740866 0.91940070 0.46388765
0.97692730 0.91965904 0.19678674
0.99997111 0.98278122 0.00000000
0.51672943 0.96627738 0.58621816
0.52435002 0.96714295 0.58564457
0.53617537 0.96849508 0.58474661
0.57004419 0.97252135 0.58219349
0.65501233 0.97981226 0.58023966
0.78288070 0.98884490 0.58102296
0.89600429 0.99372924 0.54473533
0.91857147 0.99931438 0.15549341
0.80213366 0.99719670 0.00000000
0.78499596 0.99997111 0.52069373
0.78651165 0.99997111 0.52065041
0.78889019 0.99997111 0.52053622
0.79607723 0.99997111 0.52032590
0.81644461 0.99997111 0.51920918
0.85806620 0.99997111 0.51374146
0.90071100 0.99997111 0.45317121
0.91506866 0.99997111 0.25064179
0.89710756 0.99997111 0.03120854
0.08152614 0.00365469 0.69779825
0.16726226 0.02554737 0.69255132
0.26917259 0.04640820 0.68588475
0.39715412 0.05907643 0.69092155
0.55541055 0.05593608 0.71362840
0.70149839 0.07489746 0.73582156
0.81066907 0.00757497 0.76179449
0.83764897 0.00000000 0.74572817
0.99997111 0.00000000 0.47660102
0.08922897 0.01936699 0.70026002
0.16149354 0.04021432 0.69496471
0.25733124 0.06118386 0.68864312
0.39238030 0.07270710 0.69211423
0.55386460 0.07263468 0.71443106
0.70260463 0.08740512 0.73706699
0.81429640 0.01762283 0.76133497
0.84370612 0.00000000 0.74522526
0.99997111 0.00000000 0.47690490
0.08474293 0.05691801 0.70434235
0.15254111 0.07076626 0.69891896
0.24126228 0.08302102 0.69306573
0.38501916 0.09232352 0.69401623
0.55150200 0.09646410 0.71573654
0.70436817 0.10839499 0.73902457
0.81995407 0.03797871 0.76060444
0.85322119 0.00000000 0.74442498
0.99997111 0.00000000 0.47738720
0.08553340 0.27766307 0.72621399
0.12791210 0.25416690 0.72127789
0.17866953 0.22158821 0.72004870
0.34924823 0.21283628 0.71027712
0.54216542 0.20044205 0.72147091
0.70991691 0.18055891 0.74487835
0.83662670 0.12921858 0.75830283
0.88165427 0.02963774 0.74190085
0.99997111 0.00000000 0.47890121
0.20076487 0.58392125 0.79347290
0.22210688 0.58214455 0.79471889
0.24958651 0.57923335 0.79676938
0.30513272 0.57026591 0.80079027
0.46052050 0.55928978 0.79020216
0.73697774 0.55324207 0.78320371
0.88896806 0.51404589 0.76694003
0.95176968 0.28515182 0.73397195
0.99997111 0.00311608 0.48366276
0.22837903 0.78193429 0.81205130
0.23880255 0.78312701 0.81347675
0.25222709 0.78457769 0.81525089
0.29108446 0.78829589 0.81963566
0.40368972 0.79082918 0.82343561
0.72734314 0.78022602 0.81979970
0.92074955 0.75766026 0.77484889
0.99663353 0.73245657 0.73005614
0.99997111 0.59854904 0.49377393
0.27030274 0.91716224 0.82209307
0.27688946 0.91679683 0.82124099
0.29627002 0.91542742 0.81843079
0.34406228 0.91210568 0.81080583
0.46307576 0.90458644 0.79435593
0.69462494 0.90520716 0.78277601
0.88330926 0.91906850 0.73923208
0.99802690 0.90185576 0.74358620
0.99997111 0.88359563 0.50278651
0.47326448 0.98053529 0.77824445
0.47966340 0.98022600 0.77741676
0.48906285 0.97978136 0.77593727
0.51661212 0.97942562 0.77182461
0.59210619 0.98251904 0.76763695
0.73897647 0.99071458 0.76622059
0.88745571 0.99698675 0.76601158
0.96512979 0.99846346 0.67352595
0.99512819 0.99597326 0.43070057
0.74527558 0.99997111 0.76485619
0.74734165 0.99997111 0.76504886
0.75048002 0.99997111 0.76534813
0.75960876 0.99997111 0.76614008
0.78556122 0.99997111 0.76825201
0.83615007 0.99997111 0.77051721
0.91043646 0.99997111 0.76990185
0.97652693 0.99997111 0.71920113
0.96930164 0.99997111 0.36861232
0.39518262 0.00000000 0.75734971
0.42413967 0.00000000 0.75754978
0.63654750 0.00000000 0.70850251
0.53792963 0.00000000 0.75735423
0.55294782 0.00000000 0.81827032
0.69372530 0.00000000 0.83221103
0.79883380 0.00000000 0.84474905
0.86156670 0.00000000 0.86232705
0.99370027 0.06651154 0.84727498
0.38058246 0.00000000 0.76735860
0.41167358 0.00000000 0.76753422
0.60852786 0.00000000 0.72210254
0.52933252 0.00000000 0.76654326
0.55264586 0.00000000 0.82196404
0.69466642 0.00341000 0.83505938
0.80092149 0.00000000 0.84701185
0.86402477 0.00131446 0.86347623
0.99370094 0.07098263 0.84784216
0.35837227 0.00000000 0.78110762
0.38903393 0.00000000 0.78124203
0.57053333 0.00000000 0.74453363
0.51508650 0.00000000 0.77935538
0.55226032 0.00540341 0.82758439
0.69617334 0.01550115 0.83957548
0.80420831 0.00000000 0.85058841
0.86783332 0.00832318 0.86527952
0.99370199 0.07760999 0.84873964
0.29957091 0.02836445 0.81852972
0.34567190 0.02739310 0.81611524
0.45789011 0.04455996 0.79835235
0.46956034 0.05814267 0.81384180
0.55178864 0.07089004 0.84407314
0.70104854 0.08003449 0.85357288
0.81438303 0.03992224 0.86180947
0.87914785 0.04335000 0.87075285
0.99370529 0.09774049 0.85153710
0.18566444 0.50173695 0.90984518
0.20125458 0.49466292 0.91066339
0.22004850 0.48625442 0.91176686
0.29696022 0.46570947 0.91282133
0.53027465 0.45492515 0.90080714
0.71721741 0.44158906 0.89610365
0.84361465 0.35010155 0.89241576
0.90971660 0.21988838 0.88631439
0.99371545 0.16939937 0.86021511
0.23053267 0.77323690 0.95166758
0.24106894 0.77167503 0.95274323
0.25753991 0.77052743 0.95457484
0.30085418 0.76647129 0.95898577
0.44345987 0.75629677 0.96562825
0.68710856 0.75444170 0.94885877
0.87083915 0.73850819 0.93009942
0.96859992 0.71874012 0.91826318
0.99374665 0.52399582 0.88482161
0.27522802 0.91780163 0.95150617
0.28594896 0.91763735 0.95130579
0.30138605 0.91739733 0.95101429
0.33976989 0.91676624 0.95025786
0.44698232 0.91554303 0.94940751
0.64333162 0.91664129 0.95526326
0.85225077 0.89989096 0.94261669
0.98073139 0.88854532 0.91617856
0.99997111 0.87451394 0.88959334
0.44947296 0.99873951 0.93956698
0.45436020 0.99873780 0.93922653
0.46257458 0.99873509 0.93870619
0.48839545 0.99841659 0.93739633
0.55090895 0.99836900 0.93652580
0.67954832 0.99816410 0.93221592
0.84165655 0.99414051 0.92251090
0.96427043 0.99356061 0.90897150
0.99997111 0.98784821 0.88608157
0.69221387 0.99997111 0.91806831
0.69398290 0.99997111 0.91798815
0.69680958 0.99997111 0.91786253
0.70601249 0.99997111 0.91747953
0.73312891 0.99997111 0.91675151
0.78729397 0.99997111 0.91512201
0.87349188 0.99997111 0.91488921
0.96172936 0.99997111 0.91366309
0.99947086 0.99997111 0.86135754
0.74842140 0.05410765 0.99693451
0.74185740 0.05283483 0.99693251
0.72829805 0.05213481 0.99692935
0.84541503 0.07639989 0.99666188
0.69737866 0.08954003 0.99644506
0.75853410 0.06888248 0.99625977
0.85960821 0.13046858 0.99600878
0.90350304 0.18365342 0.99504840
0.99111162 0.13252764 0.99153381
0.74055950 0.06060939 0.99693372
0.73413559 0.05936540 0.99693172
0.72260629 0.05908853 0.99692856
0.84003474 0.08174825 0.99666097
0.69607139 0.09447021 0.99644407
0.75828813 0.07480494 0.99625873
0.85963163 0.13517701 0.99600808
0.90406397 0.18861597 0.99504723
0.99111249 0.13553566 0.99153307
0.72779161 0.07074822 0.99693247
0.72214793 0.06957335 0.99693047
0.71374957 0.06989926 0.99692730
0.83157135 0.09027833 0.99665953
0.69404741 0.10319218 0.99644249
0.75790506 0.08375257 0.99625707
0.85966870 0.14243376 0.99600696
0.90495620 0.19632867 0.99504539
0.99111387 0.14021557 0.99153191
0.69209312 0.09935241 0.99692856
0.68880666 0.09819125 0.99692655
0.68830189 0.10010032 0.99692338
0.80429604 0.11982385 0.99665503
0.68795572 0.13325760 0.99643757
0.75675305 0.11339843 0.99625189
0.85978420 0.16560553 0.99600347
0.90778091 0.21947147 0.99503964
0.99111819 0.15416829 0.99152828
0.57785699 0.21001335 0.99691647
0.57860518 0.20841014 0.99691446
0.59777031 0.21443590 0.99678007
0.70574892 0.22535828 0.99664114
0.66846182 0.23699453 0.99642237
0.75368776 0.22242568 0.99623590
0.86013934 0.26533111 0.99599267
0.91664076 0.30676082 0.99502185
0.99113147 0.21317847 0.99151708
0.37108100 0.69706777 0.99957458
0.37781347 0.69697070 0.99884441
0.39442829 0.69829971 0.99884342
0.43530078 0.70160743 0.99884033
0.56633164 0.69118426 0.99843401
0.74604724 0.68976658 0.99713040
0.86533150 0.66998682 0.99669756
0.94122065 0.59347753 0.99496654
0.99117225 0.44874359 0.99148241
0.42159195 0.90718261 0.99997111
0.42994647 0.90662552 0.99997111
0.44246535 0.90586152 0.99997111
0.47811620 0.90492511 0.99997111
0.57024396 0.90201253 0.99997111
0.71880212 0.89907858 0.99997111
0.84391306 0.89526034 0.99972119
0.95544539 0.88513637 0.99834425
0.99997111 0.87398578 0.99616891
0.54772132 0.99642054 0.99997067
0.55193707 0.99641825 0.99997067
0.55807608 0.99641464 0.99997067
0.57517168 0.99640334 0.99997067
0.62237241 0.99636835 0.99997068
0.71355463 0.99638732 0.99997111
0.82962946 0.99571375 0.99997040
0.94219668 0.98470874 0.99889753
0.99966812 0.97847701 0.99436378
0.71301835 0.99997111 0.99922286
0.71440490 0.99997111 0.99922243
0.71658258 0.99997111 0.99922175
0.72310195 0.99997111 0.99921963
0.74472699 0.99997111 0.99887369
0.78327000 0.99997111 0.99881402
0.85351322 0.99997111 0.99774352
0.93905954 0.99997111 0.99619501
0.99935113 0.99997111 0.99407951
0.78643223 0.23446737 0.99997111
0.79635538 0.24435801 0.99997111
0.80772697 0.24434023 0.99997111
0.82646608 0.24380618 0.99997111
0.84445073 0.24447563 0.99997111
0.87730537 0.24495495 0.99997111
0.88822948 0.14265270 0.99997111
0.95603622 0.12443458 0.99997111
0.99518656 0.21216150 0.99997111
0.78660887 0.23882014 0.99997111
0.79609847 0.24706430 0.99997111
0.80740887 0.24704394 0.99997111
0.82591105 0.24648662 0.99997111
0.84404656 0.24717864 0.99997111
0.87697193 0.24767244 0.99997111
0.88824334 0.14478061 0.99997111
0.95604042 0.12682146 0.99997111
0.99518681 0.21426044 0.99997111
0.78686935 0.24592601 0.99997111
0.79568374 0.25150926 0.99997111
0.80689830 0.25148441 0.99997111
0.82502822 0.25088466 0.99997111
0.84340407 0.25161901 0.99997111
0.87644185 0.25213998 0.99997111
0.88826528 0.14804171 0.99997111
0.95604706 0.13046591 0.99997111
0.99518721 0.21750230 0.99997111
0.78685334 0.26713349 0.99997111
0.79432684 0.26710579 0.99997111
0.80525122 0.26706366 0.99997111
0.82223763 0.26629836 0.99997111
0.84137863 0.26720133 0.99997111
0.87477190 0.26782484 0.99997111
0.88833362 0.15892098 0.99997111
0.95606778 0.14132006 0.99997111
0.99518845 0.22719323 0.99997111
0.78277096 0.31791716 0.99997111
0.78952776 0.31787665 0.99997111
0.79964234 0.31780960 0.99997111
0.81333703 0.31703774 0.99997111
0.83493138 0.31789497 0.99997111
0.86948541 0.31842954 0.99997111
0.88854556 0.20365989 0.99997111
0.95613161 0.17739518 0.99997111
0.99519227 0.26340411 0.99997111
0.76230258 0.46038246 0.99997111
0.76836152 0.46027724 0.99997111
0.77292917 0.45997099 0.99997111
0.78471430 0.45989179 0.99997111
0.81254761 0.46034557 0.99997111
0.85203553 0.46087415 0.99997111
0.88919412 0.37382981 0.99997111
0.95632794 0.33906921 0.99997111
0.99520400 0.39432222 0.99997111
0.69455737 0.86746674 0.99997111
0.69730421 0.86789813 0.99997111
0.70169653 0.86855459 0.99997111
0.71112179 0.86968136 0.99997111
0.72942689 0.87152672 0.99997111
0.78929180 0.86590315 0.99997111
0.88411845 0.86299954 0.99997111
0.95854437 0.85016260 0.99997111
0.99523994 0.78908821 0.99997111
0.70067207 0.99124096 0.99997111
0.70237530 0.99120008 0.99997111
0.70504934 0.99113628 0.99997111
0.71481433 0.99096456 0.99997111
0.74124585 0.99080499 0.99997111
0.79133072 0.98886932 0.99997111
0.86543454 0.98547474 0.99997111
0.94287778 0.98292214 0.99997111
0.99767357 0.97829884 0.99997111
0.78554582 0.99997111 0.99997111
0.78648436 0.99997111 0.99997111
0.78795754 0.99997111 0.99997111
0.79226602 0.99997111 0.99997111
0.80148848 0.99997111 0.99997111
0.82498527 0.99997111 0.99997111
0.87241826 0.99997111 0.99997111
0.93660411 0.99997111 0.99997111
0.99443604 0.99997111 0.99997111
