luts/hamburger_filmlike/kodak5219.cube
TITLE "Custom LUT"
LUT_3D_SIZE 33
# S-Log3/Sony S-Gamut3.cine (Venice) -> LA - FUJI_LUT/LA - FUJI_LUT, CineEI Shift 0.00, Black Level 3.29% IRE, Input 109% -> Output 100% - Created with LUTCalc v4.03 by Ben Turley January 2022
0.00033044 0.00000000 0.00000000
0.00811348 0.00000000 0.00000000
0.02901351 0.00000000 0.00000000
0.04903482 0.00000000 0.00000000
0.07811889 0.00000000 0.00000000
0.10725750 0.00000000 0.00000000
0.14553341 0.00147509 0.00000000
0.18665045 0.00577838 0.00000000
0.22940377 0.00696679 0.00000000
0.27240018 0.00948869 0.00170689
0.31619820 0.00971837 0.00272697
0.35655627 0.01214076 0.00475026
0.39930117 0.01462080 0.00460513
0.44035641 0.01752284 0.00559159
0.48026862 0.02054415 0.00438220
0.52026441 0.02350483 0.00475659
0.55819171 0.02556288 0.00396670
0.59368980 0.02701641 0.00448411
0.63003409 0.02636813 0.00459062
0.65810570 0.02109034 0.00088153
0.69241807 0.01630211 0.00100650
0.73047407 0.00440249 0.00000000
0.75883577 0.00000000 0.00000000
0.80515120 0.00000000 0.00000000
0.83024676 0.00000000 0.00000000
0.83842829 0.00000000 0.00000000
0.84993958 0.00000000 0.00000000
0.86202934 0.00000000 0.00000000
0.85427678 0.00000000 0.00000000
0.93404438 0.00343175 0.00000000
0.99360229 0.00000000 0.00000000
0.99997111 0.03106902 0.00000000
0.99997111 0.09157680 0.00000000
0.00238546 0.00521196 0.00000000
0.00908846 0.00483699 0.00000000
0.02908041 0.00426149 0.00000000
0.04990965 0.00364493 0.00000000
0.07914140 0.00381510 0.00000000
0.10846433 0.00401815 0.00000000
0.14541625 0.00496399 0.00000000
0.18619510 0.00898606 0.00000000
0.22814160 0.01052868 0.00004911
0.27080019 0.01314819 0.00170851
0.31470170 0.01515311 0.00274037
0.35527586 0.01726745 0.00467879
0.39823754 0.01951587 0.00456798
0.44032572 0.02155976 0.00435703
0.48052283 0.02431478 0.00305735
0.52140399 0.02715609 0.00142075
0.55938165 0.02932725 0.00159772
0.59535728 0.03087298 0.00310426
0.63166552 0.03017270 0.00320746
0.66165807 0.02580104 0.00058360
0.69510040 0.02064448 0.00074941
0.73407704 0.00872230 0.00000000
0.76310287 0.00000000 0.00000000
0.80797831 0.00025124 0.00000000
0.83293959 0.00000000 0.00000000
0.84108368 0.00000000 0.00000000
0.85245336 0.00000000 0.00000000
0.86401395 0.00000000 0.00000000
0.85634074 0.00000000 0.00000000
0.93468602 0.00525124 0.00000000
0.99360257 0.00009523 0.00000000
0.99997111 0.03365096 0.00000000
0.99997111 0.09408860 0.00000000
0.00745990 0.01957395 0.00000000
0.01489379 0.01956551 0.00000000
0.02977208 0.01997736 0.00000000
0.04947712 0.01974834 0.00000000
0.07859569 0.02004268 0.00000000
0.10730081 0.02013888 0.00000000
0.14383595 0.02029815 0.00000000
0.18391536 0.02141373 0.00000000
0.22588628 0.02264171 0.00059959
0.26759259 0.02412314 0.00190935
0.31171944 0.02563334 0.00281796
0.35297339 0.02665921 0.00441227
0.39641035 0.02776176 0.00425514
0.43918177 0.02842877 0.00379760
0.48082052 0.02833830 0.00000000
0.52201338 0.03087783 0.00000000
0.56048097 0.03327654 0.00000000
0.59705391 0.03490171 0.00128899
0.63329863 0.03437002 0.00194023
0.66510896 0.03080956 0.00029955
0.69786063 0.02529631 0.00050202
0.73768758 0.01364501 0.00000000
0.76722149 0.00000000 0.00000000
0.81079927 0.00301590 0.00000000
0.83562197 0.00000000 0.00000000
0.84372682 0.00000000 0.00000000
0.85497637 0.00000000 0.00000000
0.86597379 0.00000000 0.00000000
0.85841016 0.00000000 0.00000000
0.93532334 0.00728144 0.00000000
0.99360286 0.00153400 0.00000000
0.99997111 0.03641444 0.00000000
0.99997111 0.09682855 0.00000000
0.01119456 0.03606988 0.00023121
0.01866472 0.03601430 0.00019899
0.03337227 0.03612141 0.00000000
0.04961555 0.03669277 0.00000000
0.07765668 0.03743224 0.00000000
0.10499157 0.03746688 0.00000000
0.13806986 0.03741086 0.00080289
0.17863482 0.03727109 0.00121847
0.22271834 0.03634458 0.00102173
0.26400176 0.03633633 0.00191166
0.30811422 0.03654386 0.00285275
0.35012832 0.03716027 0.00433288
0.39365317 0.03786014 0.00420889
0.43762311 0.03838158 0.00353576
0.47959461 0.03840446 0.00000000
0.52281228 0.03843325 0.00000000
0.56169473 0.03716300 0.00000000
0.59858268 0.03917282 0.00000000
0.63493111 0.03860300 0.00000000
0.66847845 0.03651957 0.00003020
0.70072251 0.03022855 0.00026481
0.74126983 0.01905960 0.00000000
0.77117115 0.00319566 0.00000000
0.81360696 0.00651568 0.00000000
0.83830777 0.00000000 0.00000000
0.84636141 0.00000000 0.00000000
0.85751526 0.00000000 0.00000000
0.86790117 0.00000000 0.00000000
0.86047662 0.00000000 0.00000000
0.93595701 0.00944952 0.00000000
0.99360315 0.00323491 0.00000000
0.99997111 0.03933124 0.00000000
0.99997111 0.09975637 0.00000000
0.01963526 0.06212586 0.00635229
0.02674204 0.06216825 0.00666113
0.03654557 0.06256271 0.00732409
0.05313730 0.06312195 0.00709274
0.07803161 0.06538472 0.00459496
0.10319700 0.06626493 0.00350716
0.13445175 0.06544229 0.01134541
0.17153047 0.06420916 0.01918015
0.21647111 0.06155571 0.01356988
0.25948535 0.05918165 0.00759120
0.30367808 0.05718154 0.00655134
0.34629022 0.05517793 0.00582955
0.39086492 0.05334557 0.00502984
0.43526095 0.05126408 0.00365192
0.47815251 0.04871303 0.00000000
0.52271233 0.04877598 0.00000000
0.56287953 0.04730616 0.00000000
0.60053364 0.04507823 0.00000000
0.63656065 0.04377185 0.00000000
0.67180549 0.04295314 0.00000000
0.70365098 0.03581253 0.00003825
0.74478787 0.02493599 0.00000000
0.77491139 0.00780228 0.00000000
0.81639373 0.01060413 0.00000000
0.84099067 0.00177822 0.00000000
0.84899112 0.00000000 0.00000000
0.86005518 0.00000000 0.00000000
0.86980366 0.00000000 0.00000000
0.86253174 0.00000000 0.00000000
0.93658768 0.01174028 0.00000000
0.99360343 0.00516119 0.00000000
0.99997111 0.04239135 0.00000000
0.99997111 0.10282191 0.00000000
0.02627487 0.08741490 0.00912016
0.03401433 0.08744528 0.00924960
0.04381238 0.08785379 0.00966410
0.05554883 0.08856807 0.00942028
0.07992274 0.09100880 0.00687229
0.10355897 0.09309601 0.00505490
0.13397037 0.09364072 0.01179441
0.16779050 0.09200240 0.02455934
0.20842401 0.08886588 0.02304065
0.25238274 0.08501786 0.01320432
0.29562224 0.08173867 0.00913360
0.34062829 0.07731718 0.00678635
0.38625565 0.07386882 0.00531424
0.43341979 0.07058327 0.00365105
0.47709739 0.06742623 0.00000000
0.52284107 0.06303514 0.00000000
0.56386557 0.05737332 0.00000000
0.60381421 0.05623905 0.00000000
0.63875367 0.04983030 0.00000000
0.67741551 0.05013468 0.00000000
0.70663015 0.04212895 0.00000000
0.74820574 0.03131678 0.00000000
0.77843215 0.01325396 0.00000000
0.81915192 0.01514601 0.00000000
0.84366119 0.00471939 0.00000000
0.85161966 0.00000000 0.00000000
0.86258059 0.00000000 0.00000000
0.87169019 0.00000000 0.00000000
0.86456712 0.00000000 0.00000000
0.93721601 0.01416596 0.00000000
0.99360372 0.00733036 0.00000000
0.99997111 0.04559104 0.00000000
0.99997111 0.10597571 0.00000000
0.03730966 0.11507563 0.01837840
0.04348448 0.11507189 0.01864491
0.05075557 0.11528402 0.01918305
0.06279815 0.11623830 0.01895319
0.08024124 0.11828344 0.01892437
0.10277723 0.12071664 0.01786043
0.13291972 0.12477366 0.01149515
0.16588407 0.12561387 0.01384211
0.20465120 0.12270796 0.02996694
0.24626052 0.11908592 0.03410386
0.28651244 0.11571439 0.02834698
0.32964387 0.11144451 0.02400567
0.37958650 0.10536569 0.01441494
0.42861214 0.09942944 0.00644945
0.47530999 0.09188857 0.00000000
0.52302351 0.08593421 0.00000000
0.56588047 0.07928079 0.00000000
0.60699875 0.07223084 0.00000000
0.64369005 0.06394632 0.00000000
0.68009419 0.05751460 0.00000000
0.71321913 0.05088739 0.00000000
0.75232771 0.04089232 0.00000000
0.78262992 0.02095242 0.00000000
0.82255101 0.02130712 0.00000000
0.84699093 0.00923686 0.00000000
0.85491789 0.00000000 0.00000000
0.86569621 0.00000000 0.00000000
0.87402310 0.00000000 0.00000000
0.86707318 0.00000000 0.00000000
0.93799989 0.01733877 0.00000000
0.99360408 0.01026040 0.00000000
0.99997111 0.04987381 0.00000000
0.99997111 0.10996984 0.00000000
0.04921913 0.14497343 0.02565108
0.05470580 0.14503293 0.02636770
0.06052924 0.14522500 0.02684725
0.06914486 0.14597349 0.02680537
0.08663807 0.14808721 0.02673225
0.10425890 0.15008834 0.02624759
0.13263739 0.15387601 0.01918364
0.16337256 0.15847415 0.01056540
0.20057068 0.15877248 0.02118671
0.24274072 0.15522658 0.04082566
0.28503989 0.15208293 0.04510235
0.32144871 0.15016682 0.04580057
0.36425368 0.14676177 0.04105556
0.41873255 0.14220729 0.02655763
0.46505697 0.13702764 0.01874170
0.52394629 0.12864010 0.00412265
0.56754209 0.11895057 0.00000000
0.61317991 0.10324549 0.00000000
0.65236375 0.09141792 0.00000000
0.68733933 0.07884686 0.00000000
0.71916213 0.06465054 0.00000000
0.75796017 0.05717546 0.00000000
0.78836929 0.03348528 0.00000000
0.82719725 0.03097322 0.00000000
0.85165335 0.01660530 0.00000000
0.85957880 0.00000000 0.00000000
0.86994673 0.00000000 0.00000000
0.87723238 0.00000000 0.00000000
0.87051183 0.00000000 0.00000000
0.93909747 0.02203101 0.00000000
0.99360458 0.01476335 0.00000000
0.99997111 0.05611176 0.00000000
0.99997111 0.11574842 0.00000000
0.06240758 0.17703434 0.03632581
0.06678804 0.17707819 0.03723680
0.07197683 0.17729499 0.03780754
0.07895576 0.17813189 0.03758624
0.08865416 0.17974301 0.03693787
0.10651217 0.18184700 0.03637861
0.13218033 0.18544077 0.03553109
0.16129445 0.19035884 0.02958401
0.19449255 0.19807837 0.01588644
0.23450635 0.19923262 0.01950693
0.28625022 0.19579763 0.03737438
0.33053196 0.19381132 0.05022833
0.36484675 0.19366014 0.06006166
0.41306093 0.19201096 0.05960651
0.45980658 0.18654837 0.04598650
0.51548405 0.17824813 0.03053567
0.57021449 0.16509488 0.00693346
0.62003924 0.15542428 0.00174085
0.66294457 0.14244302 0.00000000
0.69930474 0.11548101 0.00000000
0.73097001 0.09506371 0.00000000
0.76769458 0.07938947 0.00000000
0.79597135 0.05638520 0.00000000
0.83319239 0.04757325 0.00000000
0.85787096 0.02784869 0.00000000
0.86567798 0.00432581 0.00000000
0.87543155 0.00000000 0.00000000
0.88134357 0.00000000 0.00000000
0.87497746 0.00000000 0.00000000
0.94055128 0.02876785 0.00000000
0.99360525 0.02126485 0.00000000
0.99997111 0.06427746 0.00000000
0.99997111 0.12361653 0.00000000
0.07517924 0.20986782 0.04842941
0.07935106 0.21001976 0.04931274
0.08365543 0.21021078 0.04998419
0.09032303 0.21119344 0.04977915
0.09859408 0.21291149 0.04908998
0.10826971 0.21452169 0.04796497
0.13370941 0.21822964 0.04718517
0.16122108 0.22182024 0.04561366
0.19377960 0.22905692 0.03241318
0.22648309 0.23810597 0.01489024
0.27248374 0.24024882 0.02096425
0.33188835 0.23746405 0.03914131
0.37950219 0.23710397 0.05388519
0.42169614 0.24097253 0.07577777
0.46473235 0.24056756 0.07950234
0.51181693 0.24167363 0.08097417
0.56320653 0.23477788 0.06844250
0.60915666 0.22895315 0.05742805
0.65633474 0.21332535 0.04595458
0.71267269 0.18036018 0.00094008
0.74851703 0.15890015 0.00000000
0.77784642 0.12042483 0.00000000
0.80858314 0.09132820 0.00000000
0.84106998 0.07344842 0.00000000
0.86605585 0.04754517 0.00000000
0.87340906 0.01809023 0.00000000
0.88234254 0.00414094 0.00000000
0.88646108 0.00000000 0.00000000
0.88066835 0.00000000 0.00000000
0.94244240 0.03937558 0.00000000
0.99360614 0.03092260 0.00000000
0.99997111 0.07462023 0.00000000
0.99997111 0.13332104 0.00000000
0.08877579 0.24547590 0.06077795
0.09306689 0.24577759 0.06221176
0.09696683 0.24604654 0.06278762
0.10202242 0.24693340 0.06234153
0.10923874 0.24836728 0.06154197
0.11934336 0.25023855 0.06030303
0.13401589 0.25336638 0.05859697
0.16113127 0.25668607 0.05702999
0.19747711 0.26258459 0.05554381
0.23043644 0.27195190 0.04131012
0.26534881 0.28588523 0.01909127
0.31795635 0.29024846 0.02008890
0.38172644 0.28870262 0.03711711
0.43761062 0.29167361 0.05873561
0.47897700 0.29521569 0.08221383
0.52671637 0.29701320 0.09500698
0.56829976 0.29747979 0.10054396
0.60874147 0.29635857 0.10495908
0.64770267 0.29066573 0.09981431
0.68945839 0.27552935 0.07522036
0.72757686 0.25090678 0.05572077
0.79355923 0.19876175 0.00000000
0.82012840 0.14496497 0.00000000
0.84869578 0.10961566 0.00000000
0.87631438 0.07884380 0.00000000
0.88302557 0.04383595 0.00000000
0.89070341 0.01963843 0.00000000
0.89294306 0.01014560 0.00000000
0.88764161 0.00000000 0.00000000
0.94490183 0.05704898 0.00000000
0.99360731 0.04750622 0.00000000
0.99997111 0.08732410 0.00000000
0.99997111 0.14530327 0.00000000
0.10214244 0.28209849 0.07357599
0.10667968 0.28245025 0.07500503
0.11078182 0.28271707 0.07574119
0.11602068 0.28381617 0.07506654
0.12146162 0.28488662 0.07414226
0.13096886 0.28698117 0.07285783
0.14462773 0.29040960 0.07130453
0.16046011 0.29384221 0.06907641
0.19690500 0.30018294 0.06777311
0.23491364 0.30642810 0.06595811
0.27169269 0.31974487 0.04627479
0.30896998 0.33615582 0.01929335
0.36367164 0.34247365 0.02063527
0.43923164 0.34423044 0.03898338
0.49628698 0.34652138 0.06050870
0.54698807 0.34882260 0.08556244
0.59117127 0.35118302 0.09978461
0.62856073 0.35430767 0.12017175
0.67199622 0.35021138 0.11471706
0.70233595 0.34550361 0.11360950
0.74890237 0.32725228 0.08639411
0.75267401 0.32008747 0.06224117
0.78517659 0.29334193 0.03749816
0.85525650 0.23064888 0.00000000
0.88481253 0.12497918 0.00000000
0.89451245 0.08922211 0.00000000
0.90157628 0.05035157 0.00000000
0.90152045 0.03419494 0.00000000
0.89650442 0.00000000 0.00000000
0.94816401 0.08031394 0.00000000
0.99360886 0.07339814 0.00000000
0.99997111 0.10487213 0.00000000
0.99997111 0.16132874 0.00000000
0.11783363 0.32308027 0.08750929
0.12252901 0.32348363 0.08882059
0.12710807 0.32415719 0.08922700
0.13217590 0.32553436 0.08872764
0.13756047 0.32654002 0.08752857
0.14401200 0.32871692 0.08588425
0.15410357 0.33150314 0.08409000
0.17038123 0.33492395 0.08187231
0.20010161 0.34156300 0.08023017
0.23694070 0.34720097 0.07846400
0.28115417 0.35641652 0.07558218
0.31952002 0.37303755 0.05290520
0.35705531 0.39359444 0.02283302
0.42030399 0.40443422 0.02266213
0.49325068 0.40644924 0.03981907
0.55657063 0.40920018 0.06032452
0.60517714 0.41066447 0.08555261
0.64942920 0.41058189 0.10599705
0.68620929 0.41359872 0.12572452
0.71754083 0.41175068 0.14113476
0.74751367 0.40537844 0.14620210
0.77699655 0.40085110 0.13295090
0.81332881 0.37761564 0.09419734
0.79334255 0.36855466 0.03822607
0.88958609 0.30514352 0.00000000
0.90331903 0.18073046 0.00000000
0.91649714 0.10016332 0.00000000
0.91325101 0.08285273 0.00000000
0.90835800 0.02129251 0.00000000
0.95266655 0.11055724 0.00000000
0.99361092 0.10490297 0.00000000
0.99997111 0.13158703 0.00000000
0.99997111 0.18916215 0.00000000
0.13418617 0.36258747 0.10115501
0.13864314 0.36310484 0.10229844
0.14353182 0.36452723 0.10217357
0.14863001 0.36614306 0.10156699
0.15387821 0.36785316 0.10035857
0.16021805 0.37046114 0.09867755
0.16705982 0.37304252 0.09680411
0.18246902 0.37708325 0.09494644
0.21058749 0.38373964 0.09341729
0.23983722 0.39034599 0.09171465
0.28370442 0.40114618 0.08882872
0.33010743 0.41301515 0.08523359
0.36984877 0.43185631 0.06012627
0.41087514 0.45490099 0.02544950
0.47099546 0.46463173 0.02414373
0.55115865 0.46708664 0.03807262
0.61245826 0.46967685 0.05662161
0.66351539 0.46651493 0.07860739
0.70462630 0.46637190 0.09657341
0.74209206 0.46309152 0.11002946
0.77499742 0.45961134 0.11958601
0.80234499 0.45766872 0.13715347
0.82827414 0.44832085 0.12678201
0.81983048 0.46809257 0.15103980
0.84737079 0.44046594 0.09223816
0.70523274 0.41929897 0.08140110
0.92720750 0.20831603 0.00000000
0.92850224 0.15029164 0.00000000
0.92443551 0.07958278 0.00000000
0.95881212 0.15340069 0.00000000
0.99361364 0.15119557 0.00000000
0.99997111 0.16400374 0.00000000
0.99997111 0.22730307 0.00000000
0.15277451 0.41158689 0.11667508
0.15753996 0.41291247 0.11728587
0.16304797 0.41487721 0.11694697
0.16812813 0.41625424 0.11613399
0.17313008 0.41853653 0.11451515
0.17853640 0.42057666 0.11296297
0.18486490 0.42264783 0.11124327
0.19786560 0.42628345 0.10905774
0.22077418 0.43161483 0.10716697
0.24839027 0.43792660 0.10534227
0.28932677 0.44666780 0.10351281
0.33414623 0.45650273 0.10004892
0.38150635 0.47193866 0.09249929
0.42371148 0.49520808 0.06414867
0.46191609 0.51922498 0.02876620
0.52728976 0.52840838 0.02591669
0.60130570 0.52964487 0.03892643
0.66091898 0.52732605 0.05129135
0.70868597 0.52396197 0.07087351
0.75560735 0.52046234 0.08862731
0.79197141 0.51892814 0.09898881
0.82699291 0.51779330 0.12769688
0.85562354 0.51464838 0.13039618
0.88301895 0.51277287 0.11505706
0.90633923 0.49921630 0.08754685
0.84365988 0.55755533 0.13445440
0.58531660 0.54701062 0.10775383
0.94000252 0.29889426 0.00000000
0.94296396 0.16803233 0.00000000
0.96670182 0.22477312 0.00000000
0.99361725 0.22691655 0.00000000
0.99997111 0.22167292 0.00000000
0.99997111 0.29011015 0.00000000
0.17369583 0.45848881 0.13268414
0.17936233 0.46082650 0.13250728
0.18509769 0.46301539 0.13198397
0.19036974 0.46529546 0.13054482
0.19487385 0.46745461 0.12905174
0.19868912 0.46931359 0.12773732
0.20550477 0.47177823 0.12616751
0.21955531 0.47648946 0.12417024
0.23461259 0.48108848 0.12195294
0.25975326 0.48710328 0.12001034
0.29939746 0.49592246 0.11830858
0.33963339 0.50536070 0.11606771
0.38625919 0.52116440 0.10795688
0.43527466 0.53751482 0.09723679
0.47511045 0.55863041 0.06795531
0.51534646 0.57893379 0.03139373
0.57535873 0.58755161 0.02751490
0.64541082 0.58637541 0.03553546
0.70251419 0.58425334 0.04517158
0.75721635 0.57856322 0.06278117
0.79847108 0.57590290 0.07930599
0.83473823 0.57147442 0.08166702
0.86408627 0.57130373 0.09901190
0.89302569 0.55802242 0.09153567
0.92036492 0.55753729 0.07477332
0.94787999 0.57101805 0.05166853
0.96326686 0.55095783 0.00840172
0.90192482 0.60243527 0.04884106
0.95750657 0.37680337 0.00000000
0.97558111 0.34645960 0.00000000
0.99362202 0.35807138 0.00000000
0.99997111 0.31722953 0.00000000
0.99997111 0.37541150 0.00000000
0.19742727 0.51548160 0.14879110
0.20306727 0.51781019 0.14835477
0.20771814 0.51996477 0.14708902
0.21212697 0.52199718 0.14573979
0.21590395 0.52370015 0.14447648
0.21944146 0.52517881 0.14327407
0.22512555 0.52711160 0.14155335
0.23664432 0.53063476 0.13975616
0.25048709 0.53476186 0.13784122
0.27296978 0.53961353 0.13571139
0.30822763 0.54691240 0.13389170
0.34534992 0.55469461 0.13198745
0.39464095 0.56331809 0.12939249
0.44189254 0.58018785 0.11899774
0.48446044 0.59746201 0.09962905
0.52367266 0.61839608 0.06692892
0.56226287 0.63713463 0.03314583
0.62066881 0.64055781 0.02811612
0.68840834 0.63867101 0.03437347
0.74212177 0.63594655 0.03929933
0.79291485 0.63176927 0.05180471
0.83845030 0.62635489 0.06377060
0.87642086 0.62382378 0.05482793
0.91250522 0.61253680 0.04026498
0.93714881 0.60439540 0.05202640
0.95405641 0.59307407 0.01255022
0.96629659 0.57915779 0.00000000
0.99721763 0.69400016 0.00000000
0.90600307 0.70473703 0.04564763
0.98384480 0.52335107 0.00000000
0.99362834 0.54973295 0.00000000
0.99997111 0.44705002 0.00000000
0.99997111 0.49246368 0.03239703
0.22271831 0.57177817 0.16505213
0.22683808 0.57393658 0.16354521
0.23041157 0.57575464 0.16229213
0.23366203 0.57737496 0.16115065
0.23776033 0.57901789 0.15991975
0.24223558 0.58071053 0.15869949
0.24756130 0.58271254 0.15730524
0.25422374 0.58494942 0.15559456
0.26674441 0.58827485 0.15385181
0.29166087 0.59220277 0.15188919
0.31862744 0.59669671 0.14960477
0.35212162 0.60392361 0.14774683
0.40193626 0.61246381 0.14649811
0.45028214 0.62197170 0.14357370
0.49128397 0.63928531 0.12298991
0.52955640 0.65766082 0.09656688
0.56763178 0.67471392 0.06433879
0.60653926 0.68796413 0.03476847
0.66465377 0.69180342 0.02943975
0.72241970 0.68992036 0.02865464
0.77621111 0.68675220 0.02810608
0.82750350 0.67862704 0.03995411
0.86644195 0.67374387 0.04545816
0.90231914 0.66472399 0.04174020
0.92718038 0.65980385 0.04416672
0.96325452 0.65927938 0.05311871
0.98582470 0.64604752 0.00398091
0.98695477 0.66434628 0.00000000
0.98323859 0.65915779 0.00000000
0.99528425 0.79249415 0.00000000
0.99363670 0.78603929 0.00000000
0.99997111 0.63355168 0.00000000
0.99997111 0.65995157 0.13925306
0.24392505 0.62671830 0.17912528
0.24714377 0.62825714 0.17803958
0.25003808 0.62935118 0.17680807
0.25278567 0.63009182 0.17542463
0.25683641 0.63155854 0.17434435
0.26061031 0.63292104 0.17336605
0.26500074 0.63446125 0.17225136
0.27066017 0.63634610 0.17084898
0.28379374 0.63788190 0.16884914
0.30505633 0.64134891 0.16697942
0.32895396 0.64575139 0.16461067
0.36058251 0.65056007 0.16226540
0.40747789 0.65749354 0.16085968
0.45401301 0.66507665 0.15939350
0.50641171 0.67417419 0.15480484
0.54327506 0.69151219 0.12887267
0.57367941 0.70958829 0.09640638
0.60832390 0.72391963 0.06311519
0.64754558 0.73621256 0.03418062
0.69890449 0.73711490 0.02906368
0.75761358 0.73440581 0.02654127
0.80859237 0.72981949 0.02447714
0.85451889 0.72331429 0.03021083
0.89823800 0.71641152 0.03503668
0.92914707 0.70861736 0.01856921
0.96807966 0.70930080 0.00656806
0.98943772 0.70389618 0.01457492
0.99586285 0.75654168 0.00000000
0.99707518 0.76840810 0.00000000
0.99774115 0.75304892 0.00000000
0.99076821 0.85782909 0.00000000
0.99997111 0.83079006 0.00596276
0.99997111 0.82755675 0.34712483
0.26271831 0.67789561 0.19256254
0.26508868 0.67858735 0.19116882
0.26723159 0.67922228 0.18989821
0.26920501 0.67980250 0.18871862
0.27180941 0.68063422 0.18767704
0.27510790 0.68176184 0.18676812
0.28079657 0.68282750 0.18558228
0.29064613 0.68388315 0.18388508
0.30225688 0.68519749 0.18175210
0.31560407 0.68668932 0.17929020
0.33600662 0.69013447 0.17727399
0.37246055 0.69359467 0.17562903
0.41342263 0.69781008 0.17372299
0.45598451 0.70455582 0.17214888
0.51030053 0.71236250 0.17120434
0.56134429 0.72187820 0.16594158
0.58860755 0.74043805 0.13120484
0.61077192 0.76077990 0.09001862
0.64637071 0.77394007 0.05600357
0.68477704 0.77981314 0.03373665
0.73493320 0.78017206 0.02562001
0.78594849 0.77778960 0.02289542
0.83258838 0.77275400 0.01767000
0.88029545 0.77032532 0.02380049
0.91249868 0.76632969 0.02231139
0.94529406 0.76612382 0.00394802
0.93124883 0.76550321 0.00000000
0.99878931 0.79328794 0.00000000
0.99997111 0.80036578 0.00000000
0.99997111 0.80886119 0.00000000
0.99997111 0.82411439 0.00000000
0.99997111 0.80120638 0.00000000
0.99997111 0.95987685 0.69368530
0.27988122 0.72190030 0.20360156
0.28164306 0.72239684 0.20270830
0.28325076 0.72284700 0.20188045
0.28624170 0.72329376 0.20100737
0.28973495 0.72370979 0.20014192
0.29449839 0.72428220 0.19930070
0.30082348 0.72499843 0.19824785
0.30900901 0.72595115 0.19686866
0.31865978 0.72708780 0.19518922
0.32971943 0.72843837 0.19316559
0.35213996 0.73106695 0.19142818
0.38496214 0.73495744 0.18997865
0.42123182 0.73932001 0.18825772
0.46235415 0.74480951 0.18662780
0.51540045 0.75245381 0.18563579
0.56686901 0.76036038 0.18424471
0.61239500 0.77028209 0.17322680
0.63388106 0.78969566 0.13575641
0.65279674 0.80925601 0.08976755
0.68538791 0.81767507 0.05830780
0.72345820 0.82389227 0.03092556
0.76747055 0.82436957 0.02474615
0.81583748 0.82047215 0.01400541
0.85718850 0.82072091 0.00677038
0.89694115 0.81564838 0.00604122
0.93356691 0.81417474 0.00075968
0.93472821 0.81068713 0.00000000
0.99578069 0.84866794 0.00000000
0.99988536 0.85864249 0.00000000
0.99997111 0.83919928 0.00000000
0.99997111 0.83794922 0.00000000
0.99997111 0.83663279 0.00000000
0.99997111 0.84015809 0.00000000
0.29780476 0.76147401 0.21195043
0.30088855 0.76184025 0.21106456
0.30370455 0.76216710 0.21019024
0.30630911 0.76247625 0.20935233
0.30920662 0.76276948 0.20856531
0.31188265 0.76304831 0.20780848
0.31627284 0.76355165 0.20691348
0.32281649 0.76430135 0.20575293
0.33195713 0.76542649 0.20444609
0.35086327 0.76794252 0.20329816
0.37266801 0.77086682 0.20189402
0.39825724 0.77403697 0.20019407
0.43058490 0.77778940 0.19855137
0.47435669 0.78270371 0.19743470
0.52392346 0.78933077 0.19667670
0.57325857 0.79680135 0.19542405
0.61884185 0.80446390 0.18910288
0.66233441 0.81398211 0.17760669
0.67845013 0.83336400 0.13820615
0.68681023 0.85146337 0.08480297
0.71968776 0.86001587 0.05163497
0.75519977 0.86459828 0.02850048
0.79933912 0.86424067 0.01586831
0.83452890 0.86862992 0.00051839
0.87104716 0.86823945 0.00000000
0.89658869 0.87553153 0.00000000
0.91729128 0.88069908 0.00000000
