luts/hamburger_filmlike/kodak5219.cube
TITLE "Custom LUT"
LUT_3D_SIZE 5
# S-Log3/Sony S-Gamut3.cine (Venice) -> LA - FUJI_LUT/LA - FUJI_LUT, CineEI Shift 0.00, Black Level 3.29% IRE, Input 109% -> Output 100% - Created with LUTCalc v4.03 by Ben Turley January 2022
0.00033044 0.00000000 0.00000000
0.22940377 0.00696679 0.00000000
0.55819171 0.02556288 0.00396670
0.83024676 0.00000000 0.00000000
0.99997111 0.09157680 0.00000000
0.06240758 0.17703434 0.03632581
0.19449255 0.19807837 0.01588644
0.57021449 0.16509488 0.00693346
0.85787096 0.02784869 0.00000000
0.99997111 0.12361653 0.00000000
0.19742727 0.51548160 0.14879110
0.25048709 0.53476186 0.13784122
0.56226287 0.63713463 0.03314583
0.93714881 0.60439540 0.05202640
0.99997111 0.49246368 0.03239703
0.39078236 0.87227296 0.22987168
0.42712116 0.87658242 0.22704189
0.64935883 0.90406908 0.22066831
0.81867310 0.97090193 0.00000000
0.99997111 0.99654353 0.00000000
0.80302868 0.99997111 0.32790968
0.80703205 0.99997111 0.32486755
0.83507011 0.99997111 0.31058220
0.83562850 0.99997111 0.19255167
0.85485446 0.99997111 0.00000000
0.00000000 0.00210186 0.17341453
0.17802674 0.01546514 0.17481572
0.56938974 0.03952736 0.14134315
0.81951101 0.00000000 0.00000000
0.99997111 0.07352785 0.00000000
0.06970953 0.18082065 0.18818873
0.17603621 0.17542592 0.18469435
0.58672822 0.15674283 0.14255816
0.84758232 0.02763835 0.00000000
0.99997111 0.10202492 0.00000000
0.20910956 0.52099959 0.26184213
0.26086790 0.51906842 0.25238409
0.58430673 0.62213544 0.15319368
0.93439335 0.60373208 0.10731096
0.99997111 0.45593132 0.02193400
0.38650546 0.86357046 0.25782415
0.42145852 0.86788455 0.25494180
0.64111826 0.89578977 0.25036034
0.82691655 0.96270940 0.01071125
0.99997111 0.99584347 0.00000000
0.80102601 0.99997111 0.34679599
0.80501154 0.99997111 0.34409924
0.83302779 0.99997111 0.33192223
0.84373917 0.99997111 0.21717995
0.86025693 0.99997111 0.00000000
0.01756660 0.04488092 0.50125375
0.20482604 0.05450295 0.50122867
0.56134586 0.09918175 0.55936215
0.83717581 0.02945144 0.61339664
0.99997111 0.00000000 0.00000000
0.03040839 0.10109439 0.50524604
0.18761506 0.08656891 0.49886617
0.55542556 0.12594981 0.55360207
0.84974458 0.07192643 0.58649608
0.99997111 0.00000000 0.00000000
0.19609825 0.58247254 0.60857604
0.23551232 0.58617266 0.61434376
0.53403108 0.57627599 0.61104803
0.92171099 0.52584961 0.51607793
0.99997111 0.20112536 0.00000000
0.32196941 0.87369153 0.62657987
0.35017000 0.87000137 0.61821328
0.54067856 0.87451096 0.58625049
0.88740866 0.91940070 0.46388765
0.99997111 0.98278122 0.00000000
0.78499596 0.99997111 0.52069373
0.78889019 0.99997111 0.52053622
0.81644461 0.99997111 0.51920918
0.90071100 0.99997111 0.45317121
0.89710756 0.99997111 0.03120854
0.39518262 0.00000000 0.75734971
0.63654750 0.00000000 0.70850251
0.55294782 0.00000000 0.81827032
0.79883380 0.00000000 0.84474905
0.99370027 0.06651154 0.84727498
0.35837227 0.00000000 0.78110762
0.57053333 0.00000000 0.74453363
0.55226032 0.00540341 0.82758439
0.80420831 0.00000000 0.85058841
0.99370199 0.07760999 0.84873964
0.18566444 0.50173695 0.90984518
0.22004850 0.48625442 0.91176686
0.53027465 0.45492515 0.90080714
0.84361465 0.35010155 0.89241576
0.99371545 0.16939937 0.86021511
0.27522802 0.91780163 0.95150617
0.30138605 0.91739733 0.95101429
0.44698232 0.91554303 0.94940751
0.85225077 0.89989096 0.94261669
0.99997111 0.87451394 0.88959334
0.69221387 0.99997111 0.91806831
0.69680958 0.99997111 0.91786253
0.73312891 0.99997111 0.91675151
0.87349188 0.99997111 0.91488921
0.99947086 0.99997111 0.86135754
0.78643223 0.23446737 0.99997111
0.80772697 0.24434023 0.99997111
0.84445073 0.24447563 0.99997111
0.88822948 0.14265270 0.99997111
0.99518656 0.21216150 0.99997111
0.78686935 0.24592601 0.99997111
0.80689830 0.25148441 0.99997111
0.84340407 0.25161901 0.99997111
0.88826528 0.14804171 0.99997111
0.99518721 0.21750230 0.99997111
0.78277096 0.31791716 0.99997111
0.79964234 0.31780960 0.99997111
0.83493138 0.31789497 0.99997111
0.88854556 0.20365989 0.99997111
0.99519227 0.26340411 0.99997111
0.69455737 0.86746674 0.99997111
0.70169653 0.86855459 0.99997111
0.72942689 0.87152672 0.99997111
0.88411845 0.86299954 0.99997111
0.99523994 0.78908821 0.99997111
0.78554582 0.99997111 0.99997111
0.78795754 0.99997111 0.99997111
0.80148848 0.99997111 0.99997111
0.87241826 0.99997111 0.99997111
0.99443604 0.99997111 0.99997111
