luts/varicam_official/Agressive 709 33 E-E.cube
TITLE "Generated by Resolve"
LUT_3D_SIZE 5
0.0759442 0.0759442 0.0759442
0.0933547 0.0707561 0.0726329
0.360067 0.062562 0.062562
0.918868 0.062562 0.062562
0.918868 0.062562 0.062562
0.0722057 0.0986648 0.0797284
0.0944228 0.0942092 0.0759594
0.386526 0.0626383 0.062562
0.918868 0.062562 0.062562
0.918868 0.062562 0.062562
0.062562 0.455207 0.145006
0.0651408 0.46273 0.14287
0.387655 0.385992 0.0879072
0.918868 0.230793 0.062562
0.918868 0.282292 0.062562
0.062562 0.918868 0.290822
0.062562 0.918868 0.283375
0.393668 0.918868 0.210605
0.918868 0.900938 0.120394
0.918868 0.901259 0.137026
0.062562 0.918868 0.330755
0.0872663 0.918868 0.319081
0.567102 0.918868 0.237156
0.918868 0.902327 0.186862
0.918868 0.902953 0.213779
0.075761 0.0761273 0.0903182
0.0936294 0.0709544 0.0876173
0.362325 0.062562 0.0628977
0.918868 0.062562 0.062562
0.918868 0.062562 0.062562
0.0718547 0.0999466 0.0978714
0.0948806 0.0952316 0.0955215
0.391043 0.0626535 0.0635538
0.918868 0.062562 0.062562
0.918868 0.062562 0.062562
0.062562 0.461997 0.172915
0.0649577 0.469932 0.172259
0.39295 0.392172 0.117525
0.918868 0.239506 0.062562
0.918868 0.292027 0.0638285
0.062562 0.918868 0.329686
0.062562 0.918868 0.325093
0.40177 0.918868 0.255421
0.918868 0.902022 0.17377
0.918868 0.902571 0.197787
0.062562 0.918868 0.39559
0.0898604 0.918868 0.388785
0.575525 0.918868 0.310552
0.918868 0.904311 0.269276
0.918868 0.90515 0.305165
0.0735027 0.0813916 0.320378
0.0932021 0.0756085 0.318502
0.365545 0.062562 0.275151
0.918868 0.062562 0.159396
0.918868 0.062562 0.189868
0.0692912 0.10753 0.34165
0.094316 0.102602 0.346548
0.395819 0.0628672 0.304799
0.918868 0.062562 0.20177
0.918868 0.062562 0.239155
0.062562 0.477333 0.45153
0.0645609 0.486275 0.462776
0.398245 0.406775 0.419333
0.918868 0.257374 0.335622
0.918868 0.312062 0.385458
0.062562 0.918868 0.665675
0.062562 0.918868 0.67425
0.409659 0.918868 0.616007
0.918868 0.910674 0.552254
0.918868 0.911589 0.594644
0.062562 0.918868 0.790814
0.0923476 0.918868 0.792935
0.5832 0.918868 0.723445
0.918868 0.913817 0.691051
0.918868 0.914717 0.728496
0.0680705 0.0946822 0.909316
0.0907607 0.0880293 0.905547
0.370932 0.062562 0.854429
0.918868 0.062562 0.725338
0.918868 0.062562 0.726696
0.0639048 0.124651 0.915099
0.0922866 0.118624 0.91313
0.402838 0.0627909 0.857954
0.918868 0.062562 0.733455
0.918868 0.062562 0.736019
0.062562 0.504616 0.918868
0.0645304 0.512871 0.918868
0.406195 0.430442 0.9122
0.918868 0.285786 0.810147
0.918868 0.340246 0.819577
0.062562 0.918868 0.918868
0.062562 0.918868 0.918868
0.423316 0.918868 0.918868
0.918868 0.918868 0.918868
0.918868 0.918868 0.918868
0.062562 0.918868 0.918868
0.0986954 0.918868 0.918868
0.597757 0.918868 0.918868
0.918868 0.918868 0.918868
0.918868 0.918868 0.918868
0.0679942 0.0949721 0.917815
0.0960098 0.0871748 0.912779
0.385702 0.062562 0.859251
0.918868 0.062562 0.729168
0.918868 0.062562 0.729198
0.0666209 0.13022 0.918776
0.0971847 0.123507 0.916884
0.42153 0.062562 0.858259
0.918868 0.062562 0.735576
0.918868 0.062562 0.738338
0.062562 0.525826 0.918868
0.0665599 0.533944 0.918868
0.424186 0.447745 0.913436
0.918868 0.310445 0.814588
0.918868 0.365164 0.82385
0.062562 0.918868 0.918868
0.062562 0.918868 0.918868
0.446525 0.918868 0.918868
0.918868 0.918868 0.918868
0.918868 0.918868 0.918868
0.062562 0.918868 0.918868
0.111864 0.918868 0.918868
0.620264 0.918868 0.918868
0.918868 0.918868 0.918868
0.918868 0.918868 0.918868
