luts/varicam_official/Agressive 709 33 E-E.cube
TITLE "Generated by Resolve"
LUT_3D_SIZE 33
0.0759442 0.0759442 0.0759442
0.0759442 0.0759442 0.0759442
0.0759442 0.0759442 0.0759442
0.0759442 0.0759442 0.0759442
0.0759442 0.0759442 0.0759442
0.0775006 0.0754711 0.075639
0.081239 0.0743572 0.0749371
0.0864576 0.0727855 0.0739452
0.0933547 0.0707561 0.0726329
0.102937 0.0681468 0.0708019
0.115877 0.0649729 0.0683604
0.132769 0.062562 0.0658122
0.157748 0.062562 0.0637522
0.189868 0.062562 0.062562
0.232868 0.062562 0.062562
0.289662 0.062562 0.062562
0.360067 0.062562 0.062562
0.444678 0.062562 0.062562
0.542062 0.062562 0.062562
0.650111 0.062562 0.062562
0.762707 0.062562 0.062562
0.860685 0.062562 0.062562
0.907561 0.062562 0.062562
0.917449 0.062562 0.062562
0.918868 0.062562 0.062562
0.918868 0.062562 0.062562
0.918868 0.062562 0.062562
0.918868 0.062562 0.062562
0.918868 0.062562 0.062562
0.918868 0.062562 0.062562
0.918868 0.062562 0.062562
0.918868 0.062562 0.062562
0.918868 0.062562 0.062562
0.0759442 0.0759442 0.0759442
0.0759442 0.0759442 0.0759442
0.0759442 0.0759442 0.0759442
0.0759442 0.0759442 0.0759442
0.0761883 0.0758679 0.0758984
0.0780652 0.0753033 0.0755474
0.0819409 0.0741436 0.074815
0.0872969 0.0725414 0.0737926
0.094377 0.0704662 0.0724346
0.104326 0.0678111 0.0705425
0.11751 0.0646525 0.0680858
0.13521 0.062562 0.0655833
0.160678 0.062562 0.0635843
0.193652 0.062562 0.062562
0.237842 0.062562 0.062562
0.296056 0.062562 0.062562
0.367636 0.062562 0.062562
0.453132 0.062562 0.062562
0.551766 0.062562 0.062562
0.660243 0.062562 0.062562
0.772335 0.062562 0.062562
0.866041 0.062562 0.062562
0.908568 0.062562 0.062562
0.917708 0.062562 0.062562
0.918868 0.062562 0.062562
0.918868 0.062562 0.062562
0.918868 0.062562 0.062562
0.918868 0.062562 0.062562
0.918868 0.062562 0.062562
0.918868 0.062562 0.062562
0.918868 0.062562 0.062562
0.918868 0.062562 0.062562
0.918868 0.062562 0.062562
0.0759442 0.0759442 0.0759442
0.0759442 0.0759442 0.0759442
0.0759442 0.0759442 0.0759442
0.0759442 0.0759442 0.0759442
0.076463 0.0757916 0.0758373
0.0785534 0.0751659 0.0754559
0.0824598 0.073991 0.0747082
0.0878309 0.0723888 0.0736858
0.0950332 0.0702831 0.0723125
0.10515 0.0675975 0.0703899
0.118563 0.0645304 0.0679179
0.13669 0.0627298 0.0654612
0.162417 0.0628367 0.063508
0.195972 0.0627146 0.062562
0.240681 0.062562 0.062562
0.29984 0.062562 0.062562
0.372213 0.062562 0.062562
0.458732 0.062562 0.062562
0.557778 0.062562 0.062562
0.66656 0.062562 0.062562
0.778851 0.062562 0.062562
0.869322 0.062562 0.062562
0.909087 0.062562 0.062562
0.917906 0.062562 0.062562
0.918868 0.062562 0.062562
0.918868 0.062562 0.062562
0.918868 0.062562 0.062562
0.918868 0.062562 0.062562
0.918868 0.062562 0.062562
0.918868 0.062562 0.062562
0.918868 0.062562 0.062562
0.918868 0.062562 0.062562
0.918868 0.062562 0.062562
0.0759442 0.0759442 0.0759442
0.0759442 0.0759442 0.0759442
0.0759442 0.0759442 0.0759442
0.0759442 0.0759442 0.0759442
0.0766003 0.0757458 0.0758221
0.0788128 0.0750896 0.0753948
0.0826886 0.0739757 0.0746777
0.0880598 0.0725261 0.0736858
0.0953231 0.0706035 0.0723125
0.105562 0.068101 0.0703899
0.11902 0.0652628 0.0679789
0.137346 0.0635691 0.065507
0.163348 0.0634165 0.063508
0.197177 0.0629587 0.062562
0.24242 0.0625772 0.062562
0.301762 0.062562 0.062562
0.374929 0.062562 0.062562
0.461906 0.062562 0.062562
0.561593 0.062562 0.062562
0.670604 0.062562 0.062562
0.782834 0.062562 0.062562
0.871489 0.062562 0.062562
0.909499 0.062562 0.062562
0.918029 0.062562 0.062562
0.918868 0.062562 0.062562
0.918868 0.062562 0.062562
0.918868 0.062562 0.062562
0.918868 0.062562 0.062562
0.918868 0.062562 0.062562
0.918868 0.062562 0.062562
0.918868 0.062562 0.062562
0.918868 0.062562 0.062562
0.918868 0.062562 0.062562
0.0758526 0.0764477 0.0760204
0.0758373 0.0766003 0.076051
0.0758221 0.0766918 0.0760662
0.0758068 0.0767376 0.0760662
0.0765698 0.076524 0.0759289
0.0788281 0.0758984 0.0755169
0.0827192 0.074876 0.0747997
0.0880751 0.0734722 0.0738079
0.0953689 0.0716564 0.0724651
0.105669 0.0692454 0.0705577
0.119173 0.0665141 0.0681468
0.137697 0.0646677 0.0656138
0.163836 0.0640726 0.0635233
0.197833 0.0632181 0.0625772
0.243503 0.0625772 0.062562
0.303426 0.062562 0.062562
0.376669 0.062562 0.062562
0.464286 0.062562 0.062562
0.564248 0.062562 0.062562
0.673365 0.062562 0.062562
0.785946 0.062562 0.062562
0.873014 0.062562 0.062562
0.909804 0.062562 0.062562
0.918105 0.062562 0.062562
0.918868 0.062562 0.062562
0.918868 0.062562 0.062562
0.918868 0.062562 0.062562
0.918868 0.062562 0.062562
0.918868 0.062562 0.062562
0.918868 0.062562 0.062562
0.918868 0.062562 0.062562
0.918868 0.062562 0.062562
0.918868 0.062562 0.062562
0.0754711 0.0788128 0.0764172
0.0754253 0.0791333 0.076463
0.0753948 0.0792859 0.0764935
0.0755169 0.0793317 0.0764782
0.0763867 0.0791028 0.0763256
0.0786603 0.0785229 0.0759136
0.0825513 0.0775311 0.0751965
0.0879377 0.076112 0.0742199
0.0952926 0.0742657 0.0728618
0.105653 0.0717937 0.0709392
0.11931 0.068925 0.068513
0.137926 0.0667124 0.0658732
0.164309 0.0652781 0.0635843
0.198688 0.0636454 0.0625925
0.244419 0.062562 0.062562
0.304936 0.062562 0.062562
0.378882 0.062562 0.062562
0.466438 0.062562 0.062562
0.567025 0.062562 0.062562
0.676539 0.062562 0.062562
0.788632 0.062562 0.062562
0.874357 0.062562 0.062562
0.910079 0.062562 0.062562
0.918196 0.062562 0.062562
0.918868 0.062562 0.062562
0.918868 0.062562 0.062562
0.918868 0.062562 0.062562
0.918868 0.062562 0.062562
0.918868 0.062562 0.062562
0.918868 0.062562 0.062562
0.918868 0.062562 0.062562
0.918868 0.062562 0.062562
0.918868 0.062562 0.062562
0.0747082 0.0834363 0.0771801
0.0746471 0.0837568 0.0772259
0.0746166 0.0839399 0.0772564
0.0750896 0.0838941 0.0771954
0.0760967 0.0836805 0.0770123
0.0783551 0.0831159 0.0766003
0.0822766 0.0820935 0.0758984
0.0876783 0.080705 0.0749218
0.0951095 0.0788434 0.073579
0.105592 0.0762493 0.0716259
0.119387 0.073167 0.0691539
0.138277 0.0701762 0.0662699
0.164858 0.0673381 0.0636759
0.199634 0.0643626 0.0625925
0.245838 0.062562 0.062562
0.306645 0.062562 0.062562
0.380972 0.062562 0.062562
0.469215 0.062562 0.062562
0.570169 0.062562 0.062562
0.679606 0.062562 0.062562
0.791959 0.062562 0.062562
0.875944 0.062562 0.062562
0.910338 0.062562 0.062562
0.918334 0.062562 0.062562
0.918868 0.062562 0.062562
0.918868 0.062562 0.062562
0.918868 0.062562 0.062562
0.918868 0.062562 0.062562
0.918868 0.062562 0.062562
0.918868 0.062562 0.062562
0.918868 0.062562 0.062562
0.918868 0.062562 0.062562
0.918868 0.062562 0.062562
0.07364 0.0898604 0.0782483
0.0735943 0.0901808 0.078294
0.0737774 0.0903334 0.078294
0.0745861 0.0902113 0.0781567
0.0757305 0.0899825 0.0779583
0.0779736 0.0894484 0.0775616
0.0818799 0.0884413 0.0768749
0.0872969 0.0870832 0.0759136
0.0948806 0.0851759 0.0745556
0.10547 0.0824292 0.0725872
0.11957 0.0789654 0.0700236
0.138796 0.0747539 0.0667735
0.165652 0.0699931 0.0637675
0.201114 0.0652476 0.062623
0.247684 0.062562 0.062562
0.308522 0.0625772 0.062562
0.383673 0.062562 0.062562
0.472343 0.062562 0.062562
0.57351 0.062562 0.062562
0.682933 0.062562 0.062562
0.79498 0.062562 0.062562
0.877394 0.062562 0.062562
0.910536 0.062562 0.062562
0.918547 0.062562 0.062562
0.918868 0.062562 0.062562
0.918868 0.062562 0.062562
0.918868 0.062562 0.062562
0.918868 0.062562 0.062562
0.918868 0.062562 0.062562
0.918868 0.062562 0.062562
0.918868 0.062562 0.062562
0.918868 0.062562 0.062562
0.918868 0.062562 0.062562
0.0722057 0.0986648 0.0797284
0.0721141 0.0991836 0.0798047
0.0728618 0.0992447 0.0797131
0.0739605 0.0990921 0.0795453
0.0751507 0.0988632 0.0793469
0.077409 0.0983902 0.0789502
0.0812848 0.0974899 0.0782788
0.0867018 0.0961471 0.0773327
0.0944228 0.0942092 0.0759594
0.10518 0.091371 0.0739757
0.119509 0.0876326 0.0713359
0.139071 0.082536 0.0677958
0.166339 0.0762646 0.0644236
0.202319 0.0698863 0.0629282
0.249256 0.0650187 0.062562
0.310658 0.0630961 0.062562
0.386526 0.0626383 0.062562
0.476051 0.062562 0.062562
0.57734 0.062562 0.062562
0.686809 0.062562 0.062562
0.798596 0.062562 0.062562
0.878752 0.062562 0.062562
0.910628 0.062562 0.062562
0.918761 0.062562 0.062562
0.918868 0.062562 0.062562
0.918868 0.062562 0.062562
0.918868 0.062562 0.062562
0.918868 0.062562 0.062562
0.918868 0.062562 0.062562
0.918868 0.062562 0.062562
0.918868 0.062562 0.062562
0.918868 0.062562 0.062562
0.918868 0.062562 0.062562
0.0701915 0.111131 0.0818647
0.0700847 0.111788 0.0819867
0.0715496 0.111757 0.0817731
0.0729839 0.111543 0.0815442
0.0741741 0.11136 0.0813458
0.0764172 0.110872 0.0809644
0.080293 0.110018 0.080293
0.0856641 0.108736 0.0793317
0.0935378 0.106859 0.0779431
0.10457 0.104036 0.0759442
0.119066 0.100206 0.0732891
0.13904 0.0949721 0.0696574
0.166629 0.0880446 0.0659648
0.203616 0.0797894 0.0635996
0.251164 0.0705272 0.062562
0.312856 0.0640421 0.062562
0.389471 0.0627604 0.062562
0.479545 0.062562 0.062562
0.581094 0.062562 0.062562
0.691096 0.062562 0.062562
0.802365 0.062562 0.062562
0.880034 0.062562 0.062562
0.910552 0.062562 0.062562
0.918868 0.062562 0.062562
0.918868 0.062562 0.062562
0.918868 0.062562 0.062562
0.918868 0.062562 0.062562
0.918868 0.062562 0.062562
0.918868 0.062562 0.062562
0.918868 0.062562 0.062562
0.918868 0.062562 0.062562
0.918868 0.062562 0.062562
0.918868 0.062562 0.062562
0.067689 0.128176 0.0848249
0.0679332 0.128862 0.0849012
0.0699931 0.128817 0.084596
0.0716564 0.128634 0.0843214
0.0728161 0.128527 0.0841382
0.0750134 0.128161 0.083772
0.0787976 0.127352 0.0831006
0.0841077 0.126146 0.0821393
0.0921492 0.1243 0.080705
0.103334 0.121538 0.0787213
0.118212 0.117754 0.076051
0.138628 0.112505 0.0723583
0.166613 0.105104 0.0682078
0.204578 0.0950484 0.0646525
0.252674 0.082414 0.0627756
0.315068 0.071458 0.062562
0.392493 0.066331 0.062562
0.48278 0.0633097 0.062562
0.585 0.062562 0.062562
0.694835 0.062562 0.062562
0.805722 0.062562 0.062562
0.881102 0.062562 0.062562
0.910277 0.062562 0.062562
0.918868 0.062562 0.062562
0.918868 0.062562 0.062562
0.918868 0.062562 0.062562
0.918868 0.062562 0.062562
0.918868 0.062562 0.062562
0.918868 0.062562 0.062562
0.918868 0.062562 0.062562
0.918868 0.062562 0.062562
0.918868 0.062562 0.062562
0.918868 0.062562 0.062562
0.0649577 0.151553 0.0888533
0.0660868 0.152209 0.088777
0.0684062 0.152209 0.088426
0.0700084 0.152163 0.0881666
0.0710918 0.152102 0.0879835
0.0731365 0.151827 0.0876326
0.0767071 0.15111 0.0869612
0.0819104 0.150011 0.0859998
0.090013 0.148226 0.0845655
0.101259 0.145586 0.0825818
0.116503 0.141817 0.079881
0.137407 0.136599 0.0761273
0.165743 0.129427 0.0714427
0.204746 0.119158 0.0666667
0.253895 0.105928 0.0636759
0.316777 0.0912642 0.0626993
0.394583 0.0776226 0.0625772
0.485832 0.0679789 0.062562
0.588418 0.0642557 0.062562
0.698024 0.0628977 0.062562
0.80853 0.062562 0.062562
0.881865 0.062562 0.062562
0.909789 0.062562 0.062562
0.918868 0.062562 0.062562
0.918868 0.062562 0.062562
0.918868 0.062562 0.062562
0.918868 0.062562 0.062562
0.918868 0.062562 0.062562
0.918868 0.062562 0.062562
0.918868 0.062562 0.062562
0.918868 0.062562 0.062562
0.918868 0.062562 0.062562
0.918868 0.062562 0.062562
0.0628672 0.183978 0.0944076
0.0647135 0.184848 0.0942092
0.0669413 0.18497 0.0938125
0.0682841 0.185122 0.0935836
0.0691539 0.185351 0.0934615
0.0707866 0.185275 0.0931258
0.0736858 0.184649 0.0924849
0.0785077 0.183551 0.0915084
0.0866407 0.181842 0.0901045
0.0978714 0.179461 0.0882734
0.113512 0.175692 0.0856336
0.135271 0.170352 0.0818952
0.164126 0.163256 0.0769513
0.203998 0.153017 0.0710765
0.254459 0.139544 0.0660868
0.317891 0.122621 0.0632486
0.395956 0.102861 0.062623
0.487907 0.0850996 0.062562
0.590784 0.0716716 0.062562
0.700374 0.0640116 0.062562
0.810712 0.0626535 0.062562
0.881773 0.0626535 0.062562
0.909178 0.062562 0.062562
0.918868 0.062562 0.062562
0.918868 0.062562 0.062562
0.918868 0.062562 0.062562
0.918868 0.062562 0.062562
0.918868 0.062562 0.062562
0.918868 0.062562 0.062562
0.918868 0.062562 0.062562
0.918868 0.062562 0.062562
0.918868 0.062562 0.062562
0.918868 0.062562 0.062562
0.0626841 0.229465 0.102403
0.064271 0.23032 0.102129
0.0657206 0.230884 0.101823
0.0664988 0.231235 0.101656
0.0670024 0.231647 0.101595
0.0679332 0.231739 0.101335
0.0695354 0.23154 0.100816
0.07364 0.230564 0.0999161
0.0817731 0.229038 0.0986343
0.0929122 0.226902 0.0969711
0.108827 0.22327 0.0944686
0.131411 0.218158 0.0908522
0.160967 0.211017 0.0859541
0.201358 0.200626 0.0793011
0.253315 0.187106 0.07187
0.317342 0.170153 0.0659037
0.39617 0.149065 0.0631571
0.488716 0.124956 0.0625925
0.592004 0.099794 0.062562
0.701961 0.081239 0.062562
0.811261 0.0707866 0.062562
0.880705 0.0644083 0.062562
0.908492 0.062562 0.062562
0.918868 0.062562 0.062562
0.918868 0.062562 0.062562
0.918868 0.0630808 0.062562
0.918868 0.0639658 0.062562
0.918868 0.0648966 0.062562
0.918868 0.0657969 0.062562
0.918868 0.0666972 0.062562
0.918868 0.067689 0.062562
0.918868 0.0685435 0.062562
0.918868 0.0694591 0.062562
0.0628519 0.287755 0.113298
0.063386 0.289464 0.113252
0.0638743 0.290394 0.1131
0.0641031 0.29131 0.113069
0.0642557 0.291646 0.113024
0.0645304 0.292149 0.112902
0.0652781 0.291905 0.112428
0.0688945 0.291325 0.111635
0.0764019 0.289998 0.110384
0.086656 0.288121 0.108721
0.102617 0.284642 0.106126
0.125765 0.279713 0.102434
0.156115 0.272709 0.0974594
0.197147 0.262852 0.0905776
0.250217 0.249393 0.082002
0.315709 0.232471 0.0730907
0.395178 0.21149 0.0661479
0.487984 0.186984 0.0631266
0.591577 0.159884 0.062562
0.701167 0.133211 0.062562
0.807935 0.108293 0.062562
0.877272 0.0896315 0.062562
0.907774 0.0813458 0.062562
0.918868 0.0778363 0.062562
0.918868 0.0767834 0.062562
0.918868 0.0781262 0.062562
0.918868 0.0805066 0.062562
0.918868 0.0828717 0.062562
0.918868 0.0865187 0.062562
0.918868 0.0904402 0.062562
0.918868 0.0948196 0.062562
0.918868 0.09897 0.062562
0.918868 0.103243 0.062562
0.062562 0.362615 0.127596
0.062562 0.365148 0.127718
0.062562 0.366445 0.127611
0.062562 0.367285 0.127596
0.062562 0.368124 0.127642
0.062562 0.368887 0.127581
0.0631418 0.369085 0.127153
0.0657969 0.368338 0.126253
0.0705425 0.36759 0.125078
0.0787671 0.365866 0.123339
0.0944076 0.362539 0.120653
0.117723 0.357855 0.116945
0.149065 0.350744 0.111833
0.190661 0.341436 0.104952
0.24509 0.327977 0.0957351
0.311879 0.31078 0.0849165
0.392218 0.290272 0.0740978
0.485695 0.266133 0.0662547
0.589395 0.238956 0.0630808
0.698497 0.210498 0.062562
0.801816 0.182712 0.062562
0.87216 0.159991 0.062562
0.907057 0.144427 0.062562
0.918807 0.135439 0.062562
0.918868 0.13373 0.062562
0.918868 0.136339 0.062562
0.918868 0.140002 0.062562
0.918868 0.143282 0.062562
0.918868 0.149035 0.062562
0.918868 0.155428 0.062562
0.918868 0.162158 0.062562
0.918868 0.169467 0.062562
0.918868 0.176394 0.062562
0.062562 0.455207 0.145006
0.062562 0.458289 0.145235
0.062562 0.460044 0.145235
0.062562 0.461509 0.145312
0.062562 0.462593 0.145418
0.062562 0.463584 0.145388
0.0628977 0.463874 0.144961
0.0638285 0.463691 0.144106
0.0651408 0.46273 0.14287
0.0710155 0.460945 0.141024
0.0853437 0.458 0.138293
0.107515 0.453498 0.134524
0.13994 0.44625 0.129213
0.182361 0.436896 0.12221
0.237919 0.423484 0.112749
0.306416 0.40647 0.101106
0.387655 0.385992 0.0879072
0.481239 0.361807 0.0751659
0.585199 0.33521 0.0664988
0.693126 0.3075 0.0631418
0.794247 0.280232 0.062562
0.867201 0.256748 0.062562
0.906645 0.23946 0.062562
0.918715 0.230701 0.062562
0.918868 0.230793 0.062562
0.918868 0.235782 0.062562
0.918868 0.241764 0.062562
0.918868 0.247425 0.062562
0.918868 0.25388 0.062562
0.918868 0.260548 0.062562
0.918868 0.267414 0.062562
0.918868 0.275044 0.062562
0.918868 0.282292 0.062562
0.062562 0.564858 0.165545
0.062562 0.568322 0.165835
0.062562 0.570428 0.165866
0.062562 0.572106 0.166003
0.062562 0.573831 0.166217
0.062562 0.574456 0.166064
0.062562 0.57525 0.165667
0.062562 0.575235 0.164843
0.0627451 0.574289 0.163577
0.0665904 0.572961 0.161715
0.0764172 0.570001 0.158892
0.0953841 0.564843 0.154925
0.129183 0.557687 0.149401
0.17261 0.547723 0.142138
0.228748 0.534737 0.132662
0.298787 0.517525 0.120638
0.381125 0.496925 0.106508
0.475608 0.472953 0.090898
0.579065 0.446204 0.0764782
0.686595 0.41883 0.0670329
0.786084 0.392615 0.0632486
0.863569 0.36994 0.062562
0.907408 0.353582 0.062562
0.918776 0.346029 0.062562
0.918868 0.347097 0.062562
0.918868 0.35256 0.062562
0.918868 0.35877 0.062562
0.918868 0.365194 0.062562
0.918868 0.371939 0.062562
0.918868 0.378378 0.062562
0.918868 0.385611 0.062562
0.918868 0.393164 0.062562
0.918868 0.400336 0.062562
0.062562 0.6869 0.188281
0.062562 0.691249 0.188739
0.062562 0.693462 0.1888
0.062562 0.69575 0.189029
0.062562 0.697047 0.189136
0.062562 0.698222 0.189029
0.062562 0.698573 0.188495
0.062562 0.698497 0.187655
0.0628061 0.698024 0.186419
0.06421 0.696056 0.184344
0.0687724 0.693294 0.181491
0.0846113 0.688319 0.177417
0.117784 0.680308 0.171557
0.161791 0.670405 0.164126
0.218723 0.656687 0.154421
0.289982 0.639536 0.142214
0.373602 0.61854 0.127764
0.468711 0.594369 0.111254
0.572122 0.56762 0.0937819
0.67924 0.540459 0.0782177
0.777691 0.514855 0.0679484
0.860975 0.492683 0.0636759
0.908904 0.477363 0.0627909
0.918853 0.470405 0.0626078
0.918868 0.47216 0.062562
0.918868 0.478141 0.062562
0.918868 0.484321 0.062562
0.918868 0.490684 0.062562
0.918868 0.497154 0.0626688
0.918868 0.503487 0.0628824
0.918868 0.509804 0.0631723
0.918868 0.51664 0.0634928
0.918868 0.523735 0.0639048
0.062562 0.807248 0.21239
0.062562 0.809903 0.212726
0.062562 0.811749 0.212787
0.062562 0.812909 0.212833
0.062562 0.814191 0.213001
0.062562 0.814984 0.212894
0.062562 0.814923 0.212329
0.062562 0.814832 0.211597
0.062562 0.813352 0.210147
0.062562 0.811063 0.207935
0.0656138 0.807294 0.204837
0.0783856 0.802014 0.200473
0.106188 0.794675 0.194522
0.151171 0.784802 0.186679
0.2094 0.772152 0.176761
0.281483 0.756832 0.164416
0.366445 0.738079 0.149691
0.462211 0.715633 0.133059
0.565881 0.689433 0.115023
0.671763 0.662211 0.0970321
0.769863 0.636545 0.0813611
0.856321 0.614572 0.0709087
0.908232 0.59971 0.0661173
0.918853 0.593652 0.0648356
0.918868 0.595956 0.0650034
0.918868 0.601022 0.065507
0.918868 0.606592 0.0661326
0.918868 0.612497 0.0668193
0.918868 0.618189 0.0676738
0.918868 0.623972 0.0687419
0.918868 0.629999 0.0699321
0.918868 0.636057 0.0712596
0.918868 0.642481 0.0727703
0.062562 0.885817 0.235935
0.062562 0.886366 0.236149
0.062562 0.886564 0.236072
0.062562 0.88687 0.236118
0.062562 0.887098 0.236164
0.062562 0.887297 0.236103
0.062562 0.886931 0.235523
0.062562 0.886381 0.234623
0.062562 0.885359 0.233066
0.062562 0.88368 0.230701
0.0646372 0.881544 0.227451
0.071809 0.878508 0.222827
0.0943465 0.874586 0.216724
0.142306 0.86952 0.20853
0.202258 0.863478 0.198306
0.275151 0.856855 0.185824
0.360998 0.847776 0.170962
0.457496 0.831327 0.154223
0.561212 0.805936 0.136233
0.666285 0.778576 0.11812
0.762432 0.753017 0.101183
0.847883 0.731517 0.0872358
0.904463 0.716365 0.0783246
0.918776 0.710719 0.0751659
0.918868 0.711818 0.0753948
0.918868 0.716167 0.0768597
0.918868 0.720455 0.0784772
0.918868 0.725017 0.0802472
0.918868 0.730098 0.0821393
0.918868 0.735058 0.0841077
0.918868 0.740108 0.0861677
0.918868 0.745464 0.0883345
0.918868 0.750896 0.0907301
0.062562 0.911315 0.25713
0.062562 0.91165 0.257191
0.062562 0.911879 0.257008
0.062562 0.912062 0.257023
0.062562 0.91223 0.257099
0.062562 0.912337 0.256916
0.062562 0.912428 0.256397
0.062562 0.912459 0.255329
0.062562 0.912413 0.253544
0.062562 0.912306 0.251087
0.0631266 0.912108 0.247547
0.067277 0.91191 0.242679
0.0887465 0.91165 0.236393
0.137102 0.911315 0.227939
0.198871 0.91104 0.217227
0.27277 0.911009 0.204456
0.359625 0.910018 0.189319
0.456809 0.904082 0.172396
0.560693 0.891646 0.154238
0.665019 0.873289 0.136126
0.758831 0.850355 0.11928
0.841443 0.829755 0.105272
0.899458 0.815137 0.0959182
0.917678 0.808927 0.0919509
0.918868 0.809552 0.092134
0.918868 0.812222 0.0937667
0.918868 0.815503 0.0956436
0.918868 0.818647 0.0975509
0.918868 0.821897 0.0995346
0.918868 0.825315 0.101564
0.918868 0.829099 0.103944
0.918868 0.832822 0.106401
0.918868 0.836622 0.109163
0.062562 0.918868 0.27422
0.062562 0.918868 0.274067
0.062562 0.918868 0.273716
0.062562 0.918868 0.27361
0.062562 0.918868 0.273594
0.062562 0.918868 0.273426
0.062562 0.918868 0.27274
0.062562 0.918868 0.271458
0.062562 0.918868 0.269444
0.062562 0.918868 0.266743
0.0625772 0.918868 0.262898
0.0682078 0.918868 0.257618
0.0917678 0.918868 0.250874
0.137453 0.918868 0.242039
0.201144 0.918868 0.230884
0.276951 0.918868 0.217624
0.36463 0.918868 0.202167
0.462211 0.918868 0.185016
0.565988 0.918639 0.166735
0.669017 0.913954 0.148608
0.760937 0.903059 0.131914
0.839857 0.889967 0.118441
0.895994 0.877501 0.10959
0.916289 0.871321 0.106096
0.918868 0.871199 0.106416
0.918868 0.872801 0.107912
0.918868 0.874754 0.10956
0.918868 0.876646 0.111284
0.918868 0.878355 0.113252
0.918868 0.880018 0.115343
0.918868 0.881514 0.117678
0.918868 0.883131 0.120104
0.918868 0.884794 0.122789
0.062562 0.918868 0.285298
0.062562 0.918868 0.284901
0.062562 0.918868 0.284352
0.062562 0.918868 0.284062
0.062562 0.918868 0.283925
0.062562 0.918868 0.283604
0.062562 0.918868 0.282689
0.062562 0.918868 0.281102
0.062562 0.918868 0.27892
0.062562 0.918868 0.275929
0.062562 0.918868 0.271656
0.0707256 0.918868 0.266072
0.0988937 0.918868 0.258717
0.144656 0.918868 0.249531
0.210697 0.918868 0.237949
0.288197 0.918868 0.224277
0.376501 0.918868 0.208637
0.47451 0.918868 0.191241
0.577569 0.918868 0.172976
0.678294 0.918807 0.155032
0.7682 0.917815 0.13872
0.844434 0.912993 0.125765
0.8972 0.903853 0.117372
0.916426 0.897658 0.114214
0.918868 0.896788 0.114641
0.918868 0.897322 0.116197
0.918868 0.897932 0.117952
0.918868 0.898573 0.119814
0.918868 0.899016 0.121843
0.918868 0.899214 0.123995
0.918868 0.899397 0.126253
0.918868 0.899565 0.128511
0.918868 0.899733 0.130892
0.062562 0.918868 0.290822
0.062562 0.918868 0.290333
0.062562 0.918868 0.289677
0.062562 0.918868 0.289296
0.062562 0.918868 0.289036
0.062562 0.918868 0.288502
0.062562 0.918868 0.287373
0.062562 0.918868 0.285679
0.062562 0.918868 0.283375
0.062562 0.918868 0.280079
0.0636759 0.918868 0.275563
0.0756085 0.918868 0.269749
0.108812 0.918868 0.261906
0.158099 0.918868 0.252323
0.224826 0.918868 0.240574
0.304006 0.918868 0.226551
0.393668 0.918868 0.210605
0.491783 0.918868 0.193133
0.593637 0.918868 0.175006
0.691783 0.918868 0.157336
0.779675 0.918868 0.141512
0.8533 0.915572 0.12929
0.901701 0.907347 0.121782
0.917617 0.901839 0.119448
0.918868 0.900938 0.120394
0.918868 0.900969 0.122133
0.918868 0.901015 0.124056
0.918868 0.901045 0.12604
0.918868 0.901091 0.128099
0.918868 0.901122 0.130205
0.918868 0.901167 0.132418
0.918868 0.901213 0.134707
0.918868 0.901259 0.137026
0.062562 0.918868 0.294224
0.062562 0.918868 0.293751
0.062562 0.918868 0.292958
0.062562 0.918868 0.292439
0.062562 0.918868 0.292119
0.062562 0.918868 0.291493
0.062562 0.918868 0.290288
0.062562 0.918868 0.288579
0.062562 0.918868 0.286122
0.062562 0.918868 0.282536
0.0663767 0.918868 0.277867
0.0839399 0.918868 0.271672
0.120104 0.918868 0.263615
0.174014 0.918868 0.253635
0.241733 0.918868 0.241749
0.32221 0.918868 0.227497
0.412848 0.918868 0.211353
0.510491 0.918868 0.194095
0.611307 0.918868 0.17641
0.70695 0.918868 0.15935
0.792477 0.918868 0.144335
0.863523 0.914687 0.133013
0.906416 0.906126 0.126528
0.918608 0.901579 0.125139
0.918868 0.901061 0.126513
0.918868 0.901091 0.128359
0.918868 0.901137 0.130251
0.918868 0.901167 0.132235
0.918868 0.901198 0.134295
0.918868 0.901244 0.1364
0.918868 0.901289 0.138628
0.918868 0.90132 0.140917
0.918868 0.901366 0.143236
0.062562 0.918868 0.297597
0.062562 0.918868 0.296956
0.062562 0.918868 0.295949
0.062562 0.918868 0.295338
0.062562 0.918868 0.295018
0.062562 0.918868 0.294408
0.062562 0.918868 0.293187
0.062562 0.918868 0.291402
0.062562 0.918868 0.288716
0.062562 0.918868 0.284993
0.0695201 0.918868 0.280232
0.0939498 0.918868 0.273716
0.132769 0.918868 0.265644
