luts/varicam_official/Agressive 709 33 E-E.cube
TITLE "Generated by Resolve"
LUT_3D_SIZE 9
0.0759442 0.0759442 0.0759442
0.0759442 0.0759442 0.0759442
0.0933547 0.0707561 0.0726329
0.157748 0.062562 0.0637522
0.360067 0.062562 0.062562
0.762707 0.062562 0.062562
0.918868 0.062562 0.062562
0.918868 0.062562 0.062562
0.918868 0.062562 0.062562
0.0758526 0.0764477 0.0760204
0.0765698 0.076524 0.0759289
0.0953689 0.0716564 0.0724651
0.163836 0.0640726 0.0635233
0.376669 0.062562 0.062562
0.785946 0.062562 0.062562
0.918868 0.062562 0.062562
0.918868 0.062562 0.062562
0.918868 0.062562 0.062562
0.0722057 0.0986648 0.0797284
0.0751507 0.0988632 0.0793469
0.0944228 0.0942092 0.0759594
0.166339 0.0762646 0.0644236
0.386526 0.0626383 0.062562
0.798596 0.062562 0.062562
0.918868 0.062562 0.062562
0.918868 0.062562 0.062562
0.918868 0.062562 0.062562
0.0628672 0.183978 0.0944076
0.0691539 0.185351 0.0934615
0.0866407 0.181842 0.0901045
0.164126 0.163256 0.0769513
0.395956 0.102861 0.062623
0.810712 0.0626535 0.062562
0.918868 0.062562 0.062562
0.918868 0.062562 0.062562
0.918868 0.062562 0.062562
0.062562 0.455207 0.145006
0.062562 0.462593 0.145418
0.0651408 0.46273 0.14287
0.13994 0.44625 0.129213
0.387655 0.385992 0.0879072
0.794247 0.280232 0.062562
0.918868 0.230793 0.062562
0.918868 0.25388 0.062562
0.918868 0.282292 0.062562
0.062562 0.885817 0.235935
0.062562 0.887098 0.236164
0.062562 0.885359 0.233066
0.0943465 0.874586 0.216724
0.360998 0.847776 0.170962
0.762432 0.753017 0.101183
0.918868 0.711818 0.0753948
0.918868 0.730098 0.0821393
0.918868 0.750896 0.0907301
0.062562 0.918868 0.290822
0.062562 0.918868 0.289036
0.062562 0.918868 0.283375
0.108812 0.918868 0.261906
0.393668 0.918868 0.210605
0.779675 0.918868 0.141512
0.918868 0.900938 0.120394
0.918868 0.901091 0.128099
0.918868 0.901259 0.137026
0.062562 0.918868 0.306401
0.062562 0.918868 0.30396
0.062562 0.918868 0.2972
0.166186 0.918868 0.272297
0.47451 0.918868 0.218921
0.830472 0.917708 0.157198
0.918868 0.901427 0.146563
0.918868 0.901625 0.155825
0.918868 0.9019 0.168185
0.062562 0.918868 0.330755
0.062562 0.918868 0.327581
0.0872663 0.918868 0.319081
0.248142 0.918868 0.291051
0.567102 0.918868 0.237156
0.87892 0.914076 0.186481
0.918868 0.902327 0.186862
0.918868 0.902571 0.198108
0.918868 0.902953 0.213779
0.0759442 0.0759442 0.0759442
0.0759899 0.0759289 0.0759289
0.0935988 0.0706951 0.0728771
0.158404 0.062562 0.0647746
0.361486 0.062562 0.062562
0.764767 0.062562 0.062562
0.918868 0.062562 0.062562
0.918868 0.062562 0.062562
0.918868 0.062562 0.062562
0.0758373 0.0766003 0.0764935
0.0766766 0.0766613 0.0766461
0.0956741 0.0718242 0.0737469
0.164736 0.0641642 0.0654917
0.379034 0.062562 0.062562
0.788907 0.062562 0.062562
0.918868 0.062562 0.062562
0.918868 0.062562 0.062562
0.918868 0.062562 0.062562
0.0720989 0.0991836 0.0821088
0.0752575 0.0993362 0.0820935
0.094728 0.0946059 0.0792706
0.167437 0.076524 0.0685435
0.389197 0.0626383 0.062562
0.802319 0.062562 0.062562
0.918868 0.062562 0.062562
0.918868 0.062562 0.062562
0.918868 0.062562 0.062562
0.0628214 0.185519 0.101335
0.0692149 0.186877 0.100847
0.0869459 0.183459 0.0980392
0.165347 0.164736 0.0854353
0.398917 0.103868 0.0627909
0.814298 0.0626841 0.062562
0.918868 0.062562 0.062562
0.918868 0.062562 0.062562
0.918868 0.062562 0.062562
0.062562 0.45922 0.153964
0.062562 0.466545 0.154406
0.0650492 0.466575 0.151873
0.141039 0.450233 0.138109
0.39086 0.389502 0.096025
0.797208 0.283711 0.0628367
0.918868 0.235523 0.062562
0.918868 0.258778 0.062562
0.918868 0.287739 0.062562
0.062562 0.887007 0.246708
0.062562 0.888487 0.247303
0.062562 0.886992 0.24448
0.0955978 0.876661 0.228229
0.364797 0.851362 0.182376
0.765713 0.757015 0.112703
0.918868 0.716793 0.0855421
0.918868 0.734524 0.0946975
0.918868 0.755657 0.107103
0.062562 0.918868 0.302205
0.062562 0.918868 0.300664
0.062562 0.918868 0.295216
0.111192 0.918868 0.274113
0.398383 0.918868 0.223789
0.783352 0.918868 0.156573
0.918868 0.901259 0.137133
0.918868 0.901396 0.144884
0.918868 0.90161 0.155123
0.062562 0.918868 0.322621
0.062562 0.918868 0.320394
0.062562 0.918868 0.313527
0.169558 0.918868 0.288396
0.479332 0.918868 0.235431
0.833844 0.917586 0.175708
0.918868 0.9019 0.16817
0.918868 0.902144 0.178958
0.918868 0.902419 0.191424
0.062562 0.918868 0.35288
0.062562 0.918868 0.350072
0.0887617 0.918868 0.34168
0.251987 0.918868 0.313283
0.572152 0.918868 0.259342
0.881056 0.913893 0.210452
0.918868 0.902968 0.213748
0.918868 0.903304 0.22768
0.918868 0.9037 0.243641
0.075761 0.0761273 0.0903182
0.0759747 0.0760662 0.0905318
0.0936294 0.0709544 0.0876173
0.158679 0.062562 0.0768749
0.362325 0.062562 0.0628977
0.76556 0.062562 0.062562
0.918868 0.062562 0.062562
0.918868 0.062562 0.062562
0.918868 0.062562 0.062562
0.0756085 0.0770275 0.0918746
0.0767529 0.0771344 0.0923629
0.0957961 0.0723888 0.089601
0.165209 0.0643473 0.0784161
0.380224 0.062562 0.0630503
0.79057 0.062562 0.062562
0.918868 0.062562 0.062562
0.918868 0.062562 0.062562
0.918868 0.062562 0.062562
0.0718547 0.0999466 0.0978714
0.0753338 0.100053 0.0982834
0.0948806 0.0952316 0.0955215
0.168048 0.0769513 0.083711
0.391043 0.0626535 0.0635538
0.804456 0.062562 0.062562
0.918868 0.062562 0.062562
0.918868 0.062562 0.062562
0.918868 0.062562 0.062562
0.0628214 0.186923 0.117998
0.0693217 0.188266 0.118181
0.0872053 0.184833 0.115755
0.16614 0.16614 0.103548
0.401053 0.104982 0.0694438
0.816754 0.0628672 0.062562
0.918868 0.062562 0.062562
0.918868 0.062562 0.062562
0.918868 0.062562 0.062562
0.062562 0.461997 0.172915
0.062562 0.46981 0.174243
0.0649577 0.469932 0.172259
0.141878 0.4533 0.159045
0.39295 0.392172 0.117525
0.798749 0.286854 0.066041
0.918868 0.239506 0.062562
0.918868 0.262898 0.062562
0.918868 0.292027 0.0638285
0.062562 0.887999 0.268376
0.062562 0.889632 0.270314
0.062562 0.88809 0.268223
0.0966506 0.87834 0.252979
0.367285 0.854322 0.208286
0.767819 0.759991 0.140322
0.918868 0.720958 0.115434
0.918868 0.738628 0.127047
0.918868 0.759396 0.141802
0.062562 0.918868 0.329686
0.062562 0.918868 0.329625
0.062562 0.918868 0.325093
0.112825 0.918868 0.304952
0.40177 0.918868 0.255421
0.785626 0.918868 0.190219
0.918868 0.902022 0.17377
0.918868 0.902266 0.184466
0.918868 0.902571 0.197787
0.062562 0.918868 0.356954
0.062562 0.918868 0.356893
0.062562 0.918868 0.351263
0.172015 0.918868 0.327779
0.482811 0.918868 0.276417
0.836194 0.917586 0.218494
0.918868 0.902953 0.213565
0.918868 0.903288 0.227359
0.918868 0.903685 0.243351
0.062562 0.918868 0.39559
0.062562 0.918868 0.395499
0.0898604 0.918868 0.388785
0.254719 0.918868 0.362112
0.575525 0.918868 0.310552
0.882216 0.914244 0.263966
0.918868 0.904311 0.269276
0.918868 0.904692 0.286
0.918868 0.90515 0.305165
0.0751812 0.0773632 0.145586
0.0757153 0.0772259 0.146029
0.0936904 0.0719615 0.142855
0.159213 0.0626688 0.132265
0.363851 0.062562 0.0974441
0.767269 0.062562 0.0633249
0.918868 0.062562 0.062562
0.918868 0.062562 0.062562
0.918868 0.062562 0.062562
0.074876 0.0790417 0.149386
0.0766918 0.0790417 0.150896
0.0957961 0.0742199 0.148547
0.166064 0.0649577 0.138231
0.3823 0.062562 0.102098
0.792691 0.062562 0.0642863
0.918868 0.062562 0.062562
0.918868 0.062562 0.0627146
0.918868 0.062562 0.0630045
0.0710918 0.102098 0.157275
0.075288 0.102068 0.159091
0.0950484 0.0973831 0.157275
0.168887 0.0784619 0.146761
0.393286 0.0627146 0.109834
0.80708 0.062562 0.065568
0.918868 0.062562 0.0626993
0.918868 0.062562 0.0634012
0.918868 0.062562 0.0643015
0.0628367 0.18999 0.181613
0.069337 0.191409 0.184009
0.0871901 0.188113 0.182956
0.1673 0.16939 0.172625
0.403738 0.107378 0.134768
0.819471 0.0632944 0.0759289
0.918868 0.062562 0.0661784
0.918868 0.062562 0.0688334
0.918868 0.062562 0.0754101
0.062562 0.467613 0.245914
0.062562 0.475578 0.249973
0.0648661 0.47602 0.24976
0.142916 0.458717 0.238758
0.395453 0.397192 0.199893
0.800565 0.292134 0.133806
0.918868 0.246281 0.105333
0.918868 0.270344 0.122133
0.918868 0.299489 0.143099
0.062562 0.890043 0.353155
0.062562 0.891539 0.357977
0.062562 0.890166 0.357946
0.0976883 0.881025 0.345052
0.370108 0.859388 0.30341
0.769909 0.764874 0.240009
0.918868 0.727214 0.221302
0.918868 0.745418 0.238773
0.918868 0.766094 0.259358
0.062562 0.918868 0.429648
0.062562 0.918868 0.433265
0.062562 0.918868 0.431006
0.1149 0.918868 0.413581
0.405356 0.918868 0.367132
0.788037 0.918868 0.306111
0.918868 0.904921 0.295521
0.918868 0.905303 0.312291
0.918868 0.905745 0.332036
0.062562 0.918868 0.474678
0.062562 0.918868 0.478752
0.062562 0.918868 0.475837
0.174884 0.918868 0.455314
0.487053 0.918868 0.407309
0.837781 0.917922 0.354147
0.918868 0.906218 0.353994
0.918868 0.906615 0.372839
0.918868 0.907103 0.394934
0.062562 0.918868 0.532448
0.062562 0.918868 0.536599
0.0911116 0.918868 0.532403
0.257923 0.918868 0.508766
0.579339 0.918868 0.460594
0.882673 0.915892 0.418235
0.918868 0.90782 0.427893
0.918868 0.908309 0.448142
0.918868 0.908873 0.471687
0.0735027 0.0813916 0.320378
0.0750286 0.0809796 0.321462
0.0932021 0.0756085 0.318502
0.159289 0.0635538 0.308431
0.365545 0.062562 0.275151
0.7691 0.062562 0.207614
0.918868 0.062562 0.159396
0.918868 0.062562 0.171862
0.918868 0.062562 0.189868
0.0729992 0.0843671 0.329839
0.0758984 0.0840772 0.333501
0.0951705 0.0791943 0.332448
0.166247 0.0667277 0.323812
0.384497 0.062562 0.290349
0.795087 0.062562 0.223728
0.918868 0.062562 0.181903
0.918868 0.062562 0.196597
0.918868 0.062562 0.216434
0.0692912 0.10753 0.34165
0.0745251 0.107286 0.346578
0.094316 0.102602 0.346548
0.169131 0.0829023 0.338521
0.395819 0.0628672 0.304799
0.809796 0.062562 0.239155
0.918868 0.062562 0.20177
0.918868 0.062562 0.218311
0.918868 0.062562 0.239155
0.062974 0.196796 0.37438
0.0688334 0.198398 0.380591
0.0862593 0.195315 0.382086
0.167773 0.176272 0.374319
0.406088 0.113069 0.340536
0.821378 0.0641489 0.276555
0.918868 0.062562 0.245914
0.918868 0.062562 0.264927
0.918868 0.062562 0.288701
0.062562 0.477333 0.45153
0.062562 0.485908 0.460243
0.0645609 0.486275 0.462776
0.143267 0.46894 0.454704
0.398245 0.406775 0.419333
0.801816 0.302068 0.357931
0.918868 0.257374 0.335622
0.918868 0.282307 0.358785
0.918868 0.312062 0.385458
0.062562 0.893904 0.574182
0.062562 0.895323 0.583703
0.062562 0.893935 0.586343
0.0984665 0.885313 0.576364
0.373037 0.866804 0.538308
0.771557 0.773571 0.479088
0.918868 0.737438 0.465629
0.918868 0.755764 0.48777
0.918868 0.776959 0.513619
0.062562 0.918868 0.665675
0.062562 0.918868 0.673579
0.062562 0.918868 0.67425
0.116594 0.918868 0.659113
0.409659 0.918868 0.616007
0.790112 0.918868 0.558862
0.918868 0.910674 0.552254
0.918868 0.911101 0.572106
0.918868 0.911589 0.594644
0.062562 0.918868 0.72517
0.062562 0.918868 0.732998
0.0630198 0.918868 0.732219
0.177874 0.918868 0.71342
0.491218 0.918868 0.667521
0.83888 0.918837 0.616876
0.918868 0.912123 0.619623
0.918868 0.912566 0.638712
0.918868 0.913069 0.659709
0.062562 0.918868 0.790814
0.062562 0.918868 0.79649
0.0923476 0.918868 0.792935
0.261494 0.918868 0.770474
0.5832 0.918868 0.723445
0.882567 0.918242 0.681743
0.918868 0.913817 0.691051
0.918868 0.91426 0.708812
0.918868 0.914717 0.728496
0.0703593 0.0890822 0.660075
0.0733043 0.0882582 0.661738
0.09131 0.0829175 0.658289
0.158572 0.0650339 0.648432
0.367163 0.062562 0.614832
0.771389 0.062562 0.547906
0.918868 0.062562 0.499931
0.918868 0.062562 0.510796
0.918868 0.062562 0.52755
0.0695201 0.0937514 0.672694
0.0738842 0.0930343 0.677729
0.0931411 0.0880903 0.676738
0.165515 0.070634 0.668009
0.386557 0.062562 0.634516
0.797574 0.062562 0.567605
0.918868 0.062562 0.524727
0.918868 0.062562 0.537362
0.918868 0.062562 0.554803
0.0659037 0.11696 0.685588
0.0725261 0.116442 0.69192
0.0924697 0.111803 0.692607
0.168658 0.0916152 0.684764
0.398123 0.0630198 0.650553
0.812345 0.062562 0.583383
0.918868 0.062562 0.544594
0.918868 0.062562 0.558663
0.918868 0.062562 0.577127
0.0634623 0.208148 0.720012
0.0674144 0.209827 0.72726
0.0842603 0.20676 0.728817
0.167651 0.187137 0.720302
0.408835 0.12314 0.684565
0.822126 0.0656596 0.618753
0.918868 0.062562 0.586725
0.918868 0.062562 0.60351
0.918868 0.062562 0.622477
0.062562 0.491966 0.794278
0.062562 0.500572 0.803449
0.0641337 0.500816 0.80557
0.143343 0.482811 0.796307
0.400931 0.420325 0.759045
0.802884 0.315755 0.696193
0.918868 0.272908 0.671839
0.918868 0.298131 0.68864
0.918868 0.32752 0.708095
0.062562 0.899168 0.896117
0.062562 0.90016 0.900603
0.062562 0.898695 0.901732
0.100069 0.890578 0.895979
0.376089 0.873793 0.865034
0.773617 0.785351 0.803754
0.918868 0.750774 0.784833
0.918868 0.768963 0.799603
0.918868 0.789914 0.815595
0.062562 0.918868 0.908263
0.062562 0.918868 0.910109
0.062562 0.918868 0.910887
0.11873 0.918868 0.910887
0.414588 0.918868 0.905074
0.792813 0.918868 0.862852
0.918868 0.917433 0.849088
0.918868 0.917632 0.8589
0.918868 0.917876 0.869749
0.062562 0.918868 0.918868
0.062562 0.918868 0.918868
0.0639506 0.918868 0.918868
0.181949 0.918868 0.918868
0.496483 0.918868 0.913451
0.84062 0.918868 0.886915
0.918868 0.918135 0.881285
0.918868 0.918273 0.888014
0.918868 0.91841 0.894652
0.062562 0.918868 0.918868
0.062562 0.918868 0.918868
0.0942245 0.918868 0.918868
0.267323 0.918868 0.918868
0.588861 0.918868 0.91841
0.883024 0.918868 0.904448
0.918868 0.918608 0.904616
0.918868 0.918685 0.908614
0.918868 0.918746 0.911254
0.0680705 0.0946822 0.909316
0.0727855 0.0933089 0.908827
0.0907607 0.0880293 0.905547
0.159396 0.0687572 0.89305
0.370932 0.062562 0.854429
0.775921 0.062562 0.780758
0.918868 0.062562 0.725338
0.918868 0.062562 0.725124
0.918868 0.062562 0.726696
0.0670176 0.101091 0.91194
0.0731823 0.0997635 0.911665
0.092668 0.0947585 0.908751
0.166644 0.0758526 0.895659
0.390967 0.062562 0.855024
0.802716 0.062562 0.779706
0.918868 0.062562 0.728313
0.918868 0.062562 0.72813
0.918868 0.062562 0.72987
0.0639048 0.124651 0.915099
0.0721294 0.123537 0.915038
0.0922866 0.118624 0.91313
0.170367 0.0978714 0.90016
0.402838 0.0627909 0.857954
0.817945 0.062562 0.782086
0.918868 0.062562 0.733455
0.918868 0.062562 0.733852
0.918868 0.062562 0.736019
0.0637064 0.217304 0.918471
0.0662242 0.219089 0.918502
0.0839246 0.215686 0.91841
0.169665 0.195422 0.914549
0.414618 0.13077 0.872587
0.82443 0.0671855 0.796918
0.918868 0.062562 0.753826
0.918868 0.062562 0.756069
0.918868 0.062562 0.759793
0.062562 0.504616 0.918868
0.062562 0.512947 0.918868
0.0645304 0.512871 0.918868
0.145647 0.494347 0.918868
0.406195 0.430442 0.9122
0.806302 0.326467 0.845304
0.918868 0.285786 0.810147
0.918868 0.310689 0.814481
0.918868 0.340246 0.819577
0.062562 0.902052 0.918868
0.062562 0.902937 0.918868
0.062562 0.901595 0.918868
0.103777 0.894499 0.918868
0.383139 0.876509 0.918868
0.777951 0.792721 0.914778
0.918868 0.760128 0.891814
0.918868 0.778088 0.894499
0.918868 0.798917 0.897688
0.062562 0.918868 0.918868
0.062562 0.918868 0.918868
0.062562 0.918868 0.918868
0.123308 0.918868 0.918868
0.423316 0.918868 0.918868
0.798321 0.918868 0.918868
0.918868 0.918868 0.918868
0.918868 0.918868 0.918868
0.918868 0.918868 0.918868
0.062562 0.918868 0.918868
0.062562 0.918868 0.918868
0.0650492 0.918868 0.918868
0.189364 0.918868 0.918868
0.505379 0.918868 0.918868
0.845304 0.918868 0.918868
0.918868 0.918868 0.918868
0.918868 0.918868 0.918868
0.918868 0.918868 0.918868
0.062562 0.918868 0.918868
0.062623 0.918868 0.918868
0.0986954 0.918868 0.918868
0.275959 0.918868 0.918868
0.597757 0.918868 0.918868
0.885725 0.918868 0.918868
0.918868 0.918868 0.918868
0.918868 0.918868 0.918868
0.918868 0.918868 0.918868
0.0679942 0.0949721 0.917815
0.074815 0.0929274 0.916594
0.0930495 0.08748 0.913268
0.162966 0.0678874 0.900053
0.377752 0.062562 0.860349
0.783856 0.062562 0.785061
0.918868 0.062562 0.72903
0.918868 0.062562 0.727642
0.918868 0.062562 0.728679
0.0665751 0.103609 0.918212
0.074876 0.101625 0.917174
0.0949416 0.0964065 0.914244
0.170748 0.076936 0.900298
0.39855 0.062562 0.858213
0.811048 0.062562 0.78175
0.918868 0.062562 0.730327
0.918868 0.062562 0.730007
0.918868 0.062562 0.731365
0.0644999 0.127443 0.918837
0.0738079 0.12604 0.918532
0.0945296 0.120943 0.916899
0.17528 0.099382 0.903243
0.411215 0.062562 0.859678
0.826108 0.062562 0.782834
0.918868 0.062562 0.735073
0.918868 0.062562 0.735439
0.918868 0.062562 0.737423
0.0640421 0.222705 0.918868
0.0659953 0.224445 0.918868
0.0856641 0.221103 0.918868
0.174273 0.200427 0.915694
0.423072 0.135027 0.873137
0.828855 0.0684215 0.797467
0.918868 0.062562 0.755596
0.918868 0.062562 0.757946
0.918868 0.0643778 0.761425
0.062562 0.514611 0.918868
0.0625772 0.52285 0.918868
0.0654765 0.522683 0.918868
0.150179 0.503273 0.918868
0.414557 0.438682 0.912902
0.811673 0.334737 0.846067
0.918868 0.29688 0.812284
0.918868 0.322408 0.816526
0.918868 0.351934 0.821591
0.062562 0.903426 0.918868
0.062562 0.904585 0.918868
0.062562 0.903532 0.918868
0.109804 0.896284 0.918868
0.392172 0.878889 0.918868
0.784543 0.798901 0.914626
0.918868 0.768154 0.893019
0.918868 0.786206 0.89575
0.918868 0.806424 0.898924
0.062562 0.918868 0.918868
0.062562 0.918868 0.918868
0.062562 0.918868 0.918868
0.130495 0.918868 0.918868
0.433997 0.918868 0.918868
0.805829 0.918868 0.918868
0.918868 0.918868 0.918868
0.918868 0.918868 0.918868
0.918868 0.918868 0.918868
0.062562 0.918868 0.918868
0.062562 0.918868 0.918868
0.0668193 0.918868 0.918868
0.198978 0.918868 0.918868
0.516472 0.918868 0.918868
0.851087 0.918868 0.918868
0.918868 0.918868 0.918868
0.918868 0.918868 0.918868
0.918868 0.918868 0.918868
0.062562 0.918868 0.918868
0.0649577 0.918868 0.918868
0.104753 0.918868 0.918868
0.286839 0.918868 0.918868
0.608225 0.918868 0.918868
0.888991 0.918868 0.918868
0.918868 0.918868 0.918868
0.918868 0.918868 0.918868
0.918868 0.918868 0.918868
0.0679942 0.0949721 0.917815
0.0772717 0.0922103 0.916152
0.0960098 0.0871748 0.912779
0.167803 0.0691539 0.899489
0.385702 0.062562 0.859251
0.793011 0.062562 0.783749
0.918868 0.062562 0.729168
0.918868 0.062562 0.728115
0.918868 0.062562 0.729198
0.0671702 0.105928 0.918212
0.0768902 0.103593 0.917144
0.097673 0.0981765 0.914107
0.17644 0.0779278 0.899611
0.408087 0.062562 0.856809
0.820691 0.062562 0.780316
0.918868 0.062562 0.730617
0.918868 0.062562 0.730632
0.918868 0.062562 0.731991
0.0666209 0.13022 0.918776
0.0757153 0.128756 0.918532
0.0971847 0.123507 0.916884
0.180865 0.101091 0.902693
0.42153 0.062562 0.858259
0.832288 0.062562 0.781704
0.918868 0.062562 0.735576
0.918868 0.062562 0.736339
0.918868 0.062562 0.738338
0.064332 0.229328 0.918868
0.0659495 0.231266 0.918868
0.087892 0.227955 0.918868
0.180224 0.206134 0.915373
0.433295 0.139605 0.872343
0.833997 0.0694591 0.79707
0.918868 0.062562 0.756832
0.918868 0.062562 0.759487
0.918868 0.0669566 0.763073
0.062562 0.525826 0.918868
0.0625772 0.533883 0.918868
0.0665599 0.533944 0.918868
0.155413 0.513649 0.918868
0.424186 0.447745 0.913436
0.81828 0.344945 0.846479
0.918868 0.310445 0.814588
0.918868 0.335515 0.818769
0.918868 0.365164 0.82385
0.062562 0.904692 0.918868
0.062562 0.905776 0.918868
0.062562 0.904601 0.918868
0.117113 0.897704 0.918868
0.403204 0.881849 0.918868
0.79115 0.805463 0.914321
0.918868 0.777554 0.894423
0.918868 0.795727 0.8972
0.918868 0.814527 0.900343
0.062562 0.918868 0.918868
0.062562 0.918868 0.918868
0.062562 0.918868 0.918868
0.139818 0.918868 0.918868
0.446525 0.918868 0.918868
0.813642 0.918868 0.918868
0.918868 0.918868 0.918868
0.918868 0.918868 0.918868
0.918868 0.918868 0.918868
0.062562 0.918868 0.918868
0.062562 0.918868 0.918868
0.0696117 0.918868 0.918868
0.209888 0.918868 0.918868
0.529244 0.918868 0.918868
0.857832 0.918868 0.918868
0.918868 0.918868 0.918868
0.918868 0.918868 0.918868
0.918868 0.918868 0.918868
0.062562 0.918868 0.918868
0.0693065 0.918868 0.918868
0.111864 0.918868 0.918868
0.29865 0.918868 0.918868
0.620264 0.918868 0.918868
0.892805 0.918868 0.918868
0.918868 0.918868 0.918868
0.918868 0.918868 0.918868
0.918868 0.918868 0.918868
