luts/varicam_official/BandW_HiCon.cube
TITLE "Generated by Resolve"
LUT_3D_SIZE 33
0.0172427 0.0172274 0.0172274
0.0176394 0.0176242 0.0176242
0.0181735 0.0181582 0.0181582
0.0189059 0.0188907 0.0188907
0.0197757 0.0197604 0.0197604
0.020798 0.0207828 0.0207828
0.0219883 0.021973 0.021973
0.0233158 0.0233005 0.0233005
0.0248722 0.0248569 0.0248569
0.0265202 0.0265354 0.0265354
0.0283818 0.028397 0.028397
0.0304112 0.0304265 0.0304265
0.0326238 0.032639 0.032639
0.0351263 0.0351415 0.0351415
0.0382544 0.0382849 0.0382849
0.0419623 0.0419928 0.0420081
0.0458228 0.0458839 0.0458991
0.0500191 0.0500801 0.0501106
0.0543526 0.0544137 0.0544442
0.0590982 0.0591287 0.0591287
0.0650339 0.0650492 0.0650339
0.0720073 0.0720226 0.0719463
0.0797436 0.0797589 0.0796826
0.0878004 0.0878309 0.0877394
0.0966506 0.0966812 0.0966201
0.106844 0.106859 0.106859
0.118883 0.118883 0.118914
0.131914 0.131914 0.131945
0.145693 0.145693 0.145708
0.158297 0.158297 0.158282
0.158297 0.158297 0.158282
0.158297 0.158297 0.158282
0.158297 0.158297 0.158282
0.018677 0.0186465 0.0186465
0.0191043 0.019089 0.019089
0.0196536 0.0196231 0.0196231
0.0204013 0.0203708 0.0203708
0.0212558 0.0212406 0.0212406
0.0222934 0.0222782 0.0222782
0.0235142 0.0234989 0.0234989
0.0248569 0.0248569 0.0248569
0.0264286 0.0264286 0.0264286
0.0281071 0.0281224 0.0281224
0.0299687 0.0299992 0.0299992
0.0320134 0.0320287 0.0320287
0.0343481 0.0343633 0.0343633
0.0372015 0.0372168 0.037232
0.040528 0.0405585 0.0405737
0.0442359 0.0442969 0.0443122
0.048127 0.048188 0.0482185
0.0523537 0.0523995 0.05243
0.0567788 0.0568246 0.0568551
0.0619059 0.0619211 0.0619211
0.0682231 0.0682383 0.0681926
0.0754864 0.0755169 0.0754406
0.0832685 0.083299 0.0832227
0.0913863 0.0914168 0.0913558
0.100557 0.100557 0.100542
0.111482 0.111482 0.111513
0.123873 0.123873 0.123903
0.136843 0.136843 0.136858
0.151186 0.151186 0.151186
0.164034 0.164034 0.164019
0.164034 0.164034 0.164019
0.164034 0.164034 0.164019
0.164034 0.164034 0.164019
0.0205386 0.0205081 0.0205081
0.0209659 0.0209506 0.0209506
0.0215305 0.0215152 0.0215152
0.0222934 0.0222782 0.0222782
0.0231785 0.0231632 0.0231632
0.0242313 0.0242313 0.0242313
0.0254673 0.0254826 0.0254826
0.0268254 0.0268406 0.0268406
0.0284123 0.0284276 0.0284276
0.0301061 0.0301213 0.0301213
0.0320134 0.0320439 0.0320439
0.0341955 0.0342107 0.0342107
0.0367742 0.0367742 0.0367895
0.0399176 0.0399634 0.0399786
0.0433814 0.0434272 0.0434424
0.0471351 0.0471962 0.0472114
0.0510719 0.051133 0.0511482
0.0552987 0.0553292 0.0553597
0.0598154 0.0598306 0.0598611
0.0656443 0.0656596 0.0656291
0.0723888 0.0724041 0.072343
0.0798352 0.0798657 0.0797742
0.0876173 0.0876631 0.0875715
0.0961166 0.0961471 0.0961013
0.105898 0.105898 0.105898
0.117403 0.117403 0.117433
0.130037 0.130037 0.130053
0.143023 0.143023 0.143038
0.158267 0.158267 0.158251
0.17171 0.17171 0.171679
0.17171 0.17171 0.171679
0.17171 0.17171 0.171679
0.17171 0.17171 0.171679
0.0230564 0.0230411 0.0230411
0.0234989 0.0234989 0.0234989
0.0240787 0.0240787 0.0240787
0.0248264 0.0248417 0.0248417
0.025742 0.025742 0.025742
0.0268254 0.0268254 0.0268254
0.0280919 0.0280919 0.0280919
0.0294804 0.0294957 0.0294957
0.0310979 0.0311131 0.0311131
0.0328527 0.0328679 0.0328679
0.0349126 0.0349432 0.0349432
0.0373999 0.0374304 0.0374304
0.0403449 0.0403754 0.0403906
0.0436255 0.0436866 0.0437018
0.0471351 0.0471962 0.0472114
0.0509041 0.0509651 0.0509957
0.0548867 0.0549325 0.054963
0.0593118 0.0593271 0.0593423
0.0642405 0.0642557 0.0642405
0.0708476 0.0708629 0.0708171
0.0779583 0.0779889 0.0779126
0.0854658 0.0854963 0.08542
0.093431 0.0934615 0.0934005
0.102632 0.102647 0.102617
0.113344 0.113344 0.113375
0.125231 0.125231 0.125261
0.137987 0.137987 0.138018
0.151293 0.151293 0.151293
0.167727 0.167727 0.167712
0.181903 0.181903 0.181872
0.181903 0.181903 0.181872
0.181903 0.181903 0.181872
0.181903 0.181903 0.181872
0.0260624 0.0260624 0.0260624
0.0265354 0.0265354 0.0265354
0.0271305 0.0271458 0.0271458
0.0279088 0.0279088 0.0279088
0.028809 0.0288243 0.0288243
0.0299077 0.0299229 0.0299229
0.0312047 0.03122 0.03122
0.0326085 0.0326238 0.0326238
0.0344244 0.0344396 0.0344396
0.0364385 0.0364538 0.0364691
0.0388952 0.038941 0.038941
0.0416571 0.0416876 0.0417029
0.0447242 0.0447852 0.0448005
0.0480659 0.048127 0.0481422
0.0516213 0.0516823 0.0517128
0.0554665 0.0555123 0.0555276
0.0595407 0.059556 0.0595712
0.0647593 0.0647593 0.064744
0.0706951 0.0707103 0.0706645
0.0775158 0.0775464 0.0774701
0.0847334 0.0847639 0.0846876
0.0924544 0.0924697 0.0924086
0.10103 0.101045 0.101015
0.111086 0.111101 0.111101
0.122637 0.122637 0.122652
0.134844 0.134844 0.134859
0.148211 0.148211 0.148211
0.162539 0.162539 0.162524
0.179736 0.179736 0.179721
0.194369 0.194369 0.194339
0.194369 0.194369 0.194339
0.194369 0.194369 0.194339
0.194369 0.194369 0.194339
0.0296941 0.0297093 0.0297093
0.0301671 0.0301823 0.0301823
0.0307927 0.030808 0.030808
0.0316014 0.0316167 0.0316167
0.0326085 0.0326238 0.0326238
0.0338598 0.0338903 0.0338903
0.0353399 0.0353552 0.0353552
0.0369573 0.0369726 0.0369726
0.0389868 0.0390021 0.0390173
0.0412604 0.0413062 0.0413214
0.0439765 0.0440223 0.0440375
0.0468605 0.0469062 0.0469368
0.0499428 0.0500038 0.0500343
0.0533303 0.0533761 0.0534066
0.0571145 0.0571603 0.0571756
0.0614176 0.0614481 0.0614481
0.0661173 0.0661326 0.0661173
0.0719921 0.0720073 0.0719615
0.0784924 0.0785077 0.0784466
0.08542 0.0854505 0.0853742
0.0928969 0.0929122 0.0928511
0.101244 0.101259 0.101228
0.110857 0.110857 0.110857
0.121691 0.121691 0.121706
0.133669 0.133669 0.133684
0.14641 0.14641 0.14641
0.160693 0.160693 0.160678
0.176303 0.176303 0.176272
0.19382 0.19382 0.19379
0.208911 0.208911 0.208896
0.208911 0.208911 0.208896
0.208911 0.208911 0.208896
0.208911 0.208911 0.208896
0.0343175 0.0343328 0.0343481
0.0348211 0.0348363 0.0348363
0.035462 0.0354772 0.0354772
0.0363622 0.0363775 0.0363928
0.0375372 0.0375677 0.037583
0.0390173 0.0390478 0.0390631
0.0407568 0.0408026 0.0408026
0.0426642 0.04271 0.0427253
0.044892 0.0449378 0.0449531
0.0472725 0.0473335 0.047364
0.0500191 0.0500801 0.0501106
0.0529946 0.0530556 0.0530709
0.0562753 0.0563211 0.0563363
0.059968 0.0599985 0.0599985
0.0642405 0.064271 0.0642557
0.069276 0.0692912 0.0692607
0.0748455 0.0748608 0.0747997
0.0810101 0.0810407 0.0809796
0.0875257 0.0875563 0.08748
0.0950027 0.0950332 0.0949874
0.103243 0.103258 0.103227
0.112596 0.112596 0.112612
0.123125 0.123125 0.12314
0.134661 0.134661 0.134676
0.147143 0.147143 0.147143
0.1608 0.1608 0.160784
0.17615 0.17615 0.176135
0.192691 0.192691 0.19266
0.210925 0.210925 0.21091
0.226612 0.226612 0.226612
0.226612 0.226612 0.226612
0.226612 0.226612 0.226612
0.226612 0.226612 0.226612
0.040238 0.0402838 0.0402838
0.0408331 0.0408789 0.0408942
0.0415961 0.0416266 0.0416419
0.0426032 0.0426642 0.0426795
0.0439155 0.0439612 0.0439765
0.0454871 0.0455329 0.0455634
0.0472877 0.0473487 0.047364
0.0492561 0.0493172 0.0493477
0.0515297 0.0515908 0.0516213
0.0539559 0.0540169 0.0540475
0.056733 0.0567636 0.0567941
0.0599832 0.060029 0.060029
0.0638437 0.0638743 0.063859
0.0684062 0.0684215 0.0683909
0.0733806 0.0733959 0.0733501
0.0788281 0.0788586 0.0787823
0.0846723 0.0846876 0.0846113
0.090959 0.0909895 0.0909285
0.097673 0.0976883 0.0976425
0.106477 0.106477 0.106462
0.115923 0.115938 0.115938
0.126116 0.126116 0.126146
0.137057 0.137057 0.137072
0.149203 0.149203 0.149203
0.162753 0.162753 0.162753
0.177752 0.177752 0.177722
0.193927 0.193927 0.193912
0.210819 0.210819 0.210803
0.230518 0.230518 0.230518
0.247333 0.247333 0.247349
0.247333 0.247333 0.247349
0.247333 0.247333 0.247349
0.247333 0.247333 0.247349
0.0475776 0.0476234 0.0476387
0.0482032 0.0482643 0.0482795
0.0490272 0.049073 0.0491035
0.0501106 0.0501717 0.0501869
0.0514534 0.0514992 0.0515145
0.0530404 0.0530861 0.0531167
0.0549172 0.054963 0.0549783
0.0571603 0.0572061 0.0572213
0.0598459 0.0598917 0.0598917
0.0627604 0.0627909 0.0628061
0.0661326 0.0661631 0.0661326
0.0699016 0.0699168 0.0698711
0.0742351 0.0742504 0.0742046
0.0792248 0.0792554 0.0791791
0.0844892 0.0845197 0.0844434
0.0902876 0.0903029 0.0902571
0.0968795 0.0968948 0.096849
0.104158 0.104158 0.104143
0.11191 0.11191 0.111925
0.121477 0.121477 0.121477
0.131426 0.131426 0.131441
0.14229 0.14229 0.142306
0.154482 0.154482 0.154467
0.167956 0.167956 0.167941
0.182559 0.182559 0.182528
0.198245 0.198245 0.19823
0.215564 0.215564 0.215549
0.233936 0.233936 0.233936
0.254673 0.254673 0.254688
0.272465 0.272465 0.27248
0.272465 0.272465 0.27248
0.272465 0.272465 0.27248
0.272465 0.272465 0.27248
0.0559243 0.0559701 0.0560006
0.0565805 0.0566262 0.0566415
0.0574197 0.0574655 0.057496
0.0585641 0.0586099 0.0586252
0.0599374 0.059968 0.0599832
0.0615549 0.0615854 0.0615854
0.0635843 0.0635996 0.0635996
0.0662547 0.0662699 0.0662394
0.0695659 0.0695811 0.0695354
0.0731212 0.0731365 0.0730907
0.0772106 0.0772259 0.0771496
0.0816205 0.0816358 0.0815595
0.0863203 0.0863508 0.0862745
0.0914778 0.0915084 0.0914473
0.0969253 0.0969558 0.09691
0.103227 0.103243 0.103227
0.110857 0.110857 0.110857
0.119554 0.119554 0.119585
0.128603 0.128603 0.128634
0.138598 0.138598 0.138613
0.14905 0.14905 0.14905
0.160586 0.160586 0.160571
0.174258 0.174258 0.174228
0.189105 0.189105 0.189075
0.204791 0.204791 0.204776
0.221286 0.221286 0.221271
0.239643 0.239643 0.239658
0.259831 0.259831 0.259831
0.281636 0.281636 0.281636
0.300282 0.300282 0.300267
0.300282 0.300282 0.300267
0.300282 0.300282 0.300267
0.300282 0.300282 0.300267
0.0671397 0.067155 0.0671244
0.0679484 0.0679637 0.0679332
0.0690471 0.0690623 0.0690318
0.0705272 0.0705425 0.0705119
0.072282 0.0723125 0.0722667
0.0744335 0.074464 0.0743877
0.0769513 0.0769665 0.0769055
0.079881 0.0799115 0.0798505
0.0832685 0.083299 0.0832227
0.0869001 0.0869459 0.0868696
0.0910811 0.0911116 0.0910506
0.0956893 0.0957046 0.0956588
0.101015 0.10103 0.100999
0.107393 0.107408 0.107393
0.114229 0.114244 0.114244
0.121706 0.121706 0.121736
0.12987 0.12987 0.129885
0.138827 0.138827 0.138827
0.148241 0.148241 0.148241
0.159731 0.159731 0.159731
0.171817 0.171817 0.171801
0.185016 0.185016 0.185
0.199237 0.199237 0.199222
0.214771 0.214771 0.214755
0.231693 0.231693 0.231708
0.249882 0.249897 0.249897
0.269444 0.269444 0.269444
0.290166 0.290166 0.290166
0.313146 0.313161 0.31313
0.332815 0.33283 0.332799
0.332815 0.33283 0.332799
0.332815 0.33283 0.332799
0.332815 0.33283 0.332799
0.0806897 0.080705 0.0806439
0.0815595 0.0815747 0.081529
0.0827039 0.0827192 0.0826734
0.0842908 0.0843214 0.0842603
0.0862135 0.086244 0.086183
0.0887007 0.088716 0.0886549
0.0917372 0.0917525 0.0916915
0.095201 0.0952163 0.0951705
0.0991379 0.0991531 0.0991073
0.103334 0.103365 0.103334
0.108156 0.108186 0.108171
0.113451 0.113466 0.113451
0.119417 0.119432 0.119432
0.12636 0.12636 0.126375
0.133959 0.133959 0.133989
0.142367 0.142367 0.142382
0.151659 0.151659 0.151659
0.161639 0.161639 0.161608
0.172107 0.172107 0.172091
0.184543 0.184543 0.184527
0.197696 0.197696 0.197681
0.212146 0.212146 0.212146
0.227695 0.227695 0.227695
0.244526 0.244526 0.244541
0.262592 0.262592 0.262608
0.282017 0.282017 0.282017
0.302876 0.302892 0.302876
0.324804 0.324788 0.324773
0.34873 0.348714 0.348699
0.369131 0.369131 0.369116
0.369131 0.369131 0.369116
0.369131 0.369131 0.369116
0.369131 0.369131 0.369116
0.0973526 0.0973678 0.0973068
0.0982986 0.0983291 0.0982834
0.0995651 0.0995956 0.0995499
0.101228 0.101244 0.101213
0.103288 0.103304 0.103273
0.10602 0.106035 0.10602
0.109499 0.109499 0.109499
0.113527 0.113527 0.113542
0.11812 0.11812 0.11812
0.123125 0.123125 0.12314
0.128969 0.128969 0.128985
0.13521 0.13521 0.135225
0.142 0.142 0.142
0.149371 0.149371 0.149371
0.157427 0.157427 0.157427
0.166598 0.166598 0.166583
0.176974 0.176974 0.176944
0.18854 0.18854 0.18851
0.200473 0.200473 0.200458
0.213642 0.213642 0.213642
0.227741 0.227741 0.227741
0.243061 0.243061 0.243061
0.260121 0.260121 0.260136
0.278401 0.278416 0.278416
0.297658 0.297658 0.297642
0.317998 0.318013 0.317998
0.340032 0.340047 0.340032
0.363516 0.363516 0.3635
0.388266 0.388251 0.388251
0.409277 0.409262 0.409262
0.409277 0.409262 0.409262
0.409277 0.409262 0.409262
0.409277 0.409262 0.409262
0.118654 0.118654 0.118654
0.119799 0.119814 0.119814
0.121324 0.12134 0.12134
0.123354 0.123369 0.123369
0.125902 0.125902 0.125917
0.129 0.129015 0.129015
0.132708 0.132708 0.132723
0.136858 0.136858 0.136858
0.141665 0.141665 0.141665
0.146975 0.146975 0.146975
0.153552 0.153552 0.153552
0.16083 0.16083 0.160815
0.168795 0.168795 0.168765
0.17734 0.17734 0.17731
0.186496 0.186496 0.186481
0.196536 0.196536 0.196521
0.207446 0.207446 0.207446
0.219944 0.219944 0.219944
0.233341 0.233341 0.233356
0.248035 0.248035 0.248035
0.263432 0.263432 0.263432
0.279942 0.279942 0.279927
0.29778 0.29778 0.297765
0.317143 0.317159 0.317143
0.337957 0.337972 0.337942
0.359579 0.359579 0.359564
0.38262 0.382605 0.382605
0.406668 0.406668 0.406653
0.432517 0.432532 0.432517
0.454459 0.45449 0.454459
0.454459 0.45449 0.454459
0.454459 0.45449 0.454459
0.454459 0.45449 0.454459
0.143526 0.143526 0.143526
0.14493 0.14493 0.14493
0.146792 0.146792 0.146807
0.149294 0.149294 0.149294
0.152361 0.152361 0.152346
0.155947 0.155947 0.155947
0.16022 0.16022 0.16022
0.164843 0.164843 0.164828
0.170169 0.170169 0.170153
0.176074 0.176074 0.176059
0.183093 0.183093 0.183078
0.191012 0.191012 0.190982
0.199771 0.199771 0.199756
0.209567 0.209567 0.209552
0.220066 0.220066 0.220066
0.231296 0.231296 0.231296
0.243091 0.243091 0.243091
0.256474 0.256474 0.256474
0.270649 0.270649 0.270649
0.286732 0.286732 0.286732
0.303517 0.303532 0.303517
0.321386 0.321386 0.321355
0.340154 0.340154 0.340139
0.360403 0.360403 0.360388
0.382376 0.382376 0.382361
0.405264 0.405264 0.405249
0.42916 0.429175 0.429145
0.453819 0.453834 0.453819
0.480446 0.480461 0.480446
0.503014 0.503044 0.503014
0.503014 0.503044 0.503014
0.503014 0.503044 0.503014
0.503014 0.503044 0.503014
0.173999 0.173999 0.173983
0.175525 0.175525 0.175509
0.177554 0.177554 0.177539
0.180423 0.180423 0.180407
0.184024 0.184024 0.183993
0.188128 0.188128 0.188113
0.193103 0.193103 0.193088
0.198596 0.198596 0.198581
0.20473 0.20473 0.204715
0.211521 0.211521 0.211521
0.219074 0.219074 0.219059
0.227466 0.227466 0.227451
0.236744 0.236744 0.236728
0.24741 0.24741 0.247425
0.259113 0.259113 0.259113
0.271687 0.271687 0.271687
0.284916 0.284932 0.284916
0.299214 0.299199 0.299184
0.314031 0.314031 0.314015
0.331044 0.331044 0.331029
0.349111 0.349111 0.349096
0.368215 0.368215 0.368185
0.388128 0.388128 0.388113
0.409277 0.409262 0.409262
0.431754 0.431769 0.431754
0.455467 0.455497 0.455467
0.480247 0.480262 0.480247
0.505684 0.505699 0.505684
0.532464 0.532464 0.532464
0.555261 0.555261 0.555245
0.555261 0.555261 0.555245
0.555261 0.555261 0.555245
0.555261 0.555261 0.555245
0.209369 0.209369 0.209369
0.210925 0.210925 0.21091
0.213031 0.213031 0.213031
0.216175 0.216175 0.216175
0.220188 0.220188 0.220188
0.224872 0.224872 0.224872
0.230488 0.230488 0.230488
0.236759 0.236759 0.236744
0.243931 0.243931 0.243915
0.251453 0.251453 0.251453
0.259968 0.259968 0.259953
0.269245 0.269245 0.26923
0.279301 0.279301 0.279286
0.290455 0.290455 0.290455
0.302876 0.302876 0.302861
0.31664 0.316655 0.316625
0.331044 0.331044 0.331014
0.346716 0.3467 0.346685
0.362737 0.362722 0.362707
0.380331 0.380316 0.380316
0.399145 0.399145 0.39913
0.419272 0.419287 0.419272
0.440101 0.440116 0.440085
0.462104 0.462135 0.462104
0.485176 0.485176 0.485176
0.509346 0.509346 0.509346
0.534524 0.534524 0.534524
0.560342 0.560342 0.560342
0.587274 0.587274 0.587274
0.609812 0.609812 0.609796
0.609812 0.609812 0.609796
0.609812 0.609812 0.609796
0.609812 0.609812 0.609796
0.253666 0.253666 0.253651
0.255283 0.255283 0.255283
0.257481 0.257481 0.257481
0.260609 0.260609 0.260609
0.264668 0.264668 0.264668
0.269825 0.269825 0.269841
0.275837 0.275837 0.275837
0.282826 0.282826 0.282841
0.290623 0.290639 0.290623
0.298817 0.298817 0.298817
0.308202 0.308202 0.308186
0.318441 0.318441 0.318425
0.32932 0.329305 0.32929
0.341161 0.341146 0.341146
0.35436 0.35436 0.354345
0.368872 0.368872 0.368856
0.384207 0.384222 0.384192
0.400687 0.400687 0.400671
0.417685 0.41767 0.417655
0.436027 0.436027 0.436011
0.455634 0.45565 0.455634
0.476081 0.476097 0.476081
0.497536 0.497566 0.497536
0.520119 0.520134 0.520119
0.543526 0.543526 0.543526
0.567697 0.567697 0.567681
0.592737 0.592737 0.592737
0.618463 0.618463 0.618463
0.6448 0.644602 0.6448
0.667094 0.666636 0.667079
0.667094 0.666636 0.667079
0.667094 0.666636 0.667079
0.667094 0.666636 0.667079
0.302571 0.302571 0.302541
0.304311 0.304311 0.304295
0.306584 0.306584 0.306569
0.309728 0.309728 0.309712
0.313817 0.313817 0.313802
0.319234 0.319234 0.319234
0.325628 0.325643 0.325628
0.332891 0.332921 0.332891
0.341497 0.341527 0.341497
0.350378 0.350393 0.350362
0.360494 0.360494 0.360464
0.371557 0.371557 0.371527
0.383185 0.383169 0.383154
0.396139 0.396124 0.396124
0.409827 0.409812 0.409812
0.42472 0.424704 0.424704
0.440711 0.440726 0.440711
0.457877 0.457908 0.457877
0.475639 0.47567 0.475639
0.494896 0.494911 0.494896
0.514977 0.514992 0.514977
0.535683 0.535683 0.535668
0.55758 0.55758 0.55758
0.580407 0.580407 0.580407
0.603662 0.603647 0.603662
0.627588 0.627497 0.627588
0.652415 0.652171 0.652399
0.677394 0.676982 0.677409
0.703273 0.702312 0.703304
0.724422 0.722881 0.724498
0.724422 0.722881 0.724498
0.724422 0.722881 0.724498
0.724422 0.722881 0.724498
0.359976 0.35996 0.359945
0.361913 0.361898 0.361883
0.364431 0.364416 0.364416
0.367941 0.367926 0.36791
0.372519 0.372503 0.372488
0.378088 0.378073 0.378073
0.384817 0.384817 0.384817
0.392538 0.392569 0.392538
0.401297 0.401328 0.401297
0.410681 0.410697 0.410681
0.421302 0.421317 0.421302
0.432959 0.432975 0.432944
0.445228 0.445243 0.445212
0.458701 0.458717 0.458686
0.472953 0.472953 0.472938
0.488304 0.488304 0.488289
0.504616 0.504616 0.504601
0.522118 0.522118 0.522118
0.5402 0.540215 0.5402
0.559503 0.559518 0.559503
0.579263 0.579248 0.579263
0.599863 0.599817 0.599863
0.621439 0.621347 0.621439
0.643626 0.643488 0.643626
0.666621 0.6663 0.666636
0.68954 0.688502 0.689586
0.713085 0.710887 0.713176
0.736629 0.733043 0.736797
0.760769 0.756252 0.761242
0.780575 0.77557 0.78143
0.780575 0.77557 0.78143
0.780575 0.77557 0.78143
0.780575 0.77557 0.78143
0.422965 0.422965 0.422934
0.424949 0.424949 0.424933
0.42739 0.427375 0.427359
0.431144 0.431144 0.431128
0.436027 0.436027 0.436011
0.441825 0.441825 0.441825
0.448646 0.448646 0.448646
0.456428 0.456428 0.456428
0.465476 0.465492 0.465476
0.475212 0.475227 0.475212
0.486427 0.486458 0.486427
0.498177 0.498192 0.498177
0.510857 0.510887 0.510857
0.524498 0.524529 0.524498
0.538979 0.538979 0.538964
0.55465 0.55465 0.554635
0.570947 0.570947 0.570932
0.588464 0.588464 0.588464
0.606577 0.606577 0.606577
0.625788 0.625772 0.625803
0.645228 0.644938 0.645228
0.665095 0.664271 0.66508
0.685679 0.684184 0.685679
0.707225 0.704997 0.707225
0.729168 0.726329 0.729305
0.750088 0.747295 0.75079
0.771054 0.768612 0.772641
0.791989 0.789914 0.794537
0.813367 0.811704 0.81648
0.831052 0.829831 0.834516
0.831052 0.829831 0.834516
0.831052 0.829831 0.834516
0.831052 0.829831 0.834516
0.491234 0.491249 0.491234
0.493126 0.493141 0.493126
0.49601 0.49604 0.49601
0.499855 0.499886 0.499855
0.504723 0.504738 0.504723
0.510628 0.510628 0.510628
0.517601 0.517601 0.517601
0.525505 0.525505 0.52549
0.534691 0.534707 0.534691
0.544594 0.54461 0.544594
0.555673 0.555673 0.555673
0.567544 0.567559 0.567559
0.580423 0.580438 0.580423
0.594186 0.594171 0.594186
0.60853 0.608423 0.60853
0.623697 0.623392 0.623682
0.639612 0.639139 0.639597
0.656748 0.656077 0.656748
0.674403 0.673518 0.674418
0.692912 0.691905 0.692973
0.711345 0.710002 0.711574
0.72987 0.727886 0.730373
0.748943 0.74609 0.749722
0.768765 0.764904 0.769787
0.788891 0.78439 0.790204
0.807462 0.804334 0.809583
0.825284 0.82472 0.82855
0.843351 0.845899 0.847959
0.861616 0.866255 0.866651
0.877089 0.88307 0.882078
0.877089 0.88307 0.882078
0.877089 0.88307 0.882078
0.877089 0.88307 0.882078
0.564446 0.564462 0.564446
0.566155 0.56614 0.566155
0.568856 0.568841 0.568856
0.572763 0.572747 0.572763
0.5776 0.577569 0.5776
0.583352 0.583322 0.583352
0.590265 0.590219 0.590249
0.598123 0.598077 0.598108
0.607202 0.607156 0.607187
0.616922 0.616876 0.616907
0.627787 0.627756 0.627802
0.639399 0.639368 0.639414
0.651942 0.651911 0.651957
0.665614 0.665522 0.665629
0.679408 0.678798 0.679393
0.693782 0.692287 0.693782
0.708919 0.706462 0.708919
0.725063 0.721569 0.725063
0.741772 0.73727 0.741802
0.759091 0.754055 0.75935
0.775433 0.771237 0.776547
0.791028 0.788983 0.793576
0.807172 0.807233 0.8112
0.824018 0.825956 0.829267
0.841428 0.844633 0.847074
0.858824 0.862043 0.862821
0.876249 0.879149 0.87776
0.893935 0.896712 0.892866
0.91014 0.913054 0.908293
0.922988 0.925994 0.920882
0.922988 0.925994 0.920882
0.922988 0.925994 0.920882
0.922988 0.925994 0.920882
0.63978 0.639704 0.63978
0.641337 0.641154 0.641337
0.643915 0.643595 0.643915
0.647623 0.647135 0.647623
0.652201 0.651545 0.652201
0.657862 0.657008 0.657862
0.664332 0.663264 0.664317
0.671839 0.670542 0.671839
0.680598 0.679011 0.680583
0.689921 0.688045 0.689906
0.700404 0.698222 0.70042
0.711574 0.709072 0.711604
0.723339 0.720775 0.723461
0.735714 0.7337 0.736202
0.748028 0.746303 0.748974
0.760815 0.759106 0.762264
0.774243 0.772503 0.776226
0.78854 0.78677 0.791074
0.803479 0.801587 0.806455
0.818891 0.816175 0.821317
0.833646 0.831617 0.835935
0.847745 0.847837 0.850263
0.862394 0.864683 0.865095
0.876997 0.881498 0.880247
0.891615 0.897673 0.895262
0.906493 0.911727 0.908415
0.921675 0.925093 0.920882
0.937209 0.93875 0.933516
0.94966 0.950118 0.945052
0.959014 0.958785 0.954192
0.959014 0.958785 0.954192
0.959014 0.958785 0.954192
0.959014 0.958785 0.954192
0.714153 0.713405 0.714656
0.715602 0.714763 0.716136
0.718105 0.717144 0.718669
0.721355 0.720211 0.721965
0.725505 0.724147 0.726177
0.730709 0.729091 0.731472
0.736584 0.734646 0.737408
0.743481 0.741207 0.744411
0.751369 0.748653 0.752377
0.760037 0.756832 0.761151
0.769879 0.766033 0.770993
0.780285 0.77557 0.781216
0.790967 0.785855 0.791852
0.801404 0.797543 0.802853
0.811749 0.809522 0.813962
0.822614 0.822263 0.825711
0.833921 0.835538 0.837949
0.84596 0.849775 0.851225
0.858289 0.864042 0.864591
0.871519 0.876554 0.876204
0.884855 0.889052 0.88748
0.898741 0.901884 0.898756
0.913054 0.915114 0.910201
0.92607 0.927535 0.921782
0.937377 0.93875 0.93344
0.94818 0.949264 0.945144
0.958633 0.959319 0.956603
0.968963 0.969223 0.96788
0.976089 0.975891 0.975128
0.981277 0.980743 0.980285
0.981277 0.980743 0.980285
0.981277 0.980743 0.980285
0.981277 0.980743 0.980285
0.784985 0.782391 0.78706
0.785962 0.783734 0.788235
0.787854 0.786038 0.790356
0.790341 0.789029 0.793149
0.793866 0.793149 0.797055
0.798047 0.797971 0.801663
0.803128 0.803738 0.807233
0.808835 0.810178 0.813443
0.815579 0.817777 0.820798
0.822995 0.825986 0.828748
0.831418 0.834821 0.837354
0.840467 0.843183 0.845487
0.849989 0.851667 0.853544
0.859648 0.861143 0.861952
0.869596 0.871107 0.870649
0.880308 0.882002 0.880049
0.891463 0.893385 0.88983
0.901946 0.904677 0.900435
0.911925 0.915572 0.911208
0.921752 0.925109 0.921202
0.932158 0.934905 0.931426
0.942901 0.944732 0.941588
0.953216 0.954025 0.950881
0.962142 0.962158 0.959197
0.969482 0.969177 0.966705
0.976623 0.976364 0.974578
0.982834 0.982681 0.981765
0.988067 0.987945 0.987991
0.991348 0.991104 0.991424
0.993652 0.993317 0.993713
0.993652 0.993317 0.993713
0.993652 0.993317 0.993713
0.993652 0.993317 0.993713
0.848615 0.847959 0.849867
0.849577 0.849058 0.850813
0.851133 0.850874 0.852399
0.853681 0.853803 0.854963
0.857023 0.857633 0.85832
0.860868 0.862043 0.862226
0.865293 0.867201 0.866835
0.870054 0.872831 0.871962
0.875502 0.879469 0.878294
0.8813 0.886519 0.885069
0.887877 0.894011 0.892271
0.895079 0.900954 0.898924
0.902815 0.90779 0.905394
