luts/varicam_official/BandW_LoCon Dark.cube
TITLE "Generated by Resolve"
LUT_3D_SIZE 5
0.0735332 0.0735485 0.0734874
0.0937209 0.0937514 0.0936904
0.120241 0.120241 0.120272
0.152193 0.152193 0.152193
0.192065 0.192065 0.19205
0.162478 0.162478 0.162463
0.203845 0.203845 0.20383
0.251347 0.251347 0.251362
0.305791 0.305791 0.305791
0.368246 0.368246 0.368215
0.325292 0.325307 0.325277
0.388113 0.388083 0.388083
0.45623 0.45626 0.45623
0.52813 0.52813 0.52813
0.603357 0.603357 0.603357
0.55404 0.55404 0.55404
0.627787 0.627787 0.627787
0.70074 0.700008 0.700755
0.770779 0.764858 0.770932
0.830335 0.83061 0.835386
0.794812 0.787884 0.795514
0.848371 0.85391 0.856229
0.903304 0.90811 0.90309
0.949844 0.949844 0.943496
0.978851 0.978515 0.978561
0.0820783 0.0821088 0.0820172
0.103365 0.103365 0.103365
0.133181 0.133181 0.133196
0.167681 0.167681 0.167666
0.210117 0.210117 0.210101
0.17995 0.17995 0.179934
0.223102 0.223102 0.223087
0.274083 0.274083 0.274083
0.331151 0.331167 0.331136
0.395438 0.395407 0.395407
0.352041 0.352041 0.35201
0.416648 0.416648 0.416648
0.486595 0.48661 0.486595
0.559823 0.559823 0.559823
0.634592 0.634592 0.634592
0.585779 0.585779 0.585779
0.658976 0.658976 0.658991
0.731029 0.728496 0.731029
0.797955 0.792218 0.799283
0.852689 0.858793 0.860533
0.818952 0.815885 0.822202
0.87129 0.880537 0.879789
0.927474 0.928695 0.920211
0.963745 0.963745 0.960769
0.986633 0.986023 0.986664
0.090898 0.0909285 0.0908522
0.115846 0.115846 0.115862
0.14696 0.14696 0.146975
0.185214 0.185214 0.185183
0.229541 0.229541 0.229557
0.198001 0.198001 0.197986
0.243961 0.243961 0.243977
0.297292 0.297292 0.297292
0.358328 0.358328 0.358297
0.424308 0.424323 0.424308
0.379309 0.379294 0.379278
0.446082 0.446097 0.446082
0.517311 0.517311 0.517311
0.591714 0.591714 0.591714
0.666056 0.666056 0.666056
0.617426 0.617426 0.617426
0.69041 0.690044 0.690425
0.760708 0.755474 0.760723
0.822324 0.820264 0.826123
0.875914 0.884306 0.882994
0.841245 0.844724 0.848005
0.895155 0.901183 0.897276
0.9449 0.94493 0.937453
0.975616 0.975418 0.974975
0.992966 0.992538 0.992996
0.0998703 0.0998703 0.099855
0.128954 0.128954 0.128985
0.162188 0.162188 0.162173
0.203632 0.203632 0.203601
0.251728 0.251728 0.251728
0.216938 0.216938 0.216938
0.26656 0.26656 0.26656
0.322087 0.322118 0.322087
0.385412 0.385382 0.385382
0.454505 0.454536 0.454505
0.407462 0.407462 0.407446
0.476631 0.476646 0.476631
0.549081 0.549081 0.549081
0.623667 0.623667 0.623667
0.697688 0.697459 0.697719
0.649073 0.649073 0.649073
0.721096 0.71928 0.721111
0.78909 0.782895 0.789868
0.844923 0.84921 0.852003
0.899947 0.905257 0.900694
0.863767 0.873365 0.873579
0.919432 0.921828 0.914519
0.959014 0.959014 0.954894
0.984115 0.983597 0.984131
0.996735 0.996582 0.996811
0.112276 0.112276 0.112291
0.142672 0.142672 0.142687
0.179507 0.179507 0.179477
0.222293 0.222293 0.222293
0.274739 0.274739 0.274723
0.237766 0.237766 0.237781
0.289967 0.289967 0.289952
0.349401 0.349416 0.349386
0.414267 0.414267 0.414267
0.485115 0.48513 0.485115
0.437201 0.437217 0.437201
0.507546 0.507546 0.507546
0.581415 0.581415 0.581415
0.655467 0.655467 0.655467
0.728573 0.726452 0.728573
0.68098 0.680858 0.68101
0.751339 0.747005 0.751339
0.814618 0.810895 0.817441
0.867964 0.876127 0.875853
0.924468 0.926131 0.918059
0.88777 0.894896 0.891981
0.939834 0.940093 0.932021
0.972274 0.972183 0.971115
0.991226 0.990677 0.991241
0.998428 0.998306 0.998505
