luts/varicam_official/BandW_MidCon.cube
TITLE "Generated by Resolve"
LUT_3D_SIZE 9
0.0437781 0.0438239 0.0438392
0.050309 0.0503548 0.0503853
0.0570077 0.0570382 0.0570535
0.0645151 0.0645151 0.0644999
0.0753185 0.075349 0.075288
0.0866102 0.0866255 0.0865644
0.0984512 0.0984665 0.098436
0.113649 0.113649 0.11368
0.131228 0.131228 0.131258
0.0684672 0.0684825 0.068452
0.0784009 0.0784314 0.0783551
0.0897841 0.0898146 0.0897383
0.103029 0.103059 0.103029
0.117922 0.117937 0.117937
0.13489 0.13489 0.134905
0.154696 0.154696 0.154696
0.176516 0.176516 0.176501
0.20061 0.20061 0.200595
0.106462 0.106462 0.106477
0.12285 0.12285 0.122881
0.140383 0.140383 0.140398
0.159319 0.159319 0.159304
0.182086 0.182086 0.182055
0.207523 0.207523 0.207507
0.234775 0.234775 0.234791
0.264988 0.264988 0.265003
0.298878 0.298894 0.298863
0.167559 0.167559 0.167544
0.190295 0.190295 0.19028
0.214588 0.214588 0.214572
0.243229 0.243229 0.243229
0.274174 0.274174 0.274174
0.307118 0.307134 0.307118
0.343709 0.343725 0.343694
0.382895 0.382895 0.382879
0.423987 0.423987 0.423972
0.254612 0.254612 0.254612
0.285466 0.285466 0.285451
0.319722 0.319722 0.319707
0.355779 0.355764 0.355749
0.394018 0.394003 0.393988
0.436164 0.436179 0.436164
0.479652 0.479667 0.479652
0.52459 0.524605 0.52459
0.57116 0.57116 0.57116
0.370443 0.370459 0.370428
0.409873 0.409888 0.409857
0.451133 0.451164 0.451133
0.494209 0.494255 0.494209
0.539437 0.539437 0.539437
0.585946 0.585946 0.585946
0.632273 0.632227 0.632258
0.678828 0.677974 0.678828
0.725292 0.722347 0.725307
0.511772 0.511772 0.511772
0.556481 0.556481 0.556481
0.60238 0.60238 0.60238
0.6486 0.648585 0.6486
0.695171 0.695003 0.695186
0.739834 0.737148 0.740063
0.781582 0.778225 0.7832
0.820691 0.820722 0.825254
0.85687 0.862669 0.863844
0.666865 0.666545 0.666865
0.711757 0.709621 0.711772
0.756527 0.751385 0.756527
0.799359 0.792187 0.800153
0.834287 0.833982 0.838254
0.869276 0.873121 0.872724
0.905531 0.909331 0.904005
0.936599 0.937728 0.931243
0.960739 0.960616 0.956863
0.811322 0.8103 0.815076
0.847303 0.852872 0.855131
0.881926 0.88954 0.887602
0.915068 0.918959 0.914351
0.944457 0.945617 0.941009
0.968719 0.968688 0.966766
0.982635 0.982422 0.982315
0.99205 0.991791 0.992157
0.997864 0.997696 0.997955
0.0465705 0.0466163 0.0466316
0.0530404 0.0530861 0.0531167
0.06009 0.0601053 0.0601053
0.068986 0.068986 0.0689555
0.0799725 0.0799878 0.0799268
0.0913252 0.0913558 0.0912947
0.104051 0.104067 0.104051
0.12076 0.12076 0.12079
0.138552 0.138552 0.138582
0.0726024 0.0726177 0.0725719
0.082948 0.0829786 0.082887
0.09514 0.0951705 0.0951095
0.109041 0.109056 0.109041
0.124804 0.124804 0.124834
0.142855 0.142855 0.142855
0.163592 0.163592 0.163592
0.186297 0.186297 0.186282
0.211246 0.211246 0.211231
0.11313 0.11313 0.113161
0.130007 0.130007 0.130022
0.148302 0.148302 0.148302
0.168307 0.168307 0.168292
0.192432 0.192432 0.192401
0.218738 0.218738 0.218738
0.246906 0.246906 0.246906
0.278691 0.278691 0.278691
0.313466 0.313481 0.313451
0.177066 0.177066 0.17705
0.200473 0.200473 0.200443
0.226154 0.226154 0.226154
0.256062 0.256062 0.256046
0.28777 0.28777 0.287755
0.32134 0.32137 0.32134
0.359838 0.359854 0.359823
0.399908 0.399924 0.399893
0.441215 0.44123 0.441215
0.267323 0.267323 0.267308
0.299565 0.299565 0.29955
0.33489 0.33489 0.334874
0.371862 0.371847 0.371832
0.411322 0.411322 0.411307
0.454383 0.454398 0.454383
0.498405 0.498405 0.498405
0.543542 0.543542 0.543542
0.590738 0.590738 0.590723
0.387091 0.387106 0.387076
0.427359 0.427375 0.427344
0.468757 0.468788 0.468757
0.513237 0.513252 0.513237
0.558907 0.558907 0.558907
0.605127 0.605127 0.605127
0.651759 0.651514 0.651743
0.698405 0.696834 0.698405
0.744076 0.73991 0.744076
0.530983 0.530999 0.530983
0.575769 0.575769 0.575769
0.622126 0.622126 0.622126
0.668391 0.66836 0.668391
0.714519 0.713832 0.714519
0.757977 0.754513 0.758587
0.798398 0.795956 0.801068
0.835996 0.838621 0.842222
0.872053 0.878386 0.877516
0.686107 0.685145 0.686107
0.731044 0.727764 0.73106
0.775479 0.768795 0.77554
0.814374 0.810025 0.816693
0.849073 0.851057 0.853361
0.884382 0.888747 0.886336
0.91989 0.922454 0.915663
0.947311 0.947784 0.942229
0.968429 0.968139 0.965957
0.827085 0.828458 0.832441
0.861769 0.870481 0.870985
0.896559 0.902586 0.899184
0.928023 0.930571 0.925628
0.955474 0.955917 0.952132
0.975708 0.975662 0.974823
0.987198 0.986954 0.987167
0.994797 0.994553 0.994904
0.99881 0.998703 0.998871
0.0493935 0.0494392 0.0494698
0.0559701 0.0560006 0.0560311
0.0633707 0.0633707 0.0633555
0.0736095 0.0736095 0.0735637
0.0847334 0.0847639 0.0846876
0.0960555 0.0960708 0.0960403
0.110826 0.110842 0.110857
0.128145 0.128145 0.128176
0.14609 0.14609 0.146105
0.0769818 0.076997 0.076936
0.0878004 0.0878309 0.0877546
0.100893 0.100908 0.100877
0.115496 0.115511 0.115511
0.131884 0.131884 0.131914
0.151293 0.151293 0.151308
0.17261 0.17261 0.172595
0.196231 0.196231 0.196216
0.223056 0.223056 0.223056
0.120516 0.120516 0.120546
0.137667 0.137667 0.137682
0.156512 0.156512 0.156497
0.178439 0.178439 0.178408
0.203311 0.203311 0.203296
0.230167 0.230167 0.230167
0.259617 0.259617 0.259617
0.29305 0.29305 0.293034
0.328283 0.328283 0.328252
0.187091 0.187091 0.187076
0.210834 0.210834 0.210819
0.238544 0.238544 0.238544
0.269368 0.269368 0.269368
0.301518 0.301534 0.301518
0.337362 0.337392 0.337346
0.37641 0.376425 0.376394
0.416876 0.416876 0.416861
0.459571 0.459586 0.459571
0.280812 0.280812 0.280781
0.314565 0.314565 0.314549
0.350256 0.35024 0.350225
0.388128 0.388113 0.388113
0.429389 0.429389 0.429389
0.472435 0.472435 0.472435
0.517174 0.517189 0.517174
0.563394 0.563394 0.563394
0.610376 0.610376 0.610376
0.404395 0.40441 0.404379
0.444816 0.444846 0.444816
0.487511 0.487541 0.487511
0.532601 0.532601 0.532601
0.578378 0.578378 0.578378
0.624979 0.624979 0.624964
0.67155 0.670909 0.671534
0.717632 0.715114 0.717632
0.763256 0.75761 0.763256
0.550271 0.550271 0.550271
0.595636 0.595636 0.595636
0.641611 0.641611 0.641627
0.688273 0.68809 0.688273
0.733333 0.73109 0.733455
0.775204 0.771649 0.776486
0.814633 0.813825 0.818616
0.851164 0.856321 0.858274
0.887175 0.893126 0.890333
0.705653 0.703838 0.705669
0.750103 0.74548 0.750134
0.794186 0.785992 0.794354
0.829175 0.827817 0.832761
0.863859 0.867353 0.867674
0.899718 0.903853 0.899351
0.932631 0.933974 0.927108
0.956909 0.95697 0.952667
0.975616 0.975174 0.974365
0.8421 0.846326 0.849042
0.876905 0.885374 0.883955
0.910399 0.914824 0.91046
0.940124 0.941604 0.936812
0.966049 0.966049 0.963623
0.981674 0.981613 0.981476
0.990829 0.99057 0.990921
0.997147 0.996979 0.997253
0.999283 0.999207 0.999313
0.0522164 0.0522621 0.0522927
0.0590219 0.0590524 0.0590677
0.0673686 0.0673838 0.0673533
0.0782788 0.0783093 0.078233
0.0895552 0.0895857 0.0895247
0.101198 0.101198 0.101198
0.117906 0.117906 0.117937
0.135592 0.135592 0.135607
0.154086 0.154086 0.15407
0.0815747 0.0816052 0.0815137
0.0932631 0.0932937 0.0932174
0.106859 0.106874 0.106859
0.122332 0.122332 0.122347
0.139773 0.139773 0.139788
0.159976 0.159976 0.159976
0.182406 0.182406 0.182391
0.206851 0.206851 0.206836
0.235172 0.235172 0.235172
0.127855 0.127855 0.127886
0.145403 0.145403 0.145418
0.165255 0.165255 0.165225
0.188846 0.188846 0.18883
0.214527 0.214527 0.214511
0.242329 0.242329 0.242344
0.273335 0.273335 0.273335
0.307622 0.307622 0.307607
0.343648 0.343664 0.343633
0.197406 0.197406 0.197391
0.222171 0.222171 0.222156
0.251347 0.251347 0.251347
0.282963 0.282963 0.282963
0.315679 0.315694 0.315663
0.353552 0.353567 0.353536
0.393332 0.393332 0.393317
0.434424 0.43444 0.434424
0.478294 0.478325 0.478294
0.295125 0.29514 0.295109
0.32961 0.32961 0.329595
0.366201 0.366186 0.366186
0.405203 0.405188 0.405188
0.44741 0.44741 0.44741
0.491279 0.491279 0.491279
0.536095 0.536095 0.536095
0.582956 0.582956 0.582956
0.630289 0.630289 0.630289
0.42179 0.421805 0.42179
0.462791 0.462821 0.462791
0.506508 0.506539 0.506508
0.552193 0.552193 0.552193
0.598215 0.598215 0.598199
0.644556 0.644434 0.644541
0.691142 0.689876 0.691142
0.736919 0.733257 0.736934
0.781231 0.775082 0.781704
0.569558 0.569558 0.569558
0.615335 0.615335 0.615335
0.661692 0.661677 0.661707
0.707637 0.706996 0.707637
0.751385 0.748074 0.751812
0.79237 0.789487 0.794629
0.830304 0.831861 0.835874
0.866239 0.872526 0.872435
0.902266 0.907027 0.902525
0.725032 0.722133 0.725032
0.7691 0.763088 0.769207
0.809674 0.803784 0.811337
0.843961 0.845212 0.848188
0.879088 0.883375 0.881666
0.915022 0.91812 0.911574
0.94461 0.945037 0.938567
0.965591 0.965362 0.96257
0.982162 0.981567 0.981811
0.857099 0.864347 0.8654
0.891676 0.898436 0.89543
0.923766 0.926741 0.921874
0.951751 0.952407 0.948272
0.973068 0.973022 0.971771
0.986145 0.985992 0.986145
0.99382 0.993545 0.993942
0.998566 0.998459 0.998642
0.999634 0.999588 0.999634
0.0551614 0.0551919 0.0552224
0.0623026 0.0623178 0.0623178
0.0719463 0.0719615 0.0719005
0.0830854 0.0831159 0.0830396
0.0944686 0.0944839 0.0944381
0.108049 0.108049 0.108064
0.125246 0.125246 0.125277
0.143145 0.143145 0.143145
0.163043 0.163043 0.163027
0.0863203 0.0863508 0.0862593
0.0990616 0.0990768 0.0990311
0.113252 0.113268 0.113252
0.129305 0.129305 0.129335
0.148318 0.148318 0.148333
0.169329 0.169329 0.169299
0.192355 0.192355 0.192325
0.218555 0.218555 0.218555
0.247868 0.247868 0.247868
0.13547 0.13547 0.135485
0.153841 0.153841 0.153826
0.174838 0.174838 0.174807
0.199619 0.199619 0.199603
0.226123 0.226123 0.226123
0.254627 0.254627 0.254643
0.287465 0.28748 0.287465
0.322515 0.32253 0.322499
0.35938 0.35938 0.359365
0.207782 0.207782 0.207782
0.234836 0.234836 0.234836
0.264805 0.264805 0.264805
0.296559 0.296559 0.296559
0.331868 0.331884 0.331853
0.370367 0.370382 0.370352
0.410239 0.410239 0.410224
0.452537 0.452567 0.452537
0.497475 0.49749 0.497475
0.310079 0.310079 0.310048
0.345418 0.345403 0.345388
0.3823 0.382269 0.382269
0.423255 0.42327 0.423255
0.466163 0.466163 0.466163
0.509957 0.509957 0.509957
0.555932 0.555932 0.555932
0.602991 0.602991 0.602975
0.650111 0.650111 0.650126
0.439384 0.439399 0.439384
0.481666 0.481712 0.481666
0.526101 0.526116 0.526101
0.571633 0.571633 0.571633
0.618067 0.618067 0.618051
0.664469 0.663996 0.664454
0.710475 0.708354 0.710475
0.756237 0.751171 0.756252
0.798093 0.793301 0.799786
0.589563 0.589563 0.589563
0.635431 0.635431 0.635431
0.681331 0.681193 0.681346
0.726955 0.725048 0.727001
0.769314 0.765698 0.770336
0.808728 0.807218 0.812192
0.845685 0.850141 0.852842
0.881712 0.887907 0.885679
0.916503 0.919768 0.91397
0.744213 0.740047 0.744213
0.787594 0.780697 0.788037
0.824308 0.822034 0.827619
0.858763 0.861814 0.862821
0.894469 0.898787 0.894987
0.92813 0.9299 0.923049
0.954742 0.954711 0.949508
0.973068 0.972671 0.971405
0.987305 0.986679 0.98735
0.872236 0.880842 0.880003
0.90602 0.910964 0.906844
0.936156 0.937972 0.933089
0.962646 0.962753 0.959823
0.979141 0.979019 0.978561
0.989746 0.989517 0.989837
0.996368 0.996155 0.996475
0.99913 0.999039 0.999161
0.999832 0.999817 0.999847
0.0581369 0.0581521 0.0581674
0.0660258 0.0660258 0.0660105
0.0767834 0.0768139 0.0767529
0.0878767 0.087892 0.0878309
0.0995804 0.0995956 0.0995804
0.115267 0.115267 0.115297
0.132692 0.132692 0.132708
0.150988 0.150988 0.150988
0.173068 0.173068 0.173037
0.0917525 0.091783 0.091722
0.105043 0.105058 0.105043
0.12018 0.12018 0.120195
0.137179 0.137179 0.137194
0.157015 0.157015 0.157015
0.179049 0.179049 0.179019
0.202777 0.202777 0.202762
0.230442 0.230442 0.230442
0.260975 0.260975 0.26096
0.143236 0.143236 0.143252
0.1626 0.1626 0.162585
0.185519 0.185519 0.185489
0.210575 0.210575 0.210575
0.238178 0.238178 0.238178
0.268482 0.268482 0.268482
0.302098 0.302113 0.302083
0.337972 0.337972 0.337957
0.375814 0.375799 0.375784
0.21857 0.21857 0.21857
0.247623 0.247623 0.247608
0.278737 0.278737 0.278721
0.311025 0.31104 0.311025
0.348135 0.34815 0.348119
0.387442 0.387442 0.387427
0.427863 0.427878 0.427863
0.471138 0.471168 0.471138
0.516899 0.516915 0.516899
0.325154 0.325154 0.325124
0.361501 0.361486 0.361486
0.399603 0.399588 0.399588
0.44126 0.441276 0.44126
0.484932 0.484947 0.484932
0.529381 0.529381 0.529381
0.575814 0.575814 0.575814
0.623087 0.623087 0.623087
0.670298 0.670298 0.670314
0.457572 0.457603 0.457572
0.50074 0.500771 0.50074
0.545693 0.545708 0.545693
0.591714 0.591714 0.591714
0.637766 0.63769 0.637751
0.684138 0.683101 0.684123
0.730053 0.726833 0.730053
0.774777 0.768429 0.774914
0.814206 0.811688 0.817395
0.609308 0.609308 0.609323
0.655619 0.655619 0.655634
0.701442 0.700999 0.701442
0.745373 0.742306 0.745647
0.786618 0.783413 0.78851
0.824903 0.825528 0.829877
0.860761 0.866468 0.867124
0.897368 0.902678 0.898314
0.930022 0.931868 0.92549
0.763577 0.7579 0.763577
0.804395 0.798245 0.805768
0.839017 0.839521 0.843153
0.873915 0.878035 0.877028
0.90985 0.91339 0.907485
0.939742 0.940658 0.934325
0.963012 0.962844 0.959503
0.979797 0.979232 0.979171
0.990677 0.990173 0.990723
0.887144 0.894347 0.891814
0.919722 0.923125 0.918349
0.948196 0.949096 0.944701
0.970825 0.970779 0.969177
0.984314 0.984115 0.984161
0.992889 0.992645 0.992996
0.998352 0.99823 0.998444
0.999573 0.999527 0.999588
0.999954 0.999939 0.999954
0.0613718 0.061387 0.061387
0.0707561 0.0707713 0.0707256
0.0816968 0.0817273 0.0816663
0.0927901 0.0928206 0.0927596
0.105852 0.105852 0.105852
0.122759 0.122759 0.122774
0.140383 0.140383 0.140398
0.159197 0.159197 0.159182
0.183597 0.183597 0.183566
0.0974136 0.0974441 0.0973983
0.111559 0.111574 0.111574
0.127291 0.127291 0.127306
0.145434 0.145434 0.145434
0.166278 0.166278 0.166262
0.189029 0.189029 0.188998
0.214237 0.214237 0.214237
0.243015 0.243015 0.243015
0.274144 0.274144 0.274144
0.151461 0.151461 0.151461
0.171908 0.171908 0.171878
0.196429 0.196429 0.196399
0.222278 0.222278 0.222293
0.250538 0.250538 0.250538
0.282872 0.282872 0.282872
0.317174 0.317189 0.317159
0.353536 0.353536 0.353506
0.393317 0.393317 0.393301
0.230808 0.230808 0.230793
0.261173 0.261173 0.261173
0.292653 0.292653 0.292638
0.326314 0.326329 0.326299
0.364797 0.364797 0.364782
0.404456 0.404456 0.40444
0.445686 0.445716 0.445686
0.490471 0.490501 0.490471
0.536278 0.536278 0.536278
0.340841 0.340825 0.34081
0.377554 0.377539 0.377523
0.417746 0.417746 0.417731
0.460121 0.460136 0.460121
0.503914 0.503914 0.503914
0.549477 0.549477 0.549477
0.596094 0.596094 0.596078
0.642939 0.642939 0.642939
0.690333 0.690181 0.690349
0.475837 0.475883 0.475837
0.52047 0.520485 0.52047
0.565744 0.565744 0.565744
0.611551 0.611551 0.611536
0.657832 0.657481 0.657816
0.703853 0.702037 0.703853
0.74931 0.744778 0.749325
0.792248 0.786709 0.793408
0.82948 0.829801 0.834211
0.629587 0.629587 0.629602
0.675486 0.675486 0.675486
0.72105 0.719738 0.72108
0.763531 0.75993 0.764324
0.803311 0.801266 0.806332
0.840574 0.844083 0.847333
0.87628 0.882277 0.880858
0.911925 0.91574 0.910018
0.942489 0.943206 0.93695
0.782589 0.775174 0.782605
0.819867 0.816663 0.822721
0.854154 0.856733 0.858351
0.889296 0.893675 0.890578
0.923903 0.92607 0.919295
0.950271 0.950607 0.945418
0.97052 0.970214 0.968429
0.985946 0.985245 0.986007
0.993683 0.993301 0.993698
0.901869 0.907332 0.903502
0.932525 0.934661 0.929732
0.959411 0.95967 0.956313
0.977325 0.977218 0.976547
0.988479 0.98822 0.988525
0.99559 0.995377 0.995712
0.998947 0.998856 0.999008
0.999878 0.999878 0.999893
1 1 1
0.0649729 0.0649729 0.0649577
0.0756085 0.0756237 0.0755779
0.0865644 0.0865949 0.0865187
0.0979934 0.0980087 0.0979629
0.113008 0.113008 0.113024
0.130297 0.130297 0.130312
0.148455 0.148455 0.148455
0.169223 0.169223 0.169192
0.194095 0.194095 0.19408
0.103502 0.103517 0.103487
0.118257 0.118273 0.118288
0.134874 0.134874 0.134905
0.154284 0.154284 0.154284
0.175753 0.175753 0.175738
0.199481 0.199481 0.199466
0.226337 0.226337 0.226337
0.255772 0.255772 0.255772
0.287892 0.287892 0.287877
0.160235 0.160235 0.16022
0.18262 0.18262 0.182589
0.207523 0.207523 0.207507
0.234485 0.234485 0.234501
0.26392 0.26392 0.26392
0.297307 0.297322 0.297307
0.332662 0.332662 0.332631
0.369833 0.369818 0.369802
0.410864 0.410864 0.410849
0.243763 0.243763 0.243763
0.274662 0.274662 0.274647
0.306966 0.306966 0.30695
0.342855 0.342855 0.342824
0.381567 0.381582 0.381552
0.422293 0.422309 0.422278
0.464866 0.464897 0.464866
0.509636 0.509667 0.509636
0.556146 0.556146 0.556146
0.356863 0.356863 0.356847
0.394415 0.3944 0.3944
0.436103 0.436118 0.436103
0.479255 0.479271 0.479255
0.523201 0.523201 0.523201
0.56939 0.56939 0.569375
0.616342 0.616342 0.616327
0.663203 0.663203 0.663218
0.710094 0.70898 0.710109
0.495323 0.495354 0.495323
0.540032 0.540032 0.540032
0.585901 0.585901 0.585885
0.631662 0.631632 0.631632
0.677577 0.676768 0.677577
0.723705 0.720851 0.723705
0.768841 0.762707 0.768841
0.808637 0.804974 0.81117
0.844739 0.847791 0.850523
0.649531 0.649531 0.649531
0.695705 0.695506 0.695705
0.739818 0.737148 0.740032
0.781003 0.77763 0.782589
0.81976 0.819623 0.824216
0.855711 0.861204 0.862547
0.891676 0.897063 0.893767
0.925536 0.927825 0.921508
0.953597 0.953582 0.948135
0.801205 0.79295 0.801633
0.834714 0.834424 0.838636
0.869474 0.87335 0.872923
0.905074 0.908904 0.903655
0.936355 0.937423 0.930678
0.959731 0.959701 0.955947
0.977646 0.977157 0.976699
0.989548 0.988952 0.989593
0.996201 0.996002 0.996201
0.915587 0.919448 0.914839
0.944717 0.945846 0.941268
0.968765 0.96875 0.966827
0.98291 0.982773 0.982681
0.991928 0.991638 0.99205
0.997803 0.99765 0.997894
0.999435 0.99939 0.999466
1 1 1
1 1 1
0.0696574 0.0696727 0.0696422
0.0804761 0.0805066 0.0804456
0.0915236 0.0915389 0.0914778
0.103868 0.103868 0.103868
0.120516 0.120516 0.120546
0.138018 0.138018 0.138033
0.156649 0.156649 0.156634
0.179919 0.179919 0.179889
0.204807 0.204807 0.204791
0.110002 0.110002 0.110002
0.125383 0.125383 0.125414
0.14313 0.14313 0.143145
0.163561 0.163561 0.163546
0.185748 0.185748 0.185733
0.210498 0.210498 0.210483
0.239017 0.239017 0.239002
0.269535 0.269535 0.269535
0.301595 0.301595 0.301579
0.169497 0.169497 0.169467
0.193256 0.193256 0.193225
0.219104 0.219104 0.219104
0.246921 0.246921 0.246937
0.278111 0.278126 0.278111
0.312245 0.312245 0.312215
0.348409 0.348409 0.348379
0.387045 0.38703 0.38703
0.428794 0.428794 0.428779
0.257588 0.257588 0.257588
0.288487 0.288487 0.288487
0.321645 0.32166 0.32163
0.359854 0.359869 0.359838
0.399069 0.399069 0.399054
0.440024 0.440055 0.440024
0.48426 0.484291 0.48426
0.529656 0.529656 0.529656
0.575936 0.575936 0.575936
0.373342 0.373327 0.373312
0.412329 0.412329 0.412329
0.454826 0.454841 0.454826
0.498314 0.498329 0.498314
0.542931 0.542931 0.542931
0.589609 0.589609 0.589609
0.636469 0.636469 0.636469
0.683345 0.683314 0.68336
0.729915 0.727581 0.729915
0.51519 0.515206 0.51519
0.560204 0.560204 0.560204
0.605768 0.605768 0.605753
0.652033 0.651789 0.652003
0.697749 0.696208 0.697749
0.742947 0.738872 0.742947
0.786755 0.780865 0.787549
0.824643 0.823514 0.828626
0.859709 0.864881 0.865736
0.670069 0.669978 0.670069
0.715496 0.714672 0.715496
0.758404 0.75491 0.75903
0.798321 0.79588 0.800992
0.835508 0.83801 0.841642
0.87129 0.877684 0.87689
0.906523 0.91078 0.905928
0.938216 0.9393 0.932937
0.961715 0.961608 0.957885
0.815915 0.811582 0.818296
0.84979 0.85185 0.854063
0.884825 0.889174 0.886687
0.920027 0.922591 0.915831
0.947677 0.948028 0.942153
0.967956 0.967681 0.965454
0.984253 0.983627 0.984176
0.992721 0.992294 0.992737
0.998169 0.998123 0.998169
0.928923 0.931395 0.926467
0.955962 0.95639 0.952682
0.975753 0.975677 0.974838
0.987289 0.987076 0.987274
0.99472 0.994476 0.994842
0.998764 0.998657 0.998825
0.999741 0.99971 0.999756
1 1 1
1 1 1
