luts/varicam_official/BandW_LoCon.cube
TITLE "Generated by Resolve"
LUT_3D_SIZE 33
0.0172427 0.0172274 0.0172274
0.0175937 0.0175784 0.0175784
0.0180362 0.0180209 0.0180209
0.0186618 0.0186465 0.0186465
0.0194095 0.0193942 0.0193942
0.0202335 0.0202182 0.0202182
0.0212558 0.0212406 0.0212406
0.0223545 0.0223392 0.0223392
0.0236057 0.0235904 0.0235904
0.0250401 0.0250401 0.0250401
0.0265354 0.0265507 0.0265507
0.0281987 0.0282139 0.0282139
0.0299992 0.0300145 0.0300145
0.0319371 0.0319524 0.0319524
0.0340887 0.0341039 0.0341039
0.0365148 0.0365301 0.0365301
0.0397498 0.0397803 0.0397955
0.0431525 0.0431983 0.0431983
0.0466773 0.0467384 0.0467536
0.0505074 0.0505684 0.0505989
0.0544289 0.05449 0.0545205
0.0586252 0.0586557 0.0586709
0.0638285 0.0638437 0.0638437
0.0698711 0.0698863 0.0698253
0.0767834 0.0767987 0.0767224
0.0838636 0.0838941 0.0838026
0.0912642 0.0912947 0.0912184
0.0996719 0.0997024 0.0996567
0.109239 0.109239 0.109255
0.12047 0.12047 0.1205
0.13228 0.13228 0.132311
0.144625 0.144625 0.14464
0.158297 0.158297 0.158282
0.0185092 0.0184787 0.0184787
0.0188754 0.0188602 0.0188602
0.0193332 0.0193179 0.0193179
0.0199741 0.0199435 0.0199435
0.0207218 0.0207065 0.0207065
0.0215457 0.0215305 0.0215305
0.0225834 0.0225681 0.0225681
0.0237125 0.0237125 0.0237125
0.0249638 0.0249638 0.0249638
0.0264134 0.0264286 0.0264286
0.0279393 0.0279545 0.0279545
0.0296025 0.0296178 0.0296178
0.0314183 0.0314336 0.0314336
0.033341 0.0333562 0.0333562
0.0357977 0.0358129 0.0358129
0.0384985 0.0385138 0.038529
0.0417639 0.0418097 0.041825
0.0451667 0.0452277 0.045243
0.0487221 0.0487831 0.0487984
0.0525673 0.0526131 0.0526589
0.0565805 0.0566262 0.0566567
0.0610666 0.0610819 0.0610819
0.0665599 0.0665751 0.0665446
0.0729381 0.0729534 0.0728923
0.0798962 0.0799268 0.0798505
0.0869917 0.0870222 0.0869459
0.0944533 0.0944686 0.0944228
0.103212 0.103212 0.103197
0.113512 0.113512 0.113542
0.124895 0.124895 0.124926
0.136629 0.136629 0.136645
0.149432 0.149432 0.149447
0.163317 0.163317 0.163302
0.0200656 0.0200351 0.0200351
0.0204471 0.0204318 0.0204318
0.0209201 0.0209049 0.0209049
0.0215763 0.021561 0.021561
0.0223392 0.0223239 0.0223239
0.0231632 0.0231479 0.0231479
0.0242313 0.0242313 0.0242313
0.0253758 0.0253758 0.0253758
0.026627 0.0266423 0.0266423
0.0280919 0.0281071 0.0281071
0.029633 0.0296483 0.0296483
0.0313268 0.0313573 0.0313573
0.0331884 0.0332036 0.0332036
0.0352483 0.0352483 0.0352483
0.0379644 0.0379797 0.037995
0.0409247 0.0409705 0.0409857
0.0441749 0.0442359 0.0442512
0.0476539 0.047715 0.0477302
0.0512245 0.0512856 0.0513161
0.0550851 0.0551308 0.0551614
0.0591592 0.0591745 0.059205
0.0641794 0.0641947 0.0641794
0.0700389 0.0700542 0.0700084
0.0766613 0.0766918 0.0766155
0.0835889 0.0836347 0.0835431
0.0907301 0.0907759 0.0906996
0.0986801 0.0986954 0.0986648
0.107836 0.107836 0.107836
0.1187 0.1187 0.11873
0.130236 0.130236 0.130251
0.141955 0.141955 0.14197
0.155444 0.155444 0.155428
0.169848 0.169848 0.169818
0.0222019 0.0221866 0.0221866
0.0225986 0.0225834 0.0225834
0.0230869 0.0230716 0.0230716
0.0237125 0.0237125 0.0237125
0.0244907 0.0244907 0.0244907
0.0253452 0.0253452 0.0253452
0.0264439 0.0264439 0.0264439
0.0276036 0.0276188 0.0276188
0.0288853 0.0289158 0.0289158
0.0303349 0.0303655 0.0303655
0.0318761 0.0318914 0.0318914
0.0336004 0.0336309 0.0336309
0.0357061 0.0357214 0.0357214
0.0381781 0.0381933 0.0382086
0.0410773 0.0411231 0.0411383
0.0440986 0.0441596 0.0441749
0.0473793 0.0474403 0.0474556
0.0508431 0.0509041 0.0509346
0.0544747 0.0545205 0.054551
0.0583047 0.05832 0.0583505
0.0625467 0.062562 0.062562
0.0684062 0.0684215 0.0683909
0.0747234 0.0747387 0.0746777
0.0813611 0.0813916 0.0813001
0.0883192 0.0883497 0.0882734
0.0955215 0.095552 0.095491
0.104463 0.104479 0.104463
0.114229 0.114229 0.11426
0.125261 0.125261 0.125292
0.136736 0.136736 0.136767
0.148547 0.148547 0.148547
0.163149 0.163149 0.163134
0.178363 0.178363 0.178332
0.0247959 0.0247959 0.0247959
0.0251926 0.0251926 0.0251926
0.0256962 0.0256962 0.0256962
0.0263523 0.0263523 0.0263523
0.0271305 0.0271458 0.0271458
0.0280003 0.0280156 0.0280156
0.029099 0.0291142 0.0291142
0.0302892 0.0303044 0.0303044
0.0316014 0.0316167 0.0316167
0.0332036 0.0332189 0.0332189
0.0348974 0.0349126 0.0349279
0.0369116 0.0369421 0.0369421
0.0392462 0.0392767 0.039292
0.0419165 0.0419623 0.0419776
0.0448768 0.0449226 0.0449378
0.0479438 0.0480049 0.0480201
0.0512703 0.0513313 0.0513619
0.0547646 0.0548104 0.0548257
0.0584421 0.0584726 0.0584878
0.0629587 0.062974 0.062974
0.0679789 0.0679789 0.0679484
0.0740978 0.0741283 0.0740673
0.0805676 0.0805829 0.0805066
0.0872053 0.0872358 0.0871595
0.0945602 0.0945907 0.0945296
0.102205 0.10222 0.10219
0.112108 0.112108 0.112123
0.122438 0.122438 0.122469
0.133593 0.133593 0.133608
0.145556 0.145556 0.145556
0.158068 0.158068 0.158068
0.173465 0.173465 0.173449
0.189136 0.189136 0.189105
0.0276646 0.0276799 0.0276799
0.0281071 0.0281224 0.0281224
0.0286259 0.0286412 0.0286412
0.0292973 0.0293126 0.0293126
0.0300603 0.0300755 0.0300755
0.0309453 0.0309606 0.0309606
0.0320745 0.0320897 0.0320897
0.0332647 0.0332799 0.0332799
0.0345769 0.0345922 0.0345922
0.0364233 0.0364385 0.0364385
0.0384222 0.0384527 0.038468
0.0408484 0.0408942 0.0408942
0.0434119 0.0434577 0.043473
0.0461433 0.0461891 0.0462196
0.0491035 0.0491646 0.0491951
0.0522011 0.0522621 0.0522927
0.0555734 0.0556344 0.0556497
0.0591745 0.059205 0.0592203
0.062974 0.062974 0.062974
0.0684672 0.0684672 0.0684367
0.0743725 0.074403 0.0743267
0.0805371 0.0805524 0.0804761
0.0869917 0.0870222 0.0869306
0.0937819 0.0937972 0.0937362
0.101671 0.101686 0.101656
0.110079 0.110079 0.110094
0.120623 0.120623 0.120638
0.131487 0.131487 0.131502
0.142779 0.142779 0.142779
0.155505 0.155505 0.155489
0.169116 0.169116 0.169085
0.184863 0.184863 0.184833
0.201007 0.201007 0.200977
0.031342 0.0313573 0.0313573
0.031754 0.0317693 0.0317693
0.0322728 0.0322881 0.0322881
0.03299 0.03299 0.03299
0.0338903 0.0339055 0.0339055
0.0349737 0.0349889 0.0350042
0.0363622 0.0363928 0.0363928
0.0378576 0.0378882 0.0378882
0.0395209 0.0395514 0.0395514
0.0414893 0.0415198 0.0415351
0.0436255 0.0436713 0.0437018
0.0460517 0.0461128 0.046128
0.0486305 0.0486915 0.0487068
0.0513161 0.0513771 0.0514076
0.0543221 0.0543679 0.0543984
0.0575265 0.057557 0.0575875
0.0614481 0.0614786 0.0614786
0.0658122 0.0658274 0.0658122
0.0706035 0.0706188 0.070573
0.076173 0.0762036 0.0761425
0.0820478 0.0820783 0.082002
0.0883192 0.0883497 0.0882734
0.0951095 0.0951247 0.095079
0.102586 0.102602 0.102586
0.111559 0.111559 0.111559
0.120943 0.120943 0.120974
0.131563 0.131563 0.131579
0.142596 0.142596 0.142611
0.154711 0.154711 0.154696
0.168307 0.168307 0.168276
0.182971 0.182971 0.18294
0.198795 0.198795 0.198764
0.215366 0.215366 0.215366
0.0358587 0.035874 0.0358892
0.0363012 0.0363165 0.0363317
0.0368658 0.0368658 0.0368811
0.0375982 0.0376287 0.0376287
0.0386511 0.0386816 0.0386969
0.0398413 0.0398718 0.0398871
0.041413 0.0414588 0.041474
0.0430762 0.043122 0.0431373
0.044892 0.0449531 0.0449683
0.047013 0.0470741 0.0470893
0.0491951 0.0492561 0.0492866
0.051667 0.0517281 0.0517586
0.0543221 0.0543832 0.0543984
0.0572671 0.0573129 0.0573281
0.0606088 0.0606394 0.0606394
0.06421 0.0642405 0.0642252
0.0686656 0.0686809 0.0686503
0.0735637 0.073579 0.0735332
0.0789197 0.0789349 0.0788739
0.0846113 0.0846418 0.0845655
0.0905165 0.0905623 0.090486
0.0974594 0.0974899 0.0974441
0.104982 0.104997 0.104982
0.11339 0.11339 0.113405
0.122896 0.122896 0.122911
0.13286 0.13286 0.132876
0.144076 0.144076 0.144076
0.155718 0.155718 0.155703
0.16875 0.16875 0.168734
0.1832 0.1832 0.183185
0.198398 0.198398 0.198367
0.215152 0.215152 0.215137
0.232395 0.232395 0.232395
0.0415503 0.0415961 0.0415961
0.0420996 0.0421454 0.0421607
0.042771 0.0428168 0.0428321
0.0436408 0.0437018 0.0437171
0.0447547 0.0448157 0.044831
0.0460517 0.0461128 0.046128
0.0476234 0.0476692 0.0476997
0.0492866 0.0493477 0.0493782
0.0511177 0.0511788 0.0512093
0.0532082 0.0532692 0.0532998
0.0554208 0.0554665 0.0554971
0.0578622 0.0578927 0.0579232
0.0607919 0.0608225 0.0608225
0.0641489 0.0641642 0.0641642
0.0683604 0.0683757 0.0683452
0.0728313 0.0728466 0.0727855
0.0776226 0.0776379 0.0775616
0.0827192 0.0827497 0.0826734
0.0880751 0.0880903 0.088014
0.0938277 0.093843 0.0937972
0.0999619 0.0999771 0.0999466
0.108186 0.108186 0.108186
0.116884 0.116884 0.116899
0.126024 0.126024 0.126055
0.135821 0.135821 0.135851
0.145922 0.145922 0.145922
0.157946 0.157946 0.157946
0.170703 0.170703 0.170687
0.184985 0.184985 0.184955
0.199847 0.199847 0.199832
0.215167 0.215167 0.215152
0.233265 0.233265 0.233265
0.251804 0.251804 0.25182
0.0484016 0.0484474 0.0484779
0.0489662 0.049012 0.0490425
0.0496529 0.0497139 0.0497292
0.0505837 0.0506294 0.05066
0.0517281 0.0517739 0.0517891
0.0530251 0.0530709 0.0530861
0.0545968 0.0546426 0.0546578
0.0563668 0.0564126 0.0564279
0.0585641 0.0585946 0.0586099
0.0611124 0.0611429 0.0611429
0.0638132 0.0638437 0.0638437
0.0668803 0.0669108 0.0668803
0.0702678 0.0702831 0.0702373
0.0740063 0.0740215 0.0739757
0.0784619 0.0784772 0.0784161
0.0831159 0.0831464 0.0830701
0.0879835 0.088014 0.087953
0.0935225 0.0935378 0.093492
0.0997787 0.099794 0.0997635
0.106554 0.106554 0.106554
0.11371 0.11371 0.113725
0.122393 0.122393 0.122408
0.131304 0.131304 0.131319
0.140749 0.140749 0.140764
0.151644 0.151644 0.151644
0.16318 0.16318 0.163165
0.176226 0.176226 0.176196
0.189654 0.189654 0.189624
0.204211 0.204211 0.204196
0.220279 0.220279 0.220264
0.23711 0.23711 0.237125
0.255909 0.255909 0.255924
0.275319 0.275319 0.275319
0.0560159 0.0560616 0.0560922
0.0565957 0.0566415 0.0566567
0.0572976 0.0573434 0.0573739
0.0582742 0.05832 0.0583352
0.0594492 0.0594949 0.0595102
0.0607614 0.0607767 0.0607919
0.0623789 0.0624094 0.0624094
0.0643473 0.0643626 0.0643473
0.0669566 0.0669718 0.0669413
0.0700389 0.0700542 0.0700084
0.0732738 0.0732891 0.0732433
0.0769207 0.076936 0.0768597
0.0808728 0.0808881 0.0808118
0.0849775 0.085008 0.0849317
0.0895552 0.0895857 0.0895094
0.0943465 0.094377 0.094316
0.0993668 0.0993973 0.0993668
0.105531 0.105531 0.105531
0.112749 0.112749 0.112764
0.120745 0.120745 0.120775
0.128939 0.128939 0.128969
0.137942 0.137942 0.137957
0.147295 0.147295 0.147295
0.157061 0.157061 0.157061
0.1691 0.1691 0.169085
0.181933 0.181933 0.181903
0.19585 0.19585 0.195819
0.210178 0.210178 0.210163
0.225315 0.225315 0.225299
0.242283 0.242283 0.242298
0.260685 0.260685 0.260685
0.280339 0.280339 0.280339
0.300572 0.300572 0.300557
0.0659342 0.0659495 0.065919
0.0666361 0.0666514 0.0666209
0.0675669 0.0675822 0.0675517
0.0688029 0.0688182 0.0687877
0.0702983 0.0703288 0.0702831
0.0719768 0.0720073 0.0719463
0.0740978 0.0741283 0.0740673
0.0764019 0.0764172 0.0763561
0.0791485 0.0791638 0.0791028
0.0822309 0.0822614 0.0821851
0.085481 0.0855268 0.0854505
0.0891585 0.089189 0.089128
0.0931868 0.0932021 0.0931563
0.097612 0.0976272 0.0975967
0.103166 0.103182 0.103151
0.109087 0.109102 0.109102
0.115343 0.115358 0.115373
0.122286 0.122286 0.122316
0.129717 0.129717 0.129732
0.137835 0.137835 0.13785
0.146288 0.146288 0.146288
0.156558 0.156558 0.156558
0.167208 0.167208 0.167193
0.178698 0.178698 0.178683
0.191241 0.191241 0.191226
0.204242 0.204242 0.204227
0.219028 0.219028 0.219028
0.23447 0.23447 0.234485
0.251164 0.251164 0.251164
0.268925 0.268925 0.268925
0.287633 0.287633 0.287633
0.308278 0.308293 0.308263
0.329534 0.329549 0.329519
0.077821 0.0778363 0.0777752
0.078584 0.0785992 0.0785382
0.0795148 0.07953 0.0794842
0.0808728 0.0808881 0.080827
0.0825208 0.082536 0.082475
0.0843671 0.0843824 0.0843214
0.0869154 0.0869459 0.0868696
0.0896162 0.0896315 0.0895705
0.0927443 0.0927749 0.0927138
0.0962234 0.0962539 0.0961929
0.099855 0.0998856 0.0998398
0.103975 0.104005 0.103975
0.108507 0.108522 0.108507
0.113436 0.113451 0.113451
0.119539 0.119539 0.119554
0.125994 0.125994 0.126009
0.133165 0.133165 0.133196
0.14081 0.14081 0.140841
0.149203 0.149203 0.149203
0.157916 0.157916 0.1579
0.167193 0.167193 0.167178
0.178317 0.178317 0.178302
0.189822 0.189822 0.189807
0.202472 0.202472 0.202457
0.216022 0.216022 0.216022
0.229999 0.229999 0.229999
0.245808 0.245808 0.245823
0.262135 0.262135 0.26215
0.279988 0.280003 0.280003
0.298802 0.298802 0.298787
0.318334 0.318318 0.318303
0.339788 0.339788 0.339757
0.361837 0.361837 0.361822
0.0914168 0.0914473 0.091371
0.0922103 0.0922408 0.0921798
0.0932631 0.0932937 0.0932326
0.0945296 0.0945602 0.0945144
0.0961929 0.0962234 0.0961776
0.0980392 0.0980545 0.098024
0.100954 0.100969 0.100954
0.104158 0.104158 0.104158
0.107927 0.107927 0.107942
0.112093 0.112093 0.112108
0.116564 0.116579 0.116594
0.121569 0.121569 0.121599
0.126864 0.126864 0.126894
0.132494 0.132494 0.132509
0.138735 0.138735 0.138735
0.145251 0.145251 0.145266
0.152789 0.152789 0.152789
0.161196 0.161196 0.161181
0.170779 0.170779 0.170748
0.181064 0.181064 0.181033
0.191394 0.191394 0.191363
0.202884 0.202884 0.202869
0.215106 0.215106 0.215106
0.228122 0.228122 0.228122
0.242985 0.242985 0.243
0.258595 0.258595 0.25861
0.275288 0.275288 0.275288
0.292424 0.292424 0.292409
0.310903 0.310918 0.310903
0.330846 0.330861 0.330846
0.351965 0.351949 0.351934
0.373953 0.373938 0.373938
0.396445 0.396429 0.396429
0.109926 0.109941 0.109926
0.110857 0.110872 0.110857
0.112001 0.112016 0.112001
0.113619 0.113634 0.113619
0.115618 0.115633 0.115633
0.117845 0.117861 0.117861
0.120912 0.120912 0.120928
0.124269 0.124269 0.124285
0.128161 0.128161 0.128176
0.132479 0.132479 0.132494
0.137194 0.137194 0.137209
0.142885 0.142885 0.142901
0.14902 0.14902 0.14902
0.155642 0.155642 0.155627
0.162814 0.162814 0.162799
0.17023 0.17023 0.170214
0.178454 0.178454 0.178439
0.187503 0.187503 0.187503
0.197452 0.197452 0.197436
0.208637 0.208637 0.208637
0.220401 0.220401 0.220401
0.232959 0.232959 0.232959
0.246296 0.246296 0.246296
0.260227 0.260227 0.260212
0.275837 0.275837 0.275837
0.292088 0.292088 0.292088
0.310048 0.310063 0.310048
0.32845 0.32845 0.328435
0.347677 0.347662 0.347662
0.368399 0.368399 0.368383
0.390127 0.390127 0.390112
0.413062 0.413077 0.413062
0.4365 0.436515 0.4365
0.130236 0.130236 0.130251
0.131334 0.131334 0.131365
0.13286 0.13286 0.132891
0.13463 0.13463 0.134646
0.137041 0.137041 0.137057
0.139742 0.139742 0.139757
0.143069 0.143069 0.143084
0.146639 0.146639 0.146639
0.150469 0.150469 0.150469
0.155093 0.155093 0.155093
0.160082 0.160082 0.160067
0.166186 0.166186 0.166171
0.173068 0.173068 0.173037
0.180575 0.180575 0.180545
0.188739 0.188739 0.188708
0.197208 0.197208 0.197177
0.2065 0.2065 0.206485
0.216129 0.216129 0.216114
0.226413 0.226413 0.226413
0.238422 0.238422 0.238422
0.251072 0.251072 0.251087
0.265156 0.265156 0.265171
0.279484 0.279484 0.279484
0.294667 0.294667 0.294652
0.311009 0.311009 0.310979
0.327459 0.327459 0.327443
0.346807 0.346822 0.346792
0.366415 0.366415 0.366384
0.386892 0.386877 0.386877
0.408377 0.408362 0.408362
0.430198 0.430198 0.430198
0.454002 0.454032 0.454002
0.478309 0.47834 0.478309
0.154879 0.154879 0.154879
0.156222 0.156222 0.156207
0.15787 0.15787 0.157855
0.16022 0.16022 0.160204
0.163104 0.163104 0.163088
0.16611 0.16611 0.166079
0.169986 0.169986 0.16997
0.174365 0.174365 0.17435
0.178943 0.178943 0.178927
0.184161 0.184161 0.184146
0.189868 0.189868 0.189853
0.196231 0.196231 0.196216
0.203387 0.203387 0.203372
0.211017 0.211017 0.211002
0.220172 0.220172 0.220172
0.229679 0.229679 0.229694
0.240162 0.240162 0.240162
0.250965 0.250965 0.250965
0.262196 0.262196 0.262196
0.274876 0.274876 0.274876
0.287846 0.287846 0.287846
0.302678 0.302678 0.302663
0.318242 0.318257 0.318227
0.334554 0.334554 0.334524
0.351934 0.351919 0.351904
0.369314 0.369299 0.369299
0.389013 0.389013 0.388998
0.409354 0.409369 0.409354
0.430671 0.430686 0.430655
0.452613 0.452628 0.452598
0.475319 0.475334 0.475319
0.499519 0.499519 0.499519
0.524147 0.524163 0.524147
0.184375 0.184375 0.184344
0.185702 0.185702 0.185687
0.187427 0.187427 0.187411
0.189807 0.189807 0.189792
0.193057 0.193057 0.193027
0.196643 0.196643 0.196612
0.200763 0.200763 0.200748
0.205768 0.205768 0.205753
0.211032 0.211032 0.211017
0.216953 0.216953 0.216938
0.223377 0.223377 0.223377
0.230289 0.230289 0.230274
0.237934 0.237934 0.237919
0.246067 0.246067 0.246052
0.255543 0.255543 0.255543
0.265843 0.265843 0.265858
0.277272 0.277272 0.277272
0.289143 0.289158 0.289143
0.301778 0.301778 0.301762
0.314992 0.314977 0.314961
0.328634 0.328634 0.328618
0.344182 0.344182 0.344167
0.360632 0.360632 0.360616
0.377935 0.377951 0.37792
0.396139 0.396139 0.396124
0.414496 0.414496 0.414481
0.43476 0.43476 0.434745
0.455207 0.455222 0.455207
0.477333 0.477363 0.477333
0.500114 0.50013 0.500114
0.523262 0.523278 0.523262
0.547341 0.547341 0.547341
0.572122 0.572122 0.572106
0.217365 0.217365 0.217365
0.218723 0.218723 0.218723
0.220493 0.220493 0.220493
0.223072 0.223072 0.223072
0.226673 0.226673 0.226688
0.230472 0.230472 0.230488
0.23537 0.23537 0.23537
0.240757 0.240757 0.240772
0.246738 0.246738 0.246738
0.253605 0.253605 0.253605
0.260533 0.260533 0.260533
0.268345 0.268345 0.26833
0.276829 0.276829 0.276814
0.28574 0.28574 0.28571
0.295781 0.295781 0.295766
0.306065 0.306065 0.306065
0.318441 0.318456 0.318425
0.331273 0.331289 0.331258
0.344594 0.344594 0.344564
0.359289 0.359274 0.359258
0.374014 0.373983 0.373968
0.389899 0.389883 0.389883
0.406714 0.406714 0.406714
0.424933 0.424949 0.424933
0.443565 0.443595 0.443565
0.463004 0.46305 0.463004
0.483482 0.483497 0.483482
0.504738 0.504738 0.504738
0.526879 0.526879 0.526879
0.549767 0.549767 0.549767
0.573144 0.573144 0.573144
0.597513 0.597513 0.597513
0.621851 0.621851 0.621836
0.259037 0.259037 0.259022
0.260471 0.260471 0.260456
0.262318 0.262318 0.262303
0.264881 0.264881 0.264881
0.268238 0.268238 0.268238
0.272312 0.272312 0.272328
0.277653 0.277653 0.277653
0.283177 0.283177 0.283177
0.289921 0.289937 0.289937
0.297093 0.297108 0.297093
0.304585 0.304585 0.304585
0.313039 0.313039 0.313024
0.322286 0.322286 0.322271
0.331945 0.331945 0.331914
0.342382 0.342367 0.342367
0.353658 0.353643 0.353643
0.3664 0.3664 0.366384
0.379812 0.379828 0.379812
0.393973 0.393988 0.393957
0.409033 0.409033 0.409018
0.424491 0.424475 0.42446
0.441032 0.441047 0.441032
0.458717 0.458732 0.458717
0.476921 0.476921 0.476921
0.495979 0.495995 0.495979
0.515953 0.515984 0.515953
0.536675 0.536675 0.536675
0.558083 0.558083 0.558083
0.580041 0.580041 0.580026
0.602777 0.602777 0.602777
0.626001 0.626001 0.626001
0.649622 0.649424 0.649622
0.673793 0.673259 0.673777
0.303441 0.303441 0.30341
0.304967 0.304967 0.304952
0.306889 0.306889 0.306874
0.309499 0.309499 0.309483
0.312856 0.312856 0.31284
0.317006 0.317006 0.317006
0.322637 0.322652 0.322637
0.328496 0.328511 0.328496
0.335363 0.335393 0.335363
0.343374 0.343404 0.343374
0.351385 0.3514 0.35137
0.360403 0.360403 0.360372
0.370367 0.370367 0.370336
0.380438 0.380438 0.380407
0.391974 0.391959 0.391943
0.403952 0.403937 0.403937
0.416678 0.416663 0.416663
0.430594 0.430594 0.430594
0.445258 0.445289 0.445258
0.460914 0.460945 0.460914
0.476982 0.477012 0.476982
0.494316 0.494331 0.494316
0.512367 0.512383 0.512367
0.530724 0.530724 0.530709
0.550195 0.550195 0.550195
0.570397 0.570397 0.570397
0.591241 0.591241 0.591241
0.612284 0.612253 0.612284
0.634104 0.633982 0.634089
0.656641 0.656367 0.656626
0.679133 0.678706 0.679149
0.70251 0.701579 0.702541
0.725429 0.723873 0.725505
0.35494 0.354925 0.35491
0.356634 0.356619 0.356603
0.358785 0.35877 0.35877
0.361654 0.361639 0.361624
0.365423 0.365408 0.365393
0.369985 0.36997 0.36997
0.375433 0.375433 0.375433
0.381918 0.381933 0.381918
0.38909 0.38912 0.38909
0.397147 0.397177 0.397147
0.405615 0.405631 0.405615
0.415015 0.41503 0.415015
0.425483 0.425498 0.425467
0.436133 0.436149 0.436133
0.448096 0.448112 0.448081
0.460517 0.460517 0.460502
0.473762 0.473777 0.473762
0.487953 0.487953 0.487953
0.502892 0.502907 0.502892
0.518837 0.518837 0.518837
0.53518 0.535195 0.53518
0.55256 0.552575 0.55256
0.570306 0.570306 0.570291
0.588556 0.588556 0.588556
0.608118 0.608118 0.608118
0.627573 0.627573 0.627573
0.648096 0.648096 0.648096
0.669093 0.668849 0.669093
0.689784 0.688655 0.689784
0.711376 0.709056 0.711376
0.732754 0.729076 0.732769
0.754742 0.750134 0.755001
0.77641 0.771221 0.777081
0.411002 0.411002 0.410971
0.412802 0.412787 0.412772
0.414679 0.414664 0.414649
0.417639 0.417624 0.417609
0.422004 0.422004 0.421988
0.426413 0.426413 0.426398
0.432395 0.432395 0.432395
0.43859 0.43859 0.43859
0.44593 0.44593 0.44593
0.454261 0.454276 0.454261
0.463035 0.46305 0.463035
0.473121 0.473152 0.473121
0.483543 0.483574 0.483543
0.494545 0.494575 0.494545
0.506844 0.506874 0.506844
0.519081 0.519097 0.519081
0.532967 0.532967 0.532952
0.547387 0.547387 0.547372
0.562249 0.562249 0.562249
0.578271 0.578271 0.578271
0.59469 0.59469 0.59469
0.612116 0.612116 0.612131
0.629694 0.629557 0.629694
0.647501 0.647074 0.647486
0.666163 0.665339 0.666163
0.685023 0.683772 0.685023
0.705379 0.703639 0.705379
0.725139 0.722988 0.725277
0.744198 0.741802 0.744793
0.763912 0.761166 0.765072
0.783322 0.780148 0.785077
0.803204 0.799924 0.805432
0.822782 0.819669 0.825467
0.471031 0.471046 0.471031
0.472709 0.472724 0.472694
0.475181 0.475212 0.475181
0.478325 0.478355 0.478325
0.48249 0.482506 0.48249
0.487175 0.48719 0.487175
0.493324 0.493324 0.493324
0.499687 0.499687 0.499687
0.507118 0.507118 0.507118
0.515663 0.515679 0.515663
0.524666 0.524681 0.524666
0.5346 0.5346 0.5346
0.545205 0.545205 0.545205
0.556725 0.556741 0.556725
0.568856 0.568856 0.568856
0.581674 0.581689 0.581674
0.594965 0.594965 0.594949
0.609216 0.609216 0.609201
0.623926 0.623926 0.623911
0.63975 0.63975 0.63975
0.655924 0.655924 0.65594
0.672877 0.672877 0.672892
0.689937 0.689509 0.689952
0.707179 0.705684 0.707179
0.724926 0.722087 0.724926
0.742916 0.738628 0.742916
0.761959 0.756115 0.761959
0.780652 0.774273 0.781079
0.796963 0.792981 0.798978
0.813199 0.812146 0.817029
0.82977 0.832151 0.835645
0.846723 0.851331 0.853254
0.864317 0.870665 0.870893
0.536492 0.536507 0.536492
0.538018 0.538033 0.538018
0.540444 0.540459 0.540444
0.543664 0.543679 0.543664
0.547845 0.54786 0.547845
0.552453 0.552468 0.552453
0.558114 0.558114 0.558099
0.564874 0.564874 0.564874
0.572213 0.572213 0.572198
0.580682 0.580682 0.580667
0.589593 0.589593 0.589578
0.59939 0.59939 0.599405
0.609857 0.609857 0.609873
0.620813 0.620813 0.620813
0.63331 0.63331 0.63331
0.645579 0.645472 0.645579
0.658732 0.658122 0.658717
0.672023 0.670893 0.672023
0.686168 0.684489 0.686168
0.701381 0.699107 0.701381
0.716793 0.713954 0.716823
0.732982 0.729778 0.733104
0.748638 0.745556 0.749172
0.763622 0.761288 0.764965
0.779293 0.777569 0.781476
0.795087 0.793912 0.798123
0.811917 0.810941 0.815457
0.828275 0.82768 0.832013
0.844083 0.844419 0.847166
0.859678 0.86128 0.862135
0.875425 0.87863 0.877302
0.890745 0.895079 0.892409
0.905715 0.910887 0.907149
0.603387 0.603372 0.603387
0.604746 0.604715 0.604746
0.606714 0.606668 0.606714
0.610025 0.609949 0.610025
0.614176 0.614084 0.614176
0.618753 0.618677 0.618753
0.624735 0.624628 0.62472
0.63093 0.630823 0.630915
0.638254 0.638148 0.638239
0.646571 0.646448 0.646555
0.655238 0.655131 0.655222
0.66482 0.664729 0.664836
0.675059 0.674968 0.67509
0.685756 0.685695 0.685786
0.6981 0.698039 0.698116
0.710124 0.70985 0.710124
0.722194 0.720745 0.722194
0.735134 0.732418 0.735134
0.748653 0.744595 0.748653
0.76257 0.757092 0.76257
0.777249 0.770397 0.777279
0.792248 0.784558 0.792538
0.806134 0.799466 0.807416
0.818494 0.815427 0.821744
0.831327 0.831983 0.836591
0.844388 0.848844 0.851682
0.858457 0.866056 0.867002
0.873243 0.882536 0.881544
0.888701 0.895689 0.892699
0.904616 0.909224 0.904051
0.920897 0.923079 0.915572
0.934524 0.935454 0.927871
0.947036 0.947036 0.940017
0.671901 0.671748 0.671901
0.673198 0.672892 0.673198
0.675456 0.674952 0.675456
0.678462 0.677714 0.678462
0.681895 0.680873 0.681895
0.686595 0.685267 0.686595
