luts/varicam_official/BandW_LoCon.cube
TITLE "Generated by Resolve"
LUT_3D_SIZE 5
0.0172427 0.0172274 0.0172274
0.0236057 0.0235904 0.0235904
0.0397498 0.0397803 0.0397955
0.0767834 0.0767987 0.0767224
0.158297 0.158297 0.158282
0.0415503 0.0415961 0.0415961
0.0511177 0.0511788 0.0512093
0.0776226 0.0776379 0.0775616
0.135821 0.135821 0.135851
0.251804 0.251804 0.25182
0.154879 0.154879 0.154879
0.178943 0.178943 0.178927
0.240162 0.240162 0.240162
0.351934 0.351919 0.351904
0.524147 0.524163 0.524147
0.536492 0.536507 0.536492
0.572213 0.572213 0.572198
0.658732 0.658122 0.658717
0.779293 0.777569 0.781476
0.905715 0.910887 0.907149
0.980346 0.98027 0.980377
0.986694 0.986038 0.986755
0.997711 0.997589 0.997848
1 1 1
1 1 1
0.019852 0.0198215 0.0198215
0.0265354 0.0265202 0.0265202
0.0440223 0.0440681 0.0440986
0.083299 0.0833295 0.083238
0.16936 0.16936 0.169345
0.0456397 0.0456855 0.0457008
0.0552834 0.0553292 0.0553445
0.0837568 0.0837873 0.0836957
0.144656 0.144656 0.144656
0.265507 0.265507 0.265522
0.165545 0.165545 0.16553
0.189044 0.189044 0.189044
0.252491 0.252491 0.252476
0.366125 0.366125 0.36611
0.540078 0.540093 0.540078
0.552758 0.552773 0.552758
0.587457 0.587457 0.587442
0.672984 0.671794 0.672969
0.791226 0.789776 0.794003
0.914061 0.918349 0.914488
0.983047 0.982635 0.983108
0.989761 0.989136 0.989776
0.998276 0.998138 0.998367
1 1 1
1 1 1
0.0258946 0.0259098 0.0259098
0.0328527 0.0328832 0.0328832
0.0532235 0.0532845 0.053315
0.0975662 0.0975814 0.0975357
0.195148 0.195148 0.195117
0.0547799 0.0548409 0.0548714
0.0659648 0.06598 0.0659495
0.0976272 0.0976425 0.097612
0.166659 0.166659 0.166629
0.296468 0.296483 0.296452
0.189166 0.189166 0.189166
0.214603 0.214603 0.214603
0.281605 0.281605 0.281605
0.401511 0.401526 0.401511
0.57792 0.57792 0.57792
0.590295 0.590295 0.59028
0.625132 0.625132 0.625147
0.708125 0.705653 0.708125
0.820569 0.819532 0.824002
0.935607 0.937545 0.932891
0.989868 0.989258 0.989899
0.996445 0.996384 0.99649
0.99968 0.999649 0.999695
1 1 1
1 1 1
0.0356298 0.0356451 0.0356451
0.0453803 0.0454261 0.0454566
0.0694896 0.0694896 0.0694591
0.124773 0.124773 0.124788
0.235996 0.235996 0.236011
0.0717021 0.0717174 0.0716716
0.0860304 0.0860609 0.0859693
0.124743 0.124743 0.124773
0.204227 0.204227 0.204211
0.347219 0.34725 0.347204
0.22945 0.22945 0.22945
0.258015 0.258015 0.258
0.331136 0.331151 0.331121
0.456977 0.456992 0.456977
0.634897 0.634897 0.634897
0.648096 0.647974 0.648112
0.680827 0.679362 0.680812
0.759289 0.75697 0.760449
0.861173 0.863127 0.863767
0.961196 0.960937 0.956863
0.997375 0.997299 0.997482
0.99855 0.998428 0.998627
1 1 1
1 1 1
1 1 1
0.0532235 0.0532845 0.053315
0.0640421 0.0640421 0.0640269
0.0967269 0.0967575 0.0967117
0.166201 0.166201 0.166186
0.297887 0.297887 0.297871
0.09897 0.0989853 0.0989548
0.118029 0.118029 0.118074
0.165743 0.165743 0.165713
0.260777 0.260777 0.260777
0.418158 0.418158 0.418158
0.288563 0.288563 0.288563
0.320867 0.320867 0.320851
0.400549 0.400565 0.400549
0.532738 0.532753 0.532738
0.708705 0.707088 0.708705
0.721035 0.717815 0.72105
0.751446 0.748714 0.752132
0.821286 0.819654 0.824613
0.909346 0.914153 0.910445
0.984573 0.984451 0.984634
0.999832 0.999817 0.999847
1 1 1
1 1 1
1 1 1
1 1 1
