luts/varicam_official/BandW_LoCon.cube
TITLE "Generated by Resolve"
LUT_3D_SIZE 9
0.0172427 0.0172274 0.0172274
0.0194095 0.0193942 0.0193942
0.0236057 0.0235904 0.0235904
0.0299992 0.0300145 0.0300145
0.0397498 0.0397803 0.0397955
0.0544289 0.05449 0.0545205
0.0767834 0.0767987 0.0767224
0.109239 0.109239 0.109255
0.158297 0.158297 0.158282
0.0247959 0.0247959 0.0247959
0.0271305 0.0271458 0.0271458
0.0316014 0.0316167 0.0316167
0.0392462 0.0392767 0.039292
0.0512703 0.0513313 0.0513619
0.0679789 0.0679789 0.0679484
0.0945602 0.0945907 0.0945296
0.133593 0.133593 0.133608
0.189136 0.189136 0.189105
0.0415503 0.0415961 0.0415961
0.0447547 0.0448157 0.044831
0.0511177 0.0511788 0.0512093
0.0607919 0.0608225 0.0608225
0.0776226 0.0776379 0.0775616
0.0999619 0.0999771 0.0999466
0.135821 0.135821 0.135851
0.184985 0.184985 0.184955
0.251804 0.251804 0.25182
0.077821 0.0778363 0.0777752
0.0825208 0.082536 0.082475
0.0927443 0.0927749 0.0927138
0.108507 0.108522 0.108507
0.133165 0.133165 0.133196
0.167193 0.167193 0.167178
0.216022 0.216022 0.216022
0.279988 0.280003 0.280003
0.361837 0.361837 0.361822
0.154879 0.154879 0.154879
0.163104 0.163104 0.163088
0.178943 0.178943 0.178927
0.203387 0.203387 0.203372
0.240162 0.240162 0.240162
0.287846 0.287846 0.287846
0.351934 0.351919 0.351904
0.430671 0.430686 0.430655
0.524147 0.524163 0.524147
0.303441 0.303441 0.30341
0.312856 0.312856 0.31284
0.335363 0.335393 0.335363
0.370367 0.370367 0.370336
0.416678 0.416663 0.416663
0.476982 0.477012 0.476982
0.550195 0.550195 0.550195
0.634104 0.633982 0.634089
0.725429 0.723873 0.725505
0.536492 0.536507 0.536492
0.547845 0.54786 0.547845
0.572213 0.572213 0.572198
0.609857 0.609857 0.609873
0.658732 0.658122 0.658717
0.716793 0.713954 0.716823
0.779293 0.777569 0.781476
0.844083 0.844419 0.847166
0.905715 0.910887 0.907149
0.800702 0.797604 0.803204
0.807477 0.806653 0.81117
0.82417 0.826932 0.829969
0.851606 0.857053 0.858167
0.886427 0.88893 0.886213
0.924102 0.926421 0.920913
0.957992 0.958709 0.95642
0.983307 0.983032 0.982132
0.99559 0.995331 0.995636
0.980346 0.98027 0.980377
0.982177 0.981811 0.982254
0.986694 0.986038 0.986755
0.993957 0.993652 0.993957
0.997711 0.997589 0.997848
0.999908 0.999908 0.999908
1 1 1
1 1 1
1 1 1
0.018143 0.0181277 0.0181277
0.0203708 0.0203403 0.0203403
0.0246433 0.0246433 0.0246433
0.0310521 0.0310674 0.0310674
0.0412146 0.0412604 0.0412604
0.0559854 0.0560311 0.0560616
0.0790875 0.079118 0.0790417
0.112337 0.112337 0.112352
0.161761 0.161761 0.161761
0.0257877 0.0257877 0.0257877
0.0281376 0.0281529 0.0281529
0.0326696 0.0326848 0.0326848
0.0406653 0.0407111 0.0407111
0.0527352 0.0527962 0.0528267
0.0700999 0.0701152 0.0700847
0.0969253 0.0969406 0.0968948
0.136614 0.136614 0.136629
0.193057 0.193057 0.193042
0.0429236 0.0429694 0.0429694
0.0461891 0.0462501 0.0462806
0.0525368 0.0525826 0.0526284
0.0624247 0.0624399 0.0624399
0.0797284 0.0797589 0.0796674
0.102449 0.102449 0.102449
0.138827 0.138827 0.138842
0.18883 0.18883 0.1888
0.25655 0.25655 0.256565
0.0799115 0.0799268 0.0798657
0.0846571 0.0846723 0.0846113
0.0950027 0.0950332 0.0949721
0.11078 0.11078 0.11078
0.136156 0.136156 0.136187
0.170321 0.170321 0.170306
0.219623 0.219623 0.219608
0.284352 0.284352 0.284337
0.36669 0.36669 0.366674
0.158602 0.158602 0.158602
0.166583 0.166583 0.166567
0.1823 0.1823 0.182284
0.207111 0.207111 0.207111
0.244099 0.244099 0.244099
0.292012 0.292012 0.292027
0.356542 0.356542 0.356527
0.435569 0.435584 0.435569
0.529168 0.529183 0.529168
0.308003 0.308003 0.307988
0.317617 0.317617 0.317617
0.340291 0.340322 0.340276
0.37496 0.374945 0.374929
0.421439 0.421439 0.421439
0.481788 0.481834 0.481788
0.554986 0.554986 0.554986
0.638926 0.638804 0.638926
0.729686 0.727779 0.729809
0.541848 0.541863 0.541848
0.553002 0.553017 0.553002
0.576776 0.576776 0.576776
0.614664 0.614664 0.614664
0.66302 0.662226 0.66302
0.720851 0.717937 0.720897
0.78265 0.781003 0.785
0.847074 0.84741 0.849928
0.907942 0.912886 0.909163
0.804044 0.801938 0.807095
0.810956 0.811032 0.815152
0.82771 0.83122 0.833936
0.854902 0.859525 0.860456
0.88983 0.892073 0.888869
0.925673 0.928389 0.923262
0.95964 0.960204 0.957946
0.984344 0.984161 0.983261
0.99588 0.995636 0.995911
0.981231 0.981018 0.981292
0.983108 0.982651 0.9832
0.987716 0.98706 0.987778
0.994781 0.994537 0.994797
0.997894 0.997757 0.998001
1 1 1
1 1 1
1 1 1
1 1 1
0.019852 0.0198215 0.0198215
0.0221866 0.0221714 0.0221714
0.0265354 0.0265202 0.0265202
0.0330358 0.0330358 0.0330358
0.0440223 0.0440681 0.0440986
0.0589914 0.0590219 0.0590524
0.083299 0.0833295 0.083238
0.118105 0.118105 0.118151
0.16936 0.16936 0.169345
0.0276951 0.0276951 0.0276951
0.030045 0.0300755 0.0300755
0.0348211 0.0348363 0.0348516
0.0433967 0.0434424 0.043473
0.0554971 0.0555276 0.0555581
0.0742809 0.0742962 0.0742351
0.101534 0.101534 0.101518
0.142412 0.142412 0.142428
0.200961 0.200961 0.200946
0.0456397 0.0456855 0.0457008
0.0489357 0.0489967 0.049012
0.0552834 0.0553292 0.0553445
0.0662242 0.0662394 0.0662089
0.0837568 0.0837873 0.0836957
0.108003 0.108019 0.108034
0.144656 0.144656 0.144656
0.196155 0.196155 0.196139
0.265507 0.265507 0.265522
0.0839094 0.0839246 0.0838636
0.0890669 0.0890974 0.0890364
0.0995041 0.0995193 0.0994888
0.115923 0.115923 0.115938
0.142214 0.142214 0.142214
0.177584 0.177584 0.177569
0.227634 0.227634 0.227634
0.293446 0.293446 0.293431
0.377111 0.377111 0.377081
0.165545 0.165545 0.16553
0.173419 0.173419 0.173404
0.189044 0.189044 0.189044
0.214755 0.214755 0.214755
0.252491 0.252491 0.252476
0.301564 0.301579 0.301564
0.366125 0.366125 0.36611
0.445899 0.44593 0.445899
0.540078 0.540093 0.540078
0.316747 0.316747 0.316747
0.327291 0.327306 0.327291
0.350317 0.350332 0.350286
0.384817 0.384802 0.384787
0.431952 0.431968 0.431952
0.492485 0.492515 0.492485
0.565713 0.565713 0.565713
0.649088 0.648936 0.649073
0.739223 0.736522 0.739406
0.552758 0.552773 0.552758
0.563195 0.563195 0.56318
0.587457 0.587457 0.587442
0.624964 0.624964 0.624964
0.672984 0.671794 0.672969
0.7308 0.72755 0.730846
0.791226 0.789776 0.794003
0.853925 0.854963 0.856611
0.914061 0.918349 0.914488
0.811551 0.811185 0.815595
0.818097 0.819715 0.823194
0.835126 0.840024 0.842206
0.862348 0.865873 0.866239
0.896788 0.898711 0.894499
0.930358 0.932906 0.928389
0.963577 0.963867 0.961852
0.986099 0.985946 0.985321
0.996735 0.996521 0.996735
0.983047 0.982635 0.983108
0.985046 0.984466 0.985122
0.989761 0.989136 0.989776
0.996399 0.996323 0.996445
0.998276 0.998138 0.998367
1 1 1
1 1 1
1 1 1
1 1 1
0.022446 0.0224308 0.0224308
0.0248264 0.0248264 0.0248264
0.0292363 0.0292515 0.0292515
0.0361791 0.0361944 0.0361944
0.0480049 0.0480659 0.0480964
0.0635233 0.0635233 0.0635233
0.0894179 0.0894484 0.0893721
0.126848 0.126848 0.126879
0.180606 0.180606 0.18056
0.0304417 0.030457 0.030457
0.0329442 0.0329747 0.0329747
0.0381781 0.0381933 0.0381933
0.047364 0.047425 0.0474403
0.059968 0.0599985 0.0599985
0.0802167 0.0802319 0.0801556
0.109178 0.109178 0.109178
0.151781 0.151781 0.151781
0.212192 0.212192 0.212177
0.0495613 0.0496071 0.0496376
0.052903 0.0529488 0.0529946
0.0593271 0.0593423 0.0593576
0.07187 0.0718853 0.0718395
0.0897231 0.0897688 0.0896773
0.116091 0.116106 0.116136
0.154009 0.154009 0.154009
0.207156 0.207156 0.207141
0.278813 0.278828 0.278813
0.0903792 0.0903944 0.0903334
0.0957961 0.0958114 0.0957656
0.106157 0.106188 0.106157
0.124315 0.124315 0.124346
0.151202 0.151202 0.151202
0.188174 0.188174 0.188159
0.239704 0.239704 0.239719
0.307256 0.307256 0.30724
0.392599 0.392599 0.392584
0.175937 0.175937 0.175906
0.18349 0.18349 0.183474
0.199741 0.199741 0.199741
0.227039 0.227039 0.227054
0.265003 0.265003 0.264988
0.315831 0.315847 0.315816
0.381201 0.381201 0.381186
0.461753 0.461769 0.461738
0.556451 0.556451 0.556451
0.331624 0.33164 0.331624
0.342412 0.342428 0.342397
0.365087 0.365072 0.365057
0.399786 0.399771 0.399771
0.447944 0.447974 0.447944
0.508553 0.508568 0.508553
0.581857 0.581857 0.581857
0.664759 0.664546 0.664759
0.753002 0.749111 0.753262
0.569085 0.569085 0.56907
0.579599 0.579599 0.579599
0.603922 0.603922 0.603922
0.641108 0.64097 0.641108
0.687968 0.686229 0.687953
0.744961 0.742199 0.745418
0.804044 0.80264 0.807218
0.864973 0.867292 0.867414
0.923262 0.926543 0.922393
0.823011 0.825147 0.828519
0.829892 0.833738 0.836347
0.84715 0.852735 0.854154
0.873838 0.876661 0.875669
0.907347 0.909072 0.903471
0.937972 0.940078 0.936339
0.968444 0.968246 0.966278
0.988739 0.988602 0.988418
0.997848 0.997726 0.997848
0.985962 0.985382 0.986038
0.988128 0.987488 0.988174
0.992981 0.992538 0.992966
0.997162 0.997055 0.997269
0.998901 0.998795 0.998962
1 1 1
1 1 1
1 1 1
1 1 1
0.0258946 0.0259098 0.0259098
0.0283513 0.0283665 0.0283665
0.0328527 0.0328832 0.0328832
0.0410925 0.0411231 0.0411383
0.0532235 0.0532845 0.053315
0.0709087 0.0709087 0.0708782
0.0975662 0.0975814 0.0975357
0.138064 0.138064 0.138079
0.195148 0.195148 0.195117
0.034287 0.0343023 0.0343175
0.0371405 0.0371557 0.0371557
0.0431983 0.0432441 0.0432593
0.0525673 0.0526284 0.0526589
0.0663005 0.0663157 0.0662852
0.0880751 0.0881056 0.0880293
0.119524 0.119524 0.119539
0.164431 0.164431 0.164416
0.227527 0.227527 0.227543
0.0547799 0.0548409 0.0548714
0.0580911 0.0581216 0.0581521
0.0659648 0.06598 0.0659495
0.0793011 0.0793164 0.0792401
0.0976272 0.0976425 0.097612
0.126757 0.126757 0.126787
0.166659 0.166659 0.166629
0.222095 0.222095 0.222095
0.296468 0.296483 0.296452
0.0991836 0.0992142 0.0991684
0.104402 0.104433 0.104402
0.11577 0.11577 0.115785
0.135424 0.135424 0.135439
0.163134 0.163134 0.163134
0.202808 0.202808 0.202792
0.256016 0.256016 0.256016
0.325597 0.325597 0.325582
0.412528 0.412528 0.412512
0.189166 0.189166 0.189166
0.197009 0.197009 0.196994
0.214603 0.214603 0.214603
0.243183 0.243183 0.243183
0.281605 0.281605 0.281605
0.334615 0.334615 0.3346
0.401511 0.401526 0.401511
0.483055 0.48307 0.483055
0.57792 0.57792 0.57792
0.351537 0.351553 0.351522
0.362097 0.362097 0.362066
0.384543 0.384512 0.384512
0.420081 0.420081 0.420081
0.468757 0.468788 0.468757
0.529778 0.529778 0.529778
0.603418 0.603418 0.603418
0.685512 0.685237 0.685512
0.771984 0.766491 0.772351
0.590295 0.590295 0.59028
0.601328 0.601328 0.601328
0.625132 0.625132 0.625147
0.661616 0.660853 0.661616
0.708125 0.705653 0.708125
0.762203 0.760021 0.763531
0.820569 0.819532 0.824002
0.87892 0.88307 0.8813
0.935607 0.937545 0.932891
0.838209 0.843442 0.845533
0.845304 0.851377 0.852872
0.862974 0.866651 0.866987
0.888655 0.890898 0.887846
0.918654 0.921126 0.915694
0.948302 0.949767 0.946914
0.974517 0.974075 0.972381
0.991379 0.991196 0.991318
0.998901 0.998886 0.998917
0.989868 0.989258 0.989899
0.992172 0.991699 0.992187
0.996445 0.996384 0.99649
0.997864 0.997711 0.997986
0.99968 0.999649 0.999695
1 1 1
1 1 1
1 1 1
1 1 1
0.0301976 0.0302281 0.0302281
0.0327153 0.0327306 0.0327306
0.038056 0.0380713 0.0380865
0.0473793 0.047425 0.0474556
0.059678 0.0596933 0.0597238
0.0805219 0.0805524 0.0804761
0.109239 0.109255 0.109255
0.151781 0.151781 0.151781
0.213428 0.213428 0.213413
0.0396887 0.0397192 0.0397345
0.0430915 0.0431525 0.0431678
0.0494698 0.0495308 0.0495613
0.059144 0.0591745 0.0591897
0.0753033 0.0753338 0.0752575
0.0979171 0.0979324 0.0979019
0.132967 0.132967 0.132998
0.18143 0.18143 0.181415
0.247837 0.247837 0.247852
0.0611887 0.0612039 0.0612039
0.0657969 0.0658122 0.0657816
0.0749218 0.0749371 0.074876
0.0887617 0.0887922 0.088716
0.109377 0.109377 0.109392
0.140124 0.140124 0.140139
0.183627 0.183627 0.183597
0.242237 0.242237 0.242252
0.319005 0.31902 0.319005
0.109911 0.109926 0.109926
0.115969 0.115969 0.115969
0.129076 0.129076 0.129107
0.149905 0.149905 0.14992
0.179309 0.179309 0.179278
0.221317 0.221317 0.221317
0.277241 0.277241 0.277241
0.349111 0.349111 0.349096
0.438117 0.438132 0.438117
0.206409 0.206409 0.206409
0.215152 0.215152 0.215152
0.23444 0.23444 0.23444
0.263005 0.263005 0.262989
0.304128 0.304143 0.304128
0.357519 0.357504 0.357504
0.426734 0.426749 0.426734
0.50927 0.50927 0.50927
0.604044 0.604044 0.604013
0.375708 0.375708 0.375677
0.386419 0.386404 0.386389
0.408743 0.408743 0.408728
0.445914 0.44593 0.445914
0.49485 0.494865 0.49485
0.556405 0.556405 0.556405
0.629252 0.629191 0.629236
0.710765 0.709789 0.710796
0.795209 0.7879 0.795773
0.616846 0.616846 0.616861
0.627222 0.627222 0.627237
0.651255 0.650919 0.651255
0.686564 0.684886 0.686549
0.732754 0.729747 0.732906
0.783337 0.781628 0.785687
0.839918 0.839323 0.842832
0.895064 0.900206 0.897231
0.950317 0.950484 0.9449
0.857511 0.86363 0.864195
0.864729 0.868788 0.868894
0.881239 0.883909 0.88191
0.906386 0.908141 0.902724
0.931289 0.933806 0.929473
0.960342 0.960906 0.958846
0.981338 0.981048 0.979934
0.993912 0.993652 0.993973
0.999191 0.999146 0.999237
0.994675 0.9944 0.994675
0.996536 0.99649 0.996582
0.997467 0.997345 0.997604
0.99881 0.998703 0.998871
1 1 1
1 1 1
1 1 1
1 1 1
1 1 1
0.0356298 0.0356451 0.0356451
0.0389105 0.038941 0.038941
0.0453803 0.0454261 0.0454566
0.0548409 0.0548867 0.0549325
0.0694896 0.0694896 0.0694591
0.0917678 0.0918135 0.0917372
0.124773 0.124773 0.124788
0.171176 0.171176 0.171145
0.235996 0.235996 0.236011
0.0470283 0.0470893 0.0471046
0.0504768 0.0505379 0.0505684
0.0570077 0.0570535 0.0570687
0.0685283 0.0685283 0.0684977
0.0865034 0.0865339 0.0864576
0.111772 0.111772 0.111788
0.149538 0.149538 0.149538
0.202121 0.202121 0.202106
0.273152 0.273152 0.273152
0.0717021 0.0717174 0.0716716
0.0765698 0.076585 0.076524
0.0860304 0.0860609 0.0859693
0.100603 0.100618 0.100603
0.124743 0.124743 0.124773
0.156939 0.156939 0.156939
0.204227 0.204227 0.204211
0.266789 0.266789 0.266789
0.347219 0.34725 0.347204
0.125246 0.125246 0.125261
0.13193 0.13193 0.13196
0.14583 0.14583 0.14583
0.167391 0.167391 0.167376
0.200137 0.200137 0.200122
0.243809 0.243809 0.243809
0.303151 0.303151 0.303136
0.377981 0.377966 0.377951
0.468986 0.469001 0.468986
0.22945 0.22945 0.22945
0.238697 0.238697 0.238697
0.258015 0.258015 0.258
0.288014 0.288014 0.288014
0.331136 0.331151 0.331121
0.386618 0.386618 0.386603
0.456977 0.456992 0.456977
0.540551 0.540566 0.540551
0.634897 0.634897 0.634897
0.404944 0.404929 0.404929
0.415473 0.415473 0.415473
0.439765 0.43978 0.439765
0.476631 0.476661 0.476631
0.526238 0.526238 0.526238
0.587564 0.587564 0.587564
0.659648 0.65951 0.659648
0.739147 0.736324 0.739284
0.817594 0.813809 0.82031
0.648096 0.647974 0.648112
0.658412 0.657893 0.658412
0.680827 0.679362 0.680812
0.716243 0.713451 0.716258
0.759289 0.75697 0.760449
0.808881 0.807706 0.812421
0.861173 0.863127 0.863767
0.913573 0.917906 0.914061
0.961196 0.960937 0.956863
0.880079 0.883879 0.882048
0.886702 0.889433 0.886687
0.90312 0.904875 0.899748
0.923232 0.925704 0.920409
0.9467 0.948257 0.945266
0.970443 0.969985 0.967895
0.987961 0.987839 0.987457
0.996551 0.996353 0.996567
0.999527 0.999496 0.999557
0.997375 0.997299 0.997482
0.997696 0.997574 0.997818
0.99855 0.998428 0.998627
0.999832 0.999802 0.999832
1 1 1
1 1 1
1 1 1
1 1 1
1 1 1
0.0437324 0.0437934 0.0438087
0.0472877 0.0473487 0.047364
0.0538643 0.0539101 0.0539559
0.0641642 0.0641794 0.0641642
0.0821698 0.0822003 0.0821088
0.105913 0.105928 0.105913
0.143099 0.143099 0.143114
0.194751 0.194751 0.194736
0.264546 0.264546 0.264561
0.0555886 0.0556344 0.0556649
0.059266 0.0592813 0.0593118
0.0672313 0.0672465 0.067216
0.0811322 0.0811475 0.0810712
0.100114 0.100145 0.100114
0.129778 0.129778 0.129809
0.170687 0.170687 0.170672
0.226993 0.226993 0.226993
0.302373 0.302373 0.302358
0.0843977 0.0844282 0.0843366
0.0893416 0.0893873 0.0892958
0.0990463 0.0990616 0.0990311
0.117388 0.117403 0.117418
0.142916 0.142916 0.142931
0.179614 0.179614 0.179583
0.229313 0.229313 0.229328
0.295415 0.295415 0.295399
0.380346 0.380331 0.380331
0.144259 0.144259 0.144274
0.151308 0.151308 0.151308
0.165698 0.165698 0.165698
0.190539 0.190539 0.190524
0.225086 0.225086 0.225086
0.272221 0.272221 0.272221
0.333913 0.333913 0.333898
0.411658 0.411658 0.411643
0.504845 0.50486 0.504845
0.256611 0.256611 0.256611
0.26598 0.26598 0.26598
0.286091 0.286091 0.286107
0.318807 0.318807 0.318791
0.362951 0.362936 0.362936
0.420859 0.420859 0.420844
0.492454 0.492454 0.492454
0.576715 0.576715 0.576699
0.670192 0.670146 0.670207
0.439734 0.43975 0.439734
0.450752 0.450767 0.450752
0.475288 0.475334 0.475288
0.512337 0.512352 0.512337
0.562173 0.562173 0.562173
0.623407 0.623377 0.623392
0.694652 0.694179 0.694667
0.770977 0.765408 0.771282
0.841733 0.844404 0.847654
0.682536 0.681056 0.682521
0.692302 0.690379 0.692287
0.715129 0.712322 0.715145
0.748425 0.745708 0.74905
0.78822 0.786648 0.790829
0.836164 0.835142 0.839155
0.884703 0.889296 0.887083
0.935042 0.937011 0.932296
0.97293 0.972732 0.970748
0.90518 0.907179 0.901823
0.911879 0.913344 0.907073
0.923247 0.925643 0.920027
0.940597 0.942504 0.938872
0.962478 0.962768 0.960571
0.979919 0.979522 0.978363
0.992416 0.992203 0.992477
0.99852 0.998444 0.998535
0.999954 0.999939 0.999954
0.998474 0.998352 0.99855
0.998917 0.998825 0.998978
0.999847 0.999832 0.999847
1 1 1
1 1 1
1 1 1
1 1 1
1 1 1
1 1 1
0.0532235 0.0532845 0.053315
0.0568704 0.0569162 0.0569467
0.0640421 0.0640421 0.0640269
0.078172 0.0781872 0.0781109
0.0967269 0.0967575 0.0967117
0.126116 0.126116 0.126146
0.166201 0.166201 0.166186
0.221958 0.221958 0.221958
0.297887 0.297887 0.297871
0.0666667 0.0666667 0.0666514
0.0717174 0.0717174 0.0716716
0.0814069 0.0814221 0.0813458
0.0957046 0.0957198 0.0956741
0.118654 0.118654 0.118669
0.150561 0.150561 0.150561
0.196918 0.196918 0.196902
0.258274 0.258274 0.258289
0.337972 0.337972 0.337957
0.09897 0.0989853 0.0989548
0.105043 0.105043 0.105043
0.118029 0.118029 0.118074
0.13753 0.13753 0.137545
0.165743 0.165743 0.165713
0.206104 0.206104 0.206088
0.260777 0.260777 0.260777
0.330755 0.33077 0.330739
0.418158 0.418158 0.418158
0.166903 0.166903 0.166888
0.174456 0.174456 0.174441
0.191623 0.191623 0.191608
0.218097 0.218097 0.218097
0.2551 0.2551 0.2551
0.305684 0.305684 0.305653
0.37084 0.37084 0.370825
0.451057 0.451072 0.451057
0.545434 0.545434 0.545434
0.288563 0.288563 0.288563
0.29868 0.29868 0.29868
0.320867 0.320867 0.320851
0.354589 0.354574 0.354543
0.400549 0.400565 0.400549
0.460029 0.46006 0.460029
0.532738 0.532753 0.532738
0.616724 0.616724 0.616709
0.708705 0.707088 0.708705
0.479789 0.47982 0.479789
0.491127 0.491157 0.491127
0.515358 0.515358 0.515358
0.552789 0.552789 0.552773
0.60296 0.60296 0.60296
0.662821 0.662654 0.662821
0.732586 0.730358 0.732677
0.804273 0.79881 0.805875
0.868635 0.878309 0.877852
0.721035 0.717815 0.72105
0.730632 0.727138 0.730663
0.751446 0.748714 0.752132
0.781506 0.779828 0.783795
0.821286 0.819654 0.824613
0.863645 0.865873 0.866178
0.909346 0.914153 0.910445
0.954177 0.95433 0.94966
0.984573 0.984451 0.984634
0.928954 0.930541 0.924254
0.932174 0.93431 0.929213
0.942885 0.944595 0.941009
0.959594 0.96025 0.958206
0.974762 0.974273 0.972686
0.988922 0.988861 0.988571
0.995926 0.995697 0.995972
0.999329 0.999298 0.999359
1 1 1
0.999832 0.999817 0.999847
1 1 1
1 1 1
1 1 1
1 1 1
1 1 1
1 1 1
1 1 1
1 1 1
