luts/varicam_official/BandW_HiCon.cube
TITLE "Generated by Resolve"
LUT_3D_SIZE 5
0.0172427 0.0172274 0.0172274
0.0248722 0.0248569 0.0248569
0.0458228 0.0458839 0.0458991
0.0966506 0.0966812 0.0966201
0.158297 0.158297 0.158282
0.0475776 0.0476234 0.0476387
0.0598459 0.0598917 0.0598917
0.0968795 0.0968948 0.096849
0.182559 0.182559 0.182528
0.272465 0.272465 0.27248
0.209369 0.209369 0.209369
0.243931 0.243931 0.243915
0.331044 0.331044 0.331014
0.485176 0.485176 0.485176
0.609812 0.609812 0.609796
0.714153 0.713405 0.714656
0.751369 0.748653 0.752377
0.833921 0.835538 0.837949
0.937377 0.93875 0.93344
0.981277 0.980743 0.980285
0.980346 0.98027 0.980377
0.988067 0.987427 0.988098
0.998627 0.998489 0.998688
1 1 1
1 1 1
0.0203708 0.0203403 0.0203403
0.028336 0.028336 0.028336
0.0509499 0.0510109 0.0510414
0.10544 0.10544 0.10544
0.171572 0.171572 0.171542
0.0525521 0.0526131 0.0526284
0.0657664 0.0657969 0.0657816
0.105333 0.105348 0.105333
0.195682 0.195682 0.195666
0.288594 0.288594 0.288594
0.224155 0.224155 0.224155
0.258778 0.258778 0.258762
0.347997 0.347982 0.347967
0.503929 0.503929 0.503929
0.628092 0.628092 0.628092
0.730938 0.729458 0.731746
0.768002 0.764065 0.769009
0.846281 0.850538 0.851972
0.945205 0.946365 0.941955
0.985168 0.984695 0.984375
0.983658 0.9832 0.983719
0.991867 0.991363 0.991867
0.99939 0.999344 0.99942
1 1 1
1 1 1
0.0276799 0.0276951 0.0276951
0.0363775 0.0363928 0.036408
0.0625315 0.0625467 0.0625315
0.128542 0.128542 0.128573
0.202655 0.202655 0.202625
0.0653239 0.0653391 0.0653239
0.0812238 0.0812543 0.081178
0.127077 0.127077 0.127092
0.227771 0.227771 0.227771
0.327993 0.327993 0.327977
0.259525 0.259525 0.25951
0.294957 0.294957 0.294957
0.389441 0.389441 0.389425
0.549401 0.549401 0.549401
0.672786 0.672755 0.672801
0.771023 0.767849 0.772519
0.804852 0.801526 0.806577
0.87715 0.881834 0.880919
0.964172 0.964645 0.962753
0.993301 0.99324 0.993286
0.991852 0.991333 0.991852
0.997223 0.997116 0.99733
1 1 1
1 1 1
1 1 1
0.0407568 0.0408026 0.0408026
0.0526894 0.0527504 0.0527962
0.0869612 0.0869917 0.0869001
0.167193 0.167193 0.167178
0.254398 0.254398 0.254429
0.089189 0.0892042 0.0891432
0.108827 0.108827 0.108827
0.165164 0.165164 0.165164
0.282124 0.282124 0.282124
0.392142 0.392142 0.392142
0.31693 0.31696 0.31693
0.356374 0.356359 0.356359
0.45655 0.456565 0.456535
0.618967 0.618967 0.618967
0.738003 0.734279 0.738018
0.826047 0.825483 0.828733
0.853635 0.858793 0.859663
0.922911 0.924407 0.918303
0.982986 0.982513 0.982055
0.997726 0.997559 0.997742
0.998062 0.99794 0.998184
0.999664 0.999619 0.99968
1 1 1
1 1 1
1 1 1
0.0532235 0.0532845 0.053315
0.066804 0.066804 0.0667735
0.107927 0.107942 0.107942
0.202075 0.202075 0.20206
0.297887 0.297887 0.297871
0.111147 0.111162 0.111177
0.134752 0.134752 0.134783
0.1991 0.1991 0.199069
0.327001 0.327016 0.326986
0.443244 0.443259 0.443244
0.364324 0.364309 0.364294
0.405478 0.405493 0.405478
0.509102 0.509102 0.509102
0.671336 0.671199 0.671351
0.784741 0.778729 0.785428
0.862699 0.868223 0.86833
0.889906 0.893721 0.891615
0.947585 0.94873 0.944656
0.99263 0.992493 0.992554
0.999496 0.999466 0.999512
0.999832 0.999817 0.999847
1 1 1
1 1 1
1 1 1
1 1 1
