luts/varicam_official/BandW_LoCon Dark.cube
TITLE "Generated by Resolve"
LUT_3D_SIZE 9
0.0735332 0.0735485 0.0734874
0.0834669 0.0834974 0.0834211
0.0937209 0.0937514 0.0936904
0.105196 0.105196 0.105211
0.120241 0.120241 0.120272
0.135714 0.135714 0.135729
0.152193 0.152193 0.152193
0.170809 0.170809 0.170779
0.192065 0.192065 0.19205
0.109926 0.109941 0.109957
0.124743 0.124743 0.124773
0.140078 0.140078 0.140093
0.156863 0.156863 0.156847
0.176318 0.176318 0.176287
0.197345 0.197345 0.197314
0.219333 0.219333 0.219333
0.243748 0.243748 0.243763
0.270893 0.270893 0.270893
0.162478 0.162478 0.162463
0.182925 0.182925 0.182895
0.203845 0.203845 0.20383
0.226459 0.226459 0.226459
0.251347 0.251347 0.251362
0.278172 0.278172 0.278157
0.305791 0.305791 0.305791
0.336172 0.336187 0.336156
0.368246 0.368246 0.368215
0.234119 0.234119 0.234119
0.260166 0.260166 0.260166
0.286671 0.286671 0.286641
0.315312 0.315328 0.315297
0.34551 0.345525 0.34548
0.377462 0.377462 0.377447
0.410224 0.410224 0.410224
0.445258 0.445274 0.445258
0.481056 0.481086 0.481056
0.325292 0.325307 0.325277
0.356374 0.356374 0.356344
0.388113 0.388083 0.388083
0.421668 0.421668 0.421668
0.45623 0.45626 0.45623
0.491981 0.491997 0.491981
0.52813 0.52813 0.52813
0.565652 0.565652 0.565652
0.603357 0.603357 0.603357
0.43389 0.433906 0.43389
0.46862 0.46865 0.46862
0.504204 0.504234 0.504204
0.540505 0.540505 0.540505
0.577523 0.577523 0.577523
0.614847 0.614847 0.614832
0.651957 0.651957 0.651957
0.688975 0.688869 0.688991
0.725048 0.723323 0.725048
0.55404 0.55404 0.55404
0.590829 0.590829 0.590829
0.627787 0.627787 0.627787
0.664332 0.664332 0.664332
0.70074 0.700008 0.700755
0.736202 0.733242 0.736202
0.770779 0.764858 0.770932
0.802472 0.797147 0.80415
0.830335 0.83061 0.835386
0.678172 0.678172 0.678187
0.714183 0.713359 0.714183
0.748623 0.744549 0.748623
0.783078 0.775708 0.783123
0.812573 0.808255 0.815061
0.838956 0.841764 0.84538
0.865751 0.872862 0.872892
0.893553 0.899702 0.896071
0.920714 0.923186 0.916411
0.794812 0.787884 0.795514
0.822553 0.820554 0.826383
0.848371 0.85391 0.856229
0.875273 0.88426 0.882994
0.903304 0.90811 0.90309
0.930907 0.931777 0.923201
0.949844 0.949844 0.943496
0.966354 0.966354 0.964004
0.978851 0.978515 0.978561
0.0776989 0.0777142 0.0776379
0.0878157 0.0878462 0.0877546
0.0981918 0.0982071 0.0981765
0.111406 0.111406 0.111421
0.12665 0.12665 0.12668
0.142428 0.142428 0.142428
0.159716 0.159716 0.159701
0.179614 0.179614 0.179583
0.201068 0.201068 0.201053
0.116075 0.116075 0.116106
0.131197 0.131197 0.131228
0.146654 0.146654 0.14667
0.164843 0.164843 0.164828
0.185138 0.185138 0.185107
0.206378 0.206378 0.206363
0.229129 0.229129 0.229145
0.25507 0.25507 0.25507
0.282155 0.282155 0.282139
0.171145 0.171145 0.171115
0.191836 0.191836 0.191806
0.213245 0.213245 0.21323
0.236835 0.236835 0.236835
0.262592 0.262592 0.262608
0.289601 0.289601 0.289586
0.317876 0.317891 0.317876
0.349676 0.349691 0.34966
0.381735 0.38172 0.381704
0.245228 0.245228 0.245243
0.271458 0.271458 0.271458
0.29865 0.298665 0.298634
0.327886 0.327901 0.327871
0.358923 0.358907 0.358892
0.391196 0.39118 0.39118
0.42475 0.424765 0.42475
0.460365 0.460395 0.460365
0.496071 0.496101 0.496071
0.338552 0.338567 0.338537
0.36968 0.369665 0.36965
0.402396 0.40238 0.402365
0.43624 0.436255 0.43624
0.471366 0.471397 0.471366
0.507195 0.50721 0.507195
0.543893 0.543893 0.543893
0.581445 0.581445 0.581445
0.618967 0.618967 0.618952
0.44889 0.44892 0.44889
0.483757 0.483787 0.483757
0.519615 0.519631 0.519615
0.556283 0.556283 0.556283
0.593439 0.593439 0.593423
0.630381 0.630381 0.630365
0.667674 0.667674 0.667674
0.704479 0.70399 0.704494
0.739757 0.736568 0.739757
0.569818 0.569818 0.569818
0.606729 0.606729 0.606729
0.643351 0.643351 0.643351
0.679805 0.679698 0.67982
0.716045 0.714534 0.716045
0.751156 0.746838 0.751156
0.78471 0.778439 0.785275
0.814755 0.811063 0.817594
0.841489 0.844938 0.848203
0.693843 0.693812 0.693858
0.728939 0.726802 0.728939
0.763348 0.757809 0.763348
0.796307 0.789532 0.797131
0.823941 0.822431 0.828031
0.850187 0.855558 0.857649
0.877409 0.884779 0.883268
0.905455 0.909941 0.904707
0.930831 0.932204 0.924987
0.807645 0.801587 0.809232
0.8336 0.834836 0.83917
0.859632 0.867964 0.868757
0.887221 0.894423 0.891585
0.915328 0.918349 0.911635
0.939498 0.939788 0.931746
0.956817 0.956817 0.952163
0.97229 0.972183 0.97113
0.982895 0.982406 0.982879
0.0820783 0.0821088 0.0820172
0.0922713 0.0923018 0.0922408
0.103365 0.103365 0.103365
0.117922 0.117922 0.117952
0.133181 0.133181 0.133196
0.149371 0.149371 0.149371
0.167681 0.167681 0.167666
0.188571 0.188571 0.18854
0.210117 0.210117 0.210101
0.12256 0.12256 0.122591
0.137804 0.137804 0.137819
0.154177 0.154177 0.154177
0.17319 0.17319 0.173159
0.19411 0.19411 0.19408
0.215641 0.215641 0.215641
0.239673 0.239673 0.239689
0.266468 0.266468 0.266468
0.293614 0.293614 0.293584
0.17995 0.17995 0.179934
0.200793 0.200793 0.200778
0.223102 0.223102 0.223087
0.247654 0.247654 0.247669
0.274083 0.274083 0.274083
0.301427 0.301442 0.301427
0.331151 0.331167 0.331136
0.363073 0.363058 0.363043
0.395438 0.395407 0.395407
0.25658 0.25658 0.256596
0.28278 0.28278 0.282765
0.31107 0.311086 0.311055
0.340887 0.340887 0.340856
0.372519 0.372503 0.372488
0.405127 0.405127 0.405127
0.439872 0.439902 0.439872
0.475395 0.47541 0.475395
0.511604 0.51162 0.511604
0.352041 0.352041 0.35201
0.383505 0.38349 0.383474
0.416648 0.416648 0.416648
0.451026 0.451057 0.451026
0.486595 0.48661 0.486595
0.522667 0.522667 0.522667
0.559823 0.559823 0.559823
0.597452 0.597452 0.597452
0.634592 0.634592 0.634592
0.463508 0.463554 0.463508
0.499153 0.499168 0.499153
0.535241 0.535241 0.535241
0.572259 0.572259 0.572259
0.609186 0.609186 0.609171
0.646082 0.646082 0.646067
0.683223 0.683162 0.683223
0.719615 0.718349 0.719615
0.754635 0.749966 0.754635
0.585779 0.585779 0.585779
0.622522 0.622522 0.622507
0.658976 0.658976 0.658991
0.695552 0.695018 0.695567
0.731029 0.728496 0.731029
0.765805 0.76025 0.765896
0.797955 0.792218 0.799283
0.826246 0.82533 0.830655
0.852689 0.858793 0.860533
0.709514 0.709148 0.709514
0.743694 0.740124 0.743694
0.778058 0.771069 0.778058
0.80882 0.803494 0.810742
0.835081 0.836774 0.840909
0.861738 0.868528 0.869093
0.88925 0.895842 0.892775
0.916869 0.919829 0.913344
0.939986 0.940597 0.933501
0.818952 0.815885 0.822202
0.844785 0.849302 0.85211
0.87129 0.880537 0.879789
0.899214 0.904631 0.900175
0.927474 0.928695 0.920211
0.947143 0.947188 0.940307
0.963745 0.963745 0.960769
0.977432 0.977188 0.977066
0.986633 0.986023 0.986664
0.0865034 0.0865339 0.0864424
0.0967422 0.0967575 0.0967269
0.109438 0.109438 0.109453
0.124453 0.124453 0.124483
0.139986 0.139986 0.140002
0.156786 0.156786 0.156786
0.176242 0.176242 0.176226
0.19762 0.19762 0.197589
0.219196 0.219196 0.219196
0.129198 0.129198 0.129213
0.144503 0.144503 0.144518
0.162051 0.162051 0.162036
0.181994 0.181994 0.181949
0.203159 0.203159 0.203143
0.225528 0.225528 0.225528
0.251026 0.251026 0.251041
0.277943 0.277943 0.277928
0.305638 0.305653 0.305623
0.188968 0.188968 0.188952
0.209995 0.209995 0.209979
0.233234 0.233234 0.233249
0.258717 0.258717 0.258732
0.285618 0.285618 0.285618
0.313588 0.313603 0.313588
0.344594 0.34461 0.344564
0.376623 0.376593 0.376593
0.409506 0.409506 0.409506
0.267857 0.267857 0.267872
0.294728 0.294743 0.294728
0.323751 0.323766 0.323735
0.35433 0.35433 0.354299
0.386343 0.386343 0.386328
0.419455 0.419455 0.419455
0.454765 0.454795 0.454765
0.490639 0.490669 0.490639
0.527321 0.527321 0.527321
0.36556 0.36556 0.36553
0.397711 0.397711 0.397696
0.431144 0.431144 0.431144
0.466087 0.466117 0.466087
0.501823 0.501839 0.501823
0.53843 0.53843 0.53843
0.575738 0.575738 0.575738
0.613306 0.613306 0.613306
0.650187 0.650187 0.650187
0.47863 0.478676 0.47863
0.514412 0.514427 0.514412
0.551003 0.551003 0.551003
0.588174 0.588174 0.588174
0.624949 0.624949 0.624933
0.661906 0.661906 0.661906
0.698878 0.698528 0.698878
0.734386 0.731731 0.734386
0.769299 0.76318 0.769299
0.601694 0.601694 0.601694
0.638224 0.638224 0.638224
0.674784 0.674769 0.674815
0.710842 0.709621 0.710857
0.745861 0.742061 0.745861
0.779843 0.773632 0.78024
0.810437 0.806073 0.812818
0.837507 0.839887 0.843687
0.864179 0.872023 0.872251
0.7243 0.722652 0.7243
0.758526 0.753475 0.758526
0.791867 0.784817 0.792401
0.820249 0.817578 0.823713
0.846403 0.851102 0.853697
0.87335 0.88069 0.879713
0.90132 0.906401 0.901717
0.927275 0.929015 0.921859
0.948318 0.94847 0.942138
0.829999 0.830182 0.835004
0.85597 0.863508 0.86479
0.883253 0.891051 0.888731
0.911345 0.914961 0.908797
0.937041 0.937362 0.928786
0.954284 0.954284 0.94902
0.970306 0.97026 0.968811
0.981689 0.981262 0.981674
0.99025 0.989639 0.990265
0.090898 0.0909285 0.0908522
0.101427 0.101442 0.101427
0.115846 0.115846 0.115862
0.131044 0.131044 0.131075
0.14696 0.14696 0.146975
0.164706 0.164706 0.164691
0.185214 0.185214 0.185183
0.206622 0.206622 0.206622
0.229541 0.229541 0.229557
0.135866 0.135866 0.135897
0.151797 0.151797 0.151797
0.170459 0.170459 0.170443
0.19089 0.19089 0.19086
0.212528 0.212528 0.212528
0.235752 0.235752 0.235767
0.262455 0.262455 0.262455
0.289479 0.289479 0.289464
0.318395 0.318395 0.318379
0.198001 0.198001 0.197986
0.219852 0.219852 0.219852
0.243961 0.243961 0.243977
0.270039 0.270039 0.270054
0.297292 0.297292 0.297292
0.326497 0.326513 0.326497
0.358328 0.358328 0.358297
0.390173 0.390143 0.390143
0.424308 0.424323 0.424308
0.279103 0.279103 0.279103
0.30692 0.306935 0.30692
0.33669 0.336706 0.336675
0.368002 0.368002 0.367971
0.400366 0.400366 0.400351
0.434501 0.434501 0.434501
0.469886 0.469917 0.469886
0.505974 0.505974 0.505974
0.54316 0.54316 0.54316
0.379309 0.379294 0.379278
0.412055 0.412055 0.412039
0.446082 0.446097 0.446082
0.481407 0.481422 0.481407
0.517311 0.517311 0.517311
0.554208 0.554208 0.554208
0.591714 0.591714 0.591714
0.629038 0.629038 0.629023
0.666056 0.666056 0.666056
0.494148 0.494179 0.494148
0.530083 0.530098 0.530083
0.566766 0.566766 0.566751
0.603815 0.603815 0.6038
0.640772 0.640772 0.640757
0.677882 0.677836 0.677882
0.714336 0.713375 0.714336
0.749249 0.745113 0.749249
0.784207 0.776654 0.784237
0.617426 0.617426 0.617426
0.654017 0.654017 0.654017
0.69041 0.690044 0.690425
0.725994 0.723842 0.725994
0.760708 0.755474 0.760723
0.793362 0.78735 0.794385
0.822324 0.820264 0.826123
0.848661 0.854002 0.856291
0.875914 0.884306 0.882994
0.739162 0.736034 0.739162
0.773388 0.766873 0.773388
0.804562 0.798871 0.806165
0.831403 0.831998 0.836637
0.857786 0.86421 0.865293
0.885222 0.892164 0.889616
0.913039 0.916487 0.910369
0.936873 0.937713 0.93051
0.955779 0.955764 0.950866
0.841245 0.844724 0.848005
0.867353 0.876997 0.876753
0.895155 0.901183 0.897276
0.923476 0.925277 0.917388
0.9449 0.94493 0.937453
0.961349 0.961349 0.957809
0.975616 0.975418 0.974975
0.985351 0.984771 0.985397
0.992966 0.992538 0.992996
0.0953689 0.0953994 0.0953536
0.107424 0.107424 0.107439
0.122332 0.122332 0.122362
0.137743 0.137743 0.137774
0.154299 0.154299 0.154299
0.173266 0.173266 0.17322
0.1944 0.1944 0.194369
0.215854 0.215854 0.215854
0.240406 0.240406 0.240421
0.142519 0.142519 0.142519
0.15964 0.15964 0.159625
0.179248 0.179248 0.179217
0.200183 0.200183 0.200153
0.222217 0.222217 0.222217
0.246952 0.246952 0.246967
0.273838 0.273838 0.273823
0.301091 0.301091 0.301076
0.331456 0.331472 0.331456
0.207202 0.207202 0.207187
0.230091 0.230091 0.230106
0.255131 0.255131 0.255146
0.281666 0.281666 0.281666
0.309407 0.309422 0.309407
0.340185 0.3402 0.340169
0.371908 0.371878 0.371862
0.404593 0.404578 0.404578
0.439384 0.439399 0.439384
0.291035 0.291035 0.29102
0.319677 0.319692 0.319661
0.349889 0.349905 0.349859
0.381888 0.381872 0.381857
0.41471 0.41471 0.41471
0.449577 0.449592 0.449577
0.485145 0.485176 0.485145
0.521645 0.521645 0.521645
0.558709 0.558709 0.558709
0.393301 0.393286 0.393271
0.426719 0.426734 0.426703
0.46125 0.46128 0.46125
0.496803 0.496818 0.496803
0.533028 0.533028 0.533028
0.57026 0.57026 0.57026
0.607675 0.607675 0.60766
0.644938 0.644938 0.644938
0.682033 0.682033 0.682048
0.509819 0.509834 0.509819
0.545876 0.545876 0.545876
0.582834 0.582834 0.582834
0.619776 0.619776 0.61976
0.65655 0.65655 0.65655
0.693675 0.693431 0.69369
0.729366 0.727214 0.729366
0.764172 0.758556 0.764172
0.798672 0.790234 0.798932
0.63328 0.63328 0.63328
0.669718 0.669718 0.669734
0.705867 0.704906 0.705882
0.740978 0.737621 0.740978
0.77525 0.7691 0.775479
0.806302 0.801373 0.808301
0.833616 0.834836 0.83917
0.860059 0.867536 0.868284
0.88777 0.894896 0.892012
0.753994 0.749401 0.753994
0.787717 0.780453 0.788006
0.81648 0.813107 0.819501
0.842649 0.846525 0.849638
0.869413 0.876692 0.876234
0.8972 0.902846 0.898711
0.923751 0.925887 0.918883
0.945602 0.945861 0.939208
0.962615 0.962585 0.959319
0.852369 0.859113 0.860868
0.879332 0.887694 0.885908
0.90724 0.911452 0.905898
0.933883 0.934478 0.925872
0.952026 0.952026 0.946212
0.968368 0.968353 0.966491
0.980179 0.979797 0.980011
0.988998 0.988388 0.989029
0.995178 0.994919 0.995224
0.0998703 0.0998703 0.099855
0.113863 0.113863 0.113893
0.128954 0.128954 0.128985
0.144518 0.144518 0.144533
0.162188 0.162188 0.162173
0.182361 0.182361 0.182315
0.203632 0.203632 0.203601
0.225895 0.225895 0.225895
0.251728 0.251728 0.251728
0.149569 0.149569 0.149569
0.167895 0.167895 0.167865
0.18819 0.18819 0.188159
0.209552 0.209552 0.209537
0.232425 0.232425 0.232441
0.258473 0.258473 0.258488
0.285298 0.285298 0.285283
0.31368 0.31368 0.313664
0.344793 0.344808 0.344778
0.216938 0.216938 0.216938
0.240726 0.240726 0.240742
0.26656 0.26656 0.26656
0.293523 0.293523 0.293523
0.322087 0.322118 0.322087
0.353491 0.353491 0.35346
0.385412 0.385382 0.385382
0.419272 0.419287 0.419272
0.454505 0.454536 0.454505
0.303456 0.303471 0.303441
0.332647 0.332662 0.332631
0.363668 0.363668 0.363638
0.395789 0.395773 0.395773
0.429694 0.429709 0.429694
0.464851 0.464881 0.464851
0.500572 0.500587 0.500572
0.537514 0.537514 0.537514
0.574762 0.574762 0.574762
0.407462 0.407462 0.407446
0.441398 0.441428 0.441398
0.476631 0.476646 0.476631
0.512444 0.512459 0.512444
0.549081 0.549081 0.549081
0.586328 0.586328 0.586328
0.623667 0.623667 0.623667
0.660685 0.660685 0.660685
0.697688 0.697459 0.697719
0.525551 0.525567 0.525551
0.561883 0.561883 0.561883
0.599023 0.599023 0.599008
0.635706 0.635706 0.635691
0.672541 0.672541 0.672541
0.709102 0.708385 0.709102
0.744274 0.740642 0.744274
0.779248 0.772122 0.779248
0.810315 0.80473 0.812192
0.649073 0.649073 0.649073
0.685542 0.685298 0.685557
0.721096 0.71928 0.721111
0.755901 0.751141 0.755917
0.78909 0.782895 0.789868
0.818662 0.815686 0.821942
0.844923 0.84921 0.852003
0.871717 0.880049 0.879286
0.899947 0.905257 0.900694
0.76878 0.762707 0.76878
0.800946 0.794568 0.802136
0.827909 0.827497 0.832593
0.854124 0.86009 0.861662
0.881285 0.888533 0.886503
0.909209 0.913176 0.907485
0.933684 0.934798 0.927535
0.953307 0.953307 0.947829
0.968872 0.968734 0.966903
0.863767 0.873365 0.873579
0.891463 0.898039 0.894636
0.919432 0.921828 0.914519
0.94229 0.942428 0.934585
0.959014 0.959014 0.954894
0.973983 0.973846 0.973114
0.984115 0.983597 0.984131
0.992126 0.991653 0.992157
0.996735 0.996582 0.996811
0.105791 0.105791 0.105791
0.120516 0.120516 0.120546
0.135683 0.135683 0.135698
0.151965 0.151965 0.151965
0.170474 0.170474 0.170443
0.191394 0.191394 0.191363
0.212848 0.212848 0.212833
0.236713 0.236713 0.236728
0.263127 0.263127 0.263127
0.157351 0.157351 0.157336
0.176669 0.176669 0.176638
0.19736 0.19736 0.197345
0.21912 0.21912 0.219104
0.243503 0.243503 0.243534
0.270054 0.270054 0.270054
0.297002 0.297002 0.296971
0.326726 0.326741 0.326726
0.358404 0.358404 0.358373
0.227054 0.227054 0.22707
0.251911 0.251911 0.251942
0.278264 0.278264 0.278264
0.305638 0.305638 0.305623
0.335607 0.335622 0.335592
0.367254 0.367239 0.367224
0.399634 0.399619 0.399619
0.43415 0.434165 0.43415
0.469612 0.469642 0.469612
0.315984 0.315999 0.315953
0.345983 0.345998 0.345968
0.377508 0.377508 0.377478
0.41001 0.41001 0.41001
0.444617 0.444648 0.444617
0.48014 0.480156 0.48014
0.516442 0.516457 0.516442
0.553475 0.553475 0.553475
0.590967 0.590967 0.590967
0.422278 0.422293 0.422278
0.45655 0.45658 0.45655
0.492012 0.492027 0.492012
0.528115 0.528115 0.528115
0.565225 0.565225 0.565225
0.602487 0.602487 0.602487
0.639582 0.639582 0.639567
0.676539 0.676539 0.676555
0.713176 0.712184 0.713176
0.541146 0.541161 0.541146
0.578103 0.578103 0.578103
0.615045 0.615045 0.615015
0.651606 0.651606 0.651591
0.688457 0.688441 0.688457
0.724437 0.722759 0.724437
0.759167 0.754055 0.759167
0.793851 0.785718 0.794034
0.821515 0.819211 0.825177
0.664988 0.664988 0.664988
0.701122 0.700374 0.701137
0.736355 0.733379 0.736355
0.770642 0.764736 0.770794
0.802152 0.796765 0.803784
0.829938 0.830091 0.834928
0.856336 0.86305 0.864317
0.88365 0.891402 0.889067
0.9122 0.915679 0.909392
0.783734 0.776303 0.783795
0.81297 0.808576 0.815442
0.838926 0.841733 0.84535
0.865766 0.872877 0.872908
0.893294 0.89955 0.895949
0.920394 0.922911 0.916152
0.942718 0.943145 0.936217
0.960311 0.960296 0.956497
0.974456 0.974166 0.973495
0.875761 0.884688 0.883345
0.903624 0.908385 0.903319
0.930999 0.931853 0.923247
0.949737 0.949737 0.943374
0.966171 0.966171 0.96379
0.978759 0.978439 0.978485
0.987762 0.987152 0.987793
0.994522 0.994217 0.994553
0.997711 0.997589 0.997803
0.112276 0.112276 0.112291
0.127184 0.127184 0.127214
0.142672 0.142672 0.142687
0.159792 0.159792 0.159777
0.179507 0.179507 0.179477
0.200595 0.200595 0.20058
0.222293 0.222293 0.222293
0.247974 0.247974 0.247974
0.274739 0.274739 0.274723
0.165591 0.165591 0.165576
0.185779 0.185779 0.185748
0.206699 0.206699 0.206699
0.229236 0.229236 0.229236
0.254902 0.254902 0.254932
0.281758 0.281758 0.281758
0.309621 0.309621 0.309606
0.340261 0.340276 0.340246
0.372137 0.372137 0.372122
0.237766 0.237766 0.237781
0.263172 0.263172 0.263188
0.289967 0.289967 0.289952
0.31812 0.31812 0.318105
0.349401 0.349416 0.349386
0.38117 0.381155 0.38114
0.414267 0.414267 0.414267
0.449332 0.449363 0.449332
0.485115 0.48513 0.485115
0.328908 0.328923 0.328893
0.359747 0.359747 0.359716
0.391562 0.391562 0.391562
0.424781 0.424796 0.424781
0.460044 0.460075 0.460044
0.495659 0.495689 0.495659
0.532235 0.532235 0.532235
0.569512 0.569512 0.569512
0.60708 0.60708 0.607065
0.437201 0.437217 0.437201
0.472068 0.472099 0.472068
0.507546 0.507546 0.507546
0.544076 0.544076 0.544076
0.581415 0.581415 0.581415
0.618509 0.618509 0.618509
0.655467 0.655467 0.655467
0.692576 0.692515 0.692592
0.728573 0.726452 0.728573
0.557168 0.557168 0.557168
0.594034 0.594034 0.594034
0.631006 0.631006 0.630976
0.667628 0.667613 0.667628
0.704311 0.703838 0.704311
0.739528 0.73637 0.739528
0.774227 0.76762 0.774227
0.806439 0.799741 0.807706
0.832639 0.8336 0.838071
0.68098 0.680858 0.68101
0.716686 0.715145 0.716701
0.751339 0.747005 0.751339
0.784817 0.778561 0.785397
0.814618 0.810895 0.817441
0.841154 0.844587 0.847898
0.867964 0.876127 0.875853
0.895979 0.901869 0.897887
0.924468 0.926131 0.918059
0.796994 0.790204 0.797848
0.824475 0.823026 0.828595
0.850385 0.855802 0.857877
0.877485 0.88481 0.883284
0.905409 0.909911 0.904692
0.930587 0.932006 0.924758
0.950881 0.950942 0.945006
0.966888 0.966796 0.964523
0.979446 0.978988 0.979202
0.88777 0.894896 0.891981
0.915892 0.918822 0.912016
0.939834 0.940093 0.932021
0.956847 0.956847 0.952209
0.972274 0.972183 0.971115
0.982895 0.982406 0.982879
0.991226 0.990677 0.991241
0.996338 0.99617 0.996414
0.998428 0.998306 0.998505
