luts/varicam_official/BandW_MidCon.cube
TITLE "Generated by Resolve"
LUT_3D_SIZE 5
0.0437781 0.0438239 0.0438392
0.0570077 0.0570382 0.0570535
0.0753185 0.075349 0.075288
0.0984512 0.0984665 0.098436
0.131228 0.131228 0.131258
0.106462 0.106462 0.106477
0.140383 0.140383 0.140398
0.182086 0.182086 0.182055
0.234775 0.234775 0.234791
0.298878 0.298894 0.298863
0.254612 0.254612 0.254612
0.319722 0.319722 0.319707
0.394018 0.394003 0.393988
0.479652 0.479667 0.479652
0.57116 0.57116 0.57116
0.511772 0.511772 0.511772
0.60238 0.60238 0.60238
0.695171 0.695003 0.695186
0.781582 0.778225 0.7832
0.85687 0.862669 0.863844
0.811322 0.8103 0.815076
0.881926 0.88954 0.887602
0.944457 0.945617 0.941009
0.982635 0.982422 0.982315
0.997864 0.997696 0.997955
0.0493935 0.0494392 0.0494698
0.0633707 0.0633707 0.0633555
0.0847334 0.0847639 0.0846876
0.110826 0.110842 0.110857
0.14609 0.14609 0.146105
0.120516 0.120516 0.120546
0.156512 0.156512 0.156497
0.203311 0.203311 0.203296
0.259617 0.259617 0.259617
0.328283 0.328283 0.328252
0.280812 0.280812 0.280781
0.350256 0.35024 0.350225
0.429389 0.429389 0.429389
0.517174 0.517189 0.517174
0.610376 0.610376 0.610376
0.550271 0.550271 0.550271
0.641611 0.641611 0.641627
0.733333 0.73109 0.733455
0.814633 0.813825 0.818616
0.887175 0.893126 0.890333
0.8421 0.846326 0.849042
0.910399 0.914824 0.91046
0.966049 0.966049 0.963623
0.990829 0.99057 0.990921
0.999283 0.999207 0.999313
0.0551614 0.0551919 0.0552224
0.0719463 0.0719615 0.0719005
0.0944686 0.0944839 0.0944381
0.125246 0.125246 0.125277
0.163043 0.163043 0.163027
0.13547 0.13547 0.135485
0.174838 0.174838 0.174807
0.226123 0.226123 0.226123
0.287465 0.28748 0.287465
0.35938 0.35938 0.359365
0.310079 0.310079 0.310048
0.3823 0.382269 0.382269
0.466163 0.466163 0.466163
0.555932 0.555932 0.555932
0.650111 0.650111 0.650126
0.589563 0.589563 0.589563
0.681331 0.681193 0.681346
0.769314 0.765698 0.770336
0.845685 0.850141 0.852842
0.916503 0.919768 0.91397
0.872236 0.880842 0.880003
0.936156 0.937972 0.933089
0.979141 0.979019 0.978561
0.996368 0.996155 0.996475
0.999832 0.999817 0.999847
0.0613718 0.061387 0.061387
0.0816968 0.0817273 0.0816663
0.105852 0.105852 0.105852
0.140383 0.140383 0.140398
0.183597 0.183597 0.183566
0.151461 0.151461 0.151461
0.196429 0.196429 0.196399
0.250538 0.250538 0.250538
0.317174 0.317189 0.317159
0.393317 0.393317 0.393301
0.340841 0.340825 0.34081
0.417746 0.417746 0.417731
0.503914 0.503914 0.503914
0.596094 0.596094 0.596078
0.690333 0.690181 0.690349
0.629587 0.629587 0.629602
0.72105 0.719738 0.72108
0.803311 0.801266 0.806332
0.87628 0.882277 0.880858
0.942489 0.943206 0.93695
0.901869 0.907332 0.903502
0.959411 0.95967 0.956313
0.988479 0.98822 0.988525
0.998947 0.998856 0.999008
1 1 1
0.0696574 0.0696727 0.0696422
0.0915236 0.0915389 0.0914778
0.120516 0.120516 0.120546
0.156649 0.156649 0.156634
0.204807 0.204807 0.204791
0.169497 0.169497 0.169467
0.219104 0.219104 0.219104
0.278111 0.278126 0.278111
0.348409 0.348409 0.348379
0.428794 0.428794 0.428779
0.373342 0.373327 0.373312
0.454826 0.454841 0.454826
0.542931 0.542931 0.542931
0.636469 0.636469 0.636469
0.729915 0.727581 0.729915
0.670069 0.669978 0.670069
0.758404 0.75491 0.75903
0.835508 0.83801 0.841642
0.906523 0.91078 0.905928
0.961715 0.961608 0.957885
0.928923 0.931395 0.926467
0.975753 0.975677 0.974838
0.99472 0.994476 0.994842
0.999741 0.99971 0.999756
1 1 1
