luts/varicam_official/BandW_HiCon.cube
TITLE "Generated by Resolve"
LUT_3D_SIZE 9
0.0172427 0.0172274 0.0172274
0.0197757 0.0197604 0.0197604
0.0248722 0.0248569 0.0248569
0.0326238 0.032639 0.032639
0.0458228 0.0458839 0.0458991
0.0650339 0.0650492 0.0650339
0.0966506 0.0966812 0.0966201
0.145693 0.145693 0.145708
0.158297 0.158297 0.158282
0.0260624 0.0260624 0.0260624
0.028809 0.0288243 0.0288243
0.0344244 0.0344396 0.0344396
0.0447242 0.0447852 0.0448005
0.0595407 0.059556 0.0595712
0.0847334 0.0847639 0.0846876
0.122637 0.122637 0.122652
0.179736 0.179736 0.179721
0.194369 0.194369 0.194339
0.0475776 0.0476234 0.0476387
0.0514534 0.0514992 0.0515145
0.0598459 0.0598917 0.0598917
0.0742351 0.0742504 0.0742046
0.0968795 0.0968948 0.096849
0.131426 0.131426 0.131441
0.182559 0.182559 0.182528
0.254673 0.254673 0.254688
0.272465 0.272465 0.27248
0.0973526 0.0973678 0.0973068
0.103288 0.103304 0.103273
0.11812 0.11812 0.11812
0.142 0.142 0.142
0.176974 0.176974 0.176944
0.227741 0.227741 0.227741
0.297658 0.297658 0.297642
0.388266 0.388251 0.388251
0.409277 0.409262 0.409262
0.209369 0.209369 0.209369
0.220188 0.220188 0.220188
0.243931 0.243931 0.243915
0.279301 0.279301 0.279286
0.331044 0.331044 0.331014
0.399145 0.399145 0.39913
0.485176 0.485176 0.485176
0.587274 0.587274 0.587274
0.609812 0.609812 0.609796
0.422965 0.422965 0.422934
0.436027 0.436027 0.436011
0.465476 0.465492 0.465476
0.510857 0.510887 0.510857
0.570947 0.570947 0.570932
0.645228 0.644938 0.645228
0.729168 0.726329 0.729305
0.813367 0.811704 0.81648
0.831052 0.829831 0.834516
0.714153 0.713405 0.714656
0.725505 0.724147 0.726177
0.751369 0.748653 0.752377
0.790967 0.785855 0.791852
0.833921 0.835538 0.837949
0.884855 0.889052 0.88748
0.937377 0.93875 0.93344
0.976089 0.975891 0.975128
0.981277 0.980743 0.980285
0.951385 0.952865 0.950835
0.956008 0.956634 0.953872
0.966567 0.966171 0.962814
0.979446 0.9794 0.977646
0.989914 0.989639 0.98999
0.997406 0.997284 0.997421
0.99968 0.999649 0.999695
1 1 1
1 1 1
0.980346 0.98027 0.980377
0.982559 0.982147 0.982651
0.988067 0.987427 0.988098
0.996368 0.996307 0.996384
0.998627 0.998489 0.998688
1 1 1
1 1 1
1 1 1
1 1 1
0.0182956 0.0182803 0.0182803
0.0209049 0.0208743 0.0208743
0.0260777 0.0260777 0.0260777
0.0339208 0.0339361 0.0339361
0.0475929 0.0476539 0.0476844
0.067277 0.067277 0.0672618
0.0995804 0.0995956 0.0995651
0.14966 0.14966 0.149676
0.162417 0.162417 0.162417
0.0272526 0.0272526 0.0272526
0.0299992 0.0300145 0.0300145
0.0358282 0.0358587 0.0358587
0.0464332 0.046479 0.0465095
0.0617075 0.0617227 0.0617227
0.0872663 0.0872969 0.0872206
0.126146 0.126146 0.126177
0.184161 0.184161 0.184131
0.198993 0.198993 0.198962
0.0492409 0.0492866 0.0493172
0.0531319 0.0531777 0.053193
0.0618448 0.0618753 0.0618753
0.0766308 0.0766461 0.0766003
0.0996414 0.0996719 0.0996262
0.135027 0.135027 0.135042
0.186892 0.186892 0.186877
0.259861 0.259861 0.259876
0.277836 0.277836 0.277836
0.0999924 0.100023 0.0999771
0.106081 0.106096 0.106096
0.121447 0.121447 0.121462
0.145403 0.145403 0.145403
0.181201 0.181201 0.181186
0.23238 0.23238 0.23238
0.302647 0.302647 0.302632
0.393896 0.393896 0.393881
0.41503 0.41503 0.415015
0.214038 0.214038 0.214023
0.225254 0.225254 0.225269
0.248615 0.248615 0.248615
0.28426 0.28426 0.284245
0.336446 0.336431 0.336416
0.404837 0.404837 0.404837
0.491112 0.491112 0.491112
0.592981 0.592981 0.592966
0.615351 0.615351 0.615335
0.429053 0.429038 0.429023
0.441779 0.441779 0.441779
0.471351 0.471366 0.471351
0.516594 0.516609 0.516594
0.576471 0.576471 0.576455
0.650492 0.650141 0.650492
0.734142 0.731319 0.73431
0.817365 0.815824 0.820493
0.834684 0.833829 0.838041
0.719478 0.718486 0.720073
0.730602 0.728939 0.731334
0.756481 0.753368 0.757519
0.795361 0.790478 0.796384
0.837705 0.840162 0.842237
0.888609 0.892439 0.89041
0.939757 0.941039 0.935943
0.977295 0.976974 0.976226
0.982422 0.981888 0.981476
0.953582 0.954681 0.952407
0.95819 0.958465 0.955306
0.968048 0.967666 0.964492
0.980484 0.980453 0.979004
0.990463 0.990143 0.990539
0.997848 0.997757 0.997864
0.999802 0.999786 0.999802
1 1 1
1 1 1
0.981384 0.981155 0.981445
0.983658 0.983154 0.983749
0.989319 0.988693 0.989364
0.99675 0.996689 0.996796
0.99884 0.998749 0.998917
1 1 1
1 1 1
1 1 1
1 1 1
0.0203708 0.0203403 0.0203403
0.0230716 0.0230564 0.0230564
0.028336 0.028336 0.028336
0.0366064 0.0366064 0.0366064
0.0509499 0.0510109 0.0510414
0.072221 0.072221 0.0721752
0.10544 0.10544 0.10544
0.158068 0.158068 0.158068
0.171572 0.171572 0.171542
0.0295567 0.029572 0.029572
0.0323033 0.0323186 0.0323186
0.0387579 0.0387884 0.0388037
0.0497292 0.0497749 0.0498054
0.0658579 0.0658732 0.0658427
0.0923476 0.0923781 0.0923018
0.133074 0.133074 0.133104
0.193286 0.193286 0.193271
0.208408 0.208408 0.208392
0.0525521 0.0526131 0.0526284
0.0566567 0.0567025 0.0567178
0.0657664 0.0657969 0.0657816
0.0814984 0.081529 0.0814527
0.105333 0.105348 0.105333
0.142214 0.142214 0.142229
0.195682 0.195682 0.195666
0.270436 0.270436 0.270436
0.288594 0.288594 0.288594
0.105196 0.105211 0.105196
0.112566 0.112566 0.112566
0.128298 0.128298 0.128328
0.152575 0.152575 0.152575
0.190021 0.190021 0.190005
0.242023 0.242023 0.242023
0.313634 0.313649 0.313634
0.406561 0.406561 0.406561
0.427893 0.427909 0.427893
0.224155 0.224155 0.224155
0.23537 0.23537 0.235386
0.258778 0.258778 0.258762
0.295201 0.295201 0.295201
0.347997 0.347982 0.347967
0.417334 0.417334 0.417319
0.503929 0.503929 0.503929
0.606058 0.606058 0.606058
0.628092 0.628092 0.628092
0.441566 0.44155 0.44155
0.454627 0.454627 0.454627
0.484337 0.484352 0.484337
0.529412 0.529442 0.529412
0.58938 0.58938 0.58938
0.662776 0.662028 0.66276
0.745037 0.742428 0.745602
0.82681 0.825818 0.830152
0.843122 0.843351 0.846464
0.730938 0.729458 0.731746
0.741924 0.739681 0.742824
0.768002 0.764065 0.769009
0.804517 0.801236 0.806287
0.846281 0.850538 0.851972
0.89691 0.900084 0.896986
0.945205 0.946365 0.941955
0.980194 0.979751 0.97908
0.985168 0.984695 0.984375
0.958663 0.95903 0.956283
0.963272 0.962966 0.95935
0.971771 0.971481 0.968765
0.983154 0.983093 0.9823
0.991989 0.991623 0.992035
0.998444 0.998398 0.998474
0.999908 0.999908 0.999908
1 1 1
1 1 1
0.983658 0.9832 0.983719
0.986084 0.985458 0.986145
0.991867 0.991363 0.991867
0.997208 0.997101 0.99733
0.99939 0.999344 0.99942
1 1 1
1 1 1
1 1 1
1 1 1
0.0234989 0.0234989 0.0234989
0.0262913 0.0263066 0.0263066
0.031632 0.0316472 0.0316472
0.0411841 0.0412299 0.0412451
0.0558022 0.055848 0.0558785
0.0794842 0.0795148 0.0794232
0.115358 0.115373 0.115404
0.170489 0.170489 0.170459
0.185077 0.185077 0.185031
0.0328832 0.0328985 0.0328985
0.0361486 0.0361639 0.0361791
0.0433356 0.0433814 0.0433967
0.0545663 0.054612 0.0546273
0.0726329 0.0726329 0.0725872
0.100313 0.100343 0.100313
0.143694 0.143694 0.143709
0.206653 0.206653 0.206638
0.222156 0.222156 0.222156
0.0577401 0.0577707 0.0577859
0.0623636 0.0623941 0.0623941
0.0720226 0.0720378 0.0719921
0.0887007 0.0887312 0.0886702
0.114321 0.114336 0.114351
0.15314 0.15314 0.15314
0.209186 0.209186 0.209171
0.286931 0.286946 0.286931
0.305531 0.305531 0.305516
0.114839 0.114839 0.114855
0.122393 0.122393 0.122408
0.138598 0.138598 0.138613
0.163714 0.163714 0.163714
0.20325 0.20325 0.203235
0.257649 0.257649 0.257649
0.331121 0.331136 0.331121
0.425391 0.425391 0.425391
0.447364 0.447364 0.447364
0.239475 0.239475 0.23949
0.250568 0.250568 0.250568
0.27393 0.27393 0.273915
0.312398 0.312413 0.312398
0.365454 0.365438 0.365438
0.436194 0.43621 0.436194
0.523491 0.523507 0.523491
0.625147 0.625147 0.625147
0.647532 0.647532 0.647547
0.460945 0.460945 0.460945
0.474342 0.474357 0.474342
0.503929 0.50396 0.503929
0.548806 0.548806 0.548791
0.608606 0.608606 0.608621
0.68098 0.679667 0.68098
0.761135 0.758556 0.76228
0.840818 0.840757 0.844129
0.856168 0.858183 0.859525
0.748165 0.745983 0.749279
0.759243 0.75613 0.760372
0.785153 0.779965 0.785946
0.81799 0.817121 0.820951
0.859495 0.865034 0.865583
0.909804 0.912032 0.907271
0.953506 0.954421 0.951125
0.984466 0.98407 0.983627
0.989456 0.989227 0.988952
0.966018 0.965606 0.96231
0.969085 0.968704 0.965698
0.977356 0.977264 0.97525
0.986938 0.986816 0.986862
0.994186 0.993851 0.994202
0.998764 0.998703 0.998825
0.999985 0.999969 0.999985
1 1 1
1 1 1
0.987167 0.986557 0.987228
0.989776 0.989166 0.989807
0.995422 0.995254 0.995453
0.997864 0.997726 0.997971
0.999847 0.999832 0.999847
1 1 1
1 1 1
1 1 1
1 1 1
0.0276799 0.0276951 0.0276951
0.0305791 0.0305943 0.0305943
0.0363775 0.0363928 0.036408
0.0473945 0.0474556 0.0474708
0.0625315 0.0625467 0.0625315
0.0888685 0.0888991 0.0888228
0.128542 0.128542 0.128573
0.18761 0.18761 0.187579
0.202655 0.202655 0.202625
0.0381476 0.0381781 0.0381781
0.0419013 0.0419471 0.0419623
0.0495308 0.0495766 0.0496071
0.0612497 0.0612497 0.061265
0.0818952 0.0819257 0.0818494
0.112062 0.112062 0.112078
0.15819 0.15819 0.15819
0.22533 0.22533 0.225345
0.241871 0.241871 0.241886
0.0653239 0.0653391 0.0653239
0.070161 0.0701762 0.0701305
0.0812238 0.0812543 0.081178
0.0990158 0.0990463 0.0990005
0.127077 0.127077 0.127092
0.168414 0.168414 0.168399
0.227771 0.227771 0.227771
0.308675 0.308675 0.308675
0.327993 0.327993 0.327977
0.127916 0.127932 0.127947
0.135866 0.135866 0.135882
0.1523 0.1523 0.1523
0.180255 0.180255 0.180224
0.220844 0.220844 0.220829
0.278492 0.278492 0.278492
0.354391 0.354406 0.354376
0.450736 0.450767 0.450736
0.472984 0.472999 0.472984
0.259525 0.259525 0.25951
0.27039 0.27039 0.270375
0.294957 0.294957 0.294957
0.334951 0.334951 0.334936
0.389441 0.389441 0.389425
0.461295 0.461295 0.46128
0.549401 0.549401 0.549401
0.650721 0.650721 0.650721
0.672786 0.672755 0.672801
0.48687 0.486885 0.48687
0.500084 0.500099 0.500084
0.529488 0.529503 0.529488
0.574609 0.574609 0.574594
0.634455 0.634363 0.634455
0.705501 0.703441 0.705501
0.782376 0.779889 0.784375
0.85832 0.860685 0.861708
0.873503 0.877928 0.876875
0.771023 0.767849 0.772519
0.782223 0.777493 0.783185
0.804852 0.801526 0.806577
0.836027 0.838376 0.84062
0.87715 0.881834 0.880919
0.925109 0.926604 0.920562
0.964172 0.964645 0.962753
0.989288 0.989013 0.988876
0.993301 0.99324 0.993286
0.973419 0.973053 0.970672
0.976669 0.976516 0.97438
0.983322 0.983261 0.982498
0.990234 0.989914 0.990295
0.996994 0.996872 0.996994
0.999252 0.999191 0.999298
1 1 1
1 1 1
1 1 1
0.991852 0.991333 0.991852
0.994705 0.994446 0.994705
0.997223 0.997116 0.99733
0.99881 0.998703 0.998871
1 1 1
1 1 1
1 1 1
1 1 1
1 1 1
0.0329747 0.03299 0.03299
0.0362249 0.0362402 0.0362402
0.0437629 0.0438087 0.0438239
0.0550546 0.0550851 0.0551308
0.0734722 0.0734874 0.0734264
0.101411 0.101427 0.101396
0.145418 0.145418 0.145418
0.209216 0.209216 0.209201
0.225162 0.225162 0.225162
0.0454566 0.0455177 0.0455482
0.0494545 0.0495155 0.0495308
0.0572671 0.0573129 0.0573281
0.0715038 0.071519 0.0714733
0.093431 0.0934615 0.0934005
0.127901 0.127901 0.127932
0.178073 0.178073 0.178042
0.249561 0.249561 0.249577
0.267552 0.267552 0.267552
0.0756847 0.0757 0.075639
0.0813153 0.0813458 0.0812695
0.0930953 0.0931106 0.0930648
0.112886 0.112886 0.112902
0.14374 0.14374 0.143755
0.188647 0.188647 0.188617
0.251835 0.251835 0.251835
0.336858 0.336873 0.336843
0.357153 0.357168 0.357137
0.144808 0.144808 0.144808
0.152773 0.152773 0.152773
0.171069 0.171069 0.171054
0.201373 0.201373 0.201358
0.244465 0.244465 0.24448
0.304631 0.304631 0.304616
0.383902 0.383886 0.383871
0.482231 0.482246 0.482231
0.504738 0.504753 0.504738
0.284459 0.284459 0.284459
0.296239 0.296254 0.296254
0.323003 0.323003 0.322988
0.363272 0.363256 0.363241
0.420005 0.420005 0.419989
0.492988 0.493004 0.492988
0.581338 0.581338 0.581338
0.681575 0.680995 0.681575
0.702998 0.701762 0.702998
0.519341 0.519371 0.519341
0.532052 0.532082 0.532052
0.561379 0.561379 0.561379
0.60647 0.60647 0.60647
0.665324 0.6645 0.665324
0.734966 0.732326 0.735241
0.808377 0.806104 0.811322
0.879194 0.884123 0.882582
0.89398 0.900465 0.8972
0.798825 0.79411 0.799893
0.807324 0.80412 0.809049
0.827237 0.827802 0.830823
0.858152 0.863752 0.864363
0.898756 0.901762 0.898405
0.940185 0.941619 0.936584
0.97406 0.973785 0.972671
0.993744 0.993637 0.993667
0.995331 0.995132 0.995438
0.982132 0.982086 0.980682
0.984131 0.984085 0.983352
0.9888 0.988602 0.988876
0.993973 0.993622 0.993988
0.998428 0.998367 0.998489
0.999802 0.999786 0.999802
1 1 1
1 1 1
1 1 1
0.996841 0.996796 0.996872
0.997314 0.997208 0.997421
0.998291 0.998154 0.998383
0.999863 0.999847 0.999863
1 1 1
1 1 1
1 1 1
1 1 1
1 1 1
0.0407568 0.0408026 0.0408026
0.0449073 0.0449531 0.0449683
0.0526894 0.0527504 0.0527962
0.0651255 0.0651408 0.0651255
0.0869612 0.0869917 0.0869001
0.119112 0.119112 0.119142
0.167193 0.167193 0.167178
0.236912 0.236912 0.236927
0.254398 0.254398 0.254429
0.0545205 0.0545663 0.0545968
0.0586404 0.0586557 0.0586862
0.0683452 0.0683604 0.0683299
0.084947 0.0849775 0.0848859
0.109377 0.109392 0.109392
0.147677 0.147677 0.147677
0.203174 0.203174 0.203159
0.279835 0.279835 0.27982
0.298421 0.298421 0.298405
0.089189 0.0892042 0.0891432
0.0954299 0.0954452 0.0954147
0.108827 0.108827 0.108827
0.131533 0.131533 0.131563
0.165164 0.165164 0.165164
0.214298 0.214298 0.214282
0.282124 0.282124 0.282124
0.371191 0.371191 0.37116
0.392142 0.392142 0.392142
0.165759 0.165759 0.165743
0.175296 0.175296 0.17528
0.195789 0.195789 0.195773
0.227359 0.227359 0.227344
0.274418 0.274418 0.274418
0.337545 0.33756 0.33753
0.419516 0.419516 0.419516
0.520043 0.520043 0.520043
0.542672 0.542687 0.542672
0.31693 0.31696 0.31693
0.329473 0.329473 0.329442
0.356374 0.356359 0.356359
0.398459 0.398474 0.398459
0.45655 0.456565 0.456535
0.530648 0.530663 0.530648
0.618967 0.618967 0.618967
0.71722 0.714961 0.71722
0.738003 0.734279 0.738018
0.556939 0.556939 0.556939
0.569879 0.569879 0.569863
0.599359 0.599359 0.599374
0.644007 0.643778 0.644007
0.701228 0.69929 0.701228
0.766888 0.76434 0.768231
0.836194 0.835737 0.83949
0.903136 0.90837 0.904723
0.916915 0.920729 0.916411
0.826047 0.825483 0.828733
0.833967 0.835264 0.837705
0.853635 0.858793 0.859663
0.884153 0.888273 0.886702
0.922911 0.924407 0.918303
0.956619 0.957427 0.954574
0.982986 0.982513 0.982055
0.996292 0.996124 0.996368
0.997726 0.997559 0.997742
0.988968 0.988861 0.988983
0.990021 0.989776 0.990097
0.99324 0.992889 0.993271
0.997665 0.997589 0.997681
0.999161 0.9991 0.999207
1 1 1
1 1 1
1 1 1
1 1 1
0.998062 0.99794 0.998184
0.99855 0.998428 0.998627
0.999664 0.999619 0.99968
1 1 1
1 1 1
1 1 1
1 1 1
1 1 1
1 1 1
0.0509499 0.0509957 0.0510414
0.0551766 0.0552377 0.0552682
0.0638132 0.0638132 0.063798
0.0803693 0.0803998 0.0803082
0.103487 0.103517 0.103502
0.141146 0.141146 0.141161
0.195636 0.195636 0.195605
0.271244 0.271244 0.271244
0.28983 0.289845 0.28983
0.066392 0.0664073 0.066392
0.0720226 0.0720378 0.0719768
0.0835126 0.0835431 0.0834669
0.10135 0.101366 0.101335
0.130907 0.130907 0.130922
0.173266 0.173266 0.173251
0.233814 0.233814 0.233814
0.316381 0.316381 0.316365
0.336248 0.336248 0.336233
0.10695 0.106966 0.10695
0.114122 0.114122 0.114122
0.12987 0.12987 0.129885
0.15491 0.15491 0.15491
0.192782 0.192782 0.192767
0.246174 0.246174 0.246174
0.318715 0.318715 0.3187
0.412039 0.412039 0.412024
0.433845 0.433845 0.433845
0.194034 0.194034 0.194003
0.204135 0.204135 0.20412
0.22536 0.22536 0.22536
0.260594 0.260594 0.260609
0.309957 0.309957 0.309941
0.377127 0.377127 0.377111
0.462028 0.462058 0.462028
0.563821 0.563821 0.563821
0.586633 0.586633 0.586633
0.355596 0.355581 0.355566
0.368109 0.368109 0.368093
0.396414 0.396429 0.396414
0.440238 0.440253 0.440223
0.49955 0.499565 0.49955
0.574243 0.574243 0.574243
0.661891 0.661799 0.661891
0.756939 0.752026 0.757076
0.777005 0.770962 0.777356
0.600839 0.600839 0.600855
0.613382 0.613382 0.613382
0.642634 0.642451 0.642634
0.685527 0.684062 0.685527
0.741436 0.738781 0.741833
0.802701 0.800336 0.805432
0.865782 0.869169 0.8692
0.929519 0.931853 0.926787
0.942992 0.943771 0.937942
0.856123 0.860655 0.861189
0.864042 0.869764 0.869902
0.883467 0.887785 0.886351
0.913161 0.915221 0.910201
0.94342 0.944671 0.940047
0.972427 0.972366 0.971222
0.991516 0.991394 0.991257
0.998581 0.998489 0.998596
0.999435 0.999435 0.999451
0.993637 0.993332 0.993683
0.994827 0.994522 0.994842
0.997497 0.997391 0.997497
0.998871 0.998795 0.998932
0.999908 0.999908 0.999908
1 1 1
1 1 1
1 1 1
1 1 1
0.999557 0.999512 0.999573
0.999908 0.999893 0.999908
1 1 1
1 1 1
1 1 1
1 1 1
1 1 1
1 1 1
1 1 1
0.0532235 0.0532845 0.053315
0.0574807 0.0575113 0.0575418
0.066804 0.066804 0.0667735
0.0837873 0.0838178 0.0837262
0.107927 0.107942 0.107942
0.146197 0.146197 0.146197
0.202075 0.202075 0.20206
0.279072 0.279072 0.279057
0.297887 0.297887 0.297871
0.0694591 0.0694591 0.0694285
0.0753948 0.0754101 0.075349
0.0869764 0.0870069 0.0869306
0.105409 0.105425 0.105425
0.13576 0.13576 0.135775
0.179355 0.179355 0.179324
0.241184 0.241184 0.241184
0.324819 0.324819 0.324804
0.345052 0.345052 0.345037
0.111147 0.111162 0.111177
0.118669 0.118669 0.118685
0.134752 0.134752 0.134783
0.160464 0.160464 0.160449
0.1991 0.1991 0.199069
0.253483 0.253483 0.253483
0.327001 0.327016 0.326986
0.421454 0.421469 0.421454
0.443244 0.443259 0.443244
0.200443 0.200443 0.200427
0.21059 0.21059 0.21059
0.232151 0.232151 0.232151
0.268284 0.268299 0.268299
0.318212 0.318227 0.318212
0.386099 0.386084 0.386069
0.471458 0.471489 0.471458
0.57348 0.57348 0.57348
0.596262 0.596262 0.596246
0.364324 0.364309 0.364294
0.376776 0.376776 0.376761
0.405478 0.405493 0.405478
0.449516 0.449531 0.4495
0.509102 0.509102 0.509102
0.58381 0.58381 0.58381
0.671336 0.671199 0.671351
0.765377 0.760128 0.765667
0.784741 0.778729 0.785428
0.610574 0.610574 0.610574
0.623026 0.623026 0.623026
0.652003 0.651652 0.651987
0.694743 0.692988 0.694743
0.749767 0.747036 0.750393
0.810346 0.808087 0.813291
0.872419 0.8766 0.875761
0.935286 0.93695 0.931533
0.948653 0.948775 0.942535
0.862699 0.868223 0.86833
0.870573 0.876387 0.876112
0.889906 0.893721 0.891615
0.919417 0.92105 0.915297
0.947585 0.94873 0.944656
0.975082 0.974777 0.9738
0.99263 0.992493 0.992554
0.998947 0.998886 0.998947
0.999496 0.999466 0.999512
0.994644 0.994339 0.994675
0.995789 0.995514 0.995789
0.998169 0.998123 0.998184
0.999039 0.998962 0.9991
0.999969 0.999969 0.999969
1 1 1
1 1 1
1 1 1
1 1 1
0.999832 0.999817 0.999847
1 1 1
1 1 1
1 1 1
1 1 1
1 1 1
1 1 1
1 1 1
1 1 1
