luts/varicam_official/BandW_MidCon.cube
TITLE "Generated by Resolve"
LUT_3D_SIZE 33
0.0437781 0.0438239 0.0438392
0.0454261 0.0454719 0.0454871
0.0470588 0.0471199 0.0471351
0.048661 0.0487068 0.0487373
0.050309 0.0503548 0.0503853
0.0518959 0.0519417 0.0519722
0.0535897 0.0536355 0.0536507
0.055314 0.0553445 0.055375
0.0570077 0.0570382 0.0570535
0.0587778 0.058793 0.0588083
0.0605173 0.0605325 0.0605325
0.0623941 0.0624094 0.0623941
0.0645151 0.0645151 0.0644999
0.0671244 0.0671244 0.0670939
0.0698711 0.0698711 0.0698405
0.0725567 0.0725719 0.0725261
0.0753185 0.075349 0.075288
0.0780957 0.0781109 0.0780499
0.0809491 0.0809796 0.0809186
0.0838178 0.0838331 0.083772
0.0866102 0.0866255 0.0865644
0.0894636 0.0894789 0.0894179
0.0922713 0.0922866 0.0922408
0.0953841 0.0953994 0.0953536
0.0984512 0.0984665 0.098436
0.101671 0.101686 0.101671
0.10544 0.10544 0.10544
0.109377 0.109377 0.109392
0.113649 0.113649 0.11368
0.117968 0.117968 0.117983
0.122423 0.122423 0.122454
0.126879 0.126879 0.126909
0.131228 0.131228 0.131258
0.0491951 0.0492409 0.0492561
0.0508431 0.0508888 0.0509041
0.05243 0.0524758 0.0525063
0.054078 0.0541238 0.054139
0.0556954 0.0557412 0.0557565
0.057435 0.0574655 0.0574807
0.0591897 0.0592203 0.0592355
0.0609445 0.0609598 0.0609598
0.062974 0.062974 0.062974
0.0652781 0.0652781 0.0652476
0.0679026 0.0679179 0.0678874
0.0705882 0.0706035 0.0705577
0.0733349 0.0733501 0.0733043
0.076112 0.0761273 0.0760815
0.0787976 0.0788281 0.0787518
0.08159 0.0816052 0.0815442
0.0843824 0.0843977 0.0843366
0.0872358 0.0872663 0.0871901
0.0900893 0.0901198 0.0900587
0.0928817 0.0929122 0.0928511
0.0957351 0.0957656 0.0957046
0.0988937 0.0989242 0.0988937
0.102754 0.102785 0.102754
0.106615 0.10663 0.106615
0.110643 0.110658 0.110658
0.114763 0.114763 0.114778
0.118822 0.118822 0.118837
0.123262 0.123262 0.123278
0.127611 0.127611 0.127642
0.132067 0.132067 0.132097
0.136553 0.136553 0.136568
0.140917 0.140917 0.140932
0.145495 0.145495 0.14551
0.054612 0.0546578 0.0546731
0.056199 0.0562448 0.05626
0.057847 0.0578775 0.057908
0.0595712 0.0596017 0.059617
0.0618143 0.0618448 0.0618448
0.0641337 0.0641489 0.0641337
0.0664378 0.066453 0.0664225
0.0688792 0.0688945 0.068864
0.0713359 0.0713512 0.0713054
0.0740826 0.0740978 0.074052
0.0767834 0.0768139 0.0767529
0.0795605 0.0795911 0.0795148
0.0823529 0.0823835 0.0823072
0.085069 0.0850996 0.0850233
0.0879072 0.0879377 0.0878614
0.0906844 0.0907149 0.0906539
0.0935683 0.0935988 0.0935378
0.0969863 0.0970169 0.0969558
0.100374 0.100404 0.100359
0.103975 0.10399 0.103975
0.10782 0.107836 0.10782
0.111849 0.111864 0.111864
0.115846 0.115846 0.115862
0.119966 0.119966 0.119982
0.124193 0.124193 0.124224
0.12842 0.12842 0.128435
0.132891 0.132891 0.132906
0.137255 0.137255 0.13727
0.141726 0.141726 0.141741
0.146197 0.146197 0.146212
0.151232 0.151232 0.151247
0.156802 0.156802 0.156802
0.162371 0.162371 0.162371
0.0607309 0.0607614 0.0607614
0.0628824 0.0629129 0.0628977
0.0651255 0.0651408 0.0651255
0.0675059 0.0675212 0.0675059
0.0699626 0.0699779 0.0699321
0.0723888 0.0724041 0.072343
0.0749371 0.0749523 0.0748913
0.0775311 0.0775616 0.0774853
0.080293 0.0803235 0.0802472
0.0830701 0.0831006 0.0830243
0.0858015 0.085832 0.0857557
0.0886091 0.0886397 0.0885481
0.0916152 0.0916457 0.0915694
0.0949416 0.0949721 0.0949111
0.0982681 0.0982986 0.0982528
0.101793 0.101808 0.101778
0.105409 0.105425 0.105409
0.10901 0.109026 0.10901
0.112902 0.112917 0.112917
0.116899 0.116899 0.116915
0.121065 0.121065 0.12108
0.125292 0.125292 0.125307
0.129458 0.129458 0.129473
0.133776 0.133776 0.133791
0.138094 0.138094 0.138125
0.142931 0.142931 0.142947
0.14789 0.14789 0.147906
0.153094 0.153094 0.153109
0.158419 0.158419 0.158419
0.16376 0.16376 0.163745
0.169574 0.169574 0.169574
0.175311 0.175311 0.175296
0.181292 0.181292 0.181277
0.0684672 0.0684825 0.068452
0.0708324 0.0708476 0.0708171
0.0733349 0.0733654 0.0733043
0.0758831 0.0758984 0.0758373
0.0784009 0.0784314 0.0783551
0.0810407 0.0810712 0.0809949
0.0837415 0.083772 0.0836805
0.086656 0.0866865 0.0865949
0.0897841 0.0898146 0.0897383
0.0929122 0.0929427 0.0928664
0.0961929 0.0962234 0.0961624
0.0995041 0.0995193 0.0994888
0.103029 0.103059 0.103029
0.106554 0.106569 0.106554
0.110292 0.110307 0.110292
0.114107 0.114122 0.114122
0.117922 0.117937 0.117937
0.122072 0.122072 0.122103
0.126146 0.126146 0.126177
0.130434 0.130434 0.130465
0.13489 0.13489 0.134905
0.139559 0.139559 0.139574
0.144472 0.144472 0.144488
0.149462 0.149462 0.149477
0.154696 0.154696 0.154696
0.159869 0.159869 0.159869
0.165316 0.165316 0.165316
0.170855 0.170855 0.17084
0.176516 0.176516 0.176501
0.182498 0.182498 0.182483
0.188373 0.188373 0.188357
0.194476 0.194476 0.194461
0.20061 0.20061 0.200595
0.0767681 0.0767834 0.0767224
0.0793011 0.0793164 0.0792401
0.0819562 0.0819715 0.0818952
0.0847486 0.0847639 0.0846876
0.0877241 0.0877394 0.0876631
0.0907759 0.0908064 0.0907454
0.0940108 0.0940261 0.0939803
0.0973068 0.097322 0.0972915
0.100603 0.100618 0.100587
0.104067 0.104082 0.104067
0.107607 0.107607 0.107607
0.11133 0.111345 0.111345
0.115175 0.115175 0.11519
0.119005 0.11902 0.119036
0.123033 0.123033 0.123064
0.127077 0.127077 0.127108
0.131701 0.131701 0.131731
0.136309 0.136309 0.136324
0.141131 0.141131 0.141146
0.146029 0.146029 0.146029
0.150912 0.150912 0.150912
0.156085 0.156085 0.156085
0.161303 0.161303 0.161288
0.166751 0.166751 0.166735
0.17232 0.17232 0.172305
0.177859 0.177859 0.177829
0.183627 0.183627 0.183612
0.189532 0.189532 0.189502
0.19556 0.19556 0.195544
0.202075 0.202075 0.20206
0.208896 0.208896 0.208881
0.215793 0.215793 0.215778
0.22269 0.22269 0.22269
0.0859236 0.0859388 0.0858778
0.0888685 0.0888838 0.0888228
0.0917678 0.091783 0.0917372
0.0949569 0.0949721 0.0949264
0.0981918 0.0982071 0.0981765
0.101579 0.101595 0.101564
0.105074 0.105089 0.105074
0.108537 0.108553 0.108553
0.112215 0.11223 0.112245
0.115984 0.115984 0.115999
0.119905 0.119921 0.119936
0.124239 0.124239 0.124269
0.128588 0.128588 0.128603
0.133059 0.133059 0.133074
0.137606 0.137606 0.137621
0.142428 0.142428 0.142428
0.147219 0.147219 0.147219
0.152224 0.152224 0.152224
0.157351 0.157351 0.157351
0.162463 0.162463 0.162448
0.167926 0.167926 0.16791
0.173373 0.173373 0.173358
0.179049 0.179049 0.179019
0.184848 0.184848 0.184817
0.190875 0.190875 0.190845
0.197436 0.197436 0.197406
0.203998 0.203998 0.203967
0.210803 0.210803 0.210788
0.217563 0.217563 0.217548
0.224567 0.224567 0.224552
0.231678 0.231678 0.231678
0.23888 0.23888 0.23888
0.246403 0.246403 0.246403
0.0959029 0.0959182 0.0958877
0.0989548 0.0989548 0.0989395
0.102373 0.102373 0.102358
0.105882 0.105898 0.105898
0.109377 0.109377 0.109392
0.113039 0.113054 0.113069
0.116869 0.116869 0.116884
0.121248 0.121248 0.121263
0.125566 0.125566 0.125582
0.130037 0.130037 0.130068
0.134554 0.134554 0.134569
0.138964 0.138964 0.138979
0.143572 0.143572 0.143572
0.148363 0.148363 0.148363
0.153399 0.153399 0.153399
0.158541 0.158541 0.158526
0.163653 0.163653 0.163638
0.169009 0.169009 0.168994
0.17438 0.17438 0.17435
0.18027 0.18027 0.18024
0.186435 0.186435 0.186404
0.192859 0.192859 0.192828
0.199344 0.199344 0.199313
0.205631 0.205631 0.205615
0.212467 0.212467 0.212467
0.219226 0.219226 0.219211
0.226261 0.226261 0.226261
0.233402 0.233402 0.233402
0.240421 0.240421 0.240421
0.247868 0.247868 0.247868
0.255329 0.255329 0.255329
0.263127 0.263127 0.263127
0.270909 0.270909 0.270909
0.106462 0.106462 0.106477
0.110109 0.110109 0.110124
0.114397 0.114397 0.114412
0.118563 0.118563 0.118593
0.12285 0.12285 0.122881
0.127016 0.127016 0.127047
0.131502 0.131502 0.131518
0.135882 0.135882 0.135897
0.140383 0.140383 0.140398
0.144945 0.144945 0.144961
0.149447 0.149447 0.149447
0.154314 0.154314 0.154299
0.159319 0.159319 0.159304
0.164614 0.164614 0.164599
0.16997 0.16997 0.16994
0.175937 0.175937 0.175921
0.182086 0.182086 0.182055
0.188235 0.188235 0.18822
0.194675 0.194675 0.194644
0.200961 0.200961 0.200946
0.207523 0.207523 0.207507
0.21413 0.21413 0.21413
0.220752 0.220752 0.220752
0.227832 0.227832 0.227832
0.234775 0.234775 0.234791
0.242039 0.242039 0.242054
0.249393 0.249393 0.249409
0.256687 0.256687 0.256703
0.264988 0.264988 0.265003
0.273243 0.273243 0.273243
0.281819 0.281819 0.281819
0.290227 0.290227 0.290211
0.298878 0.298894 0.298863
0.120226 0.120226 0.120256
0.124514 0.124514 0.124529
0.128679 0.128679 0.12871
0.132967 0.132967 0.132982
0.137255 0.137255 0.13727
0.141787 0.141787 0.141802
0.146227 0.146227 0.146242
0.150851 0.150851 0.150851
0.155505 0.155505 0.155505
0.160143 0.160143 0.160128
0.165927 0.165927 0.165911
0.171908 0.171908 0.171878
0.178042 0.178042 0.178027
0.184176 0.184176 0.184161
0.190158 0.190158 0.190143
0.196399 0.196399 0.196384
0.202716 0.202716 0.202701
0.209216 0.209216 0.209201
0.215824 0.215824 0.215824
0.22237 0.22237 0.22237
0.22916 0.22916 0.229175
0.236103 0.236103 0.236103
0.243366 0.243366 0.243381
0.250965 0.250965 0.25098
0.259113 0.259113 0.259113
0.267262 0.267262 0.267262
0.275319 0.275319 0.275319
0.283879 0.283894 0.283879
0.292332 0.292332 0.292317
0.301076 0.301091 0.301076
0.30988 0.309895 0.309865
0.318563 0.318578 0.318547
0.327642 0.327657 0.327611
0.134676 0.134676 0.134691
0.138857 0.138857 0.138872
0.14313 0.14313 0.14313
0.147555 0.147555 0.147555
0.152148 0.152148 0.152148
0.157107 0.157107 0.157092
0.162524 0.162524 0.162524
0.168231 0.168231 0.168215
0.173953 0.173953 0.173922
0.180072 0.180072 0.180056
0.186053 0.186053 0.186038
0.192187 0.192187 0.192172
0.198352 0.198352 0.198337
0.204364 0.204364 0.204349
0.210803 0.210803 0.210803
0.217273 0.217273 0.217273
0.223972 0.223972 0.223972
0.230777 0.230777 0.230793
0.23769 0.23769 0.237705
0.245548 0.245548 0.245563
0.253452 0.253452 0.253452
0.26157 0.26157 0.26157
0.269535 0.269535 0.269535
0.277729 0.277729 0.277729
0.286 0.286015 0.286015
0.294347 0.294347 0.294347
0.303075 0.30309 0.303075
0.31162 0.311635 0.311604
0.3205 0.320516 0.320485
0.329519 0.329534 0.329488
0.338369 0.338384 0.338338
0.347829 0.347845 0.347799
0.357641 0.357656 0.35761
0.149004 0.149004 0.14902
0.154223 0.154223 0.154223
0.159548 0.159548 0.159548
0.165133 0.165133 0.165118
0.170809 0.170809 0.170809
0.176394 0.176394 0.176379
0.182223 0.182223 0.182193
0.188113 0.188113 0.188083
0.194263 0.194263 0.194247
0.200259 0.200259 0.200244
0.206409 0.206409 0.206409
0.212604 0.212604 0.212604
0.218662 0.218662 0.218662
0.225376 0.225376 0.225376
0.232761 0.232761 0.232776
0.240467 0.240467 0.240467
0.248264 0.248264 0.248264
0.255863 0.255863 0.255863
0.263905 0.263905 0.263905
0.271839 0.271855 0.271839
0.280079 0.280079 0.280079
0.28835 0.288365 0.28835
0.296437 0.296452 0.296437
0.304845 0.30486 0.304845
0.313451 0.313466 0.313451
0.322393 0.322408 0.322377
0.331182 0.331197 0.331167
0.340825 0.340841 0.340795
0.350637 0.350652 0.350607
0.360311 0.360327 0.360281
0.370459 0.370474 0.370443
0.380362 0.380377 0.380346
0.390631 0.390631 0.3906
0.167559 0.167559 0.167544
0.173053 0.173053 0.173037
0.178805 0.178805 0.178775
0.184619 0.184619 0.184604
0.190295 0.190295 0.19028
0.196262 0.196262 0.196246
0.202228 0.202228 0.202228
0.208408 0.208408 0.208392
0.214588 0.214588 0.214572
0.221134 0.221134 0.221134
0.22826 0.22826 0.22826
0.235508 0.235508 0.235508
0.243229 0.243229 0.243229
0.250782 0.250782 0.250782
0.258625 0.258625 0.258625
0.266499 0.266499 0.266499
0.274174 0.274174 0.274174
0.282399 0.282399 0.282383
0.290425 0.290425 0.290425
0.298756 0.298772 0.298756
0.307118 0.307134 0.307118
0.315358 0.315373 0.315358
0.324437 0.324468 0.324437
0.333913 0.333944 0.333913
0.343709 0.343725 0.343694
0.353231 0.353246 0.353216
0.363104 0.363119 0.363088
0.373007 0.373007 0.372992
0.382895 0.382895 0.382879
0.393164 0.393179 0.393149
0.403189 0.403204 0.403174
0.413581 0.413581 0.413565
0.423987 0.423987 0.423972
0.18677 0.18677 0.18674
0.19263 0.19263 0.192615
0.198535 0.198535 0.19852
0.204318 0.204318 0.204303
0.21062 0.21062 0.210605
0.21738 0.21738 0.21738
0.224445 0.224445 0.22443
0.23151 0.23151 0.23151
0.238514 0.238514 0.238514
0.245838 0.245838 0.245838
0.253422 0.253422 0.253407
0.26125 0.26125 0.26125
0.268879 0.268879 0.268879
0.276799 0.276799 0.276783
0.284703 0.284703 0.284688
0.292576 0.292576 0.292561
0.300908 0.300908 0.300893
0.309194 0.309209 0.309178
0.318456 0.318471 0.318441
0.327764 0.327779 0.327749
0.336889 0.336904 0.336889
0.346609 0.346624 0.346593
0.356176 0.356191 0.356161
0.366049 0.366064 0.366033
0.375921 0.375921 0.375906
0.385595 0.385611 0.38558
0.395651 0.395666 0.395651
0.405722 0.405737 0.405722
0.416129 0.416144 0.416129
0.426276 0.426291 0.426276
0.436866 0.436881 0.436866
0.447868 0.447883 0.447868
0.458885 0.4589 0.458885
0.207156 0.207156 0.207141
0.213855 0.213855 0.21384
0.220462 0.220462 0.220447
0.227512 0.227512 0.227497
0.234455 0.234455 0.23444
0.241672 0.241672 0.241672
0.249027 0.249027 0.249012
0.256245 0.256245 0.256229
0.263874 0.263874 0.263859
0.271534 0.271534 0.271519
0.279423 0.279423 0.279408
0.287343 0.287343 0.287327
0.295079 0.295079 0.295064
0.303731 0.303731 0.303716
0.312612 0.312612 0.312596
0.321843 0.321843 0.321828
0.330831 0.330831 0.330816
0.340185 0.3402 0.340169
0.349645 0.349645 0.34963
0.358999 0.358999 0.358984
0.368826 0.368841 0.368811
0.37847 0.37847 0.378454
0.388373 0.388373 0.388357
0.398367 0.398367 0.398367
0.408148 0.408148 0.408148
0.418448 0.418448 0.418448
0.429129 0.429145 0.429129
0.440208 0.440208 0.440208
0.451026 0.451041 0.451026
0.462135 0.46215 0.462135
0.47335 0.473365 0.47335
0.484474 0.484474 0.484474
0.495903 0.495918 0.495903
0.230564 0.230564 0.230564
0.237385 0.237385 0.237385
0.244633 0.244633 0.244633
0.251774 0.251774 0.251774
0.25919 0.25919 0.25919
0.266712 0.266712 0.266697
0.274083 0.274083 0.274067
0.281956 0.281956 0.281941
0.290059 0.290059 0.290043
0.298726 0.298726 0.298711
0.307485 0.307485 0.307469
0.316045 0.316045 0.316014
0.325048 0.325048 0.325032
0.334112 0.334112 0.334096
0.343481 0.343481 0.34345
0.352682 0.352682 0.352667
0.362188 0.362173 0.362158
0.371756 0.371756 0.37174
0.381277 0.381277 0.381262
0.391211 0.391211 0.391196
0.400931 0.400931 0.400916
0.411261 0.411261 0.411246
0.422004 0.422004 0.422004
0.432502 0.432517 0.432502
0.44361 0.443626 0.44361
0.454444 0.454459 0.454444
0.465461 0.465476 0.465461
0.476631 0.476646 0.476631
0.487495 0.487511 0.487495
0.498878 0.498894 0.498878
0.510048 0.510048 0.510048
0.521569 0.521584 0.521569
0.532815 0.53283 0.532815
0.254612 0.254612 0.254612
0.262058 0.262058 0.262058
0.269566 0.269566 0.269551
0.277134 0.277134 0.277119
0.285466 0.285466 0.285451
0.293675 0.293675 0.29366
0.302373 0.302388 0.302358
0.310872 0.310872 0.310857
0.319722 0.319722 0.319707
0.328649 0.328649 0.328618
0.337362 0.337346 0.337331
0.346578 0.346578 0.346563
0.355779 0.355764 0.355749
0.365316 0.365301 0.365286
0.374899 0.374884 0.374868
0.384207 0.384192 0.384176
0.394018 0.394003 0.393988
0.404318 0.404303 0.404288
0.414984 0.414984 0.414984
0.425391 0.425391 0.425376
0.436164 0.436179 0.436164
0.446983 0.447013 0.446983
0.457664 0.457694 0.457664
0.468818 0.468833 0.468818
0.479652 0.479667 0.479652
0.490867 0.490883 0.490867
0.502129 0.502129 0.502129
0.513069 0.513069 0.513069
0.52459 0.524605 0.52459
0.535851 0.535851 0.535851
0.547768 0.547768 0.547768
0.559289 0.559289 0.559289
0.57116 0.57116 0.57116
0.280842 0.280842 0.280827
0.289174 0.289174 0.289158
0.297353 0.297353 0.297337
0.305837 0.305837 0.305821
0.314321 0.314321 0.314305
0.323171 0.323186 0.323156
0.331823 0.331838 0.331807
0.340841 0.340841 0.34081
0.349905 0.349889 0.349874
0.358892 0.358877 0.358862
0.368444 0.368429 0.368414
0.377752 0.377737 0.377722
0.3879 0.3879 0.387884
0.398169 0.398154 0.398138
0.408194 0.408194 0.408179
0.418708 0.418708 0.418692
0.429129 0.429129 0.429114
0.439902 0.439918 0.439887
0.45037 0.450401 0.45037
0.461234 0.46125 0.461234
0.472099 0.472114 0.472099
0.482872 0.482887 0.482872
0.494102 0.494118 0.494102
0.505013 0.505028 0.505013
0.516289 0.516304 0.516289
0.527886 0.527901 0.527886
0.539391 0.539391 0.539376
0.551293 0.551293 0.551293
0.562829 0.562829 0.562814
0.574685 0.574685 0.574685
0.58616 0.58616 0.586145
0.597955 0.597955 0.59794
0.609903 0.609903 0.609903
0.309483 0.309499 0.309468
0.317845 0.317845 0.31783
0.326513 0.326528 0.326497
0.33521 0.335225 0.335195
0.344213 0.344213 0.344182
0.353323 0.353323 0.353307
0.362219 0.362203 0.362188
0.371832 0.371817 0.371801
0.381674 0.381659 0.381643
0.391897 0.391897 0.391882
0.401907 0.401907 0.401892
0.412253 0.412253 0.412238
0.422599 0.422599 0.422583
0.432715 0.432731 0.4327
0.443442 0.443458 0.443442
0.453956 0.453971 0.453941
0.464759 0.46479 0.464759
0.475654 0.475685 0.475654
0.48629 0.486305 0.48629
0.497337 0.497353 0.497337
0.508492 0.508507 0.508492
0.52018 0.52018 0.52018
0.531579 0.531579 0.531563
0.543297 0.543297 0.543297
0.554986 0.554986 0.554971
0.566522 0.566522 0.566506
0.578332 0.578332 0.578332
0.589837 0.589837 0.589822
0.601602 0.601602 0.601587
0.613367 0.613367 0.613352
0.62475 0.62475 0.624735
0.636713 0.636713 0.636713
0.648402 0.648402 0.648402
0.33846 0.338476 0.338445
0.347372 0.347387 0.347356
0.35639 0.356405 0.356374
0.366232 0.366232 0.366217
0.376181 0.376181 0.37615
0.385855 0.385855 0.385824
0.395911 0.395911 0.395895
0.405936 0.405951 0.405921
0.416266 0.416266 0.416251
0.426368 0.426368 0.426352
0.436759 0.436774 0.436744
0.447227 0.447242 0.447211
0.457557 0.457588 0.457557
0.468376 0.468406 0.468376
0.47895 0.478981 0.47895
0.489845 0.489876 0.489845
0.501289 0.50132 0.501289
0.512398 0.512413 0.512398
0.524071 0.524086 0.524071
0.53547 0.535485 0.53547
0.547158 0.547158 0.547158
0.558556 0.558556 0.558556
0.57023 0.57023 0.57023
0.581979 0.581979 0.581979
0.593484 0.593484 0.593469
0.605234 0.605234 0.605234
0.616678 0.616678 0.616663
0.628382 0.628382 0.628367
0.640131 0.640116 0.640116
0.651774 0.651621 0.651774
0.663783 0.663386 0.663783
0.67538 0.674678 0.67538
0.687175 0.686076 0.68719
0.370443 0.370459 0.370428
0.379995 0.379995 0.37998
0.390005 0.390005 0.38999
0.400076 0.400076 0.400061
0.409873 0.409888 0.409857
0.420127 0.420142 0.420111
0.430213 0.430228 0.430198
0.44065 0.440681 0.44065
0.451133 0.451164 0.451133
0.461326 0.461357 0.461326
0.471885 0.471931 0.471885
0.48278 0.482826 0.48278
0.494209 0.494255 0.494209
0.505302 0.505333 0.505302
0.516762 0.516793 0.516762
0.528237 0.528252 0.528237
0.539437 0.539437 0.539437
0.551156 0.551156 0.551156
0.562509 0.562524 0.562509
0.574228 0.574243 0.574228
0.585946 0.585946 0.585946
0.597284 0.597284 0.597284
0.609049 0.609049 0.609033
0.620447 0.620447 0.620432
0.632273 0.632227 0.632258
0.643702 0.643549 0.643687
0.655482 0.655177 0.655467
0.667277 0.666743 0.667277
0.678828 0.677974 0.678828
0.690669 0.689403 0.690669
0.702052 0.700313 0.702052
0.713726 0.711421 0.713726
0.725292 0.722347 0.725307
0.403876 0.403876 0.403861
0.414008 0.414008 0.413993
0.424155 0.42417 0.424155
0.434104 0.434134 0.434104
0.444541 0.444572 0.444541
0.454704 0.454734 0.454704
0.465492 0.465522 0.465492
0.476524 0.476555 0.476524
0.487312 0.487343 0.487312
0.498558 0.498589 0.498558
0.50956 0.50959 0.50956
0.521019 0.521035 0.521019
0.532143 0.532158 0.532143
0.543618 0.543633 0.543618
0.555093 0.555093 0.555093
0.566415 0.56643 0.566415
0.578134 0.578149 0.578134
0.589487 0.589487 0.589487
0.60119 0.60119 0.60119
0.612909 0.612909 0.612894
0.624384 0.624384 0.624369
0.636255 0.636194 0.63624
0.64773 0.647562 0.64773
0.659556 0.659205 0.659541
0.670954 0.670375 0.670939
0.682658 0.681804 0.682658
0.694377 0.693111 0.694377
0.705791 0.704036 0.705791
0.717449 0.715114 0.717449
0.728664 0.725704 0.728664
0.740154 0.736461 0.740169
0.751537 0.747021 0.751537
0.762493 0.757397 0.762631
0.438071 0.438087 0.438056
0.448432 0.448463 0.448432
0.459022 0.459052 0.459022
0.470039 0.470054 0.470039
0.480781 0.480812 0.480781
0.49192 0.491936 0.49192
0.503059 0.503075 0.503059
0.513954 0.51397 0.513954
0.525307 0.525322 0.525307
0.536461 0.536477 0.536461
0.547951 0.547951 0.547951
0.559091 0.559091 0.559091
0.570596 0.570596 0.570596
0.582116 0.582116 0.582116
0.593515 0.593515 0.593515
0.605325 0.605325 0.605325
0.616831 0.616831 0.616815
0.628626 0.628626 0.628626
0.640391 0.640391 0.640391
0.651896 0.65182 0.651881
0.663569 0.663325 0.663569
0.674998 0.674525 0.674998
0.686717 0.685939 0.686717
0.698329 0.697185 0.698329
0.709606 0.708019 0.709606
0.721218 0.719036 0.721218
0.732464 0.729625 0.732464
0.743877 0.740322 0.743893
0.75436 0.750439 0.75465
0.764904 0.760876 0.765576
0.775296 0.771405 0.776455
0.785412 0.781888 0.787121
0.79556 0.792676 0.797925
0.474678 0.474708 0.474678
0.485374 0.48539 0.485374
0.496483 0.496498 0.496483
0.507347 0.507362 0.507347
0.518532 0.518547 0.518532
0.529686 0.529702 0.529686
0.540673 0.540673 0.540673
0.552117 0.552132 0.552117
0.563302 0.563302 0.563302
0.574777 0.574777 0.574777
0.58645 0.58645 0.58645
0.597803 0.597803 0.597803
0.609537 0.609537 0.609537
0.621027 0.621027 0.621027
0.632792 0.632792 0.632792
0.644282 0.644266 0.644282
0.656031 0.656016 0.656031
0.667811 0.667781 0.667811
0.67924 0.678996 0.67924
0.690929 0.690364 0.690929
0.702251 0.701335 0.702251
0.713817 0.712444 0.713817
0.725338 0.72343 0.725338
0.736217 0.733623 0.736309
0.747127 0.743969 0.747433
0.757565 0.754086 0.75816
0.768048 0.764508 0.769055
0.778073 0.774716 0.779553
0.78819 0.78526 0.790249
0.798306 0.796063 0.801053
0.807874 0.806531 0.811368
0.817548 0.817411 0.821912
0.82678 0.828061 0.83209
0.511772 0.511772 0.511772
0.523003 0.523003 0.523003
0.533928 0.533944 0.533928
0.545174 0.54519 0.545174
0.556481 0.556481 0.556481
0.567651 0.567651 0.567651
0.57937 0.57937 0.57937
0.590738 0.590738 0.590738
0.60238 0.60238 0.60238
0.614054 0.614054 0.614054
0.625345 0.625345 0.625345
0.637156 0.637156 0.637171
0.6486 0.648585 0.6486
0.66038 0.660365 0.660395
0.671824 0.671794 0.671824
0.683452 0.683406 0.683452
0.695171 0.695003 0.695186
0.706462 0.705928 0.706477
0.717952 0.716793 0.717968
0.728832 0.726864 0.728923
0.739834 0.737148 0.740063
0.750713 0.747448 0.751125
0.76109 0.757534 0.761791
0.771572 0.768002 0.772702
0.781582 0.778225 0.7832
0.791669 0.788785 0.793881
0.801572 0.799405 0.804486
0.811017 0.809812 0.81471
0.820691 0.820722 0.825254
0.829847 0.831357 0.83537
0.839063 0.842344 0.845685
0.847852 0.852796 0.855192
0.85687 0.862669 0.863844
0.549661 0.549661 0.549661
0.561212 0.561212 0.561212
0.572427 0.572427 0.572427
0.583947 0.583947 0.583947
0.59527 0.59527 0.59527
0.606943 0.606943 0.606943
0.61825 0.61825 0.61825
0.629908 0.629908 0.629908
0.641566 0.641566 0.641581
0.652903 0.652903 0.652903
0.664683 0.664668 0.664683
0.676081 0.676051 0.676081
0.687831 0.687785 0.687831
0.699504 0.699382 0.699519
0.710674 0.709972 0.710689
0.722011 0.720439 0.722057
0.732845 0.730495 0.732967
0.743877 0.740826 0.744137
0.754421 0.75082 0.754849
0.765118 0.76112 0.76582
0.775631 0.771481 0.776684
0.785565 0.781689 0.787137
0.795651 0.792279 0.797833
0.805203 0.802594 0.808087
0.814801 0.813184 0.818479
0.824247 0.82388 0.828809
0.833326 0.834501 0.83888
0.842298 0.844831 0.848005
0.851041 0.854627 0.856626
0.86009 0.8645 0.865263
0.868894 0.873854 0.873426
0.878035 0.883223 0.881544
0.887236 0.892164 0.889296
0.588952 0.588952 0.588952
0.600107 0.600107 0.600107
0.611612 0.611612 0.611612
0.622934 0.622934 0.622934
0.634592 0.634592 0.634592
0.645884 0.645884 0.645899
0.657526 0.657526 0.657542
0.669108 0.669108 0.669123
0.680507 0.680491 0.680522
0.692027 0.691646 0.692042
0.703212 0.702281 0.703212
0.714687 0.71313 0.714702
0.726085 0.723812 0.726085
0.737087 0.734081 0.737118
0.748089 0.744381 0.748241
0.758663 0.754406 0.758999
0.76936 0.764721 0.76997
0.779553 0.774716 0.780484
0.789914 0.785061 0.791257
0.799954 0.79556 0.801892
0.809491 0.805905 0.812161
0.819135 0.816602 0.822614
0.827848 0.826871 0.831998
0.836637 0.837217 0.841169
0.845472 0.847318 0.850095
0.854246 0.857114 0.858701
0.863279 0.866911 0.867277
