luts/varicam_official/BandW_LoCon Dark.cube
TITLE "Generated by Resolve"
LUT_3D_SIZE 33
0.0735332 0.0735485 0.0734874
0.0759442 0.0759594 0.0758984
0.0784161 0.0784466 0.0783703
0.0809491 0.0809796 0.0808881
0.0834669 0.0834974 0.0834211
0.0860304 0.0860609 0.0859846
0.0885939 0.0886244 0.0885481
0.0911574 0.0911879 0.0911116
0.0937209 0.0937514 0.0936904
0.0963149 0.0963302 0.0962844
0.0989242 0.0989395 0.098909
0.101778 0.101793 0.101793
0.105196 0.105196 0.105211
0.108949 0.108949 0.108965
0.112703 0.112703 0.112734
0.116472 0.116472 0.116487
0.120241 0.120241 0.120272
0.124071 0.124071 0.124102
0.127916 0.127916 0.127947
0.131762 0.131762 0.131777
0.135714 0.135714 0.135729
0.139727 0.139727 0.139727
0.143786 0.143786 0.143786
0.147906 0.147906 0.147906
0.152193 0.152193 0.152193
0.156619 0.156619 0.156619
0.161181 0.161181 0.161166
0.165881 0.165881 0.16585
0.170809 0.170809 0.170779
0.176074 0.176074 0.176043
0.181384 0.181384 0.181369
0.186709 0.186709 0.186679
0.192065 0.192065 0.19205
0.0817884 0.0818189 0.0817273
0.0843214 0.0843366 0.0842603
0.0868391 0.0868696 0.0867933
0.0893568 0.0893873 0.0893111
0.0919203 0.0919509 0.0918746
0.0944991 0.0945296 0.0944686
0.0970779 0.0971084 0.0970626
0.100099 0.100114 0.100084
0.103288 0.103304 0.103288
0.1066 0.1066 0.106615
0.110033 0.110033 0.110048
0.113649 0.113649 0.113664
0.117418 0.117418 0.117449
0.121218 0.121218 0.121233
0.124987 0.124987 0.125017
0.128847 0.128847 0.128862
0.132769 0.132769 0.132784
0.13669 0.13669 0.136706
0.140673 0.140673 0.140688
0.144732 0.144732 0.144732
0.148867 0.148867 0.148882
0.153079 0.153079 0.153079
0.157397 0.157397 0.157382
0.161975 0.161975 0.161959
0.166873 0.166873 0.166842
0.172061 0.172061 0.17203
0.17734 0.17734 0.17731
0.18265 0.18265 0.182635
0.188006 0.188006 0.187976
0.193317 0.193317 0.193286
0.198672 0.198672 0.198642
0.204044 0.204044 0.204028
0.2094 0.2094 0.2094
0.0902113 0.0902419 0.0901503
0.0927291 0.0927596 0.0926833
0.0954757 0.0955062 0.0954452
0.0984054 0.098436 0.0983902
0.101427 0.101457 0.101427
0.10457 0.104585 0.10457
0.107866 0.107881 0.107881
0.111315 0.111315 0.11133
0.114855 0.114855 0.11487
0.118486 0.118486 0.118517
0.12224 0.12224 0.122286
0.126101 0.126101 0.126131
0.129961 0.129961 0.129992
0.133852 0.133852 0.133883
0.137774 0.137774 0.137789
0.141695 0.141695 0.141711
0.145617 0.145617 0.145632
0.149615 0.149615 0.149615
0.153811 0.153811 0.153811
0.15816 0.15816 0.158145
0.163088 0.163088 0.163073
0.168231 0.168231 0.1682
0.173526 0.173526 0.173495
0.178759 0.178759 0.178729
0.183993 0.183993 0.183963
0.189288 0.189288 0.189258
0.194598 0.194598 0.194568
0.199924 0.199924 0.199893
0.205341 0.205341 0.205325
0.210956 0.210956 0.210956
0.216678 0.216678 0.216678
0.222522 0.222522 0.222538
0.228504 0.228504 0.228519
0.0995651 0.0995804 0.0995346
0.102602 0.102617 0.102602
0.105745 0.10576 0.10576
0.108995 0.10901 0.10901
0.112352 0.112352 0.112383
0.115908 0.115908 0.115938
0.119677 0.119677 0.119707
0.123476 0.123476 0.123507
0.127291 0.127291 0.127321
0.131167 0.131167 0.131182
0.135027 0.135027 0.135042
0.138888 0.138888 0.138903
0.142779 0.142779 0.142794
0.1467 0.1467 0.1467
0.150637 0.150637 0.150652
0.155001 0.155001 0.155001
0.159777 0.159777 0.159762
0.164706 0.164706 0.164691
0.169726 0.169726 0.169711
0.174823 0.174823 0.174792
0.180041 0.180041 0.180011
0.185321 0.185321 0.18529
0.190555 0.190555 0.190524
0.195804 0.195804 0.195773
0.201236 0.201236 0.201221
0.206729 0.206729 0.206714
0.21239 0.21239 0.21239
0.218067 0.218067 0.218067
0.223941 0.223941 0.223941
0.229953 0.229953 0.229969
0.236057 0.236057 0.236088
0.242344 0.242344 0.242359
0.248814 0.248814 0.248844
0.109926 0.109941 0.109957
0.11339 0.11339 0.11342
0.117098 0.117098 0.117144
0.120867 0.120867 0.120912
0.124743 0.124743 0.124773
0.128542 0.128542 0.128573
0.132342 0.132342 0.132372
0.136217 0.136217 0.136233
0.140078 0.140078 0.140093
0.143938 0.143938 0.143954
0.147982 0.147982 0.147997
0.152361 0.152361 0.152361
0.156863 0.156863 0.156847
0.161456 0.161456 0.16144
0.166217 0.166217 0.166201
0.171221 0.171221 0.171206
0.176318 0.176318 0.176287
0.181476 0.181476 0.18143
0.186679 0.186679 0.186648
0.192004 0.192004 0.191959
0.197345 0.197345 0.197314
0.202686 0.202686 0.202655
0.208164 0.208164 0.208148
0.213718 0.213718 0.213703
0.219333 0.219333 0.219333
0.22504 0.22504 0.225055
0.231037 0.231037 0.231052
0.237156 0.237156 0.237171
0.243748 0.243748 0.243763
0.250477 0.250477 0.250492
0.257374 0.257374 0.257374
0.264134 0.264134 0.264134
0.270893 0.270893 0.270893
0.12224 0.12224 0.122271
0.125963 0.125963 0.126009
0.129763 0.129763 0.129793
0.133562 0.133562 0.133577
0.137362 0.137362 0.137377
0.141207 0.141207 0.141222
0.145342 0.145342 0.145342
0.149599 0.149599 0.149599
0.15404 0.15404 0.154025
0.158526 0.158526 0.158511
0.163149 0.163149 0.163134
0.167865 0.167865 0.167849
0.172686 0.172686 0.172671
0.177722 0.177722 0.177691
0.18294 0.18294 0.18291
0.188281 0.188281 0.188251
0.193591 0.193591 0.193561
0.198932 0.198932 0.198901
0.204257 0.204257 0.204242
0.209613 0.209613 0.209598
0.214984 0.214984 0.214984
0.220615 0.220615 0.220615
0.226368 0.226368 0.226368
0.232456 0.232456 0.232471
0.238987 0.238987 0.239002
0.24567 0.24567 0.245686
0.252354 0.252354 0.252354
0.259022 0.259022 0.259022
0.265751 0.265751 0.265751
0.272511 0.272511 0.272511
0.279316 0.279316 0.279316
0.286076 0.286076 0.286061
0.293065 0.293065 0.293034
0.134829 0.134829 0.134859
0.13875 0.13875 0.138781
0.142748 0.142748 0.142763
0.146838 0.146838 0.146838
0.151049 0.151049 0.151049
0.155428 0.155428 0.155413
0.159915 0.159915 0.159899
0.164523 0.164523 0.164492
0.169299 0.169299 0.169268
0.174136 0.174136 0.174105
0.179309 0.179309 0.179278
0.184512 0.184512 0.184482
0.189929 0.189929 0.189899
0.195239 0.195239 0.195209
0.200519 0.200519 0.200504
0.205829 0.205829 0.205814
0.21117 0.21117 0.21117
0.216541 0.216541 0.216541
0.222049 0.222049 0.222065
0.228199 0.228199 0.228199
0.234562 0.234562 0.234577
0.241032 0.241032 0.241032
0.247562 0.247562 0.247578
0.254261 0.254261 0.254276
0.260945 0.260945 0.260945
0.267628 0.267628 0.267613
0.274296 0.274296 0.274281
0.281102 0.281102 0.281086
0.288045 0.288045 0.288029
0.295079 0.295079 0.295064
0.302251 0.302266 0.302235
0.30956 0.30956 0.309545
0.316976 0.316976 0.31696
0.148226 0.148226 0.148241
0.152407 0.152407 0.152407
0.156695 0.156695 0.15668
0.161196 0.161196 0.161181
0.16582 0.16582 0.165805
0.170825 0.170825 0.170794
0.175952 0.175952 0.175921
0.181109 0.181109 0.181079
0.186343 0.186343 0.186313
0.191562 0.191562 0.191546
0.196826 0.196826 0.196811
0.202121 0.202121 0.202106
0.207385 0.207385 0.20737
0.212619 0.212619 0.212619
0.218341 0.218341 0.218341
0.224277 0.224277 0.224277
0.23035 0.23035 0.23035
0.236591 0.236591 0.236606
0.24303 0.24303 0.243046
0.249561 0.249561 0.249577
0.256168 0.256168 0.256168
0.262806 0.262806 0.262821
0.26949 0.26949 0.26949
0.27628 0.27628 0.27628
0.283055 0.283055 0.28304
0.289921 0.289921 0.289906
0.296971 0.296971 0.296956
0.304112 0.304112 0.304097
0.31133 0.311345 0.311315
0.31873 0.31873 0.318715
0.326253 0.326268 0.326238
0.334005 0.33402 0.333989
0.342 0.342 0.34197
0.162478 0.162478 0.162463
0.167544 0.167544 0.167529
0.172656 0.172656 0.172641
0.177798 0.177798 0.177768
0.182925 0.182925 0.182895
0.188113 0.188113 0.188083
0.193332 0.193332 0.193301
0.198566 0.198566 0.19855
0.203845 0.203845 0.20383
0.209262 0.209262 0.209247
0.214862 0.214862 0.214847
0.220584 0.220584 0.220584
0.226459 0.226459 0.226459
0.232502 0.232502 0.232517
0.238651 0.238651 0.238666
0.244907 0.244907 0.244907
0.251347 0.251347 0.251362
0.257939 0.257939 0.257954
0.264668 0.264668 0.264668
0.271412 0.271412 0.271412
0.278172 0.278172 0.278157
0.285054 0.285054 0.285054
0.291844 0.291844 0.291829
0.29865 0.29865 0.298634
0.305791 0.305791 0.305791
0.313039 0.313039 0.313024
0.320394 0.320409 0.320378
0.328222 0.328237 0.328206
0.336172 0.336187 0.336156
0.344182 0.344182 0.344167
0.352178 0.352193 0.352163
0.360235 0.360235 0.36022
0.368246 0.368246 0.368215
0.179599 0.179599 0.179568
0.184787 0.184787 0.184756
0.189944 0.189944 0.189914
0.195102 0.195102 0.195071
0.200381 0.200381 0.200351
0.205783 0.205783 0.205753
0.211261 0.211261 0.211246
0.216846 0.216846 0.216846
0.222599 0.222599 0.222614
0.228519 0.228519 0.228534
0.234531 0.234531 0.234546
0.240681 0.240681 0.240696
0.246952 0.246952 0.246967
0.253376 0.253376 0.253391
0.259968 0.259968 0.259968
0.266667 0.266667 0.266667
0.273472 0.273472 0.273457
0.280217 0.280217 0.280217
0.286961 0.286961 0.286946
0.293736 0.293736 0.293736
0.300557 0.300557 0.300542
0.307393 0.307393 0.307378
0.314702 0.314702 0.314687
0.32253 0.32253 0.322515
0.330419 0.330434 0.330404
0.338445 0.338445 0.338415
0.346395 0.346395 0.346365
0.354406 0.354406 0.354376
0.362417 0.362417 0.362402
0.370428 0.370413 0.370398
0.378439 0.378424 0.378408
0.386618 0.386618 0.386603
0.394965 0.394949 0.394934
0.196918 0.196918 0.196887
0.202182 0.202182 0.202152
0.207538 0.207538 0.207507
0.213123 0.213123 0.213107
0.218708 0.218708 0.218708
0.224399 0.224399 0.224399
0.230274 0.230274 0.230289
0.236316 0.236316 0.236332
0.242512 0.242512 0.242527
0.249119 0.249119 0.249134
0.255695 0.255695 0.255711
0.262272 0.262272 0.262287
0.268864 0.268864 0.268849
0.275486 0.275486 0.275471
0.282261 0.282261 0.282246
0.289006 0.289006 0.288991
0.295735 0.295735 0.29572
0.302663 0.302663 0.302647
0.310018 0.310018 0.310002
0.317464 0.317464 0.317449
0.324987 0.324987 0.324971
0.332753 0.332753 0.332738
0.340642 0.340642 0.340612
0.348547 0.348547 0.348516
0.356497 0.356497 0.356466
0.364492 0.364477 0.364462
0.372564 0.372549 0.372534
0.380728 0.380728 0.380713
0.388952 0.388952 0.388937
0.397406 0.397406 0.397391
0.405768 0.405768 0.405753
0.414206 0.414206 0.414191
0.422812 0.422812 0.422797
0.214679 0.214679 0.214664
0.220233 0.220233 0.220233
0.225971 0.225971 0.225971
0.231785 0.231785 0.231785
0.238102 0.238102 0.238117
0.244694 0.244694 0.244709
0.251286 0.251286 0.251286
0.257984 0.257984 0.257984
0.264561 0.264561 0.264561
0.271138 0.271138 0.271138
0.277775 0.277775 0.27776
0.284398 0.284398 0.284367
0.291112 0.291112 0.291081
0.298207 0.298207 0.298192
0.305394 0.305409 0.305379
0.312657 0.312673 0.312642
0.320089 0.320104 0.320073
0.327672 0.327672 0.327642
0.335286 0.335286 0.335256
0.343023 0.343023 0.342992
0.350927 0.350927 0.350896
0.358846 0.358846 0.358816
0.366873 0.366857 0.366842
0.374914 0.374914 0.374899
0.383093 0.383078 0.383062
0.391363 0.391348 0.391348
0.399649 0.399634 0.399634
0.407996 0.407996 0.407996
0.416434 0.416449 0.416434
0.424964 0.424979 0.424964
0.433646 0.433661 0.433646
0.442618 0.442634 0.442618
0.451621 0.451637 0.451621
0.234119 0.234119 0.234119
0.240558 0.240558 0.240558
0.247013 0.247013 0.247028
0.253574 0.253574 0.25359
0.260166 0.260166 0.260166
0.266743 0.266743 0.266728
0.273335 0.273335 0.27332
0.279911 0.279911 0.279896
0.286671 0.286671 0.286641
0.293584 0.293599 0.293568
0.300664 0.300679 0.300649
0.308019 0.308034 0.308003
0.315312 0.315328 0.315297
0.322683 0.322698 0.322652
0.330144 0.330159 0.330114
0.337789 0.337789 0.337758
0.34551 0.345525 0.34548
0.353414 0.353414 0.353384
0.36144 0.36144 0.361425
0.369467 0.369451 0.369436
0.377462 0.377462 0.377447
0.385443 0.385428 0.385428
0.393591 0.393591 0.393576
0.401862 0.401862 0.401862
0.410224 0.410224 0.410224
0.418708 0.418708 0.418708
0.427527 0.427543 0.427527
0.436377 0.436393 0.436377
0.445258 0.445274 0.445258
0.45417 0.454185 0.45417
0.463127 0.463157 0.463127
0.472084 0.472114 0.472084
0.481056 0.481086 0.481056
0.255955 0.255955 0.25597
0.26244 0.26244 0.262455
0.269017 0.269017 0.269017
0.275685 0.275685 0.275669
0.282414 0.282414 0.282399
0.289189 0.289189 0.289174
0.296117 0.296117 0.296101
0.303151 0.303166 0.303136
0.310323 0.310338 0.310307
0.317601 0.317617 0.317586
0.325002 0.325017 0.324987
0.332509 0.332525 0.332479
0.340185 0.3402 0.340154
0.348074 0.348089 0.348043
0.356008 0.356008 0.355978
0.363943 0.363943 0.363912
0.372045 0.37203 0.372015
0.380041 0.380026 0.380026
0.388067 0.388052 0.388052
0.396002 0.396002 0.396002
0.403983 0.403983 0.403983
0.412665 0.412665 0.412665
0.421454 0.421469 0.421454
0.430228 0.430243 0.430228
0.439033 0.439048 0.439033
0.447898 0.447913 0.447898
0.456825 0.456855 0.456825
0.465751 0.465782 0.465751
0.474693 0.474723 0.474693
0.483665 0.483696 0.483665
0.492699 0.492729 0.492699
0.501778 0.501793 0.501778
0.510918 0.510933 0.510918
0.278172 0.278172 0.278157
0.284901 0.284901 0.284901
0.291661 0.291676 0.291661
0.298466 0.298482 0.298466
0.305501 0.305501 0.305486
0.312642 0.312657 0.312642
0.319921 0.319936 0.319905
0.327352 0.327382 0.327352
0.335149 0.33518 0.335149
0.342992 0.343008 0.342977
0.350835 0.350835 0.350805
0.358724 0.358724 0.358694
0.366644 0.366644 0.366613
0.374594 0.374578 0.374563
0.382559 0.382544 0.382528
0.390539 0.390524 0.390524
0.398611 0.398596 0.398596
0.406928 0.406928 0.406928
0.415381 0.415381 0.415381
0.424109 0.424125 0.424109
0.433066 0.433082 0.433066
0.44184 0.441855 0.44184
0.450584 0.450614 0.450584
0.459434 0.459464 0.459434
0.46833 0.468376 0.46833
0.477348 0.477378 0.477348
0.486458 0.486473 0.486458
0.495521 0.495537 0.495521
0.504585 0.504616 0.504585
0.51368 0.513695 0.51368
0.522805 0.52282 0.522805
0.532036 0.532036 0.532036
0.541268 0.541268 0.541268
0.300923 0.300923 0.300923
0.30779 0.30779 0.30779
0.314748 0.314763 0.314748
0.322438 0.322438 0.322423
0.330236 0.330251 0.330236
0.338003 0.338018 0.337987
0.345785 0.3458 0.345769
0.353613 0.353628 0.353597
0.361456 0.361456 0.361425
0.369299 0.369284 0.369253
0.377172 0.377157 0.377142
0.385153 0.385122 0.385122
0.393469 0.393439 0.393439
0.401801 0.401801 0.401801
0.410163 0.410163 0.410163
0.418601 0.418601 0.418585
0.4271 0.427115 0.4271
0.435691 0.435721 0.435691
0.44448 0.444495 0.44448
0.453285 0.453315 0.453285
0.462058 0.462104 0.462058
0.470985 0.471015 0.470985
0.480034 0.480064 0.480034
0.489082 0.489113 0.489082
0.498283 0.498299 0.498283
0.507332 0.507332 0.507332
0.516411 0.516426 0.516411
0.525567 0.525582 0.525567
0.534691 0.534691 0.534691
0.543969 0.543969 0.543969
0.553353 0.553353 0.553353
0.562768 0.562768 0.562768
0.572213 0.572213 0.572213
0.325292 0.325307 0.325277
0.332967 0.332982 0.332952
0.340887 0.340887 0.340871
0.348623 0.348638 0.348608
0.356374 0.356374 0.356344
0.364233 0.364233 0.364202
0.372076 0.372061 0.372045
0.380056 0.380026 0.380011
0.388113 0.388083 0.388083
0.396368 0.396353 0.396338
0.404715 0.4047 0.4047
0.413153 0.413153 0.413138
0.421668 0.421668 0.421668
0.430182 0.430198 0.430182
0.438758 0.438773 0.438758
0.447395 0.447425 0.447395
0.45623 0.45626 0.45623
0.46511 0.465156 0.46511
0.474006 0.474037 0.474006
0.482918 0.482933 0.482918
0.491981 0.491997 0.491981
0.501015 0.501015 0.501015
0.510018 0.510018 0.510018
0.51902 0.51902 0.51902
0.52813 0.52813 0.52813
0.537408 0.537408 0.537408
0.5467 0.5467 0.5467
0.556054 0.556054 0.556054
0.565652 0.565652 0.565652
0.575097 0.575097 0.575097
0.584543 0.584543 0.584543
0.593973 0.593973 0.593973
0.603357 0.603357 0.603357
0.351431 0.351431 0.3514
0.359152 0.359152 0.359121
0.366949 0.366934 0.366918
0.374868 0.374853 0.374838
0.38291 0.38291 0.382895
0.391043 0.391028 0.391012
0.399313 0.399298 0.399298
0.407568 0.407553 0.407553
0.416037 0.416037 0.416022
0.424536 0.424536 0.424536
0.433082 0.433082 0.433082
0.441733 0.441764 0.441733
0.450507 0.450523 0.450507
0.459342 0.459373 0.459342
0.468177 0.468208 0.468177
0.477058 0.477089 0.477058
0.485969 0.486 0.485969
0.494911 0.494926 0.494911
0.503868 0.503883 0.503868
0.512886 0.512886 0.512886
0.522057 0.522057 0.522057
0.531228 0.531228 0.531228
0.540444 0.540444 0.540444
0.549737 0.549737 0.549737
0.55903 0.55903 0.55903
0.568353 0.568353 0.568353
0.577752 0.577752 0.577752
0.587198 0.587198 0.587198
0.596704 0.596704 0.596704
0.606104 0.606104 0.606104
0.615396 0.615396 0.615396
0.624659 0.624659 0.624659
0.633906 0.633906 0.63389
0.377981 0.377966 0.377951
0.385916 0.385916 0.385901
0.393973 0.393973 0.393973
0.402121 0.402106 0.402106
0.41033 0.410315 0.410315
0.418677 0.418677 0.418662
0.427237 0.427237 0.427237
0.436011 0.436027 0.436011
0.44477 0.444785 0.44477
0.453483 0.453513 0.453483
0.462425 0.462455 0.462425
0.471229 0.47126 0.471229
0.480034 0.480064 0.480034
0.48893 0.488945 0.48893
0.497856 0.497871 0.497856
0.506874 0.506889 0.506874
0.516014 0.516014 0.516014
0.52517 0.52517 0.52517
0.534356 0.534356 0.534356
0.543542 0.543542 0.543542
0.552743 0.552743 0.552743
0.562051 0.562051 0.562051
0.571389 0.571389 0.571389
0.580728 0.580728 0.580728
0.590082 0.590082 0.590082
0.599496 0.599496 0.599496
0.608881 0.608881 0.608881
0.618219 0.618219 0.618219
0.627573 0.627573 0.627573
0.636805 0.636805 0.636805
0.646036 0.646036 0.646036
0.655238 0.655238 0.655238
0.664485 0.664485 0.6645
0.40502 0.40502 0.40502
0.413245 0.413245 0.413245
0.421836 0.421851 0.421836
0.430503 0.430503 0.430503
0.4392 0.439216 0.4392
0.447944 0.447959 0.447944
0.456718 0.456733 0.456718
0.465415 0.465446 0.465415
0.474159 0.474189 0.474159
0.482963 0.482994 0.482963
0.491798 0.491829 0.491798
0.500786 0.500816 0.500786
0.509865 0.50988 0.509865
0.519051 0.519051 0.519051
0.528176 0.528176 0.528176
0.537499 0.537499 0.537499
0.5467 0.5467 0.5467
0.555932 0.555932 0.555932
0.565133 0.565133 0.565133
0.574411 0.574411 0.574411
0.58378 0.58378 0.58378
0.593179 0.593179 0.593164
0.602472 0.602472 0.602472
0.611795 0.611795 0.61178
0.621134 0.621134 0.621118
0.630426 0.630426 0.630426
0.639689 0.639689 0.639689
0.64892 0.64892 0.64892
0.658152 0.658152 0.658152
0.667475 0.667475 0.667491
0.676738 0.676692 0.676738
0.685969 0.685756 0.685969
0.695125 0.694667 0.695125
0.43389 0.433906 0.43389
0.442557 0.442573 0.442557
0.451225 0.45124 0.451225
0.459922 0.459953 0.459922
0.46862 0.46865 0.46862
0.477317 0.477348 0.477317
0.486213 0.486244 0.486213
0.495216 0.495232 0.495216
0.504204 0.504234 0.504204
0.513207 0.513222 0.513207
0.522225 0.52224 0.522225
0.53135 0.531365 0.53135
0.540505 0.540505 0.540505
0.549661 0.549661 0.549661
0.558923 0.558923 0.558923
0.568231 0.568231 0.568231
0.577523 0.577523 0.577523
0.586801 0.586801 0.586786
0.596094 0.596094 0.596078
0.605585 0.605585 0.60557
0.614847 0.614847 0.614832
0.62414 0.62414 0.624109
0.633417 0.633417 0.633387
0.64268 0.64268 0.642664
0.651957 0.651957 0.651957
0.661234 0.661234 0.661234
0.670512 0.670497 0.670512
0.679759 0.679713 0.679759
0.688975 0.688869 0.688991
0.698207 0.697917 0.698207
0.707256 0.706615 0.707256
0.716228 0.715145 0.716228
0.725048 0.723323 0.725048
0.463249 0.463279 0.463249
0.471946 0.471977 0.471946
0.480812 0.480827 0.480812
0.489693 0.489708 0.489693
0.498604 0.498619 0.498604
0.507546 0.507561 0.507546
0.516548 0.516564 0.516548
0.525597 0.525612 0.525597
0.53463 0.53463 0.53463
0.543725 0.543725 0.543725
0.552956 0.552956 0.552956
0.562249 0.562249 0.562249
0.571572 0.571572 0.571572
0.58088 0.58088 0.58088
0.590188 0.590188 0.590188
0.599435 0.599435 0.59942
0.608637 0.608637 0.608621
0.617899 0.617899 0.617868
0.627115 0.627115 0.627085
0.636301 0.636301 0.636271
0.645533 0.645533 0.645502
0.65481 0.65481 0.654795
0.664149 0.664149 0.664149
0.673594 0.673594 0.673609
0.682857 0.682841 0.682872
0.692088 0.692012 0.692103
0.701274 0.701106 0.701289
0.710414 0.710079 0.710414
0.719127 0.717998 0.719127
0.727855 0.725856 0.727855
0.736538 0.733684 0.736538
0.74522 0.741497 0.74522
0.753994 0.749401 0.753994
0.493187 0.493202 0.493187
0.502083 0.502098 0.502083
0.510994 0.511009 0.510994
0.519905 0.519905 0.519905
0.528893 0.528893 0.528893
0.537957 0.537957 0.537957
0.547127 0.547127 0.547127
0.556344 0.556344 0.556344
0.565637 0.565637 0.565637
0.57496 0.57496 0.57496
0.584283 0.584283 0.584283
0.593591 0.593591 0.593591
0.602838 0.602838 0.602823
0.612039 0.612039 0.612024
0.62118 0.62118 0.621149
0.63035 0.63035 0.630335
0.639536 0.639536 0.639521
0.648722 0.648722 0.648707
0.657893 0.657893 0.657893
0.667155 0.667155 0.667155
0.676432 0.676432 0.676448
0.68571 0.68571 0.685725
0.695064 0.695064 0.695079
0.704082 0.703731 0.704097
0.712947 0.712047 0.712947
0.721736 0.720211 0.721736
0.730465 0.728206 0.730465
0.73933 0.736187 0.73933
0.748028 0.744015 0.748028
0.75671 0.751858 0.75671
0.765499 0.759762 0.765499
0.774243 0.767636 0.774243
0.782422 0.775647 0.782696
0.523186 0.523186 0.523186
0.532235 0.532235 0.532235
0.541314 0.541314 0.541314
0.550484 0.550484 0.550484
0.55964 0.55964 0.55964
0.569024 0.569024 0.569024
0.578286 0.578286 0.578286
0.58761 0.58761 0.58761
0.596994 0.596994 0.596994
0.606302 0.606302 0.606302
0.615457 0.615457 0.615457
0.624567 0.624567 0.624552
0.633661 0.633661 0.633646
0.642741 0.642741 0.642725
0.651911 0.651911 0.651896
0.661143 0.661143 0.661143
0.670314 0.670314 0.670329
0.679515 0.679515 0.67953
0.688731 0.68864 0.688746
0.69781 0.697398 0.697826
0.706813 0.706004 0.706828
0.715709 0.714382 0.715709
0.724498 0.722545 0.724498
0.733288 0.730632 0.733303
0.742016 0.738582 0.742016
0.750698 0.746426 0.750698
0.759411 0.754269 0.759411
0.768002 0.762188 0.768063
0.776318 0.770169 0.776593
0.784405 0.778225 0.785
0.792309 0.786374 0.793317
0.799924 0.794537 0.801465
0.807462 0.802915 0.809659
0.55404 0.55404 0.55404
0.563165 0.563165 0.563165
0.572396 0.572396 0.572396
0.581613 0.581613 0.581613
0.590829 0.590829 0.590829
0.600107 0.600107 0.600107
0.609354 0.609354 0.609354
0.61857 0.61857 0.618555
0.627787 0.627787 0.627787
0.637049 0.637049 0.637049
0.646143 0.646143 0.646128
0.655222 0.655222 0.655207
0.664332 0.664332 0.664332
0.673503 0.673503 0.673518
0.682628 0.68246 0.682643
0.691676 0.691264 0.691676
0.70074 0.700008 0.700755
0.709728 0.708568 0.709728
0.718624 0.71696 0.718624
0.727443 0.7252 0.727459
0.736202 0.733242 0.736202
0.7449 0.741176 0.7449
0.753567 0.74902 0.753567
0.76228 0.756909 0.762295
0.770779 0.764858 0.770932
0.77908 0.772869 0.779446
0.787106 0.780896 0.787793
0.794903 0.788968 0.796017
0.802472 0.797147 0.80415
0.809812 0.805371 0.812146
0.816922 0.813642 0.82002
0.823743 0.82208 0.827771
0.830335 0.83061 0.835386
0.585107 0.585107 0.585107
0.594354 0.594354 0.594354
0.60354 0.60354 0.603525
0.612696 0.612696 0.612696
0.621912 0.621912 0.621897
0.631083 0.631083 0.631083
0.640223 0.640223 0.640223
0.649317 0.649317 0.649317
0.658396 0.658396 0.658396
0.667552 0.667536 0.667567
0.676646 0.676539 0.676661
0.68574 0.685466 0.68574
0.694774 0.69424 0.694774
0.703716 0.702846 0.703731
0.712764 0.711452 0.712764
0.721645 0.719814 0.721645
0.730526 0.728084 0.730526
0.739284 0.736141 0.739284
0.747997 0.743999 0.747997
0.75668 0.751827 0.756695
0.765316 0.75967 0.765347
0.773907 0.767498 0.773983
0.782269 0.775402 0.782498
0.79028 0.783429 0.790845
0.798062 0.791531 0.799069
0.805554 0.799664 0.807126
0.812772 0.807919 0.815061
0.819348 0.816419 0.822675
0.825895 0.824872 0.830243
0.832425 0.83331 0.837812
0.839017 0.84184 0.845441
0.845655 0.850431 0.853117
0.852247 0.858961 0.860746
0.61619 0.61619 0.616175
0.625284 0.625284 0.625269
0.634485 0.634485 0.634485
0.643626 0.643626 0.64361
0.65275 0.65275 0.65275
0.661921 0.661921 0.661921
0.671046 0.671016 0.671061
0.68014 0.680018 0.68014
0.689174 0.68893 0.689174
0.698207 0.697734 0.698207
0.707149 0.70631 0.707149
0.715999 0.714717 0.715999
0.724788 0.722972 0.724788
0.733501 0.730938 0.733501
0.742214 0.738796 0.742214
0.750927 0.746624 0.750927
0.759609 0.754452 0.759609
0.768307 0.762325 0.768322
0.77705 0.770291 0.777111
0.78555 0.778119 0.785687
0.793973 0.785946 0.794202
0.80174 0.793988 0.802411
0.808484 0.802365 0.810071
0.815 0.810803 0.817639
0.821561 0.819272 0.825238
0.828107 0.827741 0.832807
0.834638 0.836179 0.840375
0.841184 0.844648 0.847944
0.847761 0.853162 0.855558
0.854368 0.861692 0.863188
0.86096 0.870176 0.870756
0.867811 0.877302 0.876982
0.874861 0.883757 0.882521
0.647074 0.647074 0.647059
0.656245 0.656245 0.656245
0.665461 0.665461 0.665461
0.674647 0.674647 0.674647
