luts/varicam_official/BleachyBypass LoCon 33 E-E.cube
TITLE "Generated by Resolve"
LUT_3D_SIZE 5
0.0755322 0.0755322 0.0755322
0.105455 0.067277 0.0700999
0.259525 0.062562 0.062562
0.687892 0.062562 0.062562
0.918135 0.062562 0.062562
0.0674754 0.127855 0.0857862
0.114244 0.122103 0.0805524
0.303319 0.0822309 0.06392
0.756603 0.062562 0.062562
0.918654 0.062562 0.062562
0.062562 0.399237 0.143969
0.103258 0.409949 0.141558
0.335973 0.372305 0.109224
0.794522 0.273762 0.0634012
0.918868 0.241306 0.0626688
0.062562 0.897841 0.271534
0.0826581 0.898985 0.266224
0.367086 0.897932 0.227192
0.804822 0.834638 0.164477
0.918868 0.818006 0.160082
0.0626688 0.918868 0.344427
0.145541 0.918868 0.329564
0.478172 0.918868 0.28365
0.86508 0.915938 0.234607
0.918868 0.904219 0.246754
0.075227 0.0761578 0.103471
0.107134 0.0674754 0.100954
0.264729 0.062562 0.0778363
0.696239 0.062562 0.062562
0.918441 0.062562 0.062562
0.067689 0.132036 0.127749
0.116335 0.125963 0.126177
0.310765 0.0844282 0.0999161
0.767285 0.062562 0.062974
0.918654 0.062562 0.062562
0.062562 0.411627 0.202762
0.105989 0.422583 0.205798
0.345144 0.384497 0.179324
0.802762 0.286122 0.117067
0.918868 0.25835 0.102525
0.062562 0.901183 0.35668
0.0865187 0.902647 0.359655
0.379095 0.903899 0.329458
0.813077 0.844266 0.27921
0.918868 0.83035 0.285496
0.0627756 0.918868 0.457435
0.154009 0.918868 0.451575
0.49102 0.918868 0.414816
0.87042 0.916457 0.377081
0.918868 0.907774 0.399023
0.0737621 0.0796216 0.240162
0.108186 0.0699931 0.243259
0.270359 0.062562 0.225437
0.704906 0.062562 0.163119
0.918654 0.062562 0.114977
0.0673686 0.139879 0.289311
0.118227 0.133715 0.297551
0.31809 0.0891432 0.280247
0.776638 0.062562 0.222431
0.918547 0.062562 0.193881
0.062562 0.429267 0.400061
0.10808 0.439933 0.415137
0.353796 0.400366 0.400061
0.810803 0.303532 0.351019
0.918868 0.280034 0.346685
0.062562 0.90547 0.595071
0.0903944 0.907256 0.610086
0.391196 0.912062 0.588998
0.819883 0.856092 0.548867
0.918868 0.845106 0.563317
0.0626688 0.918868 0.721798
0.16437 0.918868 0.722972
0.504829 0.918868 0.691493
0.875135 0.918761 0.65951
0.918868 0.914046 0.680888
0.0706188 0.0879835 0.605615
0.108492 0.0773175 0.611673
0.277562 0.062562 0.59527
0.714351 0.062562 0.535119
0.918654 0.062562 0.4907
0.066743 0.154009 0.667689
0.119265 0.147311 0.680476
0.326162 0.0990768 0.663966
0.785763 0.062562 0.604349
0.918547 0.062562 0.57673
0.062562 0.453315 0.784619
0.10985 0.463203 0.799161
0.363699 0.422477 0.779828
0.818204 0.327977 0.723598
0.918868 0.308415 0.713512
0.062562 0.910384 0.913848
0.098024 0.912581 0.915419
0.405509 0.918547 0.904738
0.827939 0.870115 0.870115
0.918868 0.861524 0.867277
0.0627756 0.918868 0.918868
0.1785 0.918868 0.918868
0.521935 0.918868 0.918868
0.881193 0.918868 0.909651
0.918868 0.918868 0.910292
0.0680095 0.0944686 0.890196
0.11017 0.0838026 0.886854
0.284886 0.0628824 0.860487
0.72488 0.062562 0.786908
0.918761 0.062562 0.728389
0.0675822 0.164157 0.909346
0.121569 0.156619 0.907362
0.335058 0.10724 0.874296
0.795148 0.0626688 0.79411
0.918654 0.062562 0.748363
0.062562 0.471153 0.918868
0.113405 0.480507 0.918761
0.374105 0.437659 0.916243
0.824384 0.344533 0.845624
0.918868 0.328923 0.818006
0.062562 0.914153 0.918761
0.107027 0.917082 0.918868
0.420447 0.917922 0.918868
0.836835 0.87744 0.917403
0.918868 0.870207 0.910185
0.0660105 0.918868 0.918868
0.193973 0.918868 0.918868
0.539956 0.918868 0.918868
0.887892 0.918868 0.918868
0.918868 0.918868 0.918868
