luts/varicam_official/BleachyBypass SuperBright 33 E-E.cube
TITLE "Generated by Resolve"
LUT_3D_SIZE 33
0.0156252 0.0156252 0.0156252
0.0156252 0.0156252 0.0156252
0.0156252 0.0156252 0.0156252
0.0156405 0.0156252 0.0156252
0.0159915 0.0155184 0.0155642
0.0202792 0.0142367 0.0147402
0.0418097 0.00808728 0.0106508
0.0741131 0.00247196 0.00549325
0.123262 0.000366217 0.00169375
0.196841 0 0.000259403
0.299092 0 0
0.430823 0 0
0.589364 0 0
0.758877 0 0
0.909529 0 0
0.989364 0 0
0.999084 0 0
1 0 0
1 0 0
1 0 0
1 0 0
1 0 0
1 0 0
1 0 0
1 0 0
1 0 0
1 0 0
1 0 0
1 0 0
1 0 0
1 0 0
1 0 0
1 0 0
0.0156252 0.0156252 0.0156252
0.0156252 0.0156252 0.0156252
0.0156252 0.0156252 0.0156252
0.0156252 0.0156252 0.0156252
0.0156863 0.01561 0.01561
0.0166476 0.0153048 0.0154269
0.035935 0.0096437 0.0117647
0.0652476 0.00341802 0.00669871
0.109895 0.000579843 0.00239567
0.1776 0 0.000427253
0.27245 0 0
0.396292 0 0
0.548104 0 0
0.717678 0 0
0.882353 0 0
0.98471 0 0
0.997971 0 0
1 0 0
1 0 0
1 0 0
1 0 0
1 0 0
1 0 0
1 0 0
1 0 0
1 0 0
1 0 0
1 0 0
1 0 0
1 0 0
1 0 0
1 0 0
1 0 0
0.0156252 0.0156252 0.0156252
0.0156252 0.0156252 0.0156252
0.0156252 0.0156252 0.0156252
0.0156252 0.0156252 0.0156252
0.0156405 0.0156252 0.0156252
0.016083 0.0154879 0.0155489
0.0310826 0.0110018 0.0126955
0.0572518 0.00440986 0.00781262
0.0977646 0.000823987 0.00306706
0.159396 0 0.00062562
0.247959 0 0
0.36466 0 0
0.511116 0 0
0.676997 0 0
0.848447 0 0
0.970901 0 0
0.995926 0 0
0.999954 0 0
1 0 0
1 0 0
1 0 0
1 0 0
1 0 0
1 0 0
1 0 0
1 0 0
1 0 0
1 0 0
1 0 0
1 0 0
1 0 0
1 0 0
1 0 0
0.0156252 0.0156252 0.0156252
0.0156252 0.0156252 0.0156252
0.0156252 0.0156252 0.0156252
0.0156252 0.0156252 0.0156252
0.0156252 0.0156252 0.0156252
0.0157473 0.0155947 0.01561
0.0273442 0.0121157 0.0133974
0.0508125 0.00575265 0.00892653
0.0864424 0.00129702 0.00386053
0.142275 4.57771e-05 0.000869764
0.224918 0 1.5259e-05
0.335241 0 0
0.47425 0 0
0.635782 0 0
0.809049 0 0
0.946303 0 0
0.990112 0 0
0.999527 0 0
1 0 0
1 0 0
1 0 0
1 0 0
1 0 0
1 0 0
1 0 0
1 0 0
1 0 0
1 0 0
1 0 0
1 0 0
1 0 0
1 0 0
1 0 0
0.0156252 0.0156405 0.0156252
0.0156252 0.0156405 0.0156252
0.0156252 0.0156252 0.0156252
0.0156252 0.0156252 0.0156252
0.0156252 0.0156252 0.0156252
0.0156252 0.0156252 0.0156252
0.0236667 0.0132143 0.0140993
0.0450599 0.00730907 0.0100252
0.0780804 0.00225834 0.00502022
0.128099 0.00030518 0.00141909
0.202304 0 9.15541e-05
0.304784 0 0
0.439231 0 0
0.596231 0 0
0.768673 0 0
0.916487 0 0
0.98056 0 0
0.998169 0 0
1 0 0
1 0 0
1 0 0
1 0 0
1 0 0
1 0 0
1 0 0
1 0 0
1 0 0
1 0 0
1 0 0
1 0 0
1 0 0
1 0 0
1 0 0
0.0155795 0.0158846 0.015671
0.01561 0.0157626 0.0156558
0.01561 0.0157015 0.0156405
0.0156252 0.0156558 0.0156252
0.0156252 0.0156252 0.0156252
0.0156252 0.0156252 0.0156252
0.0203555 0.0142061 0.014725
0.0398108 0.0087129 0.011017
0.0701152 0.00326543 0.00616464
0.116274 0.000610361 0.00216678
0.18526 0 0.000335698
0.279744 0 0
0.404822 0 0
0.55761 0 0
0.730022 0 0
0.888502 0 0
0.970916 0 0
0.996704 0 0
1 0 0
1 0 0
1 0 0
1 0 0
1 0 0
1 0 0
1 0 0
1 0 0
1 0 0
1 0 0
1 0 0
1 0 0
1 0 0
1 0 0
1 0 0
0.0140383 0.0253147 0.0172274
0.0142519 0.0240177 0.0170138
0.0144503 0.0227817 0.0168154
0.0146487 0.021561 0.0166171
0.014847 0.0203708 0.0164034
0.0150149 0.0193179 0.0162356
0.0168765 0.0178073 0.0157473
0.0341497 0.0118563 0.0123445
0.0622721 0.00503548 0.00741588
0.105226 0.00108339 0.00292973
0.168811 0 0.000579843
0.257374 0 0
0.376104 0 0
0.522087 0 0
0.690944 0 0
0.858503 0 0
0.960739 0 0
0.995148 0 0
1 0 0
1 0 0
1 0 0
1 0 0
1 0 0
1 0 0
1 0 0
1 0 0
1 0 0
1 0 0
1 0 0
1 0 0
1 0 0
1 0 0
1 0 0
0.0106355 0.0461128 0.0207523
0.0109865 0.0439918 0.0203861
0.0112917 0.0420844 0.0200504
0.0115969 0.0402228 0.0197452
0.011902 0.0383459 0.0194095
0.0121767 0.0366369 0.0191196
0.012726 0.0348211 0.0187839
0.0266728 0.0291142 0.0159609
0.0520485 0.0207065 0.0110933
0.0912642 0.0118868 0.00540169
0.150118 0.00485237 0.00143435
0.233921 0.00103761 3.0518e-05
0.345846 0 0
0.484779 0 0
0.649927 0 0
0.825772 0 0
0.947646 0 0
0.992966 0 0
1 0 0
1 0 0
1 0 0
1 0 0
1 0 0
1 0 0
1 0 0
1 0 0
1 0 0
1 0 0
1 0 0
1 0 0
1 0 0
1 0 0
1 0 0
0.00643931 0.0755932 0.0258183
0.00683604 0.0726635 0.0253147
0.00720226 0.0698405 0.0248264
0.00758373 0.0671244 0.0243534
0.00793469 0.0644388 0.0238956
0.00827039 0.0620127 0.0234836
0.00862135 0.0594644 0.0230411
0.0194247 0.0537728 0.0206607
0.0415045 0.0448615 0.0161746
0.0770123 0.0334325 0.00981155
0.131029 0.0203708 0.00389105
0.208957 0.00892653 0.000610361
0.315068 0.00198367 0
0.449622 7.62951e-05 0
0.610208 0 0
0.784787 0 0
0.927138 0 0
0.987289 0 0
0.999878 0 0
1 0 0
1 0 0
1 0 0
1 0 0
1 0 0
1 0 0
1 0 0
1 0 0
1 0 0
1 0 0
1 0 0
1 0 0
1 0 0
1 0 0
0.00265507 0.118532 0.0332036
0.00297551 0.113802 0.0323796
0.00328069 0.109483 0.0316472
0.00352483 0.105867 0.0310216
0.00381476 0.10193 0.0303502
0.00410468 0.0980697 0.0296788
0.00437934 0.0943618 0.0290532
0.0120089 0.0884718 0.0269932
0.0309453 0.0791028 0.022797
0.0623636 0.0668956 0.0165408
0.110857 0.0509041 0.00894179
0.182696 0.0324712 0.0028687
0.283284 0.0146639 0.000198367
0.411383 0.00384527 0
0.567727 0.000122072 0
0.740978 1.5259e-05 0
0.893843 0 0
0.973541 0 0
0.998001 0 0
1 0 0
1 0 0
1 0 0
1 0 0
1 0 0
1 0 0
1 0 0
1 0 0
1 0 0
1 0 0
1 0 0
1 0 0
1 0 0
1 0 0
0.000595102 0.178805 0.0435492
0.000701915 0.172396 0.0424506
0.000808728 0.166232 0.0413825
0.000915541 0.160342 0.0403754
0.00102235 0.154772 0.0394293
0.00112917 0.149767 0.0385595
0.00123598 0.14432 0.0376287
0.00555428 0.137362 0.0357366
0.0200046 0.127733 0.0318151
0.047303 0.115099 0.0258335
0.0910658 0.0982071 0.0174716
0.15639 0.076112 0.0084535
0.250278 0.0497749 0.0018616
0.37203 0.0251469 0
0.522423 0.00726329 0
0.694408 0.00209049 0
0.856275 0.000350958 0
0.955108 0 0
0.993988 0 0
0.999802 0 0
1 0 0
1 0 0
1 0 0
1 0 0
1 0 0
1 0 0
1 0 0
1 0 0
1 0 0
1 0 0
1 0 0
1 0 0
1 0 0
0 0.260716 0.0576028
0 0.251652 0.0560616
0 0.24303 0.0545815
0 0.235843 0.0533455
0 0.228183 0.052018
0 0.220523 0.0507057
0 0.213535 0.0495155
0.00157168 0.205692 0.0477607
0.0100862 0.194598 0.0439612
0.0314336 0.180926 0.0381323
0.0706035 0.163973 0.0298009
0.1308 0.141192 0.0189059
0.21738 0.110933 0.00787366
0.331853 0.0758984 0.00132753
0.477226 0.0406043 0
0.647898 0.0184634 0
0.814267 0.00694286 0
0.932754 0.00184634 0
0.987808 0.000244144 0
0.999222 0 0
1 0 0
1 0 0
1 0 0
1 0 0
1 0 0
1 0 0
1 0 0
1 0 0
1 0 0
1 0 0
1 0 0
1 0 0
1 0 0
0 0.365972 0.0756542
0 0.354726 0.0737316
0 0.343694 0.0718395
0 0.333776 0.0701305
0 0.324041 0.0684672
0 0.314748 0.066865
0 0.305486 0.0652934
0.000198367 0.295689 0.0634623
0.00306706 0.28394 0.0599374
0.0161746 0.269306 0.0543069
0.0475319 0.251133 0.0462196
0.10193 0.227619 0.0348669
0.183185 0.197818 0.0208286
0.291035 0.159411 0.00761425
0.427848 0.11339 0.00108339
0.595987 0.068864 0.000167849
0.767468 0.0373999 0
0.904814 0.01738 0
0.97821 0.00747692 0
0.997971 0.00395209 0
1 0.00260929 0
1 0.00201419 0
1 0.0016022 0
1 0.00120546 0
1 0.000839246 0
1 0.000503548 0
1 0.000228885 0
1 1.5259e-05 0
1 0 0
1 0 0
1 0 0
1 0 0
1 0 0
0 0.495125 0.0977951
0 0.479667 0.09514
0 0.466789 0.0929274
0 0.455467 0.0909743
0 0.44329 0.0888838
0 0.431662 0.0868849
0 0.421027 0.085069
0 0.409613 0.0831159
0.000213626 0.396078 0.0797589
0.00495918 0.380545 0.0743725
0.0254063 0.361913 0.0665904
0.070985 0.337743 0.0555734
0.146197 0.306935 0.0405585
0.248524 0.268299 0.0227207
0.381415 0.220996 0.00672923
0.543023 0.16495 0.00138857
0.716258 0.111498 0.000167849
0.871305 0.0686656 0
0.964553 0.039765 0
0.995529 0.0252232 0
1 0.0187839 0
1 0.015259 0
1 0.0127718 0
1 0.0103914 0
1 0.00849927 0
1 0.00628672 0
1 0.00422675 0
1 0.00262455 0
1 0.00207523 0
1 0.00164797 0
1 0.00122072 0
1 0.000885023 0
1 0.000732433 0
0 0.644602 0.123491
0 0.627283 0.1205
0 0.611872 0.117845
0 0.59762 0.115389
0 0.585321 0.113268
0 0.571435 0.110872
0 0.558801 0.10869
0 0.545251 0.106355
0 0.532387 0.103517
0.000289921 0.51545 0.0984054
0.00743114 0.495537 0.0909285
0.03888 0.472053 0.0805829
0.10518 0.440543 0.065919
0.20235 0.401129 0.0466011
0.328695 0.353628 0.023621
0.486763 0.29778 0.00639353
0.658824 0.236576 0.00109865
0.82858 0.175341 3.0518e-05
0.943893 0.125826 0
0.990631 0.0913252 0
1 0.0714733 0
1 0.0612192 0
1 0.0538033 0
1 0.0461433 0
1 0.0391241 0
1 0.0325475 0
1 0.0253758 0
1 0.0190585 0
1 0.0170443 0
1 0.0149538 0
1 0.0129397 0
1 0.0109712 0
1 0.010605 0
0 0.805341 0.151263
0 0.788251 0.148226
0 0.773709 0.145739
0 0.758114 0.143053
0 0.74374 0.140581
0 0.729686 0.138155
0 0.717067 0.135988
0 0.703029 0.133593
0 0.688746 0.130709
3.0518e-05 0.672786 0.126055
0.0011902 0.652125 0.119051
0.0150454 0.62771 0.109346
0.0612802 0.596628 0.095491
0.152132 0.558587 0.0768292
0.27306 0.511315 0.052903
0.425803 0.453834 0.0262913
0.596155 0.392798 0.0087129
0.769207 0.329625 0.00157168
0.903487 0.271672 6.10361e-05
0.977371 0.225757 0
1 0.193973 0
1 0.176959 0
1 0.164675 0
1 0.152895 0
1 0.141268 0
1 0.128511 0
1 0.116884 0
1 0.105348 0
1 0.0971389 0
1 0.0886397 0
1 0.0811017 0
1 0.0731975 0
1 0.0666667 0
0 0.923796 0.179019
0 0.913878 0.176089
0 0.904356 0.173342
0 0.89575 0.170855
0 0.887846 0.168566
0 0.879149 0.166171
0 0.870771 0.163943
0 0.863127 0.161807
0 0.852811 0.159228
0 0.836103 0.154696
7.62951e-05 0.816968 0.148257
0.00389105 0.793042 0.139162
0.0299992 0.763165 0.126421
0.100786 0.725719 0.108965
0.217014 0.679744 0.0855726
0.36466 0.623087 0.0566567
0.531136 0.561425 0.0293736
0.705989 0.49778 0.0106813
0.854398 0.437629 0.00199893
0.952316 0.386053 4.57771e-05
0.995743 0.348165 0
0.999832 0.32813 0
1 0.314611 0
1 0.300801 0
1 0.288914 0
1 0.275532 0
1 0.262013 0
1 0.2495 0
1 0.237232 0
1 0.22562 0
1 0.213458 0
1 0.202716 0
1 0.192416 0
0 0.975723 0.203662
0 0.972122 0.201236
0 0.968444 0.198856
0 0.965103 0.196719
0 0.961547 0.194537
0 0.95848 0.192645
0 0.95491 0.190616
0 0.951156 0.188556
0 0.946441 0.186511
0 0.937224 0.182803
0 0.924346 0.176699
0.000427253 0.908186 0.168154
0.0123903 0.888441 0.156619
0.0577096 0.861784 0.140566
0.160037 0.826596 0.118761
0.301946 0.782315 0.0905623
0.465522 0.728756 0.0592966
0.64036 0.666926 0.0307622
0.799496 0.6065 0.0111696
0.918578 0.553475 0.00187686
0.983932 0.51252 0
0.998749 0.488334 0
0.999908 0.474815 0
1 0.461082 0
1 0.44828 0
1 0.43653 0
1 0.422507 0
1 0.409155 0
1 0.395605 0
1 0.38323 0
1 0.369589 0
1 0.3561 0
1 0.345159 0
0 0.995285 0.222858
0 0.994339 0.221088
0 0.993378 0.219394
0 0.992538 0.217914
0 0.991577 0.216342
0 0.990539 0.21474
0 0.989715 0.213413
0 0.988663 0.211872
0 0.986984 0.210254
0 0.983444 0.20737
0 0.978469 0.202258
0 0.971527 0.19443
0.00396735 0.96202 0.183734
0.0285649 0.949233 0.169207
0.110033 0.930404 0.149187
0.243061 0.902876 0.122515
0.402564 0.866133 0.0911574
0.575982 0.817105 0.0583047
0.74258 0.761669 0.0294194
0.878065 0.710063 0.0099794
0.96405 0.669184 0.00173953
0.995377 0.642741 0.000350958
0.999359 0.628122 0.000137331
1 0.616663 7.62951e-05
1 0.605234 4.57771e-05
1 0.592752 3.0518e-05
1 0.581949 1.5259e-05
1 0.568719 0
1 0.55555 0
1 0.542214 0
1 0.530068 0
1 0.516503 0
1 0.503151 0
0 1 0.234989
0 1 0.234134
0 1 0.23328
0 1 0.232425
0 1 0.231647
0 1 0.230823
0 1 0.229999
0 1 0.22916
0 0.99968 0.228168
0 0.998871 0.226413
0 0.997696 0.222095
0 0.996155 0.215488
0.000671397 0.993881 0.205951
0.012665 0.990356 0.192782
0.0697337 0.984344 0.174517
0.191409 0.973236 0.149722
0.344289 0.956039 0.119814
0.515984 0.925826 0.0865339
0.687587 0.886625 0.0534524
0.834791 0.843854 0.0258183
0.938338 0.804562 0.00840772
0.988602 0.778134 0.00259403
0.998032 0.764645 0.00138857
0.999954 0.75404 0.000961318
1 0.745129 0.000747692
1 0.735576 0.000534066
1 0.725124 0.000320439
1 0.713848 0.000198367
1 0.703197 0.000167849
1 0.691264 0.00015259
1 0.679164 0.000122072
1 0.668009 9.15541e-05
1 0.655009 7.62951e-05
0 1 0.240665
0 1 0.240436
0 1 0.240223
0 1 0.240009
0 1 0.23978
0 1 0.239567
0 1 0.239353
0 1 0.239124
0 1 0.238636
0 1 0.237919
0 1 0.234882
0 1 0.229435
1.5259e-05 1 0.221256
0.00665293 0.999939 0.209613
0.0413672 0.999527 0.19324
0.147784 0.997635 0.170291
0.294408 0.993469 0.141955
0.462303 0.983978 0.109819
0.635203 0.966522 0.0766461
0.792981 0.94078 0.045716
0.910094 0.910643 0.0217136
0.978347 0.884794 0.00860609
0.995987 0.873152 0.00534066
0.999817 0.865507 0.00418097
1 0.859113 0.00360113
1 0.852888 0.00308232
1 0.845731 0.00251774
1 0.837125 0.002121
1 0.827482 0.0019379
1 0.817945 0.00181582
1 0.807935 0.00164797
1 0.797803 0.00148013
1 0.788434 0.00138857
0 1 0.242008
0 1 0.242008
0 1 0.242008
0 1 0.242008
0 1 0.242008
0 1 0.242008
0 1 0.242008
0 1 0.242008
0 1 0.241901
0 1 0.241718
0 1 0.239872
0 1 0.235798
0 1 0.229038
0.00360113 1 0.218906
0.0241245 0.999985 0.204242
0.111284 0.999924 0.183444
0.250492 0.999786 0.156664
0.414816 0.999466 0.125719
0.587793 0.996674 0.0931716
0.750454 0.988739 0.0618906
0.881971 0.974701 0.035523
0.966445 0.953994 0.0187991
0.992767 0.944198 0.0138552
0.99942 0.940368 0.0124666
1 0.937453 0.0120241
1 0.934493 0.0116274
1 0.931487 0.0112154
1 0.926665 0.0106203
1 0.919539 0.00984207
1 0.912932 0.00909438
1 0.906203 0.00836194
1 0.898558 0.00759899
1 0.891112 0.00689708
0 1 0.242008
0 1 0.242008
0 1 0.242008
0 1 0.242008
0 1 0.242008
0 1 0.242008
0 1 0.242008
0 1 0.242008
0 1 0.241993
0 1 0.241962
0 1 0.240757
0 1 0.237522
0 1 0.231785
0.00146487 1 0.223026
0.012314 1 0.209796
0.0824292 1 0.1906
0.212284 1 0.165377
0.371679 1 0.135454
0.544686 0.999573 0.103151
0.71136 0.998062 0.0714733
0.851469 0.993652 0.0438849
0.952697 0.980667 0.024094
0.988983 0.970932 0.0176547
0.998886 0.967651 0.016022
1 0.96698 0.0158694
1 0.965881 0.0157473
1 0.964691 0.0156252
1 0.962707 0.0153811
1 0.959518 0.0149996
1 0.955947 0.0145571
1 0.952667 0.0141604
1 0.949065 0.0137026
1 0.945388 0.0132296
0 1 0.242008
0 1 0.242008
0 1 0.242008
0 1 0.242008
0 1 0.242008
0 1 0.242008
0 1 0.242008
0 1 0.242008
0 1 0.242008
0 1 0.242008
0 1 0.241245
0 1 0.238636
0 1 0.233539
0.000350958 1 0.225696
0.00546273 1 0.21387
0.0564584 1 0.196262
0.177646 1 0.172244
0.331762 1 0.143252
0.502342 1 0.111437
0.672389 0.999939 0.0793317
0.820462 0.998337 0.0505379
0.931716 0.989471 0.028748
0.981582 0.978805 0.0196689
0.997238 0.975265 0.0171359
1 0.974548 0.0167849
1 0.97438 0.0167697
1 0.974121 0.0167544
1 0.973465 0.0166781
1 0.972457 0.016556
1 0.971344 0.0164187
1 0.970184 0.0162814
1 0.968902 0.0161135
1 0.967666 0.0159609
0 1 0.242008
0 1 0.242008
0 1 0.242008
0 1 0.242008
0 1 0.242008
0 1 0.242008
0 1 0.242008
0 1 0.242008
0 1 0.242008
0 1 0.242008
0 1 0.241566
0 1 0.239506
0 1 0.23505
0 1 0.227817
0.00321965 1 0.216999
0.0383917 1 0.200977
0.145403 1 0.178592
0.293996 1 0.150317
0.463096 1 0.118761
0.633692 0.999985 0.086656
0.789517 0.998871 0.0566873
0.910063 0.99266 0.0329595
0.971496 0.981414 0.0215
0.994339 0.976638 0.0176394
0.99971 0.975387 0.0168612
1 0.975341 0.016846
1 0.975326 0.016846
1 0.975265 0.016846
1 0.975143 0.0168307
1 0.975006 0.0168154
1 0.974838 0.0168154
1 0.974655 0.0168002
1 0.974441 0.0167849
0 1 0.242008
0 1 0.242008
0 1 0.242008
0 1 0.242008
0 1 0.242008
0 1 0.242008
0 1 0.242008
0 1 0.242008
0 1 0.242008
0 1 0.242008
0 1 0.241825
0 1 0.24033
0 1 0.23653
0 1 0.229953
0.00244144 1 0.220035
0.0268864 1 0.205158
0.117281 1 0.184436
0.255177 1 0.157626
0.421805 1 0.126452
0.594354 1 0.0941176
0.756329 0.999268 0.0632486
0.886915 0.995209 0.0374762
0.959442 0.984039 0.0237125
0.990188 0.977691 0.0182956
0.999146 0.975464 0.016907
1 0.975341 0.016846
1 0.975341 0.016846
1 0.975341 0.016846
1 0.975341 0.016846
1 0.975341 0.016846
1 0.975341 0.016846
1 0.975341 0.016846
1 0.975341 0.016846
0 1 0.242008
0 1 0.242008
0 1 0.242008
0 1 0.242008
0 1 0.242008
0 1 0.242008
0 1 0.242008
0 1 0.242008
0 1 0.242008
0 1 0.242008
0 1 0.241978
0 1 0.241062
0 1 0.237934
0 1 0.232013
0.00166323 1 0.223072
0.0176394 1 0.209339
0.0936141 1 0.189639
0.220295 1 0.164279
0.380697 1 0.134112
0.554131 1 0.101717
0.721721 0.999588 0.0700389
0.860945 0.997406 0.0426032
0.946746 0.986862 0.0260777
0.985718 0.978836 0.0189975
0.998413 0.97557 0.016968
1 0.975341 0.016846
1 0.975341 0.016846
1 0.975341 0.016846
1 0.975341 0.016846
1 0.975341 0.016846
1 0.975341 0.016846
1 0.975341 0.016846
1 0.975341 0.016846
0 1 0.242008
0 1 0.242008
0 1 0.242008
0 1 0.242008
0 1 0.242008
0 1 0.242008
0 1 0.242008
0 1 0.242008
0 1 0.242008
