luts/varicam_official/BleachyBypass LoCon 33 E-E.cube
TITLE "Generated by Resolve"
LUT_3D_SIZE 9
0.0755322 0.0755322 0.0755322
0.0802472 0.0740673 0.0746929
0.105455 0.067277 0.0700999
0.15642 0.062562 0.063508
0.259525 0.062562 0.062562
0.438804 0.062562 0.062562
0.687892 0.062562 0.062562
0.903273 0.062562 0.062562
0.918135 0.062562 0.062562
0.0737621 0.0865187 0.0776226
0.0823377 0.0856794 0.0763714
0.110582 0.0795148 0.0715648
0.168765 0.0689403 0.0641337
0.280659 0.062562 0.062562
0.470192 0.062562 0.062562
0.723812 0.062562 0.062562
0.905577 0.062562 0.062562
0.918654 0.062562 0.062562
0.0674754 0.127855 0.0857862
0.0819257 0.127123 0.0844282
0.114244 0.122103 0.0805524
0.178912 0.108385 0.0724041
0.303319 0.0822309 0.06392
0.502358 0.0637064 0.062562
0.756603 0.062562 0.062562
0.907149 0.062562 0.062562
0.918654 0.062562 0.062562
0.0650797 0.21825 0.106081
0.0776226 0.220661 0.105562
0.112993 0.21857 0.102007
0.186648 0.206744 0.0920729
0.321813 0.177554 0.0730297
0.530678 0.130678 0.0628824
0.781842 0.0862135 0.062562
0.910384 0.0659037 0.062562
0.918868 0.0692607 0.0626688
0.062562 0.399237 0.143969
0.0673686 0.407889 0.144701
0.103258 0.409949 0.141558
0.187381 0.399649 0.130892
0.335973 0.372305 0.109224
0.551522 0.326802 0.0795148
0.794522 0.273762 0.0634012
0.918029 0.240482 0.062562
0.918868 0.241306 0.0626688
0.062562 0.683253 0.203296
0.0634012 0.695109 0.204654
0.0870375 0.698192 0.200778
0.183307 0.686244 0.188434
0.344839 0.657496 0.165728
0.567452 0.612421 0.133181
0.798444 0.564691 0.0993973
0.918135 0.542626 0.084123
0.918868 0.548974 0.0856794
0.062562 0.897841 0.271534
0.062562 0.899092 0.271855
0.0826581 0.898985 0.266224
0.190631 0.89836 0.251881
0.367086 0.897932 0.227192
0.591775 0.876173 0.1944
0.804822 0.834638 0.164477
0.917082 0.813611 0.154955
0.918868 0.818006 0.160082
0.0627756 0.918868 0.323186
0.0642405 0.918868 0.320745
0.111009 0.918868 0.312032
0.238834 0.918868 0.294774
0.428 0.918868 0.267918
0.649882 0.918868 0.235843
0.841016 0.918135 0.211353
0.918654 0.902968 0.209567
0.918868 0.902647 0.217304
0.0626688 0.918868 0.344427
0.0733349 0.918868 0.340307
0.145541 0.918868 0.329564
0.286122 0.918868 0.310231
0.478172 0.918868 0.28365
0.693049 0.918868 0.253895
0.86508 0.915938 0.234607
0.918868 0.904326 0.238315
0.918868 0.904219 0.246754
0.0754253 0.075639 0.0809796
0.0806592 0.0741741 0.0809796
0.106294 0.067277 0.0774243
0.158083 0.062562 0.0706188
0.261967 0.062562 0.0627756
0.442512 0.062562 0.062562
0.692226 0.062562 0.062562
0.903593 0.062562 0.062562
0.918349 0.062562 0.062562
0.0736553 0.0874647 0.0867323
0.0828565 0.0865187 0.0867323
0.111528 0.0800336 0.0831769
0.170443 0.0693675 0.0750134
0.284153 0.062562 0.0645457
0.474769 0.062562 0.062562
0.728908 0.062562 0.062562
0.906096 0.062562 0.062562
0.918654 0.062562 0.062562
0.0675822 0.129519 0.0995956
0.0826581 0.129 0.0992905
0.115511 0.123873 0.0960403
0.180789 0.109743 0.0872511
0.307042 0.0830701 0.0713512
0.508019 0.0637064 0.062562
0.762081 0.062562 0.062562
0.907668 0.062562 0.062562
0.918654 0.062562 0.062562
0.0652781 0.221607 0.122835
0.0778363 0.224201 0.122835
0.114046 0.222339 0.120211
0.189273 0.210193 0.110582
0.326162 0.180896 0.0906081
0.535943 0.133394 0.067277
0.786496 0.0874647 0.062562
0.91133 0.0674754 0.062562
0.918868 0.071458 0.0626688
0.062562 0.405097 0.163943
0.0674754 0.414282 0.165728
0.104524 0.415991 0.163317
0.190219 0.405722 0.153903
0.340719 0.378149 0.133089
0.55758 0.332372 0.101488
0.798642 0.279728 0.0731365
0.918349 0.24799 0.0651713
0.918868 0.249226 0.0664378
0.062562 0.690776 0.227298
0.0634012 0.703029 0.230274
0.0891432 0.705531 0.22771
0.186648 0.692729 0.216785
0.349981 0.664179 0.195544
0.573648 0.61944 0.164782
0.802655 0.571893 0.133288
0.918135 0.550988 0.118853
0.918868 0.557794 0.122835
0.062562 0.899611 0.301457
0.0627756 0.900862 0.303426
0.084535 0.900664 0.299306
0.195239 0.900664 0.287037
0.373358 0.900771 0.263981
0.598184 0.879728 0.233371
0.809049 0.839246 0.206332
0.917189 0.818936 0.199939
0.918868 0.823972 0.207065
0.0627756 0.918868 0.360189
0.0648661 0.918868 0.359548
0.11487 0.918868 0.352865
0.245319 0.918868 0.33753
0.435752 0.918868 0.312566
0.65771 0.918868 0.283436
0.845731 0.918029 0.261326
0.918761 0.904219 0.263355
0.918868 0.904005 0.272496
0.0627756 0.918868 0.385946
0.0758526 0.918868 0.384085
0.149615 0.918868 0.37496
0.291478 0.918868 0.357427
0.484443 0.918868 0.33341
0.698405 0.918868 0.305867
0.867704 0.916045 0.289006
0.918868 0.905684 0.296208
0.918868 0.905684 0.306615
0.075227 0.0761578 0.103471
0.0809796 0.0746929 0.10399
0.107134 0.0674754 0.100954
0.159976 0.062562 0.0933242
0.264729 0.062562 0.0778363
0.446113 0.062562 0.0644388
0.696239 0.062562 0.062562
0.903899 0.062562 0.062562
0.918441 0.062562 0.062562
0.0731365 0.088716 0.111208
0.0832837 0.0876783 0.111849
0.112367 0.0813916 0.109545
0.172427 0.0696727 0.102113
0.287663 0.062562 0.0857862
0.479332 0.062562 0.0669566
0.733852 0.062562 0.062562
0.906416 0.062562 0.062562
0.918654 0.062562 0.062562
0.067689 0.132036 0.127749
0.0833906 0.131411 0.128588
0.116335 0.125963 0.126177
0.183093 0.111849 0.118441
0.310765 0.0844282 0.0999161
0.512551 0.0638132 0.0741741
0.767285 0.062562 0.062974
0.908186 0.062562 0.062562
0.918654 0.062562 0.062562
0.0654917 0.225238 0.154849
0.0781567 0.228321 0.156313
0.115084 0.226673 0.155062
0.191775 0.214282 0.147311
0.330312 0.184451 0.129
0.54139 0.136538 0.0997024
0.791028 0.0891432 0.0737621
0.912383 0.0705119 0.0636149
0.918868 0.0736553 0.062974
0.062562 0.411627 0.202762
0.0674754 0.421302 0.206531
0.105989 0.422583 0.205798
0.192721 0.412161 0.197848
0.345144 0.384497 0.179324
0.56321 0.338445 0.149615
0.802762 0.286122 0.117067
0.918654 0.256443 0.101061
0.918868 0.25835 0.102525
0.062562 0.698497 0.273335
0.063508 0.711269 0.278904
0.0909133 0.712764 0.278294
0.190112 0.700053 0.270039
0.355138 0.671519 0.251347
0.578485 0.626184 0.223377
0.806271 0.579202 0.194919
0.918349 0.559915 0.184665
0.918868 0.566613 0.190738
0.062562 0.901183 0.35668
0.0628824 0.902541 0.361669
0.0865187 0.902647 0.359655
0.199832 0.902861 0.349889
0.379095 0.903899 0.329458
0.604669 0.883192 0.302083
0.813077 0.844266 0.27921
0.917082 0.82501 0.276417
0.918868 0.83035 0.285496
0.0628824 0.918868 0.425772
0.0653849 0.918868 0.427893
0.118639 0.918868 0.42385
0.251026 0.918868 0.410574
0.443229 0.918868 0.388724
0.663966 0.918868 0.362737
0.8495 0.918029 0.34432
0.918761 0.90631 0.349889
0.918868 0.906203 0.360616
0.0627756 0.918868 0.457435
0.0783551 0.918868 0.457755
0.154009 0.918868 0.451575
0.297246 0.918868 0.437461
0.49102 0.918868 0.414816
0.703441 0.918868 0.390784
0.87042 0.916457 0.377081
0.918868 0.907668 0.3879
0.918868 0.907774 0.399023
0.0746014 0.0772106 0.149294
0.0808728 0.075639 0.15108
0.107652 0.0682078 0.149508
0.161852 0.0626688 0.143023
0.267491 0.062562 0.127642
0.450019 0.062562 0.09897
0.700664 0.062562 0.0715648
0.904005 0.062562 0.0640269
0.918654 0.062562 0.0630808
0.0727092 0.0910201 0.162478
0.0836957 0.0897688 0.164675
0.113207 0.0831769 0.163638
0.174304 0.0708324 0.157259
0.291371 0.0628824 0.141558
0.484443 0.062562 0.113313
0.738582 0.062562 0.0823377
0.906722 0.062562 0.0692607
0.918761 0.062562 0.0661173
0.067689 0.13518 0.183413
0.0838026 0.134646 0.18613
0.117601 0.129107 0.185611
0.185183 0.114778 0.180591
0.314687 0.086305 0.164675
0.517494 0.0638132 0.136324
0.772183 0.062562 0.101793
0.908721 0.062562 0.0818189
0.918654 0.062562 0.0784619
0.0654917 0.230488 0.218143
0.0784619 0.233783 0.222965
0.116136 0.232029 0.224308
0.194614 0.219501 0.218982
0.334646 0.18938 0.203082
0.546624 0.141039 0.17525
0.794736 0.0914321 0.141878
0.913527 0.0739605 0.121675
0.918868 0.076997 0.121782
0.0626688 0.419608 0.275257
0.0682078 0.429374 0.281895
0.107027 0.430121 0.28365
0.195544 0.42002 0.27921
0.349477 0.391501 0.263462
0.568734 0.345449 0.23769
0.806882 0.29395 0.208728
0.918761 0.266224 0.194705
0.918868 0.268345 0.198276
0.062562 0.707881 0.356893
0.0634012 0.720516 0.36582
0.0925917 0.720943 0.368261
0.193561 0.708186 0.362631
0.360082 0.679454 0.346685
0.583841 0.634119 0.321706
0.809766 0.588174 0.297856
0.918441 0.570108 0.292714
0.918868 0.577249 0.300435
0.062562 0.903166 0.451667
0.062974 0.904433 0.459403
0.0885023 0.904952 0.461051
0.20444 0.90547 0.454047
0.385229 0.907881 0.436606
0.610834 0.88716 0.411948
0.816434 0.849607 0.392126
0.91751 0.832334 0.39408
0.918868 0.837461 0.404791
0.0626688 0.918868 0.530266
0.0662242 0.918868 0.536034
0.122194 0.918868 0.534905
0.257404 0.918868 0.524407
0.45034 0.918868 0.505653
0.670558 0.918868 0.482094
0.852842 0.918441 0.467002
0.918868 0.909239 0.475929
0.918868 0.909133 0.487633
0.0627756 0.918868 0.569589
0.080766 0.918868 0.571893
0.158816 0.918868 0.568093
0.303639 0.918868 0.55555
0.497826 0.918868 0.53521
0.708507 0.918868 0.513893
0.872831 0.917708 0.503395
0.918868 0.910384 0.515953
0.918868 0.910597 0.527794
0.0737621 0.0796216 0.240162
0.080766 0.0777295 0.243153
0.108186 0.0699931 0.243259
0.163424 0.0632944 0.238621
0.270359 0.062562 0.225437
0.454139 0.062562 0.200046
0.704906 0.062562 0.163119
0.9037 0.062562 0.127749
0.918654 0.062562 0.114977
0.0715648 0.0943618 0.259739
0.0836957 0.0930037 0.264622
0.114046 0.0864118 0.266331
0.175982 0.0730297 0.262501
0.294774 0.0636149 0.249134
0.489326 0.062562 0.222965
0.743221 0.062562 0.187289
0.906828 0.062562 0.157046
0.918761 0.062562 0.149294
0.0673686 0.139879 0.289311
0.0839094 0.139361 0.295186
0.118227 0.133715 0.297551
0.187182 0.118853 0.294255
0.31809 0.0891432 0.280247
0.522545 0.0640269 0.254856
0.776638 0.062562 0.222431
0.909133 0.062562 0.197955
0.918547 0.062562 0.193881
0.0653849 0.237278 0.332265
0.0786755 0.240787 0.3402
0.116976 0.238926 0.344427
0.197116 0.226261 0.342473
0.338964 0.195865 0.329671
0.551629 0.146471 0.304494
0.798749 0.0950942 0.274937
0.914687 0.0783551 0.256657
0.918868 0.0806592 0.25803
0.062562 0.429267 0.400061
0.0684215 0.438804 0.41004
0.10808 0.439933 0.415137
0.198169 0.429374 0.413016
0.353796 0.400366 0.400061
0.573648 0.354101 0.376761
0.810803 0.303532 0.351019
0.918761 0.277562 0.341543
0.918868 0.280034 0.346685
0.062562 0.719036 0.491951
0.0631876 0.730617 0.503807
0.0941634 0.730831 0.508949
0.196902 0.717754 0.506691
0.365072 0.688411 0.4934
0.589197 0.643488 0.470512
0.812985 0.598505 0.449714
0.918654 0.581674 0.44683
0.918868 0.589502 0.456001
0.062562 0.90547 0.595071
0.0628824 0.906722 0.605615
0.0903944 0.907256 0.610086
0.209567 0.908293 0.604669
0.391196 0.912062 0.588998
0.617197 0.890929 0.567239
0.819883 0.856092 0.548867
0.917708 0.840711 0.552895
0.918868 0.845106 0.563317
0.0627756 0.918868 0.681102
0.0673686 0.918868 0.689128
0.126589 0.918868 0.689235
0.264302 0.918868 0.680583
0.457954 0.918868 0.661738
0.677256 0.918868 0.638758
0.855665 0.918868 0.625254
0.918761 0.912902 0.634119
0.918868 0.912902 0.645243
0.0626688 0.918868 0.721798
0.0836957 0.918868 0.725948
0.16437 0.918868 0.722972
0.310018 0.918868 0.710964
0.504829 0.918868 0.691493
0.713939 0.918868 0.670237
0.875135 0.918761 0.65951
0.918868 0.913848 0.670344
0.918868 0.914046 0.680888
0.0724956 0.0831769 0.395941
0.0806592 0.0810864 0.400366
0.108492 0.073228 0.401297
0.164889 0.0640269 0.398001
0.273548 0.062562 0.386145
0.458366 0.062562 0.361669
0.709468 0.062562 0.32723
0.9037 0.062562 0.294255
0.918547 0.062562 0.28365
0.0697795 0.0997024 0.421302
0.0833906 0.0978256 0.428321
0.114458 0.0912337 0.431617
0.177234 0.076997 0.429267
0.298268 0.0647593 0.417578
0.494224 0.062562 0.393149
0.748363 0.062562 0.359335
0.906828 0.062562 0.33135
0.918654 0.062562 0.324788
0.0669566 0.146365 0.456718
0.0836957 0.145632 0.465095
0.118853 0.139986 0.469352
0.189166 0.1243 0.46743
0.321813 0.0936294 0.455695
0.527901 0.0651713 0.432135
0.781109 0.062562 0.400565
0.909865 0.062562 0.378149
0.918547 0.062562 0.375387
0.0650797 0.246036 0.506584
0.0782635 0.249638 0.516579
0.117601 0.247684 0.522652
0.199527 0.234501 0.521614
0.343496 0.203922 0.510079
0.557366 0.15349 0.486992
0.802457 0.10222 0.458473
0.916152 0.0838026 0.44271
0.918868 0.0855726 0.443946
0.062562 0.440864 0.579309
0.0687419 0.449409 0.590845
0.108919 0.451362 0.597757
0.201099 0.440238 0.597131
0.358373 0.411002 0.58497
0.579416 0.364858 0.562356
0.814969 0.315435 0.537179
0.918868 0.290547 0.528115
0.918868 0.29395 0.53315
0.062562 0.731579 0.675669
0.0628824 0.741772 0.688197
0.0960403 0.741985 0.694286
0.200565 0.728908 0.692226
0.370596 0.698711 0.678218
0.595071 0.654734 0.656107
0.816434 0.610407 0.634638
0.918868 0.594659 0.631128
0.918868 0.603067 0.639261
0.062562 0.908095 0.7794
0.0628824 0.909133 0.789685
0.093431 0.909972 0.792157
0.214694 0.911543 0.785672
0.397894 0.916243 0.769635
0.623362 0.894484 0.744762
0.823758 0.863416 0.72488
0.917922 0.84918 0.725841
0.918868 0.853681 0.734569
0.0627756 0.918868 0.844572
0.0688334 0.918868 0.848875
0.131624 0.918868 0.848035
0.271748 0.918868 0.843839
0.465309 0.918868 0.828046
0.684184 0.918868 0.803479
0.858701 0.918868 0.786908
0.918547 0.916457 0.792981
0.918868 0.916457 0.801526
0.0627756 0.918868 0.868009
0.0866255 0.918868 0.869688
0.171267 0.918868 0.869474
0.317769 0.918868 0.867185
0.512963 0.918868 0.850431
0.71989 0.918868 0.827314
0.877852 0.918868 0.81413
0.918868 0.917189 0.819669
0.918868 0.917403 0.827314
0.0706188 0.0879835 0.605615
0.0800336 0.085481 0.610834
0.108492 0.0773175 0.611673
0.166354 0.0652781 0.60827
0.277562 0.062562 0.59527
0.46331 0.062562 0.570535
0.714351 0.062562 0.535119
0.903273 0.062562 0.502571
0.918654 0.062562 0.4907
0.0675822 0.106188 0.63267
0.0827497 0.104097 0.639368
0.114977 0.097612 0.642145
0.178698 0.0826581 0.639887
0.302083 0.0664378 0.627527
0.499992 0.062562 0.601907
0.753414 0.062562 0.567346
0.906935 0.062562 0.537179
0.918654 0.062562 0.530068
0.066743 0.154009 0.667689
0.0834821 0.153277 0.676081
0.119265 0.147311 0.680476
0.191882 0.13109 0.677791
0.326162 0.0990768 0.663966
0.533776 0.0682078 0.637827
0.785763 0.062562 0.604349
0.910597 0.062562 0.58024
0.918547 0.062562 0.57673
0.0643473 0.256443 0.715953
0.0781567 0.26038 0.725841
0.118441 0.257939 0.73019
0.202243 0.243977 0.727321
0.348653 0.21239 0.712871
0.563638 0.161746 0.687282
0.806775 0.111528 0.656214
0.917815 0.090074 0.636591
0.918868 0.0912337 0.636072
0.062562 0.453315 0.784619
0.0689403 0.462287 0.794522
0.10985 0.463203 0.799161
0.204547 0.452293 0.795651
0.363699 0.422477 0.779828
0.585077 0.37644 0.752392
0.818204 0.327977 0.723598
0.918868 0.303853 0.710002
0.918868 0.308415 0.713512
0.062562 0.744869 0.86833
0.0626688 0.754345 0.875242
0.0986648 0.754025 0.877119
0.204868 0.739925 0.872511
0.377188 0.709895 0.857664
0.601373 0.666423 0.831495
0.819883 0.622202 0.804105
0.918761 0.60827 0.794324
0.918868 0.616464 0.799573
0.062562 0.910384 0.913848
0.0626688 0.911543 0.914885
0.098024 0.912581 0.915419
0.220874 0.914992 0.913741
0.405509 0.918547 0.904738
0.630106 0.89752 0.889982
0.827939 0.870115 0.870115
0.918029 0.856718 0.863416
0.918868 0.861524 0.867277
0.0626688 0.918868 0.918135
0.0715648 0.918868 0.918761
0.137896 0.918868 0.918868
0.280247 0.918868 0.918868
0.474556 0.918868 0.918868
0.691188 0.918868 0.913634
0.86247 0.918868 0.902754
0.918349 0.918654 0.900664
0.918868 0.918761 0.902861
0.0627756 0.918868 0.918868
0.0902876 0.918868 0.918868
0.1785 0.918868 0.918868
0.326909 0.918868 0.918868
0.521935 0.918868 0.918868
0.727001 0.918868 0.917922
0.881193 0.918868 0.909651
0.918868 0.918868 0.908293
0.918868 0.918868 0.910292
0.0684215 0.0928969 0.809659
0.0800336 0.089662 0.812345
0.109545 0.0816052 0.811826
0.168139 0.0687419 0.805539
0.282002 0.0627756 0.790204
0.469566 0.062562 0.760494
0.720516 0.062562 0.720195
0.90338 0.062562 0.681926
0.918547 0.062562 0.667475
0.066743 0.112779 0.830137
0.0827497 0.110475 0.83328
0.115923 0.103685 0.832959
0.18143 0.0880903 0.826474
0.307149 0.0679026 0.808743
0.506371 0.062562 0.7776
0.760388 0.062562 0.737652
0.907454 0.062562 0.702419
0.918654 0.062562 0.692317
0.0671702 0.161334 0.854002
0.0833906 0.160281 0.857755
0.120317 0.153903 0.856825
0.195758 0.137377 0.849073
0.331655 0.104616 0.830564
0.540673 0.0717632 0.799268
0.791531 0.062562 0.759426
0.912062 0.062562 0.727108
0.918654 0.062562 0.719036
0.0636149 0.266545 0.885588
0.0781567 0.270466 0.889876
0.120424 0.267384 0.89041
0.206119 0.252613 0.882551
0.35462 0.220142 0.861738
0.571283 0.170443 0.828153
0.812345 0.120104 0.789471
0.918441 0.0965591 0.761975
0.918868 0.0972 0.758053
0.062562 0.465629 0.915938
0.0694743 0.474769 0.916243
0.111742 0.475624 0.915618
0.209567 0.463203 0.911955
0.370275 0.43299 0.901701
0.593011 0.387701 0.871046
0.82208 0.339681 0.833494
0.918868 0.317021 0.81059
0.918868 0.32224 0.808942
0.062562 0.757839 0.918868
0.0626688 0.766018 0.918868
0.102113 0.764416 0.918868
0.2103 0.749813 0.918868
0.384817 0.720302 0.918868
0.609659 0.676509 0.912169
0.82533 0.633295 0.88455
0.918868 0.620493 0.867079
0.918868 0.627726 0.867491
0.062562 0.912688 0.918761
0.0626688 0.913954 0.918868
0.103578 0.915312 0.918868
0.228626 0.918349 0.918868
0.415564 0.918349 0.918868
0.638651 0.899931 0.918868
0.833692 0.875547 0.91635
0.918242 0.862364 0.908186
0.918868 0.867491 0.908614
0.0627756 0.918868 0.918868
0.0746929 0.918868 0.918868
0.145541 0.918868 0.918868
0.290547 0.918868 0.918868
0.486137 0.918868 0.918868
0.699947 0.918868 0.918868
0.867185 0.918868 0.918868
0.918761 0.918868 0.918868
0.918868 0.918868 0.918868
0.0646525 0.918868 0.918868
0.0962539 0.918868 0.918868
0.187915 0.918868 0.918868
0.338033 0.918868 0.918868
0.533257 0.918868 0.918868
0.735698 0.918868 0.918868
0.885908 0.918868 0.918868
0.918868 0.918868 0.918868
0.918868 0.918868 0.918868
0.0680095 0.0944686 0.890196
0.080354 0.0912337 0.889876
0.11017 0.0838026 0.886854
0.169284 0.0705119 0.878798
0.284886 0.0628824 0.860487
0.473808 0.062562 0.828672
0.72488 0.062562 0.786908
0.90338 0.062562 0.744869
0.918761 0.062562 0.728389
0.0668498 0.115511 0.898985
0.0830701 0.112993 0.897841
0.116548 0.105989 0.894377
0.183093 0.0899672 0.885176
0.310018 0.0682078 0.86508
0.509987 0.062562 0.831495
0.763684 0.062562 0.787732
0.908095 0.062562 0.747753
0.918761 0.062562 0.734874
0.0675822 0.164157 0.909346
0.0838026 0.163012 0.909346
0.121569 0.156619 0.907362
0.197848 0.139681 0.896788
0.335058 0.10724 0.874296
0.544717 0.0734417 0.8383
0.795148 0.0626688 0.79411
0.913115 0.062562 0.757321
0.918654 0.062562 0.748363
0.0632944 0.271107 0.917296
0.0787823 0.274617 0.917815
0.121889 0.271321 0.917403
0.208316 0.256229 0.912902
0.358373 0.223377 0.891554
0.575296 0.174105 0.8542
0.81622 0.123873 0.812146
0.918547 0.0992905 0.781216
0.918868 0.0997024 0.775692
0.062562 0.471153 0.918868
0.0699931 0.480186 0.918868
0.113405 0.480507 0.918761
0.21239 0.46743 0.918868
0.374105 0.437659 0.916243
0.597025 0.391913 0.885908
0.824384 0.344533 0.845624
0.918868 0.322774 0.82031
0.918868 0.328923 0.818006
0.062562 0.76379 0.918761
0.0637064 0.771542 0.918868
0.104311 0.769421 0.918868
0.213748 0.754131 0.918868
0.389349 0.724346 0.918761
0.614115 0.680888 0.915938
0.827939 0.638025 0.889677
0.918868 0.625574 0.871046
0.918868 0.63299 0.870848
0.062562 0.914153 0.918761
0.062974 0.915312 0.918868
0.107027 0.917082 0.918868
0.233677 0.918868 0.918868
0.420447 0.917922 0.918868
0.643183 0.900862 0.918761
0.836835 0.87744 0.917403
0.918441 0.86508 0.909758
0.918868 0.870207 0.910185
0.0627756 0.918868 0.918868
0.0768902 0.918868 0.918868
0.150561 0.918868 0.918868
0.296101 0.918868 0.918868
0.492576 0.918868 0.918868
0.704372 0.918868 0.918868
0.869474 0.918868 0.918868
0.918868 0.918868 0.918868
0.918868 0.918868 0.918868
0.0660105 0.918868 0.918868
0.100435 0.918868 0.918868
0.193973 0.918868 0.918868
0.344839 0.918868 0.918868
0.539956 0.918868 0.918868
0.74023 0.918868 0.918868
0.887892 0.918868 0.918868
0.918868 0.918868 0.918868
0.918868 0.918868 0.918868
