luts/varicam_official/BleachyBypass LoCon 33 E-E.cube
TITLE "Generated by Resolve"
LUT_3D_SIZE 33
0.0755322 0.0755322 0.0755322
0.0755322 0.0755322 0.0755322
0.0758526 0.0754253 0.0754253
0.0771038 0.0750134 0.075227
0.0802472 0.0740673 0.0746929
0.0846418 0.0729229 0.0737621
0.0901808 0.0712444 0.0728161
0.0970932 0.0693675 0.0715648
0.105455 0.067277 0.0700999
0.11519 0.0654917 0.0683146
0.126802 0.0638132 0.0665446
0.140307 0.0627756 0.0651713
0.15642 0.062562 0.063508
0.174929 0.062562 0.062562
0.199207 0.062562 0.062562
0.225956 0.062562 0.062562
0.259525 0.062562 0.062562
0.295598 0.062562 0.062562
0.338964 0.062562 0.062562
0.386252 0.062562 0.062562
0.438804 0.062562 0.062562
0.495872 0.062562 0.062562
0.556191 0.062562 0.062562
0.621561 0.062562 0.062562
0.687892 0.062562 0.062562
0.754849 0.062562 0.062562
0.820935 0.062562 0.062562
0.865614 0.062562 0.062562
0.903273 0.062562 0.062562
0.911223 0.062562 0.062562
0.917082 0.062562 0.062562
0.918135 0.062562 0.062562
0.918135 0.062562 0.062562
0.0755322 0.0755322 0.0755322
0.0755322 0.0755322 0.0755322
0.0758526 0.0754253 0.0755322
0.0773175 0.0750134 0.075227
0.0811933 0.0739605 0.0746014
0.0857862 0.0727092 0.0735485
0.0915389 0.0712444 0.0727092
0.0986648 0.0694743 0.071458
0.107134 0.0675822 0.0698863
0.117067 0.0659037 0.0682078
0.129 0.0645457 0.0665446
0.142702 0.0634012 0.0649729
0.159655 0.0630808 0.0636149
0.178912 0.0627756 0.062562
0.203601 0.062562 0.062562
0.230488 0.062562 0.062562
0.264622 0.062562 0.062562
0.301457 0.062562 0.062562
0.345556 0.062562 0.062562
0.393362 0.062562 0.062562
0.446525 0.062562 0.062562
0.504417 0.062562 0.062562
0.565438 0.062562 0.062562
0.630518 0.062562 0.062562
0.697169 0.062562 0.062562
0.764096 0.062562 0.062562
0.827939 0.062562 0.062562
0.870314 0.062562 0.062562
0.903899 0.062562 0.062562
0.912169 0.062562 0.062562
0.917708 0.062562 0.062562
0.918349 0.062562 0.062562
0.918349 0.062562 0.062562
0.0753338 0.0766918 0.0757458
0.0753338 0.0767987 0.0757458
0.0758526 0.0766918 0.0757458
0.0775311 0.0761578 0.0754253
0.0819257 0.0750134 0.0746929
0.0868391 0.0737621 0.0738689
0.0928054 0.0724041 0.0728161
0.100023 0.0708324 0.0715648
0.108492 0.0690471 0.0700999
0.119066 0.0673686 0.0684215
0.130983 0.0660105 0.0665446
0.145541 0.0650797 0.0649729
0.162905 0.0644388 0.0637064
0.182681 0.0636149 0.062562
0.207797 0.0628824 0.0626688
0.235325 0.062562 0.062562
0.269932 0.062562 0.062562
0.306935 0.062562 0.062562
0.351843 0.062562 0.062562
0.400565 0.062562 0.062562
0.454246 0.062562 0.062562
0.512352 0.062562 0.062562
0.57406 0.062562 0.062562
0.639673 0.062562 0.062562
0.705959 0.062562 0.062562
0.773129 0.062562 0.062562
0.834852 0.062562 0.062562
0.874708 0.062562 0.062562
0.904524 0.062562 0.062562
0.913115 0.062562 0.062562
0.918242 0.062562 0.062562
0.918654 0.062562 0.062562
0.918654 0.062562 0.062562
0.0749065 0.0806592 0.0766918
0.0750134 0.080766 0.0766918
0.0757458 0.080766 0.076585
0.0777295 0.080354 0.0762646
0.0821241 0.0793011 0.0753338
0.0874647 0.0780499 0.0743877
0.0936294 0.076585 0.073228
0.100954 0.0750134 0.0721904
0.109651 0.0731365 0.0705119
0.120317 0.0713512 0.0687419
0.132982 0.0696727 0.0668498
0.148043 0.0680095 0.0653849
0.165728 0.066331 0.0638132
0.186557 0.0648661 0.0627756
0.211872 0.0631876 0.062562
0.239963 0.062562 0.062562
0.275257 0.062562 0.062562
0.31342 0.062562 0.062562
0.358694 0.062562 0.062562
0.407156 0.062562 0.062562
0.461967 0.062562 0.062562
0.520897 0.062562 0.062562
0.583017 0.062562 0.062562
0.64802 0.062562 0.062562
0.714992 0.062562 0.062562
0.781949 0.062562 0.062562
0.841337 0.062562 0.062562
0.87837 0.062562 0.062562
0.905058 0.062562 0.062562
0.913848 0.062562 0.062562
0.918654 0.062562 0.062562
0.918654 0.062562 0.062562
0.918654 0.062562 0.062562
0.0737621 0.0865187 0.0776226
0.0741741 0.0868391 0.0777295
0.075227 0.0868391 0.0776226
0.0774243 0.0866255 0.0772106
0.0823377 0.0856794 0.0763714
0.0878767 0.084535 0.0754253
0.0943618 0.0831769 0.0743877
0.102007 0.0814984 0.0731365
0.110582 0.0795148 0.0715648
0.121569 0.0772106 0.0696727
0.134447 0.0744945 0.0673686
0.150134 0.07187 0.0655985
0.168765 0.0689403 0.0641337
0.190005 0.066331 0.0630808
0.215946 0.0638132 0.0627756
0.244694 0.062562 0.062562
0.280659 0.062562 0.062562
0.319478 0.062562 0.062562
0.365286 0.062562 0.062562
0.414816 0.062562 0.062562
0.470192 0.062562 0.062562
0.528832 0.062562 0.062562
0.591058 0.062562 0.062562
0.657176 0.062562 0.062562
0.723812 0.062562 0.062562
0.790097 0.062562 0.062562
0.84741 0.062562 0.062562
0.881819 0.062562 0.062562
0.905577 0.062562 0.062562
0.914366 0.062562 0.062562
0.918654 0.062562 0.062562
0.918654 0.062562 0.062562
0.918654 0.062562 0.062562
0.0726024 0.0944686 0.0790875
0.073228 0.0948959 0.0790875
0.0747997 0.0950027 0.078996
0.0774243 0.0946822 0.0785687
0.0823377 0.093843 0.0777295
0.0880903 0.0926986 0.0767987
0.0948959 0.0914321 0.0757458
0.102632 0.0897688 0.0744945
0.111635 0.0876783 0.0731365
0.122621 0.0853742 0.0713512
0.13611 0.0824445 0.0691539
0.152331 0.0790875 0.0669566
0.171267 0.0753338 0.0654917
0.193561 0.0716716 0.0642405
0.220447 0.0682078 0.0637064
0.249958 0.0650797 0.0628824
0.286625 0.063508 0.062562
0.326696 0.062562 0.062562
0.372824 0.062562 0.062562
0.422477 0.062562 0.062562
0.478279 0.062562 0.062562
0.537484 0.062562 0.062562
0.600519 0.062562 0.062562
0.665782 0.062562 0.062562
0.732296 0.062562 0.062562
0.798337 0.062562 0.062562
0.853788 0.062562 0.062562
0.885176 0.062562 0.062562
0.905989 0.062562 0.062562
0.914687 0.062562 0.062562
0.918654 0.062562 0.062562
0.918654 0.062562 0.062562
0.918654 0.062562 0.062562
0.0711376 0.103471 0.0804608
0.0721904 0.103792 0.0804608
0.0742809 0.103792 0.0802472
0.0775311 0.103578 0.0798199
0.0825513 0.102632 0.0791943
0.0884108 0.101595 0.0782635
0.0953078 0.100328 0.0771038
0.103365 0.0987564 0.0759594
0.112474 0.0967727 0.0746929
0.123659 0.0942702 0.0731365
0.137484 0.0911269 0.0711376
0.154528 0.0873579 0.0690471
0.173999 0.0831769 0.0670634
0.196704 0.0786755 0.0655985
0.224414 0.0738689 0.0645457
0.254963 0.0690471 0.0632944
0.292302 0.0654917 0.0626688
0.332891 0.0628824 0.062562
0.379522 0.062562 0.062562
0.430442 0.062562 0.062562
0.486778 0.062562 0.062562
0.545571 0.062562 0.062562
0.608911 0.062562 0.062562
0.674281 0.062562 0.062562
0.740856 0.062562 0.062562
0.805951 0.062562 0.062562
0.859648 0.062562 0.062562
0.887785 0.062562 0.062562
0.906416 0.062562 0.062562
0.914992 0.062562 0.062562
0.918654 0.062562 0.062562
0.918654 0.062562 0.062562
0.918654 0.062562 0.062562
0.0694743 0.114672 0.0829633
0.0709392 0.11519 0.0829633
0.0737621 0.11519 0.0827497
0.0775311 0.11487 0.0822309
0.0824445 0.114137 0.0814984
0.088304 0.113405 0.0806592
0.0956283 0.112154 0.0798199
0.10399 0.110475 0.0787823
0.113405 0.108492 0.0775311
0.124819 0.106081 0.075639
0.13904 0.102846 0.0736553
0.155993 0.0990768 0.0715648
0.176608 0.0945754 0.0694743
0.200259 0.0895552 0.0674754
0.228428 0.0835889 0.0659037
0.259739 0.0774243 0.0641337
0.297749 0.0720836 0.0630808
0.338857 0.067689 0.062562
0.387076 0.0653849 0.062562
0.438285 0.0634012 0.062562
0.494835 0.0626688 0.062562
0.55407 0.062562 0.062562
0.618265 0.062562 0.062562
0.68336 0.062562 0.062562
0.749096 0.062562 0.062562
0.813916 0.062562 0.062562
0.865293 0.062562 0.062562
0.890715 0.062562 0.062562
0.906722 0.062562 0.062562
0.915206 0.062562 0.062562
0.918654 0.062562 0.062562
0.918654 0.062562 0.062562
0.918654 0.062562 0.062562
0.0674754 0.127855 0.0857862
0.0693675 0.128267 0.085893
0.0730297 0.128054 0.0855726
0.0771038 0.127749 0.0850538
0.0819257 0.127123 0.0844282
0.0878767 0.126497 0.0838026
0.0954147 0.125231 0.0828565
0.104311 0.123873 0.0818189
0.114244 0.122103 0.0805524
0.126177 0.119692 0.078996
0.140414 0.116762 0.076997
0.157671 0.1131 0.0746014
0.178912 0.108385 0.0724041
0.203189 0.102632 0.0696727
0.231922 0.0956283 0.0671702
0.264408 0.0888228 0.0653849
0.303319 0.0822309 0.06392
0.345251 0.0760662 0.0627756
0.393469 0.0708324 0.062562
0.445396 0.0665446 0.062562
0.502358 0.0637064 0.062562
0.562783 0.062562 0.062562
0.626078 0.062562 0.062562
0.69099 0.062562 0.062562
0.756603 0.062562 0.062562
0.821973 0.062562 0.062562
0.870848 0.062562 0.062562
0.893019 0.062562 0.062562
0.907149 0.062562 0.062562
0.915419 0.062562 0.062562
0.918654 0.062562 0.062562
0.918654 0.062562 0.062562
0.918654 0.062562 0.062562
0.066331 0.143648 0.0893416
0.0683146 0.144488 0.0894484
0.0724956 0.144381 0.0891432
0.0766918 0.144167 0.0888228
0.0817121 0.143862 0.0884108
0.0877699 0.143435 0.0878767
0.0953078 0.142504 0.0869459
0.104097 0.141146 0.085893
0.114565 0.139361 0.084535
0.12723 0.137057 0.0828565
0.141772 0.134554 0.0808728
0.159548 0.130785 0.0785687
0.181003 0.125963 0.075639
0.205798 0.120104 0.0727092
0.235538 0.112886 0.0695659
0.268986 0.105257 0.0668498
0.308309 0.0973983 0.0649729
0.350912 0.0892348 0.0632944
0.400153 0.0816052 0.0627756
0.452903 0.0746929 0.062562
0.510185 0.0693675 0.062562
0.570535 0.0657054 0.062562
0.633814 0.063508 0.062562
0.699428 0.062562 0.062562
0.76463 0.062562 0.062562
0.827832 0.062562 0.062562
0.874601 0.062562 0.062562
0.894697 0.062562 0.062562
0.907668 0.062562 0.062562
0.915724 0.062562 0.062562
0.918654 0.062562 0.062562
0.918654 0.062562 0.062562
0.918654 0.062562 0.062562
0.0658122 0.163851 0.0939498
0.0679026 0.164477 0.0940566
0.0717632 0.164584 0.093843
0.0758526 0.164675 0.0936294
0.0808728 0.164584 0.0931106
0.0868391 0.164157 0.0924849
0.0944686 0.163424 0.0917525
0.103685 0.162387 0.0906081
0.114778 0.160922 0.0893416
0.128054 0.158816 0.0876783
0.143023 0.1561 0.0857862
0.161227 0.152331 0.0830701
0.182895 0.147738 0.0798199
0.20853 0.14229 0.0766918
0.238834 0.135286 0.0731365
0.273121 0.127321 0.0695659
0.313313 0.11812 0.0664378
0.35668 0.108919 0.0642405
0.406439 0.0991836 0.0630808
0.459403 0.0898756 0.062562
0.516991 0.0817121 0.062562
0.577874 0.0741741 0.062562
0.641947 0.0682078 0.0626688
0.707027 0.0648661 0.062562
0.771221 0.0634012 0.062562
0.831708 0.062562 0.062562
0.875761 0.062562 0.062562
0.895735 0.062562 0.062562
0.908186 0.062562 0.062562
0.916152 0.062562 0.062562
0.918868 0.062562 0.062562
0.918868 0.062562 0.062562
0.918761 0.062562 0.062562
0.0653849 0.187915 0.0993973
0.067277 0.188434 0.0992905
0.0705119 0.188952 0.0991836
0.0740673 0.18938 0.09897
0.0795148 0.18938 0.098558
0.0857862 0.18938 0.098024
0.0935378 0.189059 0.0973983
0.102632 0.188113 0.0963607
0.114137 0.186648 0.0950027
0.128054 0.184665 0.093431
0.143862 0.182162 0.0912337
0.162905 0.178698 0.0886091
0.184771 0.174304 0.0853742
0.210727 0.168872 0.0814984
0.241505 0.162066 0.0775311
0.277058 0.154116 0.0731365
0.317983 0.144381 0.0690471
0.361776 0.13402 0.0654917
0.412055 0.122927 0.06392
0.465736 0.111849 0.0626688
0.524407 0.100954 0.0626688
0.585077 0.0901808 0.062562
0.648646 0.0805524 0.062562
0.714046 0.0739605 0.0626688
0.776852 0.0695659 0.062562
0.834531 0.0662242 0.062562
0.876173 0.0638132 0.062562
0.896788 0.062562 0.062562
0.909133 0.062562 0.062562
0.916671 0.0631876 0.062562
0.918868 0.0637064 0.062562
0.918868 0.0638132 0.062562
0.918868 0.0637064 0.062562
0.0650797 0.21825 0.106081
0.0666361 0.219089 0.106081
0.0689403 0.219821 0.105989
0.07187 0.22034 0.105882
0.0776226 0.220661 0.105562
0.0839094 0.220874 0.105043
0.0914321 0.220554 0.104204
0.100954 0.220035 0.103365
0.112993 0.21857 0.102007
0.127535 0.216999 0.100328
0.143969 0.214176 0.0979324
0.163638 0.210925 0.0950942
0.186648 0.206744 0.0920729
0.21323 0.201617 0.0880903
0.244694 0.194705 0.0833906
0.280034 0.186969 0.0784619
0.321813 0.177554 0.0730297
0.366781 0.1673 0.0683146
0.417578 0.155581 0.0655985
0.472328 0.143435 0.0637064
0.530678 0.130678 0.0628824
0.591775 0.1178 0.062562
0.655146 0.105562 0.062562
0.720088 0.0953078 0.062562
0.781842 0.0862135 0.062562
0.835477 0.0773175 0.062562
0.874922 0.0702983 0.062562
0.897627 0.0665446 0.062562
0.910384 0.0659037 0.062562
0.916976 0.0674754 0.062562
0.918868 0.0692607 0.0626688
0.918868 0.0695659 0.0626688
0.918868 0.0692607 0.0626688
0.0644388 0.252934 0.113725
0.0657054 0.254215 0.113832
0.0669566 0.255161 0.113725
0.0694743 0.256336 0.113619
0.0751202 0.256657 0.113313
0.0816052 0.257191 0.112886
0.0893416 0.257084 0.112154
0.0990768 0.256657 0.111116
0.111208 0.256016 0.10985
0.126284 0.254322 0.10808
0.143343 0.251667 0.105669
0.16405 0.24831 0.102846
0.188113 0.244495 0.0997024
0.215641 0.239551 0.0957351
0.247272 0.232959 0.0908064
0.28365 0.22533 0.085481
0.325948 0.216052 0.0791943
0.371771 0.206119 0.0736553
0.423316 0.194293 0.0693675
0.477958 0.181521 0.0661173
0.536553 0.167605 0.0641337
0.597757 0.153597 0.0627756
0.661845 0.140093 0.062562
0.726253 0.127321 0.062562
0.78587 0.114672 0.062562
0.836103 0.102632 0.062562
0.874189 0.0928054 0.062562
0.898878 0.0861067 0.062562
0.912276 0.084123 0.062562
0.917403 0.0847486 0.062562
0.918868 0.0867323 0.0626688
0.918868 0.0870375 0.0626688
0.918868 0.086305 0.062562
0.062974 0.294972 0.122408
0.0637064 0.297032 0.122728
0.0651713 0.298482 0.122728
0.067277 0.299611 0.122728
0.0726024 0.300221 0.122194
0.078996 0.300954 0.121996
0.0868391 0.301457 0.121569
0.0968795 0.301152 0.120531
0.108705 0.300435 0.118959
0.123873 0.299092 0.117174
0.14229 0.297246 0.114977
0.163745 0.293736 0.112047
0.188754 0.28983 0.108598
0.217105 0.284779 0.104616
0.249744 0.278599 0.0999161
0.287037 0.271 0.0941634
0.330312 0.261753 0.0879835
0.37644 0.251667 0.0816052
0.428107 0.239963 0.075639
0.483162 0.227802 0.0706188
0.542016 0.214282 0.0666361
0.604135 0.200473 0.0642405
0.667475 0.186236 0.062974
0.730938 0.17232 0.062562
0.789273 0.15903 0.062562
0.836728 0.146365 0.062562
0.874083 0.135805 0.062562
0.901076 0.127428 0.062562
0.914687 0.122728 0.0626688
0.918135 0.121157 0.062562
0.918868 0.122301 0.0626688
0.918868 0.122515 0.0626688
0.918868 0.122194 0.0626688
0.062562 0.344015 0.132662
0.0626688 0.346181 0.132982
0.0641337 0.347921 0.133181
0.0659037 0.349264 0.133089
0.0699931 0.350912 0.132982
0.075227 0.351736 0.132662
0.0834821 0.352255 0.13193
0.0937362 0.352041 0.130785
0.106294 0.351537 0.129427
0.121675 0.350912 0.128054
0.1402 0.348653 0.125444
0.162478 0.345861 0.122621
0.188327 0.34165 0.119173
0.217624 0.336294 0.11487
0.25156 0.330617 0.110063
0.289509 0.323079 0.104616
0.333196 0.313848 0.0979324
0.379843 0.303853 0.0913405
0.432349 0.292714 0.084123
0.487831 0.280766 0.0776226
0.547158 0.267491 0.0721904
0.608377 0.253147 0.0674754
0.671946 0.239246 0.0648661
0.734569 0.225544 0.0630808
0.791531 0.212192 0.062562
0.837461 0.200259 0.062562
0.873869 0.189792 0.062562
0.902861 0.180789 0.062562
0.916243 0.175463 0.062562
0.918654 0.173373 0.062562
0.918868 0.174838 0.062562
0.918868 0.175662 0.062562
0.918868 0.174411 0.062562
0.062562 0.399237 0.143969
0.062562 0.402121 0.144488
0.0638132 0.404379 0.144701
0.0652781 0.406332 0.1449
0.0673686 0.407889 0.144701
0.071458 0.409216 0.144488
0.0796216 0.409628 0.143755
0.0901808 0.409735 0.142611
0.103258 0.409949 0.141558
0.119066 0.408911 0.139879
0.137896 0.406653 0.137377
0.160601 0.403861 0.134554
0.187381 0.399649 0.130892
0.217838 0.395209 0.126802
0.252613 0.389136 0.121782
0.291264 0.381445 0.115816
0.335973 0.372305 0.109224
0.383566 0.362417 0.102113
0.437034 0.351537 0.0943618
0.492775 0.340002 0.0868391
0.551522 0.326802 0.0795148
0.612741 0.313207 0.073228
0.675776 0.299397 0.068101
0.73817 0.286122 0.0649729
0.794522 0.273762 0.0634012
0.838514 0.261753 0.0626688
0.874189 0.251774 0.062562
0.904433 0.244495 0.062562
0.918029 0.240482 0.062562
0.918868 0.239338 0.062562
0.918868 0.242329 0.0626688
0.918868 0.242435 0.0626688
0.918868 0.241306 0.0626688
0.062562 0.462593 0.157259
0.062562 0.465736 0.157565
0.0631876 0.468391 0.158083
0.0641337 0.470832 0.158297
0.0659037 0.472114 0.157885
0.0694743 0.473487 0.157778
0.0766918 0.47509 0.157259
0.0868391 0.475303 0.156313
0.0998093 0.474662 0.154849
0.11603 0.473487 0.153063
0.135378 0.47158 0.150561
0.158923 0.469139 0.147829
0.186236 0.465415 0.144167
0.217212 0.460014 0.139773
0.252934 0.453834 0.134859
0.292805 0.44622 0.128588
0.338354 0.437766 0.121782
0.386877 0.428321 0.114778
0.440452 0.416846 0.106615
0.496696 0.405005 0.098558
0.555764 0.392233 0.0899672
0.617197 0.379202 0.0820172
0.679545 0.366033 0.0750134
0.741466 0.353277 0.0696727
0.796689 0.341131 0.0660105
0.840085 0.330419 0.0646525
0.875242 0.321492 0.06392
0.905364 0.314794 0.0634012
0.918547 0.311711 0.0631876
0.918868 0.312032 0.0632944
0.918868 0.315114 0.063508
0.918868 0.315541 0.063508
0.918868 0.31458 0.063508
0.062562 0.53048 0.171374
0.062562 0.533883 0.171908
0.062562 0.536553 0.172427
0.0626688 0.538918 0.172534
0.0647593 0.540887 0.17232
0.0682078 0.543038 0.17232
0.0740673 0.544076 0.171695
0.0828565 0.544289 0.170443
0.0957351 0.543969 0.169177
0.112779 0.542733 0.167193
0.132982 0.54139 0.164675
0.157046 0.538415 0.161852
0.184665 0.5346 0.157885
0.21648 0.529961 0.153903
0.253147 0.523262 0.148562
0.29395 0.515953 0.142397
0.340505 0.507713 0.135592
0.389349 0.498039 0.128267
0.443641 0.487098 0.120104
0.500099 0.474876 0.111421
0.559594 0.462287 0.102419
0.621241 0.450019 0.0935378
0.683055 0.43714 0.084947
0.743328 0.424384 0.0772106
0.798535 0.412909 0.07187
0.842283 0.402731 0.0689403
0.877012 0.394903 0.067277
0.905989 0.389654 0.0662242
0.918441 0.387076 0.0657054
0.918868 0.387182 0.0657054
0.918868 0.390997 0.0662242
0.918868 0.391608 0.0662242
0.918868 0.390372 0.0660105
0.062562 0.605509 0.187182
0.062562 0.609125 0.187701
0.062562 0.611994 0.188113
0.062562 0.615503 0.188434
0.0640269 0.617411 0.18822
0.0665446 0.618799 0.187915
0.0709392 0.61976 0.187289
0.0782635 0.620386 0.18613
0.0912337 0.620172 0.184665
0.10901 0.619226 0.182788
0.130159 0.616785 0.179858
0.155367 0.613703 0.176928
0.183825 0.609659 0.172839
0.21648 0.604456 0.168551
0.254108 0.598398 0.16321
0.295277 0.590951 0.157153
0.342367 0.582406 0.150454
0.391821 0.572305 0.143023
0.446525 0.561074 0.134966
0.503288 0.548867 0.126284
0.563638 0.537179 0.117494
0.624643 0.524498 0.108186
0.685725 0.512139 0.0994888
0.744457 0.499886 0.0911269
0.798535 0.488899 0.084535
0.844266 0.479225 0.0797284
0.880049 0.472007 0.0764782
0.906828 0.467002 0.0743877
0.918135 0.465309 0.073228
0.918868 0.465736 0.0731365
0.918868 0.469978 0.0739605
0.918868 0.470619 0.0741741
0.918868 0.469978 0.0741741
0.062562 0.683253 0.203296
0.062562 0.687175 0.204028
0.062562 0.690578 0.20444
0.062562 0.693141 0.204547
0.0634012 0.695109 0.204654
0.0651713 0.696757 0.204227
0.068101 0.697581 0.203403
0.0746014 0.698405 0.20235
0.0870375 0.698192 0.200778
0.105455 0.696757 0.198581
0.127321 0.694072 0.195865
0.15349 0.690578 0.192416
0.183307 0.686244 0.188434
0.217212 0.681407 0.184039
0.255161 0.674388 0.1785
0.297139 0.666529 0.172427
0.344839 0.657496 0.165728
0.394705 0.647608 0.158511
0.450126 0.636484 0.15024
0.507515 0.625254 0.141772
0.567452 0.612421 0.133181
0.628046 0.599771 0.124086
0.688106 0.58735 0.11519
0.745388 0.575601 0.106813
0.798444 0.564691 0.0993973
0.846036 0.555444 0.0930037
0.882765 0.54844 0.088304
0.907668 0.54377 0.085481
0.918135 0.542626 0.084123
0.918868 0.543664 0.0839094
0.918868 0.548226 0.0853742
0.918868 0.549279 0.085893
0.918868 0.548974 0.0856794
0.062562 0.764309 0.220447
0.062562 0.767926 0.220966
0.062562 0.771328 0.2215
0.062562 0.773556 0.221607
0.0626688 0.775265 0.221286
0.06392 0.776532 0.220661
0.0679026 0.777813 0.220142
0.0751202 0.777813 0.218982
0.086305 0.776959 0.217411
0.102327 0.774838 0.215106
0.124498 0.771435 0.21239
0.151812 0.767071 0.209262
0.1832 0.761547 0.204868
0.218036 0.755581 0.200366
0.257298 0.748272 0.194919
0.30013 0.740124 0.188647
0.34844 0.731365 0.181842
0.398917 0.721691 0.174411
0.454963 0.71107 0.166461
0.511833 0.699229 0.157885
0.571588 0.686549 0.149203
0.63154 0.67332 0.1402
0.690776 0.660471 0.131716
0.746822 0.648737 0.123568
0.798749 0.638346 0.116136
0.846983 0.62948 0.110063
0.88423 0.622202 0.105257
0.908293 0.617304 0.101793
0.918349 0.616251 0.100862
0.918868 0.618158 0.101595
0.918868 0.622934 0.10399
0.918868 0.624109 0.104616
0.918868 0.623255 0.104311
0.062562 0.840284 0.23769
0.062562 0.841749 0.238102
0.062562 0.842695 0.238209
0.062562 0.843641 0.238315
0.062562 0.844053 0.238102
0.0632944 0.844373 0.23769
0.0673686 0.843839 0.236774
0.0746929 0.843015 0.235538
0.0852674 0.841443 0.233783
0.100435 0.839246 0.231724
0.122621 0.835584 0.228946
0.1514 0.831189 0.225544
0.183825 0.825849 0.221607
0.219715 0.819989 0.216678
0.260166 0.814237 0.211139
0.303639 0.807919 0.204761
0.352773 0.800702 0.197543
0.404273 0.793286 0.190219
0.460014 0.783017 0.182162
0.517082 0.771542 0.173785
0.57673 0.758358 0.164996
0.636072 0.745693 0.156313
0.694286 0.732815 0.147829
0.749187 0.721263 0.139986
0.799466 0.71043 0.132982
0.847715 0.701381 0.127016
0.88539 0.694377 0.122408
0.908614 0.689433 0.119265
0.918349 0.688411 0.118639
0.918868 0.690166 0.119905
0.918868 0.695109 0.123033
0.918868 0.695827 0.123568
0.918868 0.695201 0.123354
0.062562 0.871366 0.254429
0.062562 0.872724 0.255161
0.062562 0.873457 0.255268
0.062562 0.873869 0.255268
0.0626688 0.874601 0.255268
0.0638132 0.874815 0.254749
0.0666361 0.874601 0.253574
0.0727092 0.874189 0.251987
0.0830701 0.873564 0.249958
0.100542 0.872831 0.247684
0.123659 0.87126 0.2448
0.153063 0.869688 0.241306
0.186236 0.867918 0.237186
0.222858 0.866026 0.232136
0.264302 0.863935 0.226368
0.309163 0.862364 0.220233
0.359121 0.859754 0.213123
0.411093 0.855467 0.2056
0.467002 0.846769 0.19733
0.524193 0.836622 0.188846
0.583322 0.824704 0.180163
0.642252 0.812146 0.171481
0.699947 0.800092 0.16321
0.752804 0.788968 0.155886
0.801526 0.778241 0.149203
0.848447 0.769314 0.143542
0.885176 0.761868 0.139467
0.908186 0.757427 0.13727
0.917708 0.756298 0.137163
0.918868 0.758053 0.138949
0.918868 0.761547 0.141772
0.918868 0.762188 0.14229
0.918868 0.761654 0.142077
0.062562 0.897841 0.271534
0.062562 0.898253 0.272068
0.062562 0.898665 0.272389
0.062562 0.898878 0.272282
0.062562 0.899092 0.271855
0.063508 0.899199 0.271107
0.0657054 0.899092 0.269841
0.0709392 0.898985 0.268132
0.0826581 0.898985 0.266224
0.1019 0.898772 0.263569
0.126497 0.898466 0.26006
0.156313 0.89836 0.256336
0.190631 0.89836 0.251881
0.227909 0.898146 0.246555
0.270466 0.898253 0.240681
0.316609 0.898573 0.234501
0.367086 0.897932 0.227192
0.419394 0.896468 0.219715
0.476036 0.891035 0.21146
0.532952 0.884657 0.203082
0.591775 0.876173 0.1944
0.650599 0.866651 0.185824
0.707027 0.855253 0.177966
0.757534 0.844373 0.170535
0.804822 0.834638 0.164477
0.849912 0.825849 0.159548
0.885176 0.818845 0.155993
0.907256 0.814542 0.15433
0.917082 0.813611 0.154955
0.918868 0.814862 0.156619
0.918868 0.817792 0.159655
0.918868 0.818524 0.160388
0.918868 0.818006 0.160082
0.062562 0.91165 0.287144
0.062562 0.912062 0.287556
0.062562 0.912276 0.287556
0.062562 0.912581 0.287449
0.062562 0.912688 0.286946
0.062974 0.912902 0.285908
0.0651713 0.912902 0.284474
0.0710307 0.913008 0.282719
0.0843214 0.913115 0.280446
0.106081 0.913115 0.277668
0.132357 0.913314 0.274296
0.162905 0.913314 0.270146
0.197955 0.913314 0.26537
0.236454 0.913222 0.259739
0.280247 0.913527 0.253574
0.326696 0.913527 0.24686
0.377722 0.91342 0.239445
0.430869 0.913222 0.232242
0.487526 0.911543 0.224094
0.544289 0.909972 0.215839
0.60296 0.907149 0.207065
0.660792 0.901503 0.198901
0.715419 0.892393 0.191363
0.765164 0.883711 0.18436
0.810483 0.875761 0.178592
0.852842 0.867491 0.173892
0.886213 0.860899 0.171069
0.907042 0.856825 0.169802
0.91635 0.855467 0.170535
0.918761 0.856092 0.172641
0.918868 0.858595 0.176089
0.918868 0.859129 0.176715
0.918868 0.858808 0.176608
0.0628824 0.918868 0.301152
0.0628824 0.918868 0.301457
0.0628824 0.918868 0.301259
0.0627756 0.918868 0.300954
0.0627756 0.918868 0.300221
0.0631876 0.918868 0.298985
0.0669566 0.918868 0.297551
0.0754253 0.918868 0.295491
0.0903944 0.918868 0.293217
0.112779 0.918868 0.290028
0.140093 0.918868 0.286732
0.172213 0.918868 0.282307
0.20853 0.918868 0.277363
0.248402 0.918868 0.271855
