luts/varicam_official/BleachyBypass SuperBright 33 E-E.cube
TITLE "Generated by Resolve"
LUT_3D_SIZE 5
0.0156252 0.0156252 0.0156252
0.123262 0.000366217 0.00169375
0.999084 0 0
1 0 0
1 0 0
0.00643931 0.0755932 0.0258183
0.0415045 0.0448615 0.0161746
0.927138 0 0
1 0 0
1 0 0
0 0.923796 0.179019
0 0.852811 0.159228
0.531136 0.561425 0.0293736
1 0.288914 0
1 0.192416 0
0 1 0.242008
0 1 0.242008
0.145403 1 0.178592
0.99971 0.975387 0.0168612
1 0.974441 0.0167849
0 1 0.242008
0 1 0.242008
0.000503548 1 0.217151
0.973053 0.982147 0.0212711
1 0.975341 0.016846
0.0142061 0.0185855 0.149981
0.109148 0.00102235 0.103975
0.998627 0 0
1 0 0
1 0 0
0.00724804 0.0670329 0.0754406
0.0362554 0.0403906 0.0503243
0.893065 0 0
1 0 0
1 0 0
0 0.896742 0.178592
0 0.802213 0.154116
0.49369 0.524086 0.0295415
1 0.240299 0
1 0.148943 0
0 1 0.242008
0 1 0.242008
0.116411 1 0.18471
0.999115 0.975326 0.0168917
1 0.973602 0.0167239
0 1 0.242008
0 1 0.242008
0.00030518 1 0.220447
0.961944 0.98526 0.0232547
1 0.975341 0.016846
0.00637827 0.0377203 0.994522
0.0877241 0.0142977 0.975082
0.998077 0 0.768627
1 0 0.736522
1 0 0.70634
0.00183108 0.0770581 0.939391
0.0241703 0.0543374 0.878676
0.8533 0 0.669306
1 0 0.537026
1 0 0.471077
0 0.885664 0.886839
0 0.77023 0.786908
0.453971 0.502327 0.588342
1 0.210742 0.370871
1 0.11812 0.277409
0 1 0.71284
0 1 0.629297
0.0903334 1 0.506828
1 0.983642 0.270924
1 0.981292 0.213703
0 1 0.474022
0 1 0.415152
6.10361e-05 1 0.354101
0.959945 0.991394 0.12018
1 0.979187 0.0802319
0.00634775 0.0378576 0.998779
0.0751354 0.0174411 0.985946
0.99585 0 0.792126
1 0 0.773632
1 0 0.773632
0.00205997 0.0701305 0.999832
0.0183871 0.0522621 0.997711
0.817075 0 0.847745
1 0 0.773907
1 0 0.773632
0 0.848386 1
0 0.729824 1
0.41738 0.477226 0.99144
1 0.180468 0.858671
1 0.0903944 0.842115
0 1 1
0 1 1
0.0634012 1 1
0.998886 0.999557 0.999939
1 0.998489 0.999695
0 1 1
0 1 1
1.5259e-05 1 1
0.937774 0.999985 0.99205
1 0.999527 0.974502
0.00634775 0.0378576 0.998779
0.0680247 0.019501 0.987305
0.989975 0 0.796811
1 0 0.773632
1 0 0.773632
0.00263981 0.0644846 0.999725
0.0143893 0.0482643 0.997986
0.783978 0 0.854093
1 0 0.773693
1 0 0.773632
0 0.804761 1
0 0.684855 1
0.386542 0.446906 0.989532
1 0.139864 0.851316
1 0.0575113 0.835157
0 1 1
0 1 1
0.0422827 1 1
0.998383 0.999207 0.999908
1 0.995666 0.999268
0 1 1
0 1 1
0 1 1
0.912291 1 1
1 1 1
