luts/varicam_official/BleachyBypass SuperBright 33 E-E.cube
TITLE "Generated by Resolve"
LUT_3D_SIZE 9
0.0156252 0.0156252 0.0156252
0.0159915 0.0155184 0.0155642
0.123262 0.000366217 0.00169375
0.589364 0 0
0.999084 0 0
1 0 0
1 0 0
1 0 0
1 0 0
0.0156252 0.0156405 0.0156252
0.0156252 0.0156252 0.0156252
0.0780804 0.00225834 0.00502022
0.439231 0 0
0.98056 0 0
1 0 0
1 0 0
1 0 0
1 0 0
0.00643931 0.0755932 0.0258183
0.00793469 0.0644388 0.0238956
0.0415045 0.0448615 0.0161746
0.315068 0.00198367 0
0.927138 0 0
1 0 0
1 0 0
1 0 0
1 0 0
0 0.365972 0.0756542
0 0.324041 0.0684672
0.00306706 0.28394 0.0599374
0.183185 0.197818 0.0208286
0.767468 0.0373999 0
1 0.00260929 0
1 0.000839246 0
1 0 0
1 0 0
0 0.923796 0.179019
0 0.887846 0.168566
0 0.852811 0.159228
0.0299992 0.763165 0.126421
0.531136 0.561425 0.0293736
0.995743 0.348165 0
1 0.288914 0
1 0.237232 0
1 0.192416 0
0 1 0.240665
0 1 0.23978
0 1 0.238636
1.5259e-05 1 0.221256
0.294408 0.993469 0.141955
0.910094 0.910643 0.0217136
1 0.859113 0.00360113
1 0.827482 0.0019379
1 0.788434 0.00138857
0 1 0.242008
0 1 0.242008
0 1 0.242008
0 1 0.23505
0.145403 1 0.178592
0.789517 0.998871 0.0566873
0.99971 0.975387 0.0168612
1 0.975143 0.0168307
1 0.974441 0.0167849
0 1 0.242008
0 1 0.242008
0 1 0.242008
0 1 0.240146
0.049134 1 0.2
0.645609 0.999969 0.0845502
0.99646 0.97586 0.0171054
1 0.975341 0.016846
1 0.975341 0.016846
0 1 0.242008
0 1 0.242008
0 1 0.242008
0 1 0.241718
0.000503548 1 0.217151
0.475303 1 0.116426
0.973053 0.982147 0.0212711
1 0.975341 0.016846
1 0.975341 0.016846
0.0155947 0.0156558 0.0181735
0.0157626 0.0155947 0.0169528
0.116503 0.000457771 0.002533
0.569329 0 0
0.998749 0 0
1 0 0
1 0 0
1 0 0
1 0 0
0.0156252 0.0156252 0.0157931
0.0156252 0.0156252 0.0156863
0.0737163 0.00280766 0.00567636
0.418967 0 0
0.975082 0 0
1 0 0
1 0 0
1 0 0
1 0 0
0.0071107 0.0705882 0.0249638
0.00862135 0.0594949 0.0230411
0.0390173 0.0420996 0.0161135
0.299321 0.00196841 0
0.909712 0 0
1 0 0
1 0 0
1 0 0
1 0 0
0 0.34757 0.0724956
0 0.30573 0.0653239
0.00277714 0.269749 0.0578164
0.17293 0.187381 0.0207065
0.746731 0.0331121 1.5259e-05
1 0.00166323 0
1 0.000228885 0
1 0 0
1 0 0
0 0.909407 0.174533
0 0.871351 0.164065
0 0.826154 0.154543
0.0268559 0.738399 0.12343
0.511208 0.541512 0.0292973
0.992752 0.324132 0
1 0.262058 0
1 0.214435 0
1 0.169055 0
0 1 0.240299
0 1 0.239353
0 1 0.237125
1.5259e-05 1 0.220829
0.274418 0.992294 0.144076
0.900374 0.901976 0.0217441
1 0.844495 0.002121
1 0.80705 0.00138857
1 0.766674 0.000946059
0 1 0.242008
0 1 0.242008
0 1 0.242008
0 1 0.235843
0.129702 1 0.181857
0.770016 0.999268 0.0605631
0.999435 0.975402 0.0168917
1 0.974884 0.0168154
1 0.974014 0.0167544
0 1 0.242008
0 1 0.242008
0 1 0.242008
0 1 0.240467
0.0388342 1 0.202869
0.621027 1 0.089189
0.995712 0.975967 0.0171664
1 0.975341 0.016846
1 0.975341 0.016846
0 1 0.242008
0 1 0.242008
0 1 0.242008
0 1 0.241856
0.000442512 1 0.218906
0.449287 1 0.121279
0.9673 0.983795 0.0222934
1 0.975341 0.016846
1 0.975341 0.016846
0.0142061 0.0185855 0.149981
0.0144045 0.0182193 0.13344
0.109148 0.00102235 0.103975
0.550896 0 0.0230259
0.998627 0 0
1 0 0
1 0 0
1 0 0
1 0 0
0.0146944 0.0174258 0.101335
0.0148318 0.0171054 0.0881208
0.0684672 0.00401312 0.0675517
0.400427 0 0.0119173
0.969253 0 0
1 0 0
1 0 0
1 0 0
1 0 0
0.00724804 0.0670329 0.0754406
0.00877394 0.0560311 0.0645609
0.0362554 0.0403906 0.0503243
0.285435 0.00195315 0.00843824
0.893065 0 0
1 0 0
1 0 0
1 0 0
1 0 0
0 0.331273 0.0954147
0 0.290379 0.0827955
0.00241093 0.258198 0.071107
0.163821 0.178271 0.0301213
0.728618 0.0291752 4.57771e-05
1 0.000946059 0
1 0 0
1 0 0
1 0 0
0 0.896742 0.178592
0 0.855573 0.165286
0 0.802213 0.154116
0.0251011 0.71664 0.122866
0.49369 0.524086 0.0295415
0.989654 0.302846 0
1 0.240299 0
1 0.194476 0
1 0.148943 0
0 1 0.240635
0 1 0.239109
0 1 0.235615
1.5259e-05 1 0.22031
0.257176 0.991379 0.1458
0.891768 0.894362 0.0216678
1 0.828611 0.00149538
1 0.789105 0.00108339
1 0.747555 0.000686656
0 1 0.242008
0 1 0.242008
0 1 0.242008
0 1 0.23653
0.116411 1 0.18471
0.751919 0.999542 0.0641794
0.999115 0.975326 0.0168917
1 0.974594 0.0167849
1 0.973602 0.0167239
0 1 0.242008
0 1 0.242008
0 1 0.242008
0 1 0.240681
0.0301366 1 0.205219
0.598627 1 0.0934005
0.994156 0.976349 0.0173953
1 0.975341 0.016846
1 0.975341 0.016846
0 1 0.242008
0 1 0.242008
0 1 0.242008
0 1 0.241962
0.00030518 1 0.220447
0.42742 1 0.125368
0.961944 0.98526 0.0232547
1 0.975341 0.016846
1 0.975341 0.016846
0.00967422 0.0296178 0.639887
0.0100099 0.028809 0.604547
0.0984207 0.0059968 0.55584
0.529641 0 0.443732
0.998306 0 0.298299
1 0 0.253208
1 0 0.22063
1 0 0.187518
1 0 0.168032
0.0109102 0.0267185 0.511986
0.0112612 0.025864 0.473854
0.0608682 0.01149 0.431327
0.381781 0 0.337667
0.962448 0 0.185855
1 0 0.122194
1 0 0.0981918
1 0 0.0750286
1 0 0.0578317
0.00500496 0.0697642 0.405509
0.00660716 0.058854 0.365454
0.0314641 0.0443122 0.328878
0.268757 0.00244144 0.255634
0.874372 0 0.113695
1 0 0.0371252
1 0 0.024979
1 0 0.0173037
1 0 0.0124971
0 0.320592 0.347082
0 0.281804 0.307301
0.00172427 0.250553 0.272801
0.153155 0.173327 0.213565
0.708797 0.0266575 0.0876631
1 0.000320439 0.0170596
1 0 0.00888075
1 0 0.00341802
1 0 0.000762951
0 0.887343 0.360769
0 0.836912 0.323629
0 0.782361 0.292592
0.0229343 0.697932 0.243412
0.474983 0.508782 0.131395
0.989883 0.284337 0.0172122
1 0.221851 0.00619516
1 0.175692 0.00248722
1 0.130663 0.000457771
0 1 0.361898
0 1 0.339971
0 1 0.322362
0 1 0.294347
0.239048 0.99942 0.209369
0.883207 0.901457 0.0733806
1 0.821485 0.0333562
1 0.778332 0.0213016
1 0.73283 0.0115053
0 1 0.314321
0 1 0.299886
0 1 0.289281
0 1 0.275975
0.104173 1 0.218418
0.734417 0.999771 0.0910964
0.999512 0.977188 0.0334325
1 0.976028 0.0281224
1 0.97464 0.0242161
0 1 0.277104
0 1 0.268452
0 1 0.26125
0 1 0.254536
0.0217136 1 0.217212
0.575875 1 0.104158
0.992355 0.977615 0.0216678
1 0.975586 0.018555
1 0.975387 0.0172122
0 1 0.252766
0 1 0.248905
0 1 0.246448
0 1 0.24448
0.000106813 1 0.223041
0.405798 1 0.129458
0.956268 0.98674 0.0243076
1 0.975341 0.016846
1 0.975341 0.016846
0.00637827 0.0377203 0.994522
0.00639353 0.037644 0.992752
0.0877241 0.0142977 0.975082
0.507866 0 0.89163
0.998077 0 0.768627
1 0 0.746975
1 0 0.736522
1 0 0.720913
1 0 0.70634
0.00654612 0.0372168 0.97499
0.00665293 0.0369116 0.962173
0.0517128 0.0233921 0.94258
0.362676 0 0.871275
0.954513 0 0.731655
1 0 0.671199
1 0 0.648508
1 0 0.623957
1 0 0.603769
0.00183108 0.0770581 0.939391
0.00277714 0.0677958 0.909743
0.0241703 0.0543374 0.878676
0.249958 0.00544747 0.810376
0.8533 0 0.669306
1 0 0.571679
1 0 0.537026
1 0 0.501167
1 0 0.471077
0 0.316976 0.89839
0 0.281361 0.857481
0.000961318 0.250828 0.816464
0.139269 0.176562 0.746349
0.684474 0.0268406 0.605325
1 0 0.47364
1 0 0.430198
1 0 0.387625
1 0 0.348577
0 0.885664 0.886839
0 0.824811 0.833585
0 0.77023 0.786908
0.0191806 0.687053 0.719554
0.453971 0.502327 0.588342
0.986496 0.275669 0.430152
1 0.210742 0.370871
1 0.164157 0.323491
1 0.11812 0.277409
0 1 0.843702
0 1 0.790768
0 1 0.746624
0 1 0.693004
0.21883 0.999954 0.586069
0.86627 0.897704 0.42385
1 0.810117 0.35108
1 0.766629 0.308278
1 0.720424 0.265293
0 1 0.71284
0 1 0.667094
0 1 0.629297
0 1 0.589181
0.0903334 1 0.506828
0.713756 0.999924 0.355077
1 0.983642 0.270924
1 0.982437 0.241764
1 0.981292 0.213703
0 1 0.584283
0 1 0.542702
0 1 0.51136
0 1 0.482338
0.0166171 1 0.423835
0.551781 1 0.288945
0.994079 0.98378 0.180377
1 0.981003 0.157076
1 0.98056 0.137194
0 1 0.474022
0 1 0.441321
0 1 0.415152
0 1 0.391363
6.10361e-05 1 0.354101
0.38262 1 0.245991
0.959945 0.991394 0.12018
1 0.979583 0.0945296
1 0.979187 0.0802319
0.00634775 0.0378576 0.998779
0.00634775 0.0378576 0.998779
0.0814221 0.0158999 0.984771
0.490837 0 0.908446
0.997314 0 0.78999
1 0 0.773632
1 0 0.773632
1 0 0.773632
1 0 0.773632
0.00634775 0.0378576 0.998779
0.00634775 0.0378576 0.998779
0.0466316 0.0258488 0.991333
0.346624 0 0.935302
0.949371 0 0.815381
1 0 0.773632
1 0 0.773632
1 0 0.773632
1 0 0.773632
0.00170901 0.073991 0.999893
0.002533 0.0664836 0.999725
0.0208133 0.0547189 0.997589
0.236378 0.00616464 0.958083
0.835142 0 0.844312
1 0 0.774899
1 0 0.774075
1 0 0.773617
1 0 0.772778
0 0.305715 1
0 0.272389 1
0.000671397 0.243641 1
0.127794 0.173541 0.994171
0.662028 0.0251316 0.898054
0.999969 0 0.798398
1 0 0.791348
1 0 0.786343
1 0 0.779904
0 0.871763 1
0 0.808759 1
0 0.754452 1
0.0159915 0.674174 1
0.433906 0.494285 0.990158
0.982589 0.267399 0.876295
1 0.200504 0.843671
1 0.154376 0.821347
1 0.108934 0.797223
0 1 1
0 1 1
0 1 1
0 1 1
0.19736 1 0.999374
0.847395 0.895048 0.948974
1 0.803647 0.896513
1 0.758587 0.864729
1 0.711971 0.826825
0 1 1
0 1 1
0 1 1
0 1 0.998047
0.075288 1 0.987335
0.688853 1 0.919295
0.99939 0.996338 0.831235
1 0.994934 0.798245
1 0.99353 0.762188
0 1 0.996857
0 1 0.989456
0 1 0.981201
0 1 0.971618
0.011368 1 0.944213
0.52401 1 0.836835
0.988907 0.99527 0.711528
1 0.992645 0.669993
1 0.991684 0.628016
0 1 0.971267
0 1 0.955947
0 1 0.930343
0 1 0.899763
3.0518e-05 1 0.853025
0.35642 1 0.733852
0.950759 0.997101 0.581064
1 0.989456 0.529442
1 0.98851 0.487465
0.00634775 0.0378576 0.998779
0.00634775 0.0378576 0.998779
0.0751354 0.0174411 0.985946
0.472541 0 0.911864
0.99585 0 0.792126
1 0 0.773632
1 0 0.773632
1 0 0.773632
1 0 0.773632
0.00634775 0.0378576 0.998779
0.00634775 0.0378576 0.998779
0.0421302 0.0271916 0.992187
0.331609 0 0.938094
0.943893 0 0.818387
1 0 0.773632
1 0 0.773632
1 0 0.773632
1 0 0.773632
0.00205997 0.0701305 0.999832
0.00288396 0.0630045 0.999649
0.0183871 0.0522621 0.997711
0.224842 0.00590524 0.959808
0.817075 0 0.847745
1 0 0.774929
1 0 0.773907
1 0 0.773648
1 0 0.773632
0 0.291814 1
0 0.259663 1
0.00062562 0.23125 1
0.119142 0.164157 0.994904
0.642802 0.0209201 0.900267
0.999695 0 0.79852
1 0 0.791882
1 0 0.788998
1 0 0.786328
0 0.848386 1
0 0.784772 1
0 0.729824 1
0.0142214 0.652644 1
0.41738 0.477226 0.99144
0.978576 0.249302 0.882445
1 0.180468 0.858671
1 0.134463 0.850324
1 0.0903944 0.842115
0 1 1
0 1 1
0 1 1
0 1 1
0.180346 0.995926 1
0.831983 0.882063 0.994339
1 0.785779 0.963516
1 0.740185 0.955978
1 0.693889 0.948119
0 1 1
0 1 1
0 1 1
0 1 1
0.0634012 1 1
0.666957 1 1
0.998886 0.999557 0.999939
1 0.9991 0.999863
1 0.998489 0.999695
0 1 1
0 1 1
0 1 1
0 1 1
0.00825513 1 1
0.498772 1 1
0.982986 1 0.999802
1 0.999985 0.999084
1 0.999939 0.995987
0 1 1
0 1 1
0 1 1
0 1 1
1.5259e-05 1 1
0.330571 1 1
0.937774 0.999985 0.99205
1 0.999664 0.982177
1 0.999527 0.974502
0.00634775 0.0378576 0.998779
0.00634775 0.0378576 0.998779
0.0702983 0.0188449 0.986862
0.456504 0 0.914855
0.992355 0 0.794888
1 0 0.773632
1 0 0.773632
1 0 0.773632
1 0 0.773632
0.00634775 0.0378576 0.998779
0.00634775 0.0378576 0.998779
0.0378882 0.0284428 0.992996
0.316304 0 0.940948
0.93727 0 0.821561
1 0 0.773632
1 0 0.773632
1 0 0.773632
1 0 0.773632
0.00242618 0.0663462 0.999756
0.00328069 0.0594492 0.999573
0.0159304 0.0498054 0.997864
0.213458 0.00546273 0.961471
0.798428 0 0.851331
1 0 0.775036
1 0 0.773754
1 0 0.773632
1 0 0.773632
0 0.278096 1
0 0.246509 1
0.000534066 0.218753 1
0.110872 0.15491 0.995789
0.621454 0.0191348 0.902907
0.999344 0 0.797955
1 0 0.790524
1 0 0.787686
1 0 0.785031
0 0.823728 1
0 0.760021 1
0 0.705867 1
0.0124208 0.630076 1
0.401205 0.461357 0.990326
0.974182 0.231006 0.880735
1 0.159442 0.854856
1 0.114473 0.846662
1 0.0710765 0.838392
0 1 1
0 1 1
0 1 1
0 1 1
0.164874 0.988815 1
0.816861 0.867735 0.993683
1 0.765087 0.960128
1 0.719402 0.952483
1 0.672419 0.944442
0 1 1
0 1 1
0 1 1
0 1 1
0.0528267 1 1
0.644831 1 1
0.998642 0.99939 0.999924
1 0.998856 0.999832
1 0.998184 0.999725
0 1 1
0 1 1
0 1 1
0 1 1
0.00619516 1 1
0.47541 1 1
0.978454 1 1
1 1 1
1 1 1
0 1 1
0 1 1
0 1 1
0 1 1
0 1 1
0.307912 1 1
0.925994 1 1
1 1 1
1 1 1
0.00634775 0.0378576 0.998779
0.00634775 0.0378576 0.998779
0.0680247 0.019501 0.987305
0.445106 0 0.916976
0.989975 0 0.796811
1 0 0.773632
1 0 0.773632
1 0 0.773632
1 0 0.773632
0.00634775 0.0378576 0.998779
0.00634775 0.0378576 0.998779
0.0357214 0.0290837 0.993408
0.307622 0 0.942565
0.930709 0 0.823728
1 0 0.773632
1 0 0.773632
1 0 0.773632
1 0 0.773632
0.00263981 0.0644846 0.999725
0.00350958 0.0575113 0.999512
0.0143893 0.0482643 0.997986
0.2056 0.00514229 0.962661
0.783978 0 0.854093
1 0 0.775219
1 0 0.773693
1 0 0.773632
1 0 0.773632
0 0.2692 1
0 0.2374 1
0.000457771 0.209155 1
0.105379 0.14725 0.99617
0.604944 0.0179751 0.904952
0.998413 0 0.79823
1 0 0.78941
1 0 0.786542
1 0 0.784024
0 0.804761 1
0 0.739727 1
0 0.684855 1
0.0108339 0.610574 1
0.386542 0.446906 0.989532
0.970031 0.213809 0.879194
1 0.139864 0.851316
1 0.0951553 0.84303
1 0.0575113 0.835157
0 1 1
0 1 1
0 1 1
0 0.999359 1
0.1514 0.981796 1
0.802472 0.854078 0.993149
1 0.744747 0.956756
1 0.697871 0.948821
1 0.649149 0.940337
0 1 1
0 1 1
0 1 1
0 1 1
0.0422827 1 1
0.622065 1 1
0.998383 0.999207 0.999908
1 0.998581 0.999786
1 0.995666 0.999268
0 1 1
0 1 1
0 1 1
0 1 1
0.00421149 1 1
0.451942 1 1
0.973541 1 1
1 1 1
1 1 1
0 1 1
0 1 1
0 1 1
0 1 1
0 1 1
0.28542 1 1
0.912291 1 1
1 1 1
1 1 1
