luts/varicam_official/BlueNight 33 E-E.cube
TITLE "Generated by Resolve"
LUT_3D_SIZE 9
0.0171511 0.016846 0.0242924
0.0173342 0.0168002 0.0242618
0.0222019 0.0154726 0.0234531
0.0311284 0.0131228 0.021912
0.0464485 0.00921645 0.0192264
0.0716869 0.00363165 0.014786
0.116228 0.00195315 0.00949111
0.191424 0.000137331 0.00283818
0.220066 0 0.00169375
0.0169375 0.0187686 0.0247501
0.01944 0.0190738 0.024506
0.0267338 0.0183108 0.0236973
0.0385443 0.0164492 0.0231937
0.0601663 0.0124666 0.0213626
0.0965591 0.00810254 0.0174105
0.159152 0.00251774 0.00943008
0.262089 0 0.00173953
0.298253 0 0.000839246
0.0165103 0.0306859 0.0292363
0.0221561 0.0313725 0.0304723
0.0319219 0.03122 0.0312352
0.0497749 0.0289769 0.0307012
0.0789654 0.0242313 0.0287633
0.130083 0.0153658 0.0235447
0.217136 0.00553903 0.0135958
0.35172 0.000244144 0.00303655
0.39794 0 0.00125124
0.0166323 0.0565652 0.0409094
0.024445 0.0594339 0.0433967
0.0384985 0.0609903 0.045243
0.061799 0.0606241 0.0457465
0.105028 0.0557107 0.0429847
0.177325 0.0441291 0.0353704
0.294438 0.0246891 0.0208743
0.463767 0.00442512 0.00476081
0.518593 0.00205997 0.00294499
0.0150454 0.113527 0.0627909
0.0245975 0.122271 0.066743
0.0437324 0.129809 0.0695354
0.0778515 0.135225 0.0704662
0.137499 0.134325 0.0678416
0.234943 0.125399 0.0598306
0.386313 0.101961 0.0424048
0.588434 0.068864 0.0205997
0.648768 0.0596628 0.0144503
0.00598154 0.238895 0.100328
0.0193942 0.258671 0.1075
0.0442969 0.277394 0.113832
0.0921645 0.294224 0.117006
0.175418 0.301701 0.114641
0.305104 0.299992 0.104982
0.487678 0.284184 0.0881361
0.710231 0.260716 0.0655528
0.772122 0.254383 0.0593271
0.00144961 0.478996 0.166415
0.00750744 0.515084 0.17792
0.0370489 0.547829 0.187121
0.104631 0.574487 0.193118
0.217044 0.58938 0.191684
0.380957 0.592706 0.182498
0.590723 0.582956 0.166217
0.811795 0.570336 0.14931
0.865339 0.568673 0.146029
4.57771e-05 0.832746 0.263676
0.00146487 0.866117 0.277852
0.0357366 0.892134 0.289036
0.129046 0.900038 0.293812
0.27657 0.909255 0.290929
0.47332 0.915663 0.279301
0.698116 0.898878 0.264454
0.893217 0.884092 0.256046
0.935561 0.882246 0.256504
0 0.918654 0.292775
0.00300603 0.936019 0.308095
0.0356451 0.943786 0.318502
0.140764 0.955505 0.322789
0.299657 0.970687 0.31754
0.50486 0.979736 0.305058
0.729732 0.957946 0.29131
0.914641 0.942611 0.284779
0.95404 0.940459 0.285985
0.0171511 0.0168765 0.0250248
0.0174563 0.016846 0.0265049
0.0226902 0.0154879 0.0274205
0.0320287 0.0130312 0.0277714
0.0479896 0.0089723 0.0271611
0.0743267 0.00347906 0.0248875
0.12047 0.00201419 0.0197604
0.198734 7.62951e-05 0.0102846
0.228382 0 0.00840772
0.0169528 0.0192569 0.0314183
0.019913 0.0195163 0.0333562
0.0274662 0.0188144 0.0348974
0.039765 0.0169528 0.0360876
0.0620279 0.0127871 0.0357366
0.0999619 0.00825513 0.0328832
0.165515 0.00221256 0.0254368
0.27187 0 0.0132448
0.308797 0 0.00889601
0.016846 0.031693 0.0428321
0.0227665 0.0324254 0.045716
0.0328832 0.0322881 0.0481117
0.051545 0.0299687 0.0493019
0.0822003 0.0252537 0.0486915
0.135439 0.0159457 0.0445258
0.225772 0.00560006 0.0349584
0.363821 0.00015259 0.0178378
0.411551 0 0.0145266
0.0170138 0.0586862 0.0604105
0.0251316 0.0615396 0.064332
0.0399786 0.0632334 0.0678111
0.0641337 0.0626688 0.0706645
0.109117 0.0584115 0.0708476
0.184512 0.0461128 0.0660563
0.304891 0.0259861 0.0534676
0.479057 0.0043183 0.0335851
0.534432 0.00199893 0.0270542
0.0153048 0.11812 0.0897993
0.02533 0.126757 0.0967575
0.0451057 0.135592 0.102998
0.0807813 0.140612 0.107164
0.14316 0.140139 0.108339
0.244434 0.130495 0.103471
0.399466 0.106874 0.0899825
0.6047 0.0738079 0.0691539
0.66569 0.0643931 0.0626993
0.00588998 0.248493 0.139605
0.019852 0.268086 0.150912
0.0461128 0.288518 0.161578
0.0963149 0.305043 0.169055
0.182589 0.31281 0.17142
0.316732 0.310796 0.167254
0.502754 0.294072 0.155352
0.72604 0.271763 0.138445
0.787991 0.265812 0.134112
0.00125124 0.495491 0.222644
0.00895705 0.531212 0.238926
0.0392004 0.563912 0.253971
0.11017 0.591241 0.265599
0.226352 0.605875 0.269764
0.393927 0.607919 0.266361
0.606332 0.597879 0.256748
0.82533 0.585946 0.247242
0.876982 0.584512 0.246113
4.57771e-05 0.848768 0.34052
0.00210575 0.882353 0.361471
0.0385748 0.903853 0.378256
0.137224 0.910445 0.389197
0.289113 0.922057 0.392203
0.489357 0.926558 0.38706
0.71397 0.911894 0.380209
0.904402 0.895369 0.378805
0.944701 0.893477 0.381094
0 0.93402 0.376654
0.00428778 0.94284 0.397742
0.0396429 0.951705 0.414176
0.149844 0.96318 0.423972
0.31313 0.980407 0.425254
0.521508 0.982895 0.420111
0.744595 0.964767 0.412665
0.923964 0.952941 0.413794
0.963043 0.948501 0.416693
0.0173037 0.0170596 0.0370031
0.0177768 0.0170138 0.0399176
0.0232853 0.015671 0.0423285
0.0329137 0.0131991 0.0442817
0.0496834 0.00888075 0.0452125
0.0771954 0.00355535 0.0442817
0.125429 0.00207523 0.0406043
0.207004 6.10361e-05 0.0314031
0.236759 0 0.0276951
0.0171359 0.0199588 0.0486152
0.0204318 0.0203403 0.0522011
0.028275 0.0195621 0.0552377
0.0412299 0.0176089 0.0581216
0.0641184 0.0132296 0.0599069
0.103807 0.00854505 0.0594492
0.172045 0.00190738 0.0545052
0.282155 0 0.042359
0.320089 0 0.0377966
0.0171664 0.0330205 0.0659342
0.0233616 0.0338445 0.0710155
0.0339666 0.0337072 0.0761578
0.0532845 0.031342 0.0802319
0.0855879 0.0265507 0.0830549
0.141329 0.0168917 0.0818799
0.234424 0.00573739 0.0754406
0.377371 0.000137331 0.0614023
0.425864 0 0.055848
0.0174716 0.0611429 0.0932021
0.0258183 0.0641337 0.100603
0.041474 0.06598 0.10753
0.0666972 0.0655528 0.114153
0.113375 0.0614023 0.118441
0.191913 0.0484932 0.11809
0.316457 0.0277562 0.110201
0.494896 0.00407416 0.0941024
0.55082 0.00195315 0.0885786
0.0154269 0.123354 0.13608
0.0260471 0.132494 0.147341
0.0466011 0.141711 0.158663
0.0838636 0.146685 0.168017
0.148653 0.146502 0.174258
0.254124 0.136263 0.175006
0.413092 0.112871 0.167178
0.620752 0.0787213 0.152667
0.683177 0.0693523 0.148302
0.00630198 0.258518 0.204532
0.0201724 0.27866 0.221485
0.0478218 0.300221 0.237522
0.100526 0.316442 0.25124
0.189883 0.325154 0.26038
0.328191 0.321828 0.26244
0.518212 0.306279 0.257542
0.741955 0.284413 0.247257
0.803891 0.27895 0.244968
0.000976577 0.512108 0.309514
0.0102235 0.54844 0.333303
0.0417945 0.582147 0.355169
0.116106 0.60766 0.372488
0.235996 0.622873 0.383566
0.407355 0.624094 0.386999
0.622248 0.614252 0.38407
0.838575 0.602258 0.381704
0.888136 0.60116 0.382727
4.57771e-05 0.866011 0.452979
0.00337224 0.89836 0.480583
0.0421759 0.91368 0.504005
0.145678 0.921324 0.520455
0.30222 0.933898 0.530114
0.505592 0.937896 0.531044
0.728466 0.924941 0.529458
0.914824 0.907301 0.53463
0.953735 0.906111 0.538582
0 0.94229 0.495567
0.00526436 0.949996 0.523125
0.0443732 0.960021 0.545983
0.160021 0.97116 0.561929
0.326741 0.990295 0.569223
0.537957 0.985092 0.568978
0.759625 0.97232 0.566888
0.933959 0.960021 0.573114
0.968078 0.956481 0.577813
0.0174563 0.0176089 0.057969
0.0181888 0.0175784 0.0628672
0.0239567 0.0161288 0.0671855
0.0337987 0.0135958 0.0718395
0.0514687 0.00901808 0.075639
0.0802167 0.0040589 0.077821
0.130571 0.00221256 0.0767376
0.21561 3.0518e-05 0.0701762
0.245686 0 0.0677348
0.0171969 0.0210422 0.077409
0.0208591 0.0214237 0.0838788
0.0289769 0.0206912 0.0899977
0.0428016 0.0186618 0.0956893
0.0662699 0.0140841 0.101396
0.107836 0.00906386 0.10544
0.178729 0.0016022 0.104433
0.292927 0 0.0964981
0.332128 0 0.0928969
0.0174563 0.0345617 0.104952
0.0239261 0.0355535 0.114366
0.03505 0.0355535 0.124254
0.055024 0.0335088 0.132845
0.0887922 0.028275 0.13991
0.147143 0.0180972 0.144015
0.243748 0.00607309 0.143526
0.391516 0.000106813 0.134752
0.44033 1.5259e-05 0.13077
0.0177615 0.0640574 0.148028
0.0263371 0.0674144 0.16022
0.0428168 0.0691234 0.17261
0.0696117 0.0693828 0.185916
0.118059 0.0650034 0.195727
0.199649 0.051545 0.201343
0.328191 0.0297551 0.199741
0.509896 0.00390631 0.190143
0.567452 0.00291447 0.186481
0.0153201 0.129305 0.210956
0.0266117 0.139239 0.228519
0.0479591 0.148363 0.246128
0.0867933 0.153979 0.262364
0.154635 0.153918 0.275288
0.264424 0.142702 0.281514
0.427329 0.119615 0.281529
0.637766 0.0848554 0.273991
0.700206 0.0753796 0.271427
0.00694286 0.269093 0.302785
0.0199435 0.29131 0.32697
0.0492256 0.313222 0.349523
0.104738 0.328878 0.370626
0.197925 0.338582 0.387045
0.339818 0.33431 0.395544
0.533364 0.319738 0.396948
0.75845 0.29781 0.393439
0.819165 0.291737 0.392645
0.00062562 0.529885 0.434623
0.0111391 0.566888 0.465202
0.0447089 0.600671 0.49337
0.122332 0.62594 0.516655
0.245838 0.641093 0.533944
0.421363 0.640925 0.542062
0.637537 0.63032 0.543923
0.850996 0.619821 0.547601
0.899504 0.619043 0.549691
4.57771e-05 0.884031 0.601862
0.00531014 0.914214 0.635019
0.0460059 0.923796 0.663233
0.154513 0.932647 0.684443
0.315358 0.944076 0.696162
0.52224 0.949157 0.70016
0.744106 0.935317 0.700191
0.924834 0.919631 0.706859
0.962493 0.918837 0.710857
0 0.949401 0.65005
0.00575265 0.957321 0.682551
0.0508278 0.966995 0.709758
0.170504 0.978958 0.728618
0.341283 0.998505 0.738125
0.555077 0.987839 0.739055
0.773968 0.980133 0.738003
0.943679 0.966613 0.74255
0.97232 0.964889 0.746975
0.0175479 0.0183871 0.0948348
0.0185092 0.0183413 0.103319
0.0244602 0.0169985 0.11194
0.0346838 0.0145266 0.120851
0.0532387 0.00975052 0.128893
0.083238 0.00512703 0.135546
0.135698 0.00238041 0.140444
0.224292 0 0.140078
0.255634 0 0.138796
0.0171817 0.0225986 0.128054
0.0212558 0.0230411 0.138735
0.0296483 0.0224308 0.150103
0.0443122 0.0202945 0.162036
0.0682841 0.0157473 0.173678
0.112123 0.00993362 0.182879
0.186023 0.00131228 0.187259
0.30396 1.5259e-05 0.18584
0.344701 1.5259e-05 0.184192
0.0177005 0.0369573 0.173907
0.0243534 0.0380713 0.188937
0.035874 0.037995 0.204105
0.0564584 0.036408 0.218814
0.0920119 0.030869 0.233127
0.152804 0.0196384 0.244709
0.253223 0.00669871 0.25034
0.404913 0.00015259 0.247715
0.454826 7.62951e-05 0.246082
0.0178378 0.0678721 0.237186
0.0266117 0.0716564 0.257084
0.0439307 0.0732128 0.276631
0.0722972 0.0741741 0.296681
0.122652 0.0694896 0.313451
0.20708 0.0556191 0.32575
0.340612 0.0319524 0.330938
0.525963 0.00544747 0.327749
0.584512 0.00512703 0.325872
0.0149233 0.136187 0.32517
0.0269932 0.147051 0.350301
0.0493629 0.156222 0.374945
0.0895705 0.162448 0.397848
0.160708 0.162036 0.417792
0.274983 0.150683 0.430808
0.441321 0.12723 0.436301
0.654749 0.0918898 0.434134
0.717403 0.0820935 0.432853
0.00756847 0.280995 0.442496
0.0192721 0.305211 0.474113
0.0509194 0.327108 0.504097
0.109102 0.34342 0.530373
0.205905 0.352255 0.551385
0.351812 0.347631 0.564248
0.548257 0.333074 0.568887
0.774243 0.311467 0.569284
0.832593 0.306065 0.569299
0.000274662 0.54873 0.598062
0.0113985 0.586297 0.633265
0.0475013 0.620462 0.666056
0.128374 0.644984 0.692378
0.255863 0.658549 0.710796
0.436255 0.658457 0.720531
0.653574 0.647288 0.722652
0.862623 0.637003 0.724727
0.911315 0.637339 0.727367
1.5259e-05 0.902007 0.780148
0.00700389 0.92604 0.814343
0.0506142 0.933486 0.84242
0.164416 0.943099 0.862623
0.329442 0.954253 0.870466
0.538796 0.960296 0.869505
0.759503 0.943938 0.862928
0.934157 0.931395 0.863813
0.968322 0.931685 0.867277
0 0.95671 0.829877
0.00549325 0.964782 0.86276
0.057847 0.973663 0.886992
0.181521 0.986755 0.900816
0.356558 0.999802 0.904906
0.572488 0.990829 0.899031
0.787137 0.98706 0.892729
0.95288 0.973251 0.894896
0.976913 0.972793 0.898772
0.0175479 0.0199741 0.156191
0.0187533 0.0199283 0.170367
0.0250095 0.0186007 0.18436
0.0356146 0.016022 0.198703
0.054902 0.0113375 0.212222
0.0863661 0.00669871 0.226444
0.141253 0.00257877 0.237995
0.233005 0 0.24358
0.266133 0 0.244297
0.0170748 0.0249485 0.208011
0.0215 0.0253605 0.224826
0.0301213 0.0248722 0.243473
0.0456855 0.0227054 0.262257
0.070634 0.018265 0.280308
0.116579 0.0111849 0.296376
0.193698 0.00103761 0.307683
0.315358 4.57771e-05 0.312779
0.357504 1.5259e-05 0.313008
0.0177615 0.0400702 0.276371
0.0245823 0.0413825 0.29865
0.0366522 0.0415045 0.3205
0.0579995 0.0401617 0.343389
0.0951553 0.0343633 0.364141
0.158434 0.0216526 0.381445
0.262776 0.0077821 0.393622
0.419532 0.00030518 0.396414
0.470283 0.000137331 0.396002
0.0176394 0.0725872 0.364294
0.0267185 0.0766308 0.390951
0.0447547 0.0787976 0.417227
0.0747997 0.0797894 0.44332
0.127626 0.0746929 0.466377
0.215808 0.0602579 0.48394
0.353201 0.0345769 0.493828
0.54226 0.00944533 0.495262
0.601511 0.00770581 0.494057
0.0142519 0.144228 0.475563
0.0271458 0.155505 0.506279
0.050721 0.165118 0.537011
0.0929122 0.171969 0.564858
0.167514 0.170764 0.588495
0.285679 0.15964 0.604593
0.455985 0.135439 0.611322
0.672435 0.10042 0.610986
0.734646 0.0914473 0.609842
0.0080415 0.293919 0.612512
0.0189364 0.319722 0.647593
0.0528878 0.341588 0.680491
0.113619 0.358785 0.708721
0.213748 0.366278 0.730068
0.364752 0.362264 0.741573
0.564691 0.347021 0.744183
0.790448 0.325856 0.741115
0.845548 0.321767 0.740414
0.000244144 0.568566 0.777966
0.0110781 0.606653 0.813245
0.0504005 0.639307 0.84361
0.134981 0.664973 0.868452
0.267567 0.676997 0.881743
0.451377 0.675868 0.885054
0.670237 0.663706 0.879377
0.875013 0.654108 0.873106
0.923415 0.654078 0.873106
0 0.918486 0.949783
0.00827039 0.935042 0.971847
0.0568399 0.942977 0.989899
0.175357 0.951843 0.992294
0.344549 0.964538 0.989029
0.555718 0.970291 0.984421
0.774929 0.951751 0.973251
0.944076 0.942184 0.967407
0.973541 0.94258 0.967117
0 0.963256 0.979934
0.00527962 0.971359 0.994797
0.0655528 0.979751 0.99762
0.193286 0.993942 0.99617
0.373526 0.999496 0.994553
0.591287 0.993713 0.990616
0.802029 0.989075 0.988357
0.961364 0.978821 0.983886
0.98201 0.979278 0.98436
0.017319 0.0221408 0.252018
0.0187991 0.0221714 0.272297
0.0252995 0.0209354 0.292805
0.0363775 0.0184024 0.314137
0.0562142 0.0140078 0.335363
0.0895552 0.00860609 0.356283
0.147082 0.0028687 0.373541
0.241611 7.62951e-05 0.385534
0.276539 3.0518e-05 0.387686
0.0167697 0.027985 0.325658
0.0215305 0.0285649 0.350408
0.0303044 0.028275 0.375555
0.0466773 0.0260014 0.400885
0.0731975 0.0214084 0.425437
0.120912 0.0128328 0.447059
0.201465 0.00184634 0.464424
0.327565 9.15541e-05 0.474006
0.370077 0 0.475166
0.0174105 0.0441138 0.417517
0.0244144 0.045594 0.44654
0.0372625 0.0460822 0.474662
0.0593118 0.0446021 0.50248
0.0982681 0.0387274 0.528603
0.164263 0.0254368 0.550347
0.273259 0.00927749 0.565042
0.434363 0.000518807 0.570443
0.48658 0.000289921 0.570291
0.0171054 0.0783093 0.526253
0.0267643 0.0822309 0.557488
0.0453651 0.0854658 0.588769
0.0773022 0.0861982 0.61767
0.132708 0.0806592 0.642969
0.224781 0.0654307 0.661418
0.366186 0.0375525 0.670359
0.559594 0.0131991 0.670161
0.61944 0.00988785 0.668574
0.0133059 0.153643 0.651682
0.0272984 0.164981 0.684428
0.0524758 0.174578 0.715801
0.0970169 0.181506 0.743481
0.174533 0.179965 0.76437
0.29688 0.168887 0.77734
0.471794 0.143587 0.778637
0.689967 0.109163 0.771176
0.752438 0.100435 0.768719
0.00827039 0.308858 0.791897
0.0191348 0.334524 0.824674
0.0551308 0.355932 0.852949
0.119005 0.373831 0.875868
0.223758 0.380026 0.889387
0.378729 0.376135 0.892287
0.582223 0.360204 0.884642
0.807126 0.340246 0.869978
0.858763 0.337255 0.866484
0.000411994 0.588342 0.939895
0.0104372 0.626871 0.962844
0.0540169 0.659358 0.977798
0.14258 0.683528 0.986847
0.280232 0.694408 0.989105
0.467384 0.691264 0.985138
0.688136 0.679225 0.972808
0.888289 0.669657 0.953399
0.93489 0.66952 0.94902
0 0.933822 0.999893
0.00918593 0.943206 0.999954
0.0644236 0.951339 1
0.187442 0.959106 1
0.361318 0.974212 1
0.57499 0.974029 0.999924
0.790097 0.958358 0.99939
0.954437 0.95079 0.995193
0.979095 0.949676 0.993271
0 0.968963 1
0.00576791 0.976455 1
0.0741283 0.985428 1
0.206989 0.999771 1
0.391272 0.999313 1
0.610636 0.996857 0.999969
0.817578 0.990005 0.999817
0.968307 0.983566 0.998688
0.987564 0.984619 0.998199
0.016907 0.0251316 0.385962
0.0186313 0.0252232 0.412726
0.0252842 0.024094 0.439551
0.03682 0.0215763 0.466972
0.0574655 0.017319 0.494102
0.0925154 0.0105592 0.519585
0.152773 0.00360113 0.541527
0.250751 0.000289921 0.556695
0.287282 0.000106813 0.559167
0.0162051 0.0320134 0.481163
0.02121 0.0326696 0.511193
0.0301976 0.0324407 0.541329
0.0475776 0.0299229 0.570581
0.0757458 0.024918 0.598962
0.125673 0.0149844 0.623194
0.209277 0.00343328 0.641047
0.340322 0.000137331 0.651072
0.38378 0 0.651972
0.016846 0.0489662 0.589288
0.0240787 0.0504311 0.620996
0.0378576 0.0512093 0.652247
0.060853 0.0495155 0.681193
0.101518 0.0433204 0.707485
0.171588 0.0291752 0.727794
0.284352 0.0106508 0.739559
0.449592 0.000762951 0.741054
0.503502 0.000488289 0.73933
0.0168765 0.084596 0.705867
0.0271763 0.0883955 0.736996
0.0460975 0.0923476 0.766918
0.0800031 0.0926223 0.79292
0.138094 0.0862745 0.813489
0.234257 0.0703288 0.826627
0.380484 0.0412604 0.828504
0.57731 0.0161898 0.818372
0.637903 0.0115358 0.814603
0.0123751 0.16321 0.826398
0.0275273 0.174258 0.85449
0.0543221 0.184329 0.879789
0.101869 0.190738 0.900008
0.182773 0.188983 0.911467
0.30898 0.176883 0.912886
0.488701 0.150927 0.901427
0.708537 0.11725 0.880735
0.770794 0.108324 0.873976
0.00814832 0.323323 0.944228
0.0196689 0.348943 0.96701
0.0580148 0.370855 0.98056
0.125597 0.387762 0.987381
0.234775 0.393256 0.989792
0.394278 0.388891 0.979309
0.60061 0.371862 0.957519
0.823026 0.35378 0.926207
0.872206 0.350393 0.918318
0.000991836 0.608072 0.999985
0.0103304 0.646479 1
0.058854 0.677882 1
0.151354 0.700587 1
0.294194 0.710079 1
0.484947 0.705715 0.999542
0.70602 0.69221 0.991974
0.90219 0.683742 0.966705
0.9467 0.68426 0.960616
0 0.941665 1
0.010132 0.949889 1
0.0734112 0.958251 1
0.201297 0.966369 1
0.379339 0.982849 1
0.594995 0.976516 1
0.806165 0.965042 1
0.96437 0.955901 0.996124
0.98439 0.955581 0.994247
0.000106813 0.973724 1
0.00801099 0.980743 1
0.0838483 0.990829 1
0.222156 1 1
0.4103 0.999252 1
0.629923 0.999435 1
0.833524 0.991119 0.999969
0.975128 0.988251 0.999191
0.992935 0.98941 0.998901
0.0167239 0.0261234 0.428458
0.0185092 0.026215 0.456535
0.0252232 0.0251011 0.485145
0.0369573 0.0225681 0.513298
0.057847 0.0182803 0.541894
0.0933852 0.011017 0.56791
0.154269 0.00386053 0.589975
0.253635 0.000350958 0.605142
0.290318 0.000106813 0.607462
0.0160525 0.0331884 0.527489
0.0211032 0.033814 0.558373
0.0301976 0.0336461 0.589471
0.0478218 0.0311131 0.619226
0.076463 0.025864 0.647227
0.127108 0.01561 0.671336
0.211887 0.00384527 0.68893
0.34403 0.000137331 0.697459
0.387625 0 0.697978
0.0167086 0.050309 0.637934
0.0240177 0.0518349 0.669459
0.0380713 0.0525826 0.700191
0.0614023 0.0508431 0.729137
0.10251 0.0445106 0.754009
0.173709 0.0301213 0.77319
0.287648 0.0109407 0.782879
0.453696 0.000823987 0.781613
0.508019 0.000549325 0.77966
0.0168612 0.0862898 0.753384
0.0272984 0.0901656 0.783123
0.0463264 0.0941329 0.811749
0.0809033 0.0943313 0.83592
0.139803 0.087892 0.854551
0.236973 0.071458 0.863935
0.384726 0.042237 0.861906
0.582742 0.0168307 0.849515
0.642695 0.0118868 0.843687
0.0122377 0.165499 0.867994
0.0276951 0.176745 0.894697
0.0550088 0.186923 0.916335
0.103319 0.193011 0.93341
0.185382 0.19144 0.940948
0.312749 0.178988 0.937316
0.493919 0.15256 0.922011
0.714076 0.119112 0.895323
0.775677 0.109926 0.887526
0.00805676 0.32726 0.976532
0.0200198 0.352773 0.987808
0.0590524 0.374884 0.995132
0.127443 0.390921 0.99826
0.238056 0.397101 0.996139
0.398566 0.392355 0.988434
0.605417 0.374517 0.961593
0.827665 0.357412 0.928679
0.876097 0.353948 0.920394
0.00120546 0.613153 1
0.0106813 0.650568 1
0.060441 0.682704 1
0.154116 0.704997 1
0.2981 0.713878 1
0.489952 0.70927 0.999649
0.711269 0.695888 0.992081
0.906371 0.687648 0.96672
0.950057 0.688319 0.960784
0 0.943618 1
0.0104372 0.951736 1
0.0759899 0.959777 1
0.205386 0.968475 1
0.384207 0.985031 1
0.601022 0.977508 1
0.810529 0.966857 1
0.966293 0.957076 0.996124
0.985763 0.956634 0.994278
0.000198367 0.974792 1
0.00883497 0.981796 1
0.086717 0.992142 1
0.226413 1 1
0.415824 0.999237 1
0.635752 0.99939 1
0.83798 0.991501 0.999969
0.976989 0.989578 0.999313
0.9944 0.989776 0.998901
