luts/varicam_official/Blue Dusk 33 E-E.cube
TITLE "Generated by Resolve"
LUT_3D_SIZE 33
0.0159915 0.0161288 0.0167239
0.0166323 0.016022 0.0166171
0.017792 0.0156863 0.0164034
0.0193179 0.0152285 0.0161135
0.0213169 0.0146334 0.0157321
0.023682 0.014023 0.0153811
0.0265354 0.0131685 0.0148318
0.0297704 0.0122988 0.014313
0.0335851 0.0111543 0.0135958
0.0376745 0.0100404 0.0129091
0.0432136 0.00863661 0.0119478
0.0500954 0.00689708 0.0107118
0.0576028 0.00509651 0.00936904
0.0657511 0.0031281 0.00782788
0.0752575 0.00134279 0.00636301
0.0889601 0.00120546 0.00495918
0.103593 0.00106813 0.00343328
0.119173 0.000808728 0.00178531
0.141344 0.000564584 0.00125124
0.165515 0.00030518 0.000854505
0.191959 0 0.000381476
0.226215 0 0.000244144
0.26215 0 6.10361e-05
0.305547 0 0
0.352682 0 0
0.405798 0 0
0.463661 0 0
0.526619 0 0
0.593942 0 0
0.66511 0 0
0.739162 0 0
0.812528 0 0
0.886885 0 0
0.0158236 0.0171664 0.0168917
0.0165866 0.0169375 0.0167544
0.0177157 0.0166934 0.016556
0.0192264 0.0162356 0.0163424
0.0212406 0.0156405 0.0159609
0.0236057 0.0150301 0.0155337
0.0264591 0.0141756 0.0150759
0.0296941 0.0133211 0.0144808
0.0334173 0.0122072 0.0138552
0.037583 0.0110628 0.0131533
0.0430457 0.00967422 0.0121309
0.0500496 0.00788891 0.0108644
0.057557 0.00607309 0.00952163
0.0657054 0.00408942 0.00805676
0.0752728 0.00228885 0.0065156
0.0889754 0.00199893 0.005066
0.103609 0.00169375 0.00349432
0.119203 0.0012665 0.0018616
0.141436 0.000869764 0.00131228
0.165347 0.000442512 0.000869764
0.191791 0 0.000411994
0.226368 0 0.000244144
0.262318 0 6.10361e-05
0.305379 0 0
0.352529 0 0
0.405631 0 0
0.463935 0 0
0.52694 0 0
0.594263 0 0
0.664942 0 0
0.738979 0 0
0.812848 0 0
0.886717 0 0
0.0156558 0.0186923 0.0172122
0.0164187 0.0184634 0.0170748
0.0174563 0.018265 0.0168917
0.0190738 0.0177768 0.0165866
0.0209812 0.0172122 0.0162966
0.0234531 0.0164645 0.0158389
0.0261997 0.0157473 0.0154116
0.0295415 0.0147555 0.014786
0.0332494 0.0137484 0.0141756
0.0373388 0.0126345 0.0134279
0.0429389 0.0111086 0.0124361
0.0497902 0.00943008 0.0112154
0.0574197 0.00756847 0.00985733
0.0655833 0.00555428 0.00839246
0.0751965 0.0037232 0.00683604
0.0889143 0.00318914 0.00531014
0.103563 0.00257877 0.00366217
0.118959 0.0019379 0.00190738
0.141192 0.00131228 0.00140383
0.165377 0.000640879 0.0009308
0.191867 0 0.000442512
0.226139 0 0.000274662
0.262058 0 6.10361e-05
0.305531 0 0
0.352682 0 0
0.405859 0 0
0.464164 0 0
0.527199 0 0
0.594507 0 0
0.665187 0 0
0.739223 0 0
0.813077 0 0
0.8869 0 0
0.0154116 0.0207523 0.0176242
0.0160678 0.0205539 0.0174868
0.0172122 0.0202182 0.0172732
0.0188296 0.0198367 0.0169985
0.0207218 0.0192721 0.0167086
0.0231174 0.018555 0.0162661
0.0259556 0.0178073 0.0157473
0.0292973 0.0168154 0.015198
0.0330053 0.0158236 0.0145876
0.0370794 0.0147097 0.0138399
0.0427253 0.0131533 0.0128481
0.0495766 0.0114595 0.0116274
0.0572061 0.00955215 0.0102693
0.0653697 0.00750744 0.00880446
0.0750439 0.00561532 0.00723278
0.0887617 0.00476081 0.00561532
0.103227 0.00383001 0.00389105
0.118822 0.00282292 0.00201419
0.141115 0.00189212 0.00149538
0.165301 0.000915541 0.0010071
0.191852 0 0.000503548
0.226123 0 0.00030518
0.262043 0 7.62951e-05
0.305592 0 0
0.352758 0 0
0.405982 0 0
0.464286 0 0
0.526864 0 0
0.594675 0 0
0.665354 0 0
0.739361 0 0
0.813214 0 0
0.887007 0 0
0.0150759 0.023331 0.0181125
0.0158389 0.0231022 0.0179599
0.0169833 0.0227665 0.0177462
0.0184939 0.0224155 0.0175631
0.0204929 0.0218204 0.0171817
0.0228733 0.0211032 0.0167391
0.0256199 0.0204013 0.0163272
0.0289616 0.0194095 0.0157015
0.0326696 0.0184024 0.0151064
0.0368505 0.0172732 0.0143282
0.0424201 0.0157321 0.0133516
0.0494087 0.013962 0.0121157
0.0569162 0.0120546 0.0107729
0.0650645 0.0099794 0.009308
0.0747997 0.00798047 0.00772107
0.0885328 0.00672923 0.0059968
0.103197 0.00535592 0.00411994
0.118791 0.00390631 0.00210575
0.140963 0.00262455 0.00161746
0.165133 0.00125124 0.00108339
0.191745 0 0.000579843
0.226032 0 0.000350958
0.262287 0 7.62951e-05
0.305577 0 0
0.352758 0 0
0.406027 0 0
0.464332 0 0
0.527428 0 0
0.594751 0 0
0.665431 0 0
0.739437 0 0
0.813275 0 0
0.887022 0 0
0.0146487 0.0264286 0.0187686
0.0153964 0.0263066 0.0186465
0.0165408 0.0259556 0.0184329
0.0180667 0.0255131 0.018143
0.0200656 0.024918 0.0177768
0.0224308 0.0243229 0.0174258
0.0252995 0.0234684 0.0168917
0.0285191 0.0226139 0.0163882
0.0322423 0.0215152 0.0157015
0.0364233 0.0203861 0.0150149
0.0421454 0.0188907 0.014023
0.049012 0.0170138 0.0127871
0.0565194 0.0150607 0.011368
0.064683 0.0129244 0.0099031
0.0744793 0.0108034 0.00828565
0.0882124 0.00907912 0.00642405
0.102861 0.00727855 0.00448615
0.118486 0.00521859 0.00231937
0.140993 0.0034638 0.00173953
0.165133 0.00163272 0.00122072
0.191897 0 0.000671397
0.226154 0 0.000396735
0.262104 0 7.62951e-05
0.30547 0 0
0.353048 0 0
0.405982 0 0
0.464286 0 0
0.527398 0 0
0.59472 0 0
0.665904 0 0
0.739406 0 0
0.81323 0 0
0.887404 0 0
0.0142214 0.0301213 0.0194247
0.0149844 0.0298924 0.0192874
0.0161288 0.0295567 0.0191501
0.0176394 0.0292058 0.0188907
0.0196384 0.0286107 0.0185245
0.0220188 0.0279088 0.0180819
0.0248722 0.0271763 0.0176547
0.0281071 0.0262303 0.0170443
0.0318151 0.0252384 0.0164645
0.0360113 0.0240024 0.0157626
0.0416724 0.0224918 0.0147097
0.048661 0.0206455 0.0134737
0.0561685 0.0186313 0.0121309
0.0643168 0.0164492 0.0106661
0.0742351 0.0141604 0.00900282
0.0879835 0.0118715 0.00697337
0.102663 0.0093843 0.00479133
0.118288 0.00669871 0.00251774
0.140902 0.00447089 0.00192264
0.165057 0.00205997 0.00134279
0.191943 0 0.00077821
0.22623 0 0.000457771
0.26215 0 9.15541e-05
0.305669 0 0
0.353277 0 0
0.406317 0 0
0.464607 0 0
0.527794 0 0
0.595117 0 0
0.6663 0 0
0.739742 0 0
0.813596 0 0
0.887236 0 0
0.0137026 0.0343328 0.020264
0.0144656 0.0341039 0.0201114
0.01561 0.0337682 0.0199893
0.0171206 0.0334325 0.0197299
0.0191196 0.0328374 0.0193637
0.0215152 0.0321355 0.0189212
0.0243534 0.0314031 0.0184939
0.0276036 0.030457 0.0178988
0.0312963 0.0294652 0.017319
0.0354925 0.0282444 0.0166171
0.0412299 0.026688 0.0155489
0.0482185 0.0247807 0.014313
0.0557107 0.0227207 0.0129702
0.0638743 0.0204623 0.0115206
0.0739147 0.0179446 0.00978103
0.0876631 0.0150149 0.00758373
0.102358 0.011841 0.00520333
0.117998 0.00842298 0.00273136
0.140749 0.0055848 0.00215152
0.164889 0.002533 0.00151064
0.191913 0 0.000915541
0.226184 0 0.000534066
0.262119 0 9.15541e-05
0.305776 0 0
0.353399 0 0
0.406546 0 0
0.464836 0 0
0.528084 0 0
0.595407 0 0
0.66659 0 0
0.739986 0 0
0.81387 0 0
0.887419 0 0
0.0131075 0.0390631 0.0212558
0.0138552 0.038941 0.0211337
0.0149996 0.0386206 0.0209201
0.0165255 0.0381628 0.0206455
0.0185245 0.037583 0.0202792
0.0208896 0.0369879 0.0199435
0.0237583 0.0361639 0.0194247
0.026978 0.0353246 0.0189364
0.0307012 0.034226 0.0182498
0.0348821 0.0331121 0.0175784
0.0408026 0.0314641 0.016556
0.0476844 0.0294194 0.0153201
0.0551919 0.0272984 0.0139162
0.0633402 0.024979 0.0124514
0.0735027 0.0221714 0.0106508
0.0872663 0.0185092 0.00823987
0.101961 0.0146181 0.00575265
0.117678 0.0103761 0.00300603
0.140505 0.00682078 0.00239567
0.164599 0.0030518 0.00177005
0.191775 0 0.00108339
0.226047 0 0.00062562
0.262013 0 0.000106813
0.305806 0 0
0.353429 0 0
0.406683 0 0
0.464973 0 0
0.528267 0 0
0.59559 0 0
0.666773 0 0
0.740108 0 0
0.813962 0 0
0.887434 0 0
0.0123445 0.0453498 0.022446
0.0131228 0.0451209 0.0223087
0.0142367 0.0449378 0.0221256
0.0157626 0.0444953 0.0219272
0.0177615 0.0439002 0.021561
0.0201267 0.0433509 0.021149
0.0228885 0.0425422 0.0207218
0.026215 0.0417182 0.0201419
0.0299229 0.0406195 0.0195315
0.0341039 0.0395361 0.0187991
0.0399939 0.0379187 0.0177768
0.0469978 0.0358129 0.0165408
0.0545052 0.0337072 0.0152132
0.0626535 0.0314031 0.0137636
0.0729839 0.0284733 0.0119173
0.0867475 0.0245823 0.00944533
0.101442 0.0205386 0.00682078
0.117372 0.0161288 0.00408942
0.139925 0.0120699 0.00326543
0.164004 0.00781262 0.00225834
0.191318 0.00402838 0.00132753
0.225574 0.00251774 0.000762951
0.26186 0.000732433 0.000106813
0.305852 0.000274662 0
0.353063 7.62951e-05 0
0.406867 0 0
0.465141 0 0
0.528527 0 0
0.59585 0 0
0.66656 0 0
0.740337 0 0
0.814221 0 0
0.887541 0 0
0.0113069 0.0535134 0.0240635
0.0120699 0.0532845 0.0239261
0.0131228 0.0529793 0.0237278
0.0147402 0.0525063 0.0234226
0.0166323 0.052079 0.0231785
0.0191043 0.0513619 0.0227207
0.0218662 0.0505379 0.0222934
0.0251926 0.0496986 0.0216983
0.0288853 0.0487526 0.0211185
0.03299 0.0475471 0.0203555
0.0390784 0.0458686 0.0193179
0.0459297 0.0439612 0.0181277
0.0535592 0.041825 0.0167849
0.0617075 0.0395209 0.0153506
0.072221 0.0365606 0.013489
0.0859846 0.0326543 0.011017
0.100694 0.0284733 0.00836194
0.116579 0.0240787 0.00569161
0.139361 0.01944 0.00442512
0.16347 0.0143587 0.00292973
0.191012 0.00950637 0.0016022
0.225269 0.00573739 0.000915541
0.261204 0.00161746 0.000122072
0.305745 0.00062562 0
0.352956 0.00015259 0
0.406912 0 0
0.465187 0 0
0.528679 0 0
0.595987 0 0
0.666743 0 0
0.740444 0 0
0.814328 0 0
0.887541 0 0
0.0101472 0.0623789 0.025803
0.0109102 0.06215 0.0256657
0.0120546 0.0618143 0.025452
0.0135805 0.0613718 0.0251621
0.0154726 0.0609445 0.0249027
0.0179446 0.0602121 0.024445
0.0206912 0.0595254 0.024033
0.024033 0.0585489 0.0234073
0.0277256 0.0575875 0.0228122
0.0319219 0.0563363 0.022034
0.0380255 0.0546578 0.0209964
0.0448768 0.0527657 0.0198215
0.0525063 0.0506447 0.0184939
0.0606546 0.0483558 0.0170748
0.0713512 0.0453498 0.0151827
0.0851148 0.0414435 0.0127108
0.0998093 0.0372625 0.0100557
0.115908 0.0327916 0.00738537
0.138705 0.0274205 0.00563058
0.162814 0.021561 0.00364691
0.19057 0.0154269 0.00198367
0.224826 0.00917067 0.00109865
0.261097 0.00236515 0.000106813
0.305516 0.000976577 0
0.352712 0.000244144 0
0.406821 0 0
0.465095 0 0
0.528695 0 0
0.596002 0 0
0.666773 0 0
0.740429 0 0
0.814313 0 0
0.887404 0 0
0.00885023 0.0720989 0.0276799
0.00961318 0.07187 0.0275425
0.0107576 0.0715343 0.0274052
0.0122835 0.0710765 0.0271153
0.0142824 0.0704814 0.0267338
0.0166476 0.0699168 0.0263066
0.0195163 0.0690623 0.0258488
0.0227359 0.0682383 0.0252689
0.0264439 0.0671244 0.0246433
0.0306249 0.0660105 0.0239567
0.0368353 0.0643168 0.0228275
0.0438087 0.0623941 0.0216373
0.0513313 0.0601816 0.020325
0.0594797 0.057908 0.0189212
0.0703441 0.0548409 0.0169985
0.0840925 0.0510872 0.0145418
0.0988022 0.0469062 0.0118868
0.115373 0.0422065 0.00924697
0.138186 0.0359045 0.00689708
0.162264 0.0293278 0.00437934
0.190311 0.0216983 0.00236515
0.224582 0.0126955 0.00128176
0.260533 0.00308232 0.000106813
0.305135 0.00135805 0
0.352728 0.00030518 0
0.406592 0 0
0.464866 0 0
0.528557 0 0
0.595865 0 0
0.667155 0 0
0.740307 0 0
0.81416 0 0
0.887114 0 0
0.00755322 0.0846265 0.0301061
0.00830091 0.0843977 0.0299535
0.00933852 0.0840772 0.0297551
0.0109255 0.0835889 0.0294499
0.0127871 0.0832227 0.0292058
0.0152132 0.082475 0.0287327
0.0179141 0.0818647 0.0283207
0.0211948 0.0808576 0.0276799
0.0248112 0.0799573 0.0271
0.0290684 0.0786603 0.026276
0.0352636 0.0770275 0.0252384
0.0421149 0.0752117 0.024094
0.0497292 0.073167 0.022797
0.0578622 0.0709697 0.0214084
0.0689555 0.0679026 0.0194553
0.0827192 0.0640574 0.0169985
0.0974136 0.0599222 0.0143587
0.113985 0.0552224 0.0115969
0.136751 0.0488746 0.00885023
0.160845 0.0419165 0.00579843
0.18912 0.033753 0.0033875
0.223377 0.0240024 0.00196841
0.259312 0.0137636 0.000427253
0.304509 0.0099031 0.000198367
0.351659 0.00631724 4.57771e-05
0.406104 0.00349432 0
0.464363 0.000732433 0
0.528161 0 0
0.595453 0 0
0.666255 0 0
0.739773 0 0
0.813642 0 0
0.886412 0 0
0.00611887 0.100999 0.0331731
0.00675975 0.100801 0.0330358
0.00782788 0.10045 0.0328222
0.00936904 0.0999619 0.032517
0.0111391 0.0995956 0.0322728
0.0133822 0.0988937 0.0318151
0.0160525 0.0982376 0.0313115
0.0191958 0.0972305 0.0307469
0.0226596 0.0963302 0.0301518
0.0268101 0.0950332 0.0293431
0.0331273 0.09337 0.028275
0.0399634 0.0915541 0.0271305
0.0475929 0.0895094 0.0258335
0.0557259 0.0873121 0.024445
0.0670481 0.0841688 0.022446
0.0807965 0.080293 0.0199893
0.0953078 0.0762036 0.01738
0.112352 0.0713512 0.0144808
0.135119 0.0650187 0.0112154
0.159213 0.0580911 0.00762951
0.187762 0.0500343 0.00476081
0.222065 0.0400702 0.00296025
0.25803 0.0298009 0.000961318
0.303456 0.0224002 0.000534066
0.350591 0.0148165 0.000106813
0.405234 0.00819409 0
0.463493 0.0015259 0
0.52694 0 0
0.594705 0 0
0.665553 0 0
0.73901 0 0
0.812863 0 0
0.885481 0 0
0.00453193 0.118608 0.0364385
0.00521859 0.118379 0.0363012
0.00624094 0.118044 0.0360876
0.00761425 0.117586 0.035874
0.009308 0.11722 0.0355383
0.0115358 0.116472 0.0350652
0.014023 0.115648 0.0346227
0.0169833 0.114855 0.0340276
0.020325 0.113741 0.033402
0.0245975 0.112566 0.0325628
0.0307927 0.110948 0.0315404
0.0377661 0.109087 0.0303655
0.0452583 0.107088 0.0290837
0.0533913 0.104891 0.0276951
0.0649577 0.101656 0.0256504
0.0786908 0.0977646 0.0231937
0.0933852 0.0935988 0.0205539
0.11078 0.0886397 0.0174868
0.133318 0.0822003 0.0137026
0.157382 0.0755016 0.00958267
0.186252 0.067155 0.00633249
0.220569 0.0573587 0.00404364
0.257115 0.0467536 0.0016022
0.30222 0.035584 0.0009308
0.349325 0.023682 0.00015259
0.404181 0.0130007 0
0.46244 0.00213626 0
0.526482 0 0
0.593774 0 0
0.664652 0 0
0.738079 0 0
0.811902 0 0
0.884352 0 0
0.00331121 0.13991 0.0403449
0.00392157 0.139681 0.0402838
0.00485237 0.139345 0.0400702
0.00605783 0.139162 0.039826
0.00767529 0.138567 0.0394446
0.00959792 0.13785 0.0390631
0.0118715 0.13727 0.0385748
0.0144656 0.136309 0.0380407
0.0174105 0.13547 0.0373846
0.0215763 0.134356 0.0366217
0.0279393 0.132479 0.035523
0.0347753 0.130739 0.0343175
0.0422522 0.128817 0.033051
0.05037 0.126696 0.0316777
0.06215 0.123461 0.0296025
0.0758831 0.119646 0.0271458
0.090547 0.115541 0.0245975
0.108171 0.110857 0.0214694
0.130953 0.104433 0.0173037
0.155032 0.097612 0.0129854
0.184237 0.0895094 0.00923171
0.218585 0.0795911 0.00601205
0.255009 0.0693217 0.00267033
0.300069 0.0565194 0.00154116
0.347539 0.0430152 0.000244144
0.402213 0.0301518 3.0518e-05
0.460456 0.0170748 0
0.52462 0.0114443 0
0.591882 0.00683604 0
0.663218 0.00314336 0
0.736049 0 0
0.809888 0 0
0.882094 0 0
0.00285344 0.16762 0.0454261
0.00332647 0.167391 0.0452735
0.00404364 0.167041 0.0450599
0.0049897 0.166583 0.0448463
0.00624094 0.165988 0.0444648
0.00769055 0.16556 0.0440528
0.00947585 0.164706 0.043595
0.0114443 0.164019 0.0430304
0.0137484 0.162921 0.0424048
0.017792 0.161746 0.0416114
0.0239719 0.160189 0.0405127
0.03093 0.158404 0.039353
0.0384527 0.156191 0.0380407
0.0465858 0.15407 0.0366674
0.0586557 0.150744 0.0345312
0.0723735 0.146929 0.0320897
0.0870069 0.14313 0.0295109
0.105013 0.138064 0.0263218
0.12781 0.131624 0.0221714
0.151843 0.125078 0.0178225
0.18146 0.116579 0.0133822
0.215763 0.10695 0.0087129
0.252552 0.0963149 0.00415045
0.297627 0.0835126 0.00236515
0.345098 0.0700084 0.000350958
0.399985 0.0559243 7.62951e-05
0.458228 0.0410468 1.5259e-05
0.522545 0.0290837 0
0.589822 0.0168765 0
0.660746 0.0074464 0
0.733989 0 0
0.807782 0 0
0.87982 0 0
0.00216678 0.196735 0.0507362
0.00250248 0.196506 0.0505837
0.00299077 0.19617 0.0504463
0.00364691 0.195712 0.0501564
0.00448615 0.195407 0.0498207
0.00550851 0.19469 0.0493782
0.00672923 0.193851 0.0489052
0.00807202 0.193164 0.0483406
0.00965896 0.192065 0.047715
0.0137179 0.190829 0.046891
0.0198978 0.189273 0.0457923
0.0268559 0.187488 0.0446326
0.0343481 0.18555 0.0433814
0.0424659 0.183413 0.0420081
0.0548409 0.180011 0.0398108
0.0685588 0.176211 0.0373541
0.0832227 0.172122 0.0347295
0.101595 0.166964 0.0314946
0.124376 0.16051 0.0273289
0.148409 0.153948 0.0229801
0.178408 0.145357 0.0176852
0.212711 0.135729 0.0115816
0.249836 0.125002 0.00581369
0.294911 0.112215 0.00326543
0.342367 0.0987869 0.000442512
0.397482 0.0832074 0.000167849
0.455695 0.0667124 1.5259e-05
0.52015 0.0483711 0
0.587442 0.0294347 0
0.658351 0.0148318 0
0.731487 0.00389105 0
0.805234 0.00341802 0
0.877043 0.00234989 0
0.00141909 0.234638 0.0576486
0.00161746 0.234409 0.0575113
0.00190738 0.234073 0.0572976
0.00228885 0.233616 0.0570077
0.0027924 0.233387 0.0566873
0.00340276 0.232685 0.0563211
0.00411994 0.23183 0.0557717
0.00492866 0.231235 0.0552987
0.00585946 0.230121 0.0545968
0.00991836 0.228931 0.0537575
0.0158694 0.22742 0.0527352
0.0222934 0.225757 0.051606
0.0293126 0.223896 0.0502785
0.0369421 0.221851 0.0489052
0.049546 0.218433 0.0466773
0.0632486 0.21471 0.0443122
0.0778668 0.210697 0.0417029
0.0965744 0.205509 0.0383307
0.119356 0.199145 0.0341955
0.143389 0.192767 0.0299687
0.173724 0.184115 0.0244755
0.20798 0.174655 0.0183871
0.245426 0.163897 0.0122988
0.290471 0.151278 0.00772107
0.337911 0.137926 0.00274662
0.393317 0.122271 0.00144961
0.451545 0.105776 6.10361e-05
0.516167 0.0873884 0
0.583505 0.0684367 0
0.654932 0.0511788 0
0.727504 0.0361334 0
0.80119 0.0263371 0
0.873228 0.0161593 0
0.000488289 0.276371 0.065156
0.000549325 0.276158 0.0650034
0.000640879 0.275807 0.0647898
0.000762951 0.275364 0.0645914
0.0009308 0.274769 0.06421
0.00109865 0.274418 0.0638285
0.00132753 0.273579 0.0633707
0.00155642 0.272969 0.0628214
0.00184634 0.27187 0.0621958
0.00602731 0.270619 0.061326
0.0113832 0.269154 0.0602274
0.0174105 0.26746 0.0590677
0.0239414 0.265248 0.0577554
0.0312657 0.263127 0.0563363
0.0439918 0.259678 0.054078
0.0576028 0.256306 0.0516976
0.0722057 0.252277 0.0490883
0.0913405 0.246967 0.045716
0.114137 0.24062 0.0415961
0.137911 0.234333 0.0373541
0.168627 0.225574 0.0318303
0.203189 0.215991 0.0255741
0.241016 0.205112 0.0191043
0.286061 0.192477 0.0124208
0.333257 0.179202 0.00538643
0.389242 0.163378 0.00282292
0.447501 0.146883 0
0.512306 0.128435 0
0.579705 0.1093 0
0.650675 0.0894942 0
0.723644 0.0694133 0
0.797253 0.0497902 0
0.86862 0.0301823 0
0 0.324819 0.0738537
0 0.32459 0.0737011
0 0.324681 0.0735637
0 0.324224 0.0733654
0 0.323629 0.0729839
0 0.323354 0.0726177
0 0.322545 0.0721904
0 0.321981 0.0716411
0 0.320882 0.0710307
0.00381476 0.319646 0.0700389
0.00805676 0.318257 0.0690318
0.0128481 0.316197 0.0677958
0.0179294 0.314412 0.0665446
0.0244144 0.312276 0.0650645
0.0371252 0.308904 0.0628061
0.0507668 0.305257 0.0603799
0.0653544 0.301335 0.0577859
0.0848402 0.296407 0.0543526
0.107393 0.290181 0.0503853
0.131502 0.283497 0.046067
0.162554 0.27512 0.040528
0.19675 0.265812 0.0343328
0.235264 0.254826 0.027512
0.280308 0.242329 0.0199741
0.32781 0.229114 0.0122377
0.383764 0.213413 0.00724804
0.442252 0.196551 0.00205997
0.507012 0.178668 0.0010071
0.574456 0.159564 0
0.645365 0.139437 0
0.718196 0.118715 0
0.791867 0.0977035 0
0.862867 0.0779736 0
0 0.380163 0.083711
0 0.379934 0.0835737
0 0.379599 0.08336
0 0.379583 0.0832227
0 0.378973 0.0828565
0 0.378271 0.082414
0 0.377844 0.0820478
0 0.376883 0.0814527
0.000274662 0.37615 0.0808881
0.00265507 0.374472 0.079881
0.00521859 0.373083 0.0787976
0.00808728 0.371466 0.0776226
0.0111238 0.36968 0.0763561
0.0165713 0.367437 0.0747997
0.0292821 0.364111 0.0725567
0.0429236 0.360494 0.0701305
0.0575113 0.356603 0.0675364
0.0775158 0.351095 0.0640421
0.100282 0.34519 0.060029
0.124422 0.33846 0.0557107
0.155978 0.329976 0.0500801
0.190204 0.320272 0.0437934
0.228702 0.309728 0.0369116
0.273762 0.297246 0.0289464
0.322133 0.28336 0.0205844
0.377615 0.267765 0.0127565
0.436194 0.251255 0.00503548
0.50106 0.232898 0.00233463
0.568566 0.213748 0
0.63946 0.193622 0
0.712093 0.173358 0
0.785794 0.152346 0
0.856535 0.132753 0
0 0.442206 0.0948043
0 0.442008 0.0946822
0 0.441672 0.0944686
0 0.441184 0.0941634
0 0.441108 0.0939803
0 0.440406 0.0935378
0 0.439551 0.093019
0 0.439078 0.0925765
0.000320439 0.437812 0.0917983
0.00148013 0.436667 0.0909133
0.00277714 0.435294 0.0898756
0.00416571 0.433753 0.0887465
0.00567636 0.432029 0.0874952
0.0108034 0.429191 0.0857557
0.0226291 0.426413 0.0836042
0.035172 0.422904 0.0812238
0.0487373 0.419074 0.0786297
0.0689708 0.413489 0.0749981
0.091783 0.407202 0.0709239
0.115816 0.401038 0.0667735
0.14786 0.392035 0.060914
0.181994 0.382879 0.0547951
0.220981 0.371832 0.0476539
0.266438 0.35935 0.0395056
0.314626 0.346029 0.0310063
0.370535 0.330434 0.0217899
0.42884 0.314122 0.0128176
0.49366 0.295903 0.00700389
0.561685 0.276722 0.00204471
0.632532 0.256703 0.000732433
0.705135 0.236164 0
0.778302 0.215915 0
0.849241 0.195895 0
0 0.510338 0.106874
0 0.510109 0.106813
0 0.510277 0.106691
0 0.509819 0.106401
0 0.509224 0.106035
0 0.50901 0.10576
0 0.508156 0.105241
0 0.507195 0.104723
0.000122072 0.506416 0.10399
0.000396735 0.505211 0.10309
0.000701915 0.503334 0.101961
0.00102235 0.501793 0.100755
0.00134279 0.500053 0.0995041
0.00595102 0.497627 0.0978103
0.0162966 0.494316 0.0955673
0.0273899 0.490745 0.0931563
0.0392157 0.486885 0.0906539
0.0597391 0.481666 0.0870069
0.0825055 0.47541 0.0829328
0.106569 0.468772 0.078706
0.139071 0.460075 0.0728161
0.173312 0.450416 0.0666209
0.212696 0.439704 0.0594797
0.257755 0.427329 0.0514076
0.306722 0.413809 0.0426184
0.362264 0.397864 0.0326085
0.421241 0.381384 0.0224155
0.486015 0.36321 0.0129091
0.553491 0.344686 0.00502022
0.624842 0.324514 0.00166323
0.696864 0.304143 0
0.770626 0.283253 0
0.840726 0.26389 0
0 0.585321 0.120226
0 0.585092 0.12015
0 0.584756 0.119951
0 0.584298 0.119661
0 0.584237 0.119387
0 0.58352 0.11902
0 0.5832 0.118578
0 0.582238 0.118059
0 0.581415 0.117296
0 0.579721 0.116304
0 0.578378 0.115282
0 0.576867 0.114076
0 0.575174 0.11284
0.00401312 0.572656 0.111086
0.0115358 0.569406 0.108843
0.0195773 0.565881 0.106447
0.0281071 0.562081 0.103929
0.049424 0.556237 0.100114
0.0720989 0.55053 0.0961318
0.0966812 0.543755 0.0918135
0.129183 0.535149 0.0859388
0.163439 0.525536 0.0797589
0.203265 0.514778 0.0725414
0.248371 0.501945 0.0643473
0.297673 0.48838 0.0554665
0.353155 0.472984 0.0454414
0.41236 0.456489 0.0349432
0.477134 0.438346 0.0240177
0.544747 0.419364 0.0141756
0.616114 0.399252 0.00671397
0.687907 0.379522 0.00233463
0.761578 0.358709 0.000198367
0.831525 0.339055 0
0 0.664546 0.134371
0 0.664881 0.13434
0 0.664546 0.134127
0 0.664057 0.133822
0 0.663478 0.133547
0 0.663264 0.133181
0 0.66244 0.132738
0 0.661967 0.132204
0 0.660533 0.13138
0 0.659434 0.130434
0 0.658091 0.129412
0 0.656062 0.128206
0 0.654353 0.12694
0.00268559 0.651728 0.125093
0.00679026 0.648493 0.12285
0.0111696 0.644999 0.120455
0.0168917 0.641688 0.117922
0.0383612 0.635813 0.114092
0.0611276 0.629557 0.110094
0.0861067 0.623163 0.105684
0.1187 0.614069 0.099733
0.152865 0.60502 0.0936294
0.193225 0.593622 0.086305
0.238605 0.581216 0.0780346
0.287877 0.567651 0.0691539
0.343816 0.552117 0.0590829
0.403311 0.535531 0.0483253
0.468071 0.517388 0.0365148
0.535775 0.49839 0.0248417
0.606668 0.478462 0.0135042
0.678874 0.458106 0.00619516
0.752392 0.437842 0.00112917
0.822065 0.418372 0.000396735
0 0.74902 0.149294
0 0.748791 0.149233
0 0.74844 0.14902
0 0.748531 0.148836
0 0.747936 0.14847
0 0.747234 0.148104
0 0.746914 0.147662
0 0.745953 0.147127
0 0.745007 0.146273
