luts/varicam_official/BlueNight 33 E-E.cube
TITLE "Generated by Resolve"
LUT_3D_SIZE 33
0.0171511 0.016846 0.0242924
0.0171511 0.016846 0.0242924
0.0171511 0.016846 0.0242924
0.0171511 0.016846 0.0242924
0.0173342 0.0168002 0.0242618
0.0180667 0.0166171 0.0241245
0.0192111 0.0163272 0.0239414
0.0205692 0.0159304 0.0237278
0.0222019 0.0154726 0.0234531
0.0239872 0.0149996 0.0231174
0.0261234 0.014435 0.0227665
0.028397 0.0138399 0.0224002
0.0311284 0.0131228 0.021912
0.0339971 0.0123903 0.0214084
0.0373236 0.0114748 0.0208438
0.041413 0.0104219 0.0201267
0.0464485 0.00921645 0.0192264
0.0519112 0.00790417 0.0182498
0.0577859 0.00648508 0.0171817
0.0641642 0.00492866 0.016022
0.0716869 0.00363165 0.014786
0.0809339 0.0028687 0.0134432
0.0914321 0.00241093 0.0120241
0.103212 0.00224308 0.0108186
0.116228 0.00195315 0.00949111
0.131411 0.00157168 0.00802625
0.149523 0.00111391 0.00639353
0.170001 0.00062562 0.00463874
0.191424 0.000137331 0.00283818
0.217639 0 0.00177005
0.220066 0 0.00169375
0.220066 0 0.00169375
0.220066 0 0.00169375
0.0171511 0.016846 0.0242924
0.0171511 0.016846 0.0242924
0.0171511 0.016846 0.0242924
0.0171969 0.0168307 0.0242771
0.0176852 0.0167239 0.0242008
0.0187228 0.0164645 0.0240177
0.0200198 0.016083 0.0238193
0.0215457 0.0156558 0.0235599
0.0233005 0.015198 0.0232547
0.0252842 0.0146792 0.0229038
0.0274968 0.0140993 0.0225376
0.0300755 0.0134585 0.0221103
0.0328832 0.0127565 0.0216068
0.0360113 0.0119173 0.021088
0.039704 0.010956 0.0204471
0.044419 0.00987259 0.0196384
0.0497139 0.00875868 0.0187381
0.0554208 0.00758373 0.017792
0.0616312 0.0062562 0.0167544
0.0682689 0.00491341 0.0157473
0.0772869 0.00419623 0.0148013
0.0870069 0.00361639 0.0138094
0.0985122 0.00328069 0.0125734
0.110918 0.00283818 0.0112154
0.125292 0.00230411 0.00965896
0.142306 0.00172427 0.00793469
0.161883 0.00109865 0.00602731
0.183108 0.000442512 0.00407416
0.207584 4.57771e-05 0.00250248
0.235157 0 0.00144961
0.23743 0 0.00137331
0.237354 0 0.00137331
0.237354 0 0.00137331
0.0171511 0.016846 0.0242924
0.0171511 0.0168612 0.0242924
0.0171511 0.0168917 0.0243076
0.0174105 0.0168612 0.0242618
0.0182803 0.0166781 0.0241093
0.0194553 0.0164034 0.0239261
0.0208896 0.016022 0.0237125
0.0225681 0.01561 0.0234226
0.0244297 0.015198 0.0231174
0.0266117 0.014786 0.0227817
0.0289616 0.0143587 0.0224308
0.0317082 0.0138705 0.0220035
0.0346532 0.0132906 0.0215457
0.038056 0.0125734 0.0210422
0.042359 0.0117037 0.0204013
0.0474708 0.0106661 0.0196231
0.0530709 0.00950637 0.0188449
0.0591287 0.00823987 0.0181888
0.0655528 0.00695811 0.0175174
0.0736706 0.0059968 0.0166781
0.0830243 0.00527962 0.0156863
0.0939956 0.00474556 0.0144656
0.105943 0.00415045 0.013077
0.119539 0.00343328 0.0115206
0.135363 0.00262455 0.00973526
0.154177 0.00175479 0.00767529
0.174853 0.000885023 0.00553903
0.197559 0.000167849 0.00354009
0.22446 0 0.00216678
0.253864 0 0.00111391
0.256245 0 0.00103761
0.256168 0 0.00103761
0.256168 0 0.00103761
0.0171054 0.0171969 0.0243839
0.0171054 0.0172885 0.0243992
0.0171664 0.0174716 0.0244297
0.0178073 0.0175174 0.0243687
0.0188754 0.0174411 0.0242161
0.0202029 0.0172885 0.024033
0.0217594 0.0170596 0.0238346
0.0235294 0.0168154 0.0235752
0.0256046 0.0164797 0.02327
0.0278935 0.016083 0.0229038
0.030518 0.0156252 0.0225376
0.0333104 0.0151675 0.0222629
0.0365148 0.0145724 0.0218967
0.0403754 0.0138705 0.0214847
0.0453193 0.0129702 0.0210727
0.0506905 0.0119173 0.0205997
0.0565499 0.0107576 0.0200351
0.0628367 0.00950637 0.0194095
0.0701762 0.00834669 0.0186618
0.0792401 0.00743114 0.0176852
0.0895705 0.00662242 0.016495
0.101167 0.00585946 0.0151217
0.114214 0.00492866 0.0135653
0.129168 0.00386053 0.0117952
0.147036 0.00273136 0.00965896
0.166918 0.00158694 0.00735485
0.188678 0.000534066 0.00502022
0.214038 6.10361e-05 0.00317388
0.242359 0 0.00173953
0.274495 0 0.000823987
0.276936 0 0.000762951
0.276936 0 0.000762951
0.276936 0 0.000762951
0.0169375 0.0187686 0.0247501
0.0169223 0.0189975 0.0247959
0.0172732 0.0191348 0.0247807
0.0182498 0.0191348 0.0246586
0.01944 0.0190738 0.024506
0.0209201 0.0189364 0.0243076
0.0225986 0.0187686 0.024094
0.0245518 0.0185702 0.0238804
0.0267338 0.0183108 0.0236973
0.0292363 0.0179599 0.0235142
0.0319371 0.0175479 0.0233463
0.0349889 0.0170443 0.023331
0.0385443 0.0164492 0.0231937
0.0431983 0.0156252 0.0228733
0.0484169 0.0146792 0.022446
0.0540932 0.0136263 0.0219425
0.0601663 0.0124666 0.0213626
0.0668956 0.0112459 0.0207218
0.0755627 0.0102083 0.0198367
0.0852522 0.00917067 0.0187533
0.0965591 0.00810254 0.0174105
0.108888 0.00689708 0.0158999
0.123095 0.00549325 0.0141146
0.139773 0.00401312 0.0119478
0.159152 0.00251774 0.00943008
0.180148 0.00111391 0.0068513
0.204105 0.000198367 0.004654
0.231342 0 0.00297551
0.262089 0 0.00173953
0.295613 0 0.000900282
0.298329 0 0.000854505
0.298253 0 0.000854505
0.298253 0 0.000839246
0.0167239 0.0208896 0.0252079
0.016846 0.0211795 0.0252537
0.0176394 0.0213169 0.0251926
0.0187228 0.0213474 0.0250706
0.0200809 0.0212863 0.0249485
0.0216678 0.0211643 0.0249332
0.0234989 0.0210269 0.0249027
0.0256199 0.0208438 0.0249027
0.0279545 0.0206302 0.0249943
0.0306096 0.020325 0.0250706
0.0334783 0.0199741 0.0251011
0.0367437 0.0195315 0.0250553
0.0409857 0.0188449 0.0248112
0.0460975 0.0179751 0.0244297
0.0515908 0.016968 0.0240024
0.0575418 0.0158694 0.0235142
0.0639048 0.0146639 0.0229343
0.0718242 0.0134737 0.0221561
0.0811933 0.0122835 0.021149
0.0920729 0.0109407 0.0198825
0.103838 0.00941482 0.0184329
0.117494 0.00766003 0.0166476
0.133074 0.00576791 0.0145266
0.151583 0.00384527 0.0119783
0.17203 0.00201419 0.00944533
0.194598 0.000549325 0.00700389
0.220722 1.5259e-05 0.00505074
0.25005 3.0518e-05 0.00358587
0.282628 3.0518e-05 0.00242618
0.318074 1.5259e-05 0.00141909
0.32108 1.5259e-05 0.00134279
0.320989 1.5259e-05 0.00132753
0.320989 1.5259e-05 0.00132753
0.016434 0.0235599 0.0257725
0.0169833 0.0238193 0.0258183
0.0179904 0.0240024 0.0260166
0.0192569 0.0240635 0.0261387
0.020737 0.0240787 0.0262608
0.0224918 0.024033 0.0264591
0.0244755 0.0239261 0.0266423
0.0267033 0.0237583 0.0267948
0.0292668 0.0235447 0.0268864
0.0320287 0.0232853 0.0269627
0.0351263 0.0229343 0.026978
0.03888 0.022446 0.0268711
0.0438239 0.0216831 0.026566
0.0491798 0.020798 0.026215
0.054902 0.0198062 0.0258183
0.0610971 0.018677 0.0253452
0.0682994 0.0173953 0.0246586
0.0773175 0.0159762 0.023682
0.0875715 0.0143587 0.0224765
0.0989395 0.0124514 0.021088
0.112078 0.0103914 0.019501
0.126558 0.00816358 0.0176852
0.144289 0.00588998 0.0152895
0.163943 0.00367742 0.0128023
0.185962 0.00180056 0.0104372
0.210681 0.000686656 0.00823987
0.238788 0.000396735 0.00624094
0.270253 0.000274662 0.00456245
0.304387 0.000137331 0.00299077
0.341985 6.10361e-05 0.00148013
0.345052 4.57771e-05 0.00135805
0.345052 4.57771e-05 0.00135805
0.345052 4.57771e-05 0.00135805
0.0163577 0.0268406 0.0271153
0.017258 0.0270542 0.0273899
0.0184024 0.0272221 0.0277409
0.019791 0.0273289 0.0280156
0.0214237 0.0273899 0.028275
0.0233158 0.0274357 0.0285039
0.025452 0.0273899 0.0286717
0.027863 0.0272831 0.028809
0.0305333 0.0271305 0.0289464
0.0335546 0.0268559 0.0290379
0.0368048 0.0265354 0.0290837
0.0415198 0.025803 0.0288548
0.0467231 0.0249943 0.0285496
0.0523842 0.024094 0.0281834
0.0583658 0.0231174 0.0277714
0.0650339 0.0219577 0.0272221
0.0734264 0.0204776 0.0263676
0.0833448 0.0186618 0.02533
0.094377 0.0165103 0.0242008
0.106645 0.0141299 0.0228733
0.12076 0.0115663 0.0212253
0.13724 0.00894179 0.0191958
0.156161 0.00653086 0.0168154
0.17734 0.00454719 0.0143893
0.200977 0.00296025 0.0119936
0.227649 0.00199893 0.00956741
0.257862 0.00128176 0.00733959
0.291096 0.000640879 0.0052491
0.327642 0.000274662 0.00321965
0.366567 3.0518e-05 0.00114443
0.36997 1.5259e-05 0.000976577
0.36997 1.5259e-05 0.000976577
0.36997 1.5259e-05 0.000976577
0.0165103 0.0306859 0.0292363
0.0175174 0.0309453 0.0296025
0.0188449 0.0311437 0.0299229
0.0203555 0.031281 0.0301976
0.0221561 0.0313725 0.0304723
0.0242008 0.0313878 0.0307012
0.0265049 0.0313725 0.0309148
0.0290837 0.0313268 0.0310979
0.0319219 0.03122 0.0312352
0.0351415 0.0310063 0.031342
0.0392309 0.0305638 0.031281
0.0442664 0.0298314 0.0310216
0.0497749 0.0289769 0.0307012
0.0556191 0.0280461 0.0303349
0.0618448 0.0270848 0.0300145
0.0694438 0.0258793 0.0295567
0.0789654 0.0242313 0.0287633
0.0896925 0.0222782 0.0278019
0.101274 0.0201419 0.0267185
0.114885 0.0178225 0.0252842
0.130083 0.0153658 0.0235447
0.148501 0.0127413 0.0212253
0.168658 0.010193 0.0187839
0.191424 0.00782788 0.0162661
0.217136 0.00553903 0.0135958
0.246082 0.00350958 0.0108492
0.27837 0.00190738 0.00828565
0.313634 0.000839246 0.00573739
0.35172 0.000244144 0.00303655
0.394186 1.5259e-05 0.00135805
0.397726 0 0.00123598
0.39794 0 0.00125124
0.39794 0 0.00125124
0.0166323 0.0350805 0.0315862
0.0178683 0.0354009 0.0319219
0.0192569 0.0356909 0.0323033
0.0209506 0.0359045 0.0326543
0.0228733 0.0360418 0.0329747
0.0251011 0.0360723 0.0332036
0.0275578 0.0360571 0.033402
0.0302892 0.0359503 0.0335699
0.0334173 0.0359808 0.0337072
0.0370489 0.035996 0.0337835
0.0417945 0.0357671 0.0336919
0.0470283 0.0353704 0.0336461
0.0526741 0.0348211 0.0335851
0.0587167 0.0342107 0.0334936
0.0656596 0.0333562 0.0332494
0.0745861 0.0319371 0.0326696
0.084947 0.0301061 0.0318151
0.0961776 0.0280766 0.0308232
0.109087 0.0258946 0.0295567
0.123461 0.0235599 0.0280308
0.140932 0.0208133 0.0259403
0.159991 0.0178073 0.0236515
0.18233 0.0145724 0.0211185
0.206455 0.0109865 0.0183413
0.234638 0.00703441 0.0151217
0.265614 0.00389105 0.0120241
0.300175 0.00189212 0.0089723
0.337316 0.000839246 0.00579843
0.377783 0.000366217 0.00297551
0.422614 0.000228885 0.00161746
0.426642 0.000228885 0.00154116
0.426535 0.000228885 0.0015259
0.426734 0.000228885 0.00154116
0.0168612 0.0400549 0.034165
0.0181888 0.0406043 0.0346075
0.0197147 0.0411841 0.03505
0.0214847 0.0417487 0.035462
0.0235294 0.0421759 0.0357977
0.0258335 0.0425879 0.0360876
0.0283818 0.0429389 0.0363622
0.0313573 0.043183 0.0365606
0.0346838 0.0432898 0.0368505
0.0391852 0.0431373 0.0370642
0.0440986 0.0429236 0.0371862
0.0497444 0.0426642 0.0372931
0.0555581 0.0422827 0.0373236
0.0620584 0.0417334 0.037232
0.0700847 0.0407111 0.0368658
0.0802625 0.0390326 0.0360723
0.0912337 0.037171 0.035172
0.103426 0.0350652 0.0340887
0.117449 0.0326238 0.0326848
0.1337 0.0297093 0.030869
0.152209 0.0263981 0.0287327
0.173419 0.0225376 0.0262608
0.196826 0.0180667 0.0234531
0.223697 0.0126192 0.0200809
0.253407 0.00761425 0.0165255
0.286671 0.00456245 0.013077
0.322927 0.00271611 0.00941482
0.361669 0.00163272 0.00552377
0.405753 0.00103761 0.00326543
0.452079 0.000671397 0.0016022
0.455711 0.000640879 0.00146487
0.455711 0.000640879 0.00146487
0.455711 0.000640879 0.00146487
0.0168002 0.0477607 0.0373388
0.0181582 0.0484779 0.0378576
0.0198978 0.0490883 0.0382849
0.0218204 0.0496681 0.0386969
0.0240024 0.050248 0.0390936
0.0264439 0.0508125 0.0395666
0.0292363 0.0512856 0.0401007
0.0325017 0.051606 0.0405585
0.0365148 0.0517281 0.0409094
0.0413519 0.0516213 0.0411231
0.0466621 0.0513924 0.0412451
0.052369 0.0510872 0.0413214
0.0585946 0.0507057 0.0413367
0.0658579 0.0500343 0.0411231
0.0755627 0.048661 0.0404974
0.0862287 0.0470588 0.0397498
0.0976883 0.0452888 0.0389105
0.111269 0.0429847 0.037644
0.126452 0.0402228 0.0360723
0.144488 0.0366522 0.0340276
0.164141 0.0324559 0.0317082
0.187366 0.0273442 0.0288701
0.212741 0.0221561 0.025742
0.241428 0.0168612 0.0221103
0.273396 0.0134432 0.0184176
0.308537 0.0112612 0.0145418
0.346685 0.00900282 0.0103151
0.388724 0.00648508 0.00666819
0.434165 0.00355535 0.00389105
0.483162 0.0015259 0.00215152
0.487251 0.00137331 0.00202945
0.487251 0.00137331 0.00202945
0.487251 0.00137331 0.00202945
0.0166323 0.0565652 0.0409094
0.0182193 0.0574044 0.041474
0.0200198 0.0581674 0.0420996
0.0221103 0.0588235 0.042771
0.024445 0.0594339 0.0433967
0.0270848 0.0599222 0.043946
0.0302129 0.0603952 0.04448
0.0339208 0.0607614 0.0449378
0.0384985 0.0609903 0.045243
0.0435798 0.0610666 0.0454566
0.0491035 0.0610666 0.0456397
0.0550698 0.0609293 0.0457313
0.061799 0.0606241 0.0457465
0.0707256 0.0597238 0.0453651
0.081178 0.0583963 0.0446937
0.0923476 0.0571908 0.0439612
0.105028 0.0557107 0.0429847
0.119692 0.0537881 0.0416419
0.13666 0.0512093 0.0399329
0.155291 0.0481575 0.0379492
0.177325 0.0441291 0.0353704
0.201129 0.0396429 0.0325322
0.229099 0.034165 0.0289921
0.25948 0.0289769 0.0251621
0.294438 0.0246891 0.0208743
0.331319 0.0199588 0.0163577
0.371603 0.0147097 0.0117342
0.415885 0.00907912 0.00779736
0.463767 0.00442512 0.00476081
0.514412 0.0021973 0.00306706
0.518593 0.00205997 0.00294499
0.518593 0.00205997 0.00294499
0.518593 0.00205997 0.00294499
0.0165255 0.0662394 0.0452125
0.0181735 0.0673686 0.0460365
0.0201419 0.0683909 0.0468147
0.0223239 0.0693523 0.0475319
0.0248112 0.0702068 0.0482032
0.0277409 0.0709087 0.0487831
0.0312657 0.071519 0.0493172
0.0355383 0.0719768 0.0497292
0.0403449 0.0726329 0.0501106
0.0456703 0.0732433 0.0504616
0.0512703 0.0738384 0.050782
0.0576028 0.0742809 0.0509346
0.0653239 0.074464 0.0509041
0.0756542 0.0738842 0.0503853
0.0863813 0.0731212 0.0497902
0.0984207 0.0720378 0.0489967
0.112505 0.0703136 0.0477913
0.12871 0.0681163 0.0462959
0.146578 0.0654612 0.0445716
0.167422 0.0620737 0.042359
0.190723 0.0581521 0.0397345
0.217166 0.0533761 0.0365148
0.246113 0.0480354 0.0328527
0.279927 0.0423896 0.0285649
0.316381 0.0359808 0.0239261
0.355169 0.0287938 0.0191196
0.398032 0.0213626 0.0143587
0.444327 0.0146181 0.0102083
0.494484 0.0112612 0.00787366
0.546288 0.00891127 0.00588998
0.550652 0.00875868 0.00573739
0.550546 0.00872816 0.00573739
0.550546 0.00872816 0.00573739
0.0162814 0.0783246 0.050309
0.0180056 0.0798657 0.0511788
0.0200809 0.0814221 0.0520943
0.0222934 0.082948 0.0529488
0.024918 0.0843519 0.0536812
0.0281529 0.0856489 0.0543832
0.0320745 0.0867781 0.0549935
0.0366827 0.0877699 0.0555123
0.0417945 0.0885786 0.0559091
0.0472419 0.0893416 0.05626
0.0533913 0.090013 0.0565042
0.060441 0.0905165 0.0565805
0.0699931 0.0903944 0.0562753
0.0805219 0.0903029 0.0558938
0.0918898 0.0899672 0.0554055
0.10515 0.0889601 0.054551
0.120653 0.0873732 0.0532998
0.138094 0.0852522 0.0517891
0.157427 0.0825513 0.049958
0.180362 0.0789349 0.0474708
0.205295 0.0751965 0.0446937
0.23331 0.0706951 0.0415045
0.264775 0.0655222 0.0377813
0.300282 0.0594339 0.033402
0.338918 0.0527504 0.0289006
0.380148 0.0456245 0.0242618
0.425238 0.0378271 0.0193027
0.474052 0.0308385 0.015198
0.525414 0.0247044 0.0119173
0.579568 0.0184176 0.00880446
0.583871 0.0179141 0.00857557
0.583856 0.0179141 0.00856031
0.583734 0.0178988 0.00856031
0.0157626 0.0946517 0.0562295
0.0175937 0.0963912 0.0571756
0.0196078 0.0980697 0.0580911
0.0219577 0.099855 0.0590524
0.0248722 0.101381 0.0598306
0.0285344 0.102907 0.0605478
0.0328222 0.104448 0.0611887
0.0376745 0.105898 0.0617533
0.0429084 0.107256 0.0622416
0.0487831 0.1084 0.0626383
0.055314 0.109392 0.0629435
0.0639658 0.109865 0.0628824
0.0742046 0.110018 0.0626383
0.0851148 0.110384 0.0624247
0.0974136 0.110384 0.0620127
0.112291 0.109682 0.0610361
0.129137 0.108614 0.0598154
0.147677 0.107088 0.0583505
0.16936 0.104616 0.0564431
0.193408 0.101518 0.0541695
0.220356 0.0975814 0.0513313
0.250019 0.092958 0.048188
0.284672 0.087129 0.0442359
0.321736 0.0807965 0.0399176
0.362188 0.0739605 0.035172
0.405966 0.066865 0.0300603
0.453117 0.0588083 0.0248112
0.503639 0.0505837 0.0203555
0.556863 0.0419318 0.0159915
0.612009 0.0327306 0.0112917
0.616358 0.0320134 0.0109255
0.616358 0.0320134 0.0109255
0.616251 0.0319219 0.0109102
0.0150454 0.113527 0.0627909
0.0167544 0.115846 0.0638743
0.0187381 0.118059 0.0649119
0.0211337 0.12018 0.0658732
0.0245975 0.122271 0.066743
0.0286259 0.124025 0.0674601
0.0332341 0.125826 0.0681773
0.0382544 0.127703 0.068864
0.0437324 0.129809 0.0695354
0.0501564 0.13167 0.0700694
0.0576333 0.133364 0.0704814
0.0674449 0.13431 0.0704967
0.0778515 0.135225 0.0704662
0.0894636 0.135927 0.0702983
0.103517 0.135897 0.0697337
0.11986 0.135256 0.068864
0.137499 0.134325 0.0678416
0.157992 0.133059 0.0664073
0.181216 0.131197 0.0646525
0.207248 0.128588 0.0624247
0.234943 0.125399 0.0598306
0.268498 0.120592 0.056199
0.304768 0.115053 0.0520943
0.34406 0.108782 0.0474708
0.386313 0.101961 0.0424048
0.432181 0.0945296 0.0369573
0.481636 0.0863355 0.0316014
0.533639 0.0775921 0.0262303
0.588434 0.068864 0.0205997
0.644175 0.0603494 0.0149233
0.648768 0.0596628 0.0144503
0.648768 0.0596628 0.0144503
0.648768 0.0596628 0.0144503
0.0139162 0.136019 0.0701457
0.0154116 0.139116 0.0713359
0.0171817 0.142184 0.0725109
0.0200046 0.145052 0.07364
0.0237888 0.14786 0.0746929
0.0281071 0.150393 0.0756237
0.0328832 0.152819 0.0765087
0.0380255 0.15523 0.0773632
0.0442206 0.157519 0.0780652
0.0512398 0.159594 0.078645
0.0603799 0.161624 0.0790417
0.0703746 0.163561 0.0793317
0.0813001 0.165377 0.0796674
0.0941329 0.166598 0.0797284
0.109957 0.167178 0.0793622
0.127214 0.167178 0.0787213
0.14638 0.166567 0.0777295
0.168826 0.165362 0.0761883
0.193774 0.163546 0.0742046
0.221012 0.161318 0.07187
0.251926 0.158328 0.068925
0.287327 0.154101 0.0652323
0.325368 0.148989 0.0610208
0.366445 0.143252 0.0563363
0.410864 0.136645 0.0510567
0.458686 0.129213 0.0453956
0.51017 0.120867 0.039353
0.563973 0.111849 0.0330053
0.619532 0.102861 0.0264134
0.676692 0.0943313 0.0201267
0.681514 0.0937667 0.0196384
0.681407 0.0936294 0.0196078
0.681407 0.0936294 0.0196078
0.0118105 0.164416 0.0786908
0.0129397 0.16791 0.0800793
0.0149844 0.171115 0.0813306
0.0186313 0.174624 0.0825971
0.0227359 0.178256 0.0838331
0.0272221 0.181903 0.0850843
0.0320592 0.185351 0.0862287
0.037644 0.188617 0.0872358
0.0442969 0.191546 0.0880293
0.0526284 0.194141 0.0888838
0.0623484 0.19649 0.0896315
0.0727855 0.198795 0.0902419
0.0842756 0.201053 0.0907607
0.0994278 0.202518 0.0906844
0.11606 0.20383 0.0904097
0.134356 0.204761 0.0898756
0.155734 0.204654 0.0886702
0.180072 0.203677 0.0869001
0.206638 0.202075 0.0848402
0.235584 0.199725 0.0823224
0.270069 0.196048 0.0789044
0.307164 0.191806 0.0750439
0.347112 0.18793 0.0708629
0.390066 0.183261 0.0661631
0.436316 0.177539 0.0608682
0.486091 0.171252 0.0551766
0.539162 0.164126 0.0490425
0.594247 0.156146 0.0426032
0.650782 0.147753 0.0364233
0.708339 0.139193 0.0302434
0.712871 0.138521 0.0297704
0.712871 0.138521 0.0297704
0.712749 0.138338 0.0296788
0.00898756 0.198978 0.0888533
0.00994888 0.203235 0.0904555
0.0133669 0.207141 0.0918593
0.0171817 0.211002 0.0932174
0.0214084 0.214755 0.0945449
0.0258488 0.219013 0.0959793
0.0307317 0.22356 0.0975814
0.0369268 0.227787 0.0990463
0.0443732 0.231662 0.100328
0.0536049 0.234913 0.101289
0.063508 0.238071 0.10219
0.0744335 0.240986 0.102937
0.0882124 0.243153 0.103151
0.104723 0.244602 0.102846
0.122148 0.246159 0.102449
0.141924 0.24773 0.101808
0.16556 0.248905 0.100725
0.191531 0.249104 0.0991226
0.218769 0.248951 0.0973068
0.251698 0.247272 0.0945144
0.28687 0.244724 0.0912947
0.326406 0.241138 0.0872816
0.367742 0.237232 0.0829938
0.413291 0.23241 0.0780041
0.461982 0.227253 0.0728161
0.513436 0.221424 0.0675975
0.567605 0.215152 0.0620584
0.623453 0.208209 0.056199
0.680797 0.200839 0.0501259
0.738369 0.193515 0.0442512
0.742885 0.19295 0.0438392
0.74287 0.192935 0.0437934
0.742763 0.192737 0.0437324
0.00598154 0.238895 0.100328
0.00828565 0.244114 0.102083
0.01178 0.249134 0.103777
0.0154726 0.253941 0.105623
0.0193942 0.258671 0.1075
0.0235599 0.263416 0.109346
0.0289921 0.267994 0.111025
0.0357519 0.272511 0.112505
0.0442969 0.277394 0.113832
0.0536049 0.282094 0.115007
0.0640269 0.286946 0.116152
0.0759442 0.291127 0.116976
0.0921645 0.294224 0.117006
0.109117 0.297139 0.117052
0.127581 0.29955 0.116854
0.149828 0.300771 0.115953
0.175418 0.301701 0.114641
0.202792 0.302754 0.113176
0.233036 0.302907 0.111131
0.267414 0.302022 0.108385
0.305104 0.299992 0.104982
0.345525 0.297414 0.101289
0.389975 0.293889 0.0973983
0.436805 0.289677 0.0931258
0.487678 0.284184 0.0881361
0.54052 0.278187 0.082826
0.595666 0.272343 0.0772717
0.652628 0.266758 0.071519
0.710231 0.260716 0.0655528
0.767636 0.254841 0.0597848
0.772122 0.254383 0.0593271
0.772122 0.254383 0.0593271
0.772122 0.254383 0.0593271
0.00381476 0.285634 0.11368
0.00703441 0.292241 0.11603
0.0102083 0.298466 0.118242
0.0133211 0.305013 0.120516
0.0164034 0.311177 0.122637
0.0202487 0.317525 0.124727
0.026154 0.323537 0.126543
0.0338903 0.328939 0.128038
0.0430152 0.333791 0.129244
0.053193 0.338735 0.130495
0.0639963 0.344259 0.131838
0.0789654 0.348745 0.132433
0.0954452 0.352911 0.132815
0.11313 0.356542 0.133013
0.133501 0.359899 0.13286
0.158297 0.361608 0.131868
0.185016 0.363027 0.130648
0.21413 0.364141 0.129137
0.247654 0.363989 0.127031
0.28394 0.363195 0.12462
0.323613 0.362036 0.121782
0.366171 0.360464 0.118517
0.412177 0.357778 0.114626
0.461494 0.354162 0.110155
0.513527 0.349538 0.105119
0.567803 0.344549 0.0998093
0.623713 0.339147 0.0942397
0.681025 0.3337 0.0885481
0.738567 0.328618 0.0831159
0.795361 0.323827 0.0777447
0.799832 0.323461 0.0773327
0.799832 0.323461 0.0773327
0.799725 0.323171 0.0771954
0.00410468 0.343465 0.129854
0.0061799 0.350286 0.13225
0.00820935 0.356832 0.134493
0.00999466 0.36408 0.136873
0.0120546 0.371237 0.139178
0.0166171 0.378225 0.141253
0.0238346 0.385245 0.143221
0.0322576 0.391989 0.145068
0.0416266 0.398001 0.14667
0.0520333 0.403922 0.148135
0.0650492 0.409125 0.149203
0.0811933 0.413687 0.149783
0.098558 0.418509 0.150332
0.11783 0.422843 0.150668
0.140978 0.426307 0.150378
0.166934 0.429252 0.149828
0.19501 0.431739 0.149172
0.226795 0.433204 0.147906
0.261738 0.434287 0.146242
0.300649 0.433371 0.143542
0.341848 0.43209 0.140444
0.387076 0.430137 0.136782
0.434607 0.42826 0.132921
0.486122 0.425254 0.128344
0.539254 0.421485 0.123461
0.594369 0.41738 0.118456
0.650813 0.413077 0.113344
0.708003 0.408637 0.108186
0.765499 0.404807 0.103258
0.819089 0.400931 0.0984665
0.823056 0.400656 0.0981155
0.823056 0.400656 0.0981155
0.82298 0.400366 0.0980392
0.00321965 0.407492 0.14728
0.00419623 0.415595 0.149935
0.0049897 0.423255 0.152438
0.00572213 0.43122 0.155062
0.00834669 0.438483 0.157427
0.0146334 0.445991 0.15964
0.0222019 0.453559 0.16173
0.0303655 0.461692 0.163943
0.0397803 0.469078 0.165759
0.0506905 0.475944 0.167407
0.0659648 0.481956 0.168597
0.0827039 0.487709 0.169635
0.101289 0.492927 0.170443
0.123064 0.4972 0.171008
0.148287 0.500755 0.170977
0.175555 0.504112 0.170596
0.205768 0.507103 0.169787
0.239567 0.509239 0.168353
0.276829 0.510597 0.166339
0.317632 0.51107 0.163806
0.361547 0.510079 0.16054
0.407843 0.508736 0.156985
0.458152 0.506249 0.153002
0.510399 0.503212 0.14876
0.565087 0.499489 0.143999
0.620676 0.4963 0.1393
0.677546 0.492439 0.13431
0.734234 0.488914 0.129519
0.789822 0.485557 0.125002
0.840696 0.48368 0.121248
0.844572 0.483497 0.120943
0.844572 0.483497 0.120943
0.844495 0.483192 0.12079
0.00144961 0.478996 0.166415
0.00169375 0.488548 0.169482
0.00195315 0.497856 0.172519
0.00306706 0.506828 0.175433
0.00750744 0.515084 0.17792
0.0137331 0.523293 0.180255
0.0199893 0.531197 0.182559
0.0276036 0.539178 0.184833
0.0370489 0.547829 0.187121
0.0504158 0.554864 0.188861
0.0663767 0.562158 0.190707
0.0844282 0.568475 0.192081
0.104631 0.574487 0.193118
0.128878 0.579324 0.193408
0.155261 0.583535 0.193317
0.184543 0.586633 0.192676
0.217044 0.58938 0.191684
0.252918 0.59144 0.190173
0.292699 0.592752 0.188037
0.335653 0.593393 0.185534
0.380957 0.592706 0.182498
0.42974 0.591287 0.179034
0.481086 0.589059 0.175174
0.535027 0.586206 0.170825
0.590723 0.582956 0.166217
0.646891 0.579568 0.161685
0.703349 0.576013 0.157244
0.759258 0.572961 0.153002
0.811795 0.570336 0.14931
0.86128 0.568536 0.146197
0.865354 0.568689 0.146105
0.865339 0.568673 0.146029
0.865339 0.568673 0.146029
0.000213626 0.559258 0.187839
0.000396735 0.569177 0.191028
0.00106813 0.579049 0.194217
0.00326543 0.588937 0.19733
0.00759899 0.598474 0.200336
0.0116426 0.607797 0.203204
0.016556 0.616663 0.205951
