luts/varicam_official/BlueNight 33 E-E.cube
TITLE "Generated by Resolve"
LUT_3D_SIZE 5
0.0171511 0.016846 0.0242924
0.0222019 0.0154726 0.0234531
0.0464485 0.00921645 0.0192264
0.116228 0.00195315 0.00949111
0.220066 0 0.00169375
0.0165103 0.0306859 0.0292363
0.0319219 0.03122 0.0312352
0.0789654 0.0242313 0.0287633
0.217136 0.00553903 0.0135958
0.39794 0 0.00125124
0.0150454 0.113527 0.0627909
0.0437324 0.129809 0.0695354
0.137499 0.134325 0.0678416
0.386313 0.101961 0.0424048
0.648768 0.0596628 0.0144503
0.00144961 0.478996 0.166415
0.0370489 0.547829 0.187121
0.217044 0.58938 0.191684
0.590723 0.582956 0.166217
0.865339 0.568673 0.146029
0 0.918654 0.292775
0.0356451 0.943786 0.318502
0.299657 0.970687 0.31754
0.729732 0.957946 0.29131
0.95404 0.940459 0.285985
0.0173037 0.0170596 0.0370031
0.0232853 0.015671 0.0423285
0.0496834 0.00888075 0.0452125
0.125429 0.00207523 0.0406043
0.236759 0 0.0276951
0.0171664 0.0330205 0.0659342
0.0339666 0.0337072 0.0761578
0.0855879 0.0265507 0.0830549
0.234424 0.00573739 0.0754406
0.425864 0 0.055848
0.0154269 0.123354 0.13608
0.0466011 0.141711 0.158663
0.148653 0.146502 0.174258
0.413092 0.112871 0.167178
0.683177 0.0693523 0.148302
0.000976577 0.512108 0.309514
0.0417945 0.582147 0.355169
0.235996 0.622873 0.383566
0.622248 0.614252 0.38407
0.888136 0.60116 0.382727
0 0.94229 0.495567
0.0443732 0.960021 0.545983
0.326741 0.990295 0.569223
0.759625 0.97232 0.566888
0.968078 0.956481 0.577813
0.0175479 0.0183871 0.0948348
0.0244602 0.0169985 0.11194
0.0532387 0.00975052 0.128893
0.135698 0.00238041 0.140444
0.255634 0 0.138796
0.0177005 0.0369573 0.173907
0.035874 0.037995 0.204105
0.0920119 0.030869 0.233127
0.253223 0.00669871 0.25034
0.454826 7.62951e-05 0.246082
0.0149233 0.136187 0.32517
0.0493629 0.156222 0.374945
0.160708 0.162036 0.417792
0.441321 0.12723 0.436301
0.717403 0.0820935 0.432853
0.000274662 0.54873 0.598062
0.0475013 0.620462 0.666056
0.255863 0.658549 0.710796
0.653574 0.647288 0.722652
0.911315 0.637339 0.727367
0 0.95671 0.829877
0.057847 0.973663 0.886992
0.356558 0.999802 0.904906
0.787137 0.98706 0.892729
0.976913 0.972793 0.898772
0.017319 0.0221408 0.252018
0.0252995 0.0209354 0.292805
0.0562142 0.0140078 0.335363
0.147082 0.0028687 0.373541
0.276539 3.0518e-05 0.387686
0.0174105 0.0441138 0.417517
0.0372625 0.0460822 0.474662
0.0982681 0.0387274 0.528603
0.273259 0.00927749 0.565042
0.48658 0.000289921 0.570291
0.0133059 0.153643 0.651682
0.0524758 0.174578 0.715801
0.174533 0.179965 0.76437
0.471794 0.143587 0.778637
0.752438 0.100435 0.768719
0.000411994 0.588342 0.939895
0.0540169 0.659358 0.977798
0.280232 0.694408 0.989105
0.688136 0.679225 0.972808
0.93489 0.66952 0.94902
0 0.968963 1
0.0741283 0.985428 1
0.391272 0.999313 1
0.817578 0.990005 0.999817
0.987564 0.984619 0.998199
0.0167239 0.0261234 0.428458
0.0252232 0.0251011 0.485145
0.057847 0.0182803 0.541894
0.154269 0.00386053 0.589975
0.290318 0.000106813 0.607462
0.0167086 0.050309 0.637934
0.0380713 0.0525826 0.700191
0.10251 0.0445106 0.754009
0.287648 0.0109407 0.782879
0.508019 0.000549325 0.77966
0.0122377 0.165499 0.867994
0.0550088 0.186923 0.916335
0.185382 0.19144 0.940948
0.493919 0.15256 0.922011
0.775677 0.109926 0.887526
0.00120546 0.613153 1
0.060441 0.682704 1
0.2981 0.713878 1
0.711269 0.695888 0.992081
0.950057 0.688319 0.960784
0.000198367 0.974792 1
0.086717 0.992142 1
0.415824 0.999237 1
0.83798 0.991501 0.999969
0.9944 0.989776 0.998901
