luts/varicam_official/Blue Dusk 33 E-E.cube
TITLE "Generated by Resolve"
LUT_3D_SIZE 5
0.0159915 0.0161288 0.0167239
0.0335851 0.0111543 0.0135958
0.103593 0.00106813 0.00343328
0.352682 0 0
0.886885 0 0
0.0131075 0.0390631 0.0212558
0.0307012 0.034226 0.0182498
0.101961 0.0146181 0.00575265
0.353429 0 0
0.887434 0 0
0.00331121 0.13991 0.0403449
0.0174105 0.13547 0.0373846
0.090547 0.115541 0.0245975
0.347539 0.0430152 0.000244144
0.882094 0 0
0 0.510338 0.106874
0.000122072 0.506416 0.10399
0.0392157 0.486885 0.0906539
0.306722 0.413809 0.0426184
0.840726 0.26389 0
0 0.999878 0.223255
0 1 0.219852
0.000442512 1 0.204944
0.230686 0.993149 0.153887
0.764508 0.90074 0.0563973
0.0158236 0.0168612 0.0443427
0.0334325 0.011902 0.0414588
0.103624 0.00123598 0.0291447
0.35314 0 0.00131228
0.887465 0 0
0.0130312 0.0399786 0.0493477
0.0306401 0.0349126 0.0463569
0.101991 0.015259 0.0339513
0.353902 0 0.00146487
0.88838 0 0
0.00349432 0.141009 0.0692912
0.01738 0.136614 0.066392
0.0905318 0.116716 0.0536965
0.347936 0.0441138 0.0111696
0.883055 0 0
0 0.511879 0.137194
0.000122072 0.507973 0.134203
0.0389715 0.489021 0.121279
0.307164 0.41529 0.0733501
0.841566 0.26511 0
0 1 0.255314
0 1 0.251911
0.000381476 1 0.236957
0.231693 1 0.186389
0.764981 0.904753 0.0901808
0.0147402 0.0206149 0.188708
0.0324102 0.0156405 0.185946
0.103349 0.00257877 0.175036
0.35375 0 0.131685
0.888121 0 0.0393072
0.0120394 0.0436561 0.195529
0.0297246 0.0387732 0.192782
0.101595 0.0184634 0.181643
0.354269 1.5259e-05 0.137896
0.889052 0 0.0447242
0.00350958 0.145968 0.219928
0.0161746 0.141344 0.217563
0.0897841 0.121584 0.20618
0.348272 0.0484321 0.16173
0.883482 0 0.0673533
0 0.518303 0.295811
0.000122072 0.513771 0.293278
0.0378882 0.494835 0.281666
0.307546 0.420737 0.235264
0.841856 0.270756 0.141344
0 1 0.425147
0 1 0.422415
4.57771e-05 1 0.408972
0.231891 1 0.360678
0.765255 0.909575 0.267796
0.0110781 0.0319371 0.664942
0.0285649 0.0270848 0.662913
0.100221 0.00733959 0.652399
0.352712 0 0.609979
0.887373 0 0.517052
0.00814832 0.055024 0.672969
0.025742 0.0501869 0.671
0.0984817 0.0295262 0.660243
0.353246 9.15541e-05 0.617533
0.887709 0 0.524742
0.00296025 0.158938 0.70132
0.0121309 0.154528 0.699275
0.0865492 0.134188 0.688319
0.346868 0.0608988 0.644968
0.881987 0 0.552392
0 0.533089 0.782727
4.57771e-05 0.528984 0.780713
0.0348211 0.509041 0.7691
0.306218 0.434958 0.724086
0.839979 0.285557 0.631769
0 1 0.916548
0 1 0.913741
0 1 0.90045
0.230518 1 0.852598
0.764019 0.922042 0.759838
0.00891127 0.0404517 0.998428
0.0264134 0.035523 0.995621
0.0991379 0.014725 0.982101
0.354177 0 0.934737
0.889342 0 0.835142
0.00604257 0.0634165 0.999802
0.023621 0.058732 0.998932
0.0974594 0.0379034 0.98584
0.354788 0.00015259 0.938109
0.889738 0 0.838621
0.002533 0.169192 1
0.00898756 0.164752 1
0.0853285 0.144183 0.999374
0.348867 0.0694591 0.95465
0.883741 0 0.855467
0 0.545495 1
0 0.541253 1
0.034226 0.52076 1
0.307973 0.446036 0.999832
0.841382 0.296834 0.918273
0 1 1
0 1 1
0 1 1
0.232761 1 1
0.766155 0.930098 1
