luts/varicam_official/Blue Dusk 33 E-E.cube
TITLE "Generated by Resolve"
LUT_3D_SIZE 9
0.0159915 0.0161288 0.0167239
0.0213169 0.0146334 0.0157321
0.0335851 0.0111543 0.0135958
0.0576028 0.00509651 0.00936904
0.103593 0.00106813 0.00343328
0.191959 0 0.000381476
0.352682 0 0
0.593942 0 0
0.886885 0 0
0.0150759 0.023331 0.0181125
0.0204929 0.0218204 0.0171817
0.0326696 0.0184024 0.0151064
0.0569162 0.0120546 0.0107729
0.103197 0.00535592 0.00411994
0.191745 0 0.000579843
0.352758 0 0
0.594751 0 0
0.887022 0 0
0.0131075 0.0390631 0.0212558
0.0185245 0.037583 0.0202792
0.0307012 0.034226 0.0182498
0.0551919 0.0272984 0.0139162
0.101961 0.0146181 0.00575265
0.191775 0 0.00108339
0.353429 0 0
0.59559 0 0
0.887434 0 0
0.00885023 0.0720989 0.0276799
0.0142824 0.0704814 0.0267338
0.0264439 0.0671244 0.0246433
0.0513313 0.0601816 0.020325
0.0988022 0.0469062 0.0118868
0.190311 0.0216983 0.00236515
0.352728 0.00030518 0
0.595865 0 0
0.887114 0 0
0.00331121 0.13991 0.0403449
0.00767529 0.138567 0.0394446
0.0174105 0.13547 0.0373846
0.0422522 0.128817 0.033051
0.090547 0.115541 0.0245975
0.184237 0.0895094 0.00923171
0.347539 0.0430152 0.000244144
0.591882 0.00683604 0
0.882094 0 0
0.000488289 0.276371 0.065156
0.0009308 0.274769 0.06421
0.00184634 0.27187 0.0621958
0.0239414 0.265248 0.0577554
0.0722057 0.252277 0.0490883
0.168627 0.225574 0.0318303
0.333257 0.179202 0.00538643
0.579705 0.1093 0
0.86862 0.0301823 0
0 0.510338 0.106874
0 0.509224 0.106035
0.000122072 0.506416 0.10399
0.00134279 0.500053 0.0995041
0.0392157 0.486885 0.0906539
0.139071 0.460075 0.0728161
0.306722 0.413809 0.0426184
0.553491 0.344686 0.00502022
0.840726 0.26389 0
0 0.835721 0.164706
0 0.834638 0.163867
0 0.831586 0.161624
0 0.825376 0.157137
0.00466926 0.811261 0.147799
0.0965133 0.783307 0.12932
0.267597 0.73611 0.0984054
0.515602 0.666819 0.053315
0.801129 0.586786 0.0081178
0 0.999878 0.223255
0 1 0.2224
0 1 0.219852
0 1 0.214939
0.000442512 1 0.204944
0.055436 0.998993 0.185962
0.230686 0.993149 0.153887
0.480858 0.969451 0.108186
0.764508 0.90074 0.0563973
0.0158694 0.0163272 0.0249332
0.0212863 0.0148318 0.0239414
0.033463 0.0114443 0.0218814
0.0576028 0.00526436 0.0175784
0.10367 0.00108339 0.0106203
0.192172 0 0.00178531
0.352987 0 0
0.594415 0 0
0.886839 0 0
0.0150454 0.0235294 0.0263371
0.0203708 0.0220645 0.0254368
0.032639 0.0186465 0.0233463
0.0569162 0.0122377 0.0190433
0.103075 0.00549325 0.0116426
0.191989 0 0.0024567
0.353048 0 0
0.595178 0 0
0.887404 0 0
0.013077 0.0393225 0.0294499
0.0184939 0.0378271 0.0285344
0.0306706 0.0344396 0.0264744
0.0551919 0.027512 0.0221561
0.102052 0.0147555 0.0139315
0.192004 0 0.00392157
0.35375 0 0
0.595972 0 0
0.887755 0 0
0.00885023 0.072282 0.0359655
0.0141604 0.0708171 0.03505
0.0264286 0.0674296 0.032929
0.0513466 0.0604715 0.0286107
0.0988937 0.0469825 0.0201419
0.190204 0.0219577 0.007187
0.352621 0.00030518 0
0.596231 0 0
0.887434 0 0
0.00337224 0.140352 0.0486763
0.00773632 0.13901 0.0477607
0.0174411 0.135927 0.0457008
0.0423285 0.129244 0.0413672
0.0906081 0.115969 0.0329137
0.184085 0.0899825 0.0167086
0.347448 0.0432288 0.000579843
0.592218 0.00695811 0
0.882475 0 0
0.000503548 0.276478 0.0733654
0.000915541 0.275273 0.0725261
0.00181582 0.272404 0.0705272
0.0239261 0.265751 0.0660258
0.0720989 0.252476 0.0572976
0.168856 0.226032 0.0401007
0.333547 0.179644 0.0113985
0.580133 0.109712 0
0.868894 0.0303807 0
0 0.510964 0.115206
0 0.50985 0.114336
0.000122072 0.507057 0.112261
0.00129702 0.500633 0.107836
0.0391852 0.487526 0.0989853
0.138918 0.460731 0.0811322
0.30663 0.414008 0.0508736
0.553887 0.344732 0.00909438
0.841062 0.263951 0
0 0.835859 0.17293
0 0.834791 0.172107
0 0.831754 0.169863
0 0.825544 0.165316
0.00486763 0.811872 0.156024
0.0963607 0.784009 0.137667
0.267414 0.736812 0.106752
0.515938 0.667399 0.0618296
0.801404 0.587381 0.0129854
0 1 0.231922
0 1 0.231128
0 1 0.22858
0 1 0.223697
0.000411994 1 0.213855
0.0556344 1 0.19501
0.231098 1 0.163058
0.481254 0.978393 0.11754
0.764797 0.90399 0.0661326
0.0158236 0.0168612 0.0443427
0.0211643 0.0152895 0.043473
0.0334325 0.011902 0.0414588
0.0576333 0.00549325 0.0372778
0.103624 0.00123598 0.0291447
0.192279 0 0.0137026
0.35314 0 0.00131228
0.595224 0 0
0.887465 0 0
0.0149233 0.0240177 0.0458534
0.0203403 0.0225223 0.0449683
0.0325017 0.0191348 0.0429541
0.0568246 0.0125734 0.0387732
0.103227 0.00567636 0.0305638
0.192401 0 0.0150912
0.353597 0 0.00135805
0.595468 0 0
0.887587 0 0
0.0130312 0.0399786 0.0493477
0.0183719 0.0383764 0.0484474
0.0306401 0.0349126 0.0463569
0.0551003 0.0280308 0.0421912
0.101991 0.015259 0.0339513
0.192111 0 0.0181582
0.353902 0 0.00146487
0.596674 0 0
0.88838 0 0
0.00868238 0.0729686 0.0560464
0.0140993 0.0714733 0.0551614
0.0262913 0.0679637 0.0531319
0.0512093 0.0611582 0.0488746
0.0988174 0.0476387 0.040589
0.190646 0.0222629 0.0242924
0.353201 0.000350958 0.00402838
0.596475 0 0
0.887633 0 0
0.00349432 0.141009 0.0692912
0.00773632 0.139696 0.068452
0.01738 0.136614 0.066392
0.0422065 0.129915 0.0621653
0.0905318 0.116716 0.0536965
0.184497 0.0905318 0.0369726
0.347936 0.0441138 0.0111696
0.592401 0.00724804 0
0.883055 0 0
0.000488289 0.277638 0.0945602
0.000885023 0.276402 0.0937209
0.00175479 0.273167 0.091722
0.0237583 0.26688 0.0873579
0.0721447 0.253651 0.0788281
0.169284 0.226673 0.0615396
0.334188 0.180316 0.0319219
0.580392 0.110353 0
0.869062 0.0308537 0
0 0.511879 0.137194
0 0.510796 0.13637
0.000122072 0.507973 0.134203
0.00125124 0.501625 0.130022
0.0389715 0.489021 0.121279
0.139315 0.461585 0.103365
0.307164 0.41529 0.0733501
0.554009 0.346014 0.0291447
0.841566 0.26511 0
0 0.837385 0.19585
0 0.836286 0.194949
0 0.833219 0.192752
0 0.826963 0.188418
0.00503548 0.812924 0.179004
0.0965896 0.785382 0.160769
0.268025 0.737652 0.129961
0.516136 0.668193 0.085069
0.801984 0.58822 0.0336004
0 1 0.255314
0 1 0.254444
0 1 0.251911
0 1 0.246998
0.000381476 1 0.236957
0.0560464 1 0.218036
0.231693 1 0.186389
0.481422 0.978836 0.141344
0.764981 0.904753 0.0901808
0.0154879 0.0179904 0.0883497
0.0209049 0.016495 0.0874952
0.0330816 0.013138 0.0855116
0.0573739 0.00637827 0.0815137
0.103761 0.00154116 0.0735637
0.192432 0 0.0579538
0.353567 0 0.0298314
0.595651 0 0.00157168
0.887831 0 0
0.0145724 0.0252537 0.0900282
0.0200198 0.0236667 0.0891432
0.0322118 0.0203098 0.0871748
0.056611 0.0134737 0.0831617
0.103151 0.0062562 0.0753338
0.192615 0 0.0594339
0.353979 0 0.0311437
0.595895 0 0.00161746
0.887938 0 0
0.0126955 0.0411078 0.0938888
0.0180514 0.0396582 0.0930343
0.0304112 0.0362707 0.0910506
0.0551003 0.0292363 0.0869917
0.102083 0.0161746 0.0789044
0.192401 0 0.0630045
0.354162 0 0.0339208
0.597086 0 0.00154116
0.888731 0 0
0.00857557 0.0741741 0.101152
0.013901 0.0727245 0.100206
0.0260777 0.0693675 0.0983597
0.0511025 0.0623789 0.0943008
0.0986801 0.0489357 0.0860304
0.19089 0.0233463 0.0698711
0.353429 0.000457771 0.0406195
0.597055 0 0.0018616
0.888395 0 0
0.00352483 0.142855 0.11516
0.00764477 0.141253 0.114351
0.0170443 0.13814 0.112535
0.0420386 0.131441 0.108263
0.0902571 0.118456 0.100023
0.18471 0.0919661 0.0834974
0.348104 0.0454108 0.0542458
0.593439 0.00764477 0.0121004
0.883421 0 0
0.000442512 0.279484 0.141588
0.000808728 0.278218 0.140627
0.00157168 0.275288 0.13875
0.0234379 0.268635 0.134524
0.0720378 0.255253 0.126238
0.169314 0.228641 0.109117
0.334615 0.18175 0.0797284
0.580713 0.111925 0.0356298
0.869368 0.0319066 0.00154116
0 0.514351 0.185473
0 0.512795 0.184619
0.000122072 0.509972 0.18262
0.00109865 0.504173 0.178729
0.0385901 0.490913 0.170336
0.139376 0.463523 0.152895
0.307362 0.41706 0.123568
0.554971 0.347768 0.0795148
0.84181 0.267079 0.0284733
0 0.839551 0.246952
0 0.838468 0.246235
0 0.835325 0.24419
0 0.829099 0.240223
0.00540169 0.814923 0.231159
0.0965744 0.787411 0.213382
0.268315 0.740108 0.183413
0.517006 0.6701 0.139208
0.802045 0.590738 0.0886854
0 1 0.309911
0 1 0.309133
0 1 0.306859
0 1 0.302388
0.000244144 1 0.292897
0.0561685 1 0.274388
0.231846 1 0.243351
0.481666 0.97998 0.198825
0.765194 0.906355 0.148211
0.0147402 0.0206149 0.188708
0.0201877 0.019089 0.187686
0.0324102 0.0156405 0.185946
0.0568246 0.00875868 0.182559
0.103349 0.00257877 0.175036
0.19237 0 0.159792
0.35375 0 0.131685
0.596048 0 0.0887007
0.888121 0 0.0393072
0.0138399 0.0278477 0.190738
0.0193027 0.0262303 0.189975
0.0315404 0.0228122 0.188235
0.0560464 0.0158846 0.184527
0.102724 0.00766003 0.177005
0.192523 0 0.161898
0.354131 0 0.133471
0.596323 0 0.0905165
0.888258 0 0.0411078
0.0120394 0.0436561 0.195529
0.0173953 0.0421912 0.194537
0.0297246 0.0387732 0.192782
0.0545052 0.0317388 0.188983
0.101595 0.0184634 0.181643
0.192294 0 0.16614
0.354269 1.5259e-05 0.137896
0.597574 0 0.0948043
0.889052 0 0.0447242
0.00776684 0.0768292 0.203967
0.0131075 0.0753948 0.203265
0.0254215 0.0720684 0.201556
0.0504616 0.0650339 0.197757
0.0981613 0.0514992 0.189975
0.190753 0.0255131 0.174411
0.353643 0.000640879 0.146136
0.597848 0 0.1028
0.888655 0 0.0524605
0.00350958 0.145968 0.219928
0.00737011 0.144396 0.219211
0.0161746 0.141344 0.217563
0.0412757 0.134539 0.213703
0.0897841 0.121584 0.20618
0.184543 0.0949111 0.190066
0.348272 0.0484321 0.16173
0.593744 0.00854505 0.118502
0.883482 0 0.0673533
0.000381476 0.282841 0.24889
0.000686656 0.281575 0.248203
0.00131228 0.27866 0.246571
0.0228428 0.271977 0.242679
0.0714122 0.258701 0.234653
0.16907 0.231876 0.218326
0.334752 0.185016 0.189441
0.580941 0.114977 0.145937
0.869932 0.0342565 0.0951553
0 0.518303 0.295811
0 0.517205 0.295155
0.000122072 0.513771 0.293278
0.000915541 0.507988 0.289403
0.0378882 0.494835 0.281666
0.13904 0.467216 0.264454
0.307546 0.420737 0.235264
0.555108 0.351263 0.191836
0.841856 0.270756 0.141344
0 0.843488 0.359274
0 0.84242 0.358618
0 0.839261 0.35668
0 0.832944 0.35285
0.00585946 0.81886 0.344274
0.0963302 0.791211 0.326757
0.268284 0.743923 0.297124
0.517006 0.674311 0.253849
0.801953 0.594553 0.204318
0 1 0.425147
0 1 0.424491
0 1 0.422415
0 1 0.41825
4.57771e-05 1 0.408972
0.0560311 1 0.391318
0.231891 1 0.360678
0.48191 0.982086 0.316945
0.765255 0.909575 0.267796
0.0133516 0.0251774 0.38204
0.0186923 0.0237125 0.381064
0.0309758 0.0203403 0.379522
0.0554818 0.0134585 0.37612
0.10219 0.00456245 0.369284
0.191928 0 0.354452
0.353414 0 0.327016
0.596185 0 0.284703
0.887907 0 0.233799
0.0124666 0.0323339 0.384344
0.0178836 0.0308537 0.383719
0.0300755 0.0274815 0.382193
0.0546731 0.0205539 0.378775
0.101579 0.0103914 0.371557
0.19205 0 0.356939
0.353841 0 0.329046
0.596445 0 0.286809
0.888045 0 0.235859
0.0105898 0.0482948 0.389578
0.0158999 0.0468147 0.388968
0.0281682 0.0433661 0.387427
0.0530556 0.036347 0.383948
0.100343 0.0229801 0.377035
0.191745 0 0.361837
0.354055 4.57771e-05 0.334188
0.597604 0 0.29189
0.888823 0 0.240986
0.00616464 0.0817578 0.399496
0.0115663 0.0802777 0.398856
0.0237278 0.0769207 0.39733
0.0489815 0.0699016 0.39382
0.0970932 0.0562142 0.386419
0.190188 0.0297398 0.371298
0.353323 0.0009308 0.343297
0.597375 0 0.300908
0.88838 0 0.250599
0.00335698 0.151186 0.417075
0.00674449 0.149889 0.416526
0.0144808 0.146792 0.415137
0.0395666 0.140093 0.41149
0.0884871 0.126925 0.403983
0.183825 0.100191 0.388602
0.347829 0.0535286 0.360983
0.593591 0.0102083 0.318654
0.883116 0 0.268482
0.000274662 0.288762 0.448173
0.000488289 0.28751 0.447608
0.00129702 0.284566 0.446189
0.0214847 0.277913 0.442679
0.0699931 0.264408 0.435096
0.168429 0.237171 0.419364
0.334371 0.190433 0.391165
0.580926 0.120516 0.348638
0.869047 0.0390021 0.299397
0 0.524697 0.498268
0 0.523156 0.497642
9.15541e-05 0.520256 0.496086
0.000640879 0.514015 0.492683
0.0365606 0.50106 0.484962
0.138109 0.473442 0.468696
0.307088 0.42678 0.44033
0.554772 0.357412 0.397848
0.84126 0.277012 0.348501
0 0.850187 0.565438
0 0.849119 0.564904
0 0.845914 0.563195
0 0.839628 0.559716
0.00637827 0.825315 0.551263
0.0953384 0.79765 0.534707
0.267842 0.74963 0.50576
0.516747 0.680034 0.463066
0.801495 0.600839 0.414267
0 1 0.63476
0 1 0.63418
0 1 0.632166
0 1 0.628214
0 1 0.619165
0.0557565 1 0.601862
0.231571 1 0.571557
0.481788 0.985626 0.528435
0.764752 0.914992 0.479957
0.0110781 0.0319371 0.664942
0.0163882 0.0304723 0.664363
0.0285649 0.0270848 0.662913
0.0532082 0.0200809 0.65951
0.100221 0.00733959 0.652399
0.190799 0.000793469 0.637888
0.352712 0 0.609979
0.595346 0 0.568002
0.887373 0 0.517052
0.0101472 0.0391852 0.667292
0.0155642 0.0376898 0.666697
0.0277256 0.0343175 0.665263
0.0525216 0.0272679 0.66183
0.099794 0.0141756 0.655039
0.190585 0.00224308 0.640131
0.352743 0 0.612558
0.596078 0 0.570443
0.887465 0 0.519631
0.00814832 0.055024 0.672969
0.0135653 0.0535439 0.672389
0.025742 0.0501869 0.671
0.0507668 0.0430457 0.667475
0.0984817 0.0295262 0.660243
0.190585 0.00582895 0.645136
0.353246 9.15541e-05 0.617533
0.596689 0 0.575433
0.887709 0 0.524742
0.00450141 0.0886091 0.683284
0.00976577 0.087129 0.682277
0.0215915 0.083772 0.680797
0.0468452 0.0766918 0.677317
0.0951858 0.0631571 0.670344
0.189044 0.0362249 0.654826
0.352483 0.00114443 0.627283
0.596887 0 0.584802
0.887205 0 0.534508
0.00296025 0.158938 0.70132
0.00581369 0.157595 0.700725
0.0121309 0.154528 0.699275
0.0374304 0.147723 0.695781
0.0865492 0.134188 0.688319
0.182528 0.107546 0.672541
0.346868 0.0608988 0.644968
0.592645 0.0125429 0.602365
0.881987 0 0.552392
0.00015259 0.296834 0.732509
0.000259403 0.295232 0.731868
0.0012665 0.292241 0.730388
0.0194553 0.285573 0.726848
0.0680705 0.272358 0.719676
0.166735 0.244999 0.703426
0.333349 0.198123 0.675486
0.580362 0.128008 0.632776
0.868284 0.0460822 0.58294
0 0.533089 0.782727
0 0.53196 0.782223
4.57771e-05 0.528984 0.780713
0.000289921 0.522698 0.777066
0.0348211 0.509041 0.7691
0.136721 0.481804 0.752544
0.306218 0.434958 0.724086
0.553674 0.365698 0.681361
0.839979 0.285557 0.631769
0 0.859083 0.849714
0 0.857984 0.849119
0 0.854765 0.847318
0 0.848356 0.843656
0.00691234 0.833906 0.834958
0.0940414 0.805615 0.817655
0.266957 0.757931 0.788342
0.51577 0.688441 0.745327
0.800168 0.608804 0.696132
0 1 0.916548
0 1 0.915892
0 1 0.913741
0 1 0.909453
0 1 0.90045
0.0549935 1 0.882567
0.230518 1 0.852598
0.481285 0.987991 0.809064
0.764019 0.922042 0.759838
0.00889601 0.038407 0.928252
0.0143282 0.0368811 0.927489
0.0265202 0.033463 0.925673
0.0513924 0.0264286 0.921813
0.0988022 0.0127718 0.913985
0.190204 0.00177005 0.898146
0.35259 0 0.869459
0.595666 0 0.825895
0.887007 0 0.773022
0.00808728 0.045594 0.930098
0.0134279 0.0441291 0.929351
0.0256657 0.0406195 0.927565
0.0506294 0.0336309 0.923659
0.0981765 0.0199435 0.915831
0.190005 0.00448615 0.900145
0.35259 0 0.871427
0.595911 0 0.827512
0.887572 0 0.774578
0.00613413 0.061387 0.934508
0.0115969 0.0599069 0.933776
0.0238956 0.0565805 0.931838
0.0491493 0.0493629 0.928023
0.0970474 0.0357519 0.920195
0.189624 0.0113222 0.904204
0.352651 0.000137331 0.874968
0.597009 0 0.830808
0.887831 0 0.778119
0.0043183 0.0951247 0.942748
0.00900282 0.0936751 0.942
0.019791 0.0902876 0.940185
0.045182 0.0831311 0.936126
0.0935836 0.0694438 0.927947
0.188098 0.0422675 0.911162
0.351888 0.00144961 0.881941
0.597223 0 0.837476
0.887282 0 0.785214
0.00256352 0.166232 0.957702
0.00476081 0.16492 0.956756
0.00973526 0.161807 0.954849
0.0355077 0.154955 0.95082
0.0849622 0.141421 0.942351
0.181689 0.114183 0.925277
0.346441 0.0673381 0.895979
0.593133 0.0150912 0.851575
0.881987 0 0.79942
4.57771e-05 0.304173 0.981918
6.10361e-05 0.302953 0.98117
0.00131228 0.299855 0.979355
0.0175021 0.293217 0.975631
0.0663462 0.279515 0.9682
0.166079 0.252247 0.951385
0.333394 0.2047 0.921614
0.580652 0.134478 0.877028
0.868132 0.0534218 0.82533
0 0.541421 0.999924
0 0.540337 0.999878
1.5259e-05 0.53727 0.999771
6.10361e-05 0.530983 0.999527
0.0335851 0.517052 0.998901
0.13576 0.489265 0.988067
0.305806 0.442206 0.964675
0.55404 0.372885 0.920226
0.839872 0.292805 0.86894
0 0.866926 1
0 0.865843 1
0 0.862531 1
0 0.856001 1
0.0075227 0.841398 1
0.0929427 0.813642 1
0.266636 0.765743 0.998032
0.515938 0.695979 0.975662
0.800107 0.616358 0.927398
0 1 1
0 1 1
0 1 1
0 1 1
0 1 1
0.0551614 1 1
0.230808 1 0.999954
0.481407 0.989868 0.997986
0.764233 0.927794 0.978622
0.00891127 0.0404517 0.998428
0.0142367 0.0389563 0.997574
0.0264134 0.035523 0.995621
0.0514839 0.028397 0.990997
0.0991379 0.014725 0.982101
0.191546 0.0021973 0.964904
0.354177 0 0.934737
0.597955 0 0.889464
0.889342 0 0.835142
0.00799573 0.0476539 0.99884
0.0133211 0.0461738 0.998169
0.0255894 0.0427405 0.996643
0.0508125 0.0355535 0.992157
0.0987564 0.0217136 0.983215
0.191348 0.00521859 0.965988
0.354253 0 0.935775
0.598718 0 0.890349
0.889479 0 0.836179
0.00604257 0.0634165 0.999802
0.0114595 0.0619821 0.999527
0.023621 0.058732 0.998932
0.0490425 0.0514992 0.994705
0.0974594 0.0379034 0.98584
0.191287 0.0129549 0.968383
0.354788 0.00015259 0.938109
0.599283 0 0.892699
0.889738 0 0.838621
0.00456245 0.0972915 0.999985
0.00915541 0.0958114 0.999969
0.0194705 0.0924392 0.999954
0.0450904 0.0852216 0.99913
0.0942092 0.0714885 0.991394
0.189746 0.043946 0.973632
0.353979 0.00213626 0.943069
0.599466 0 0.897551
0.889143 0 0.843687
0.002533 0.169192 1
0.00454719 0.167849 1
0.00898756 0.164752 1
0.0353246 0.157824 1
0.0853285 0.144183 0.999374
0.183093 0.116854 0.985397
0.348867 0.0694591 0.95465
0.595163 0.0162966 0.908995
0.883741 0 0.855467
1.5259e-05 0.307912 1
1.5259e-05 0.306279 1
0.00164797 0.303151 1
0.0173342 0.296452 1
0.0666209 0.282979 1
0.167208 0.255055 0.999359
0.335073 0.207706 0.977188
0.582773 0.137743 0.931502
0.86981 0.0564584 0.878431
0 0.545495 1
0 0.544366 1
0 0.541253 1
3.0518e-05 0.534936 1
0.034226 0.52076 1
0.137057 0.493217 1
0.307973 0.446036 0.999832
0.55584 0.376852 0.970748
0.841382 0.296834 0.918273
0 0.871534 1
0 0.87042 1
0 0.867079 1
0 0.860426 1
0.00833143 0.845701 1
0.094316 0.817182 1
0.268772 0.768933 1
0.517937 0.699229 0.999893
0.801862 0.61973 0.971862
0 1 1
0 1 1
0 1 1
0 1 1
0 1 1
0.0563821 1 1
0.232761 1 1
0.484154 0.990036 1
0.766155 0.930098 1
