luts/varicam_official/Cyan 2 33 E-E.cube
TITLE "Generated by Resolve"
LUT_3D_SIZE 33
0.0156252 0.0156252 0.0156252
0.0156252 0.0156252 0.0156252
0.0156252 0.0156252 0.0156252
0.0173342 0.0151217 0.0153048
0.0199893 0.0143282 0.0148013
0.0235294 0.0132601 0.0141299
0.0296635 0.0114137 0.0129549
0.0357977 0.00958267 0.0117952
0.0436255 0.0075227 0.0102998
0.0515602 0.00546273 0.0087892
0.0600748 0.00375372 0.00727855
0.068986 0.002533 0.00579843
0.078645 0.00163272 0.00520333
0.0911574 0.00190738 0.00477607
0.103655 0.00198367 0.00411994
0.118486 0.00190738 0.00373846
0.133486 0.00164797 0.00321965
0.149996 0.00125124 0.00270085
0.167834 0.000747692 0.00218204
0.186633 0.000213626 0.00151064
0.20943 0.000122072 0.00122072
0.231922 1.5259e-05 0.000793469
0.256474 0 0.000518807
0.281239 0 0.000198367
0.307759 0 0
0.33611 0 7.62951e-05
0.364996 0 6.10361e-05
0.396551 0 4.57771e-05
0.428077 0 1.5259e-05
0.46128 0 0
0.494453 0 0
0.528588 0 0
0.563714 0 0
0.0156252 0.0156252 0.0156252
0.0156252 0.0156252 0.0156252
0.0159304 0.0159152 0.0156252
0.0181582 0.0160525 0.0153201
0.0202792 0.0162356 0.0150301
0.0255131 0.0154116 0.0141451
0.0315099 0.0143435 0.0131228
0.0382849 0.0131685 0.0119478
0.0459449 0.01178 0.0105745
0.053666 0.0104067 0.0100404
0.0623789 0.00886549 0.00933852
0.0709392 0.00730907 0.00866712
0.0825513 0.00653086 0.00787366
0.095079 0.00581369 0.00695811
0.108537 0.0049897 0.00607309
0.123247 0.00418097 0.00526436
0.138018 0.00337224 0.00436408
0.15581 0.00241093 0.0037232
0.173571 0.00114443 0.00283818
0.194797 0.000549325 0.00222782
0.216953 0.000244144 0.00166323
0.239979 0 0.00106813
0.264469 0 0.000808728
0.288991 0 0.000366217
0.317388 0 0.000366217
0.345754 0 0.000228885
0.376181 0 0.000137331
0.407401 0 6.10361e-05
0.439246 0 0
0.472633 0 0
0.505653 0 0
0.540734 0 0
0.575769 0 0
0.0146639 0.0214237 0.0165866
0.0145418 0.0222171 0.0167086
0.0158083 0.0225986 0.0165866
0.0176547 0.0227512 0.0163272
0.0208438 0.0225071 0.0158389
0.0268406 0.0213626 0.0148165
0.0328374 0.0202029 0.0145876
0.0402991 0.018967 0.0141146
0.0476844 0.0180362 0.0137026
0.055787 0.0170138 0.0130922
0.0641794 0.0158236 0.0124056
0.0737621 0.0147402 0.0116121
0.0861067 0.0135348 0.0104372
0.0984054 0.0119783 0.00914015
0.112703 0.0102693 0.0080415
0.127047 0.00813306 0.00679026
0.143404 0.0059205 0.00575265
0.161151 0.00352483 0.00476081
0.180133 0.00138857 0.00373846
0.20206 0.00077821 0.00326543
0.223835 0.000244144 0.00263981
0.247852 0.000656138 0.00210575
0.271992 0.000534066 0.00131228
0.298466 0.00030518 0.00077821
0.326757 0.000244144 0.000564584
0.355612 0.000137331 0.00030518
0.386648 9.15541e-05 0.000213626
0.417578 1.5259e-05 7.62951e-05
0.450568 0 4.57771e-05
0.483467 0 1.5259e-05
0.51751 0 0
0.552682 0 0
0.587976 0 0
0.0133669 0.0293278 0.0178988
0.0135348 0.0304875 0.0180362
0.0149844 0.0313115 0.0179446
0.0163272 0.0320592 0.0186007
0.0216068 0.0317235 0.0186618
0.0274968 0.0311284 0.0185092
0.0341344 0.0303349 0.0182193
0.0413977 0.0294194 0.0177462
0.0489357 0.0283207 0.0171969
0.0573129 0.027039 0.016434
0.0656901 0.0256199 0.015671
0.0772106 0.0234226 0.0142672
0.0893263 0.0209049 0.0126955
0.102327 0.0189975 0.0113527
0.116381 0.016968 0.00999466
0.130861 0.0149081 0.00860609
0.148455 0.0130312 0.00788891
0.166262 0.0107881 0.00698863
0.18703 0.00947585 0.00619516
0.208545 0.0077821 0.00515755
0.231098 0.00584421 0.00401312
0.255055 0.00367742 0.00271611
0.279408 0.00115969 0.00120546
0.307591 0.000869764 0.000961318
0.335775 0.000503548 0.000640879
0.365972 0.000350958 0.000442512
0.39678 0.000610361 0.000274662
0.428611 0.000595102 0.000122072
0.461311 0.000427253 6.10361e-05
0.494148 0 0
0.529198 0 0
0.564279 0 0
0.599802 0 0
0.0114443 0.0410468 0.0205844
0.0122377 0.0419471 0.0214389
0.0132753 0.0428016 0.0221866
0.0162203 0.0430152 0.0225834
0.0220798 0.0426184 0.0224002
0.027985 0.0423896 0.0222019
0.0350652 0.0419013 0.0217899
0.0422217 0.0412909 0.0212711
0.0501717 0.0404364 0.0206149
0.0584573 0.0395819 0.0198367
0.0680705 0.0382544 0.0187991
0.0799268 0.0363622 0.0172885
0.0917678 0.0343786 0.0157321
0.105547 0.0322576 0.0146334
0.11928 0.029984 0.01355
0.135607 0.0273289 0.0125277
0.153384 0.0243534 0.0112459
0.172229 0.02121 0.0099031
0.193347 0.0184787 0.00851453
0.214405 0.0153658 0.00679026
0.238056 0.0124514 0.00505074
0.261753 0.00895705 0.0028687
0.288228 0.00733959 0.00175479
0.31632 0.00669871 0.00129702
0.345159 0.00570687 0.000808728
0.375769 0.00471504 0.000518807
0.406653 0.00328069 0.00030518
0.439094 0.00210575 0.000335698
0.471687 0.000671397 0.00015259
0.505669 0 0
0.540642 0 0
0.575753 0 0
0.611383 0 0
0.00950637 0.0544594 0.0251621
0.0101778 0.0557412 0.0260014
0.0107271 0.057145 0.0267948
0.0162203 0.057023 0.0266575
0.0220493 0.0568856 0.0263828
0.0285649 0.0564584 0.0259861
0.0355688 0.0559701 0.0254368
0.0428473 0.055314 0.0248112
0.051133 0.0543679 0.0239872
0.0593881 0.0536355 0.0231327
0.0706493 0.0522927 0.0221866
0.0821546 0.0509651 0.0213321
0.0947433 0.0492561 0.0204166
0.108141 0.0474403 0.0193179
0.122347 0.0452888 0.0181125
0.140063 0.0424048 0.0166171
0.157641 0.0393225 0.0148623
0.178058 0.0356298 0.0130922
0.198825 0.031693 0.0109712
0.221012 0.0271916 0.00859083
0.244495 0.0221561 0.00579843
0.268742 0.0171817 0.00296025
0.296818 0.0152132 0.00230411
0.324849 0.0136873 0.00195315
0.354772 0.0119326 0.00199893
0.385275 0.00955215 0.00164797
0.416541 0.00674449 0.00120546
0.448981 0.00363165 0.000762951
0.481758 0.000259403 6.10361e-05
0.516609 0.000167849 4.57771e-05
0.551522 3.0518e-05 1.5259e-05
0.587015 0 0
0.622614 0 0
0.00729381 0.0693828 0.0297093
0.00753796 0.0709544 0.030518
0.0103609 0.0722667 0.030869
0.0161593 0.0725567 0.0306249
0.0219883 0.0729076 0.0303044
0.0287785 0.0728313 0.0298009
0.0354009 0.0729076 0.0292668
0.0432898 0.0725109 0.0289616
0.0515297 0.0721294 0.0287175
0.0611276 0.0711986 0.0281987
0.0724498 0.069749 0.0273899
0.0838483 0.0683604 0.0265049
0.0970474 0.066331 0.025391
0.11014 0.0643931 0.0241855
0.12668 0.0613565 0.0225376
0.144167 0.0585794 0.0206607
0.162875 0.0552682 0.0185855
0.183368 0.0513924 0.0162814
0.203876 0.0476234 0.0136568
0.227207 0.0429847 0.0105592
0.250477 0.0384527 0.00756847
0.277012 0.0346227 0.00671397
0.304891 0.0306096 0.00602731
0.333547 0.0259251 0.00508125
0.363836 0.0208591 0.00427253
0.393744 0.0151369 0.00296025
0.426184 0.00944533 0.00213626
0.458534 0.00302129 0.00077821
0.49247 0.00323491 0.000274662
0.527199 0.00482185 0.000244144
0.562203 0.00537118 0.00015259
0.59762 0.00541695 0.000106813
0.633082 0.00448615 0
0.00483711 0.0886397 0.034699
0.00471504 0.0907454 0.0355077
0.0103304 0.0909438 0.0351263
0.0158694 0.0911269 0.0347448
0.022034 0.0912642 0.0346227
0.0284428 0.0912032 0.0347143
0.0353552 0.0912184 0.0346838
0.0435645 0.0911116 0.0345312
0.0517433 0.0911421 0.0343328
0.0626841 0.0901503 0.0335546
0.0736706 0.089128 0.0328222
0.085771 0.087892 0.0318303
0.0985885 0.0862745 0.0307317
0.112749 0.0843824 0.0293278
0.130266 0.0813916 0.0273289
0.147753 0.0785229 0.0252384
0.167819 0.0746929 0.0227512
0.187991 0.0708171 0.0202945
0.209873 0.0665904 0.0178378
0.233082 0.0618753 0.0151827
0.25716 0.0580911 0.0130922
0.28481 0.053254 0.0119326
0.312337 0.0485695 0.0101778
0.342031 0.0439002 0.00874342
0.371588 0.0393683 0.00689708
0.402625 0.034638 0.00517281
0.434882 0.0297856 0.00352483
0.467536 0.0254826 0.00173953
0.502251 0.0234531 0.00138857
0.536904 0.0204776 0.000823987
0.572244 0.0172885 0.000732433
0.607614 0.0134432 0.00077821
0.643656 0.00918593 0.000671397
0.00239567 0.109346 0.0395514
0.00512703 0.110948 0.0401617
0.0102693 0.11162 0.0404669
0.0154879 0.1122 0.0406653
0.0214847 0.112673 0.0407568
0.0273594 0.112978 0.0408789
0.035172 0.113008 0.0406958
0.0433661 0.11281 0.0404974
0.0528572 0.112337 0.0399939
0.0636454 0.111299 0.0392615
0.0746471 0.110185 0.038407
0.0871748 0.108843 0.0372931
0.0997024 0.108125 0.0363317
0.116075 0.106523 0.0345922
0.13341 0.104448 0.0329137
0.151827 0.10222 0.0312047
0.171603 0.0993973 0.0293278
0.191623 0.0966964 0.0273442
0.214694 0.092958 0.0249027
0.237781 0.0892042 0.0223545
0.264118 0.0847181 0.0201114
0.291493 0.0797131 0.0176089
0.319936 0.0747082 0.0150301
0.349386 0.069337 0.012604
0.378943 0.0639506 0.00976577
0.411093 0.058732 0.00779736
0.443229 0.0533608 0.00514229
0.477058 0.0491493 0.00407416
0.51162 0.0446174 0.00383001
0.546365 0.0400397 0.00329595
0.581582 0.0352026 0.0028687
0.617075 0.0297398 0.00195315
0.65301 0.0246128 0.00161746
0.0009308 0.132601 0.0461585
0.00538643 0.133425 0.0464332
0.00970474 0.134051 0.0467689
0.0149081 0.134585 0.046891
0.020264 0.135882 0.0471656
0.0264744 0.136843 0.0472114
0.0344854 0.137697 0.0471046
0.0426032 0.138323 0.0469978
0.0530098 0.138445 0.0464179
0.063386 0.138384 0.0458534
0.0750286 0.138125 0.0450141
0.08748 0.137453 0.0442664
0.101442 0.13637 0.0433661
0.118578 0.134524 0.041886
0.135683 0.132479 0.0404822
0.155138 0.129946 0.0385901
0.174594 0.12726 0.0367742
0.196216 0.124666 0.0345769
0.219196 0.121431 0.032166
0.243397 0.11783 0.0295567
0.27042 0.113558 0.0266728
0.297688 0.10898 0.0235752
0.326726 0.104219 0.0206912
0.355871 0.0991531 0.0174716
0.386755 0.0938582 0.0146792
0.418921 0.0879072 0.0123903
0.451698 0.0817884 0.0101472
0.486091 0.0754711 0.0090486
0.520531 0.0683604 0.00729381
0.555535 0.0612345 0.00613413
0.590906 0.0550393 0.00459297
0.626368 0.0498512 0.00340276
0.662242 0.0445716 0.00259403
0.0021973 0.159533 0.0531319
0.00563058 0.161273 0.0535897
0.00910964 0.162753 0.0540322
0.0133822 0.164111 0.0542458
0.0173495 0.165316 0.0544747
0.0250248 0.166003 0.0543374
0.0330358 0.166812 0.0541695
0.0423133 0.167086 0.0538033
0.0524147 0.167391 0.0534524
0.0628824 0.167926 0.0533913
0.0751354 0.168154 0.0529335
0.0873121 0.168154 0.0525368
0.103593 0.166918 0.0513008
0.120363 0.165728 0.0500496
0.138415 0.163928 0.0484474
0.157519 0.162005 0.0466773
0.177279 0.159655 0.0448005
0.200183 0.156588 0.042298
0.223133 0.153277 0.0397955
0.249332 0.148974 0.0366979
0.276326 0.14461 0.0334173
0.304189 0.139757 0.0301366
0.333013 0.135332 0.0272984
0.362295 0.130541 0.0244602
0.394339 0.125154 0.0217136
0.426444 0.119493 0.0186313
0.460166 0.113634 0.0163424
0.494347 0.107424 0.0138247
0.528862 0.101259 0.0112306
0.564172 0.095201 0.0087129
0.599329 0.0889296 0.00585946
0.635142 0.0829175 0.00497444
0.671031 0.0763256 0.00384527
0.00271611 0.189044 0.0604868
0.00483711 0.191684 0.0611276
0.00782788 0.193713 0.0615702
0.0107424 0.195865 0.0619364
0.0157168 0.197498 0.0621347
0.0235599 0.198749 0.0622568
0.0314336 0.200168 0.0626383
0.0411994 0.200824 0.0625772
0.0507973 0.201709 0.0625467
0.0622873 0.201846 0.0622416
0.0745251 0.201968 0.061738
0.0885176 0.201343 0.0609598
0.105119 0.199908 0.059617
0.121736 0.198703 0.0583505
0.140581 0.197101 0.0566262
0.159289 0.195743 0.0550393
0.180926 0.193286 0.0527657
0.203738 0.190707 0.0502785
0.227924 0.187457 0.0476997
0.254612 0.183673 0.044892
0.281086 0.17969 0.0421759
0.309819 0.175036 0.0391089
0.338415 0.170626 0.0360876
0.36939 0.165301 0.0327306
0.40145 0.159915 0.0291447
0.434195 0.154116 0.0256199
0.468132 0.148226 0.0221256
0.501915 0.142916 0.0184634
0.537163 0.13724 0.0153048
0.572061 0.131945 0.0117037
0.607523 0.126192 0.00947585
0.643214 0.120607 0.00794995
0.678752 0.1149 0.00698863
0.00241093 0.224704 0.068864
0.00384527 0.227161 0.0695201
0.00561532 0.228992 0.0700389
0.00698863 0.231037 0.0707866
0.014313 0.232242 0.0711986
0.0216831 0.233738 0.0715496
0.0302739 0.235142 0.0717937
0.0394293 0.236362 0.0718242
0.0492103 0.237613 0.0718395
0.0614023 0.23798 0.0713512
0.0734417 0.23859 0.0709087
0.0894789 0.237781 0.0697795
0.105653 0.237156 0.0685588
0.123262 0.235843 0.0671244
0.141787 0.234226 0.0654002
0.161227 0.232593 0.0637522
0.184115 0.229664 0.0616007
0.206943 0.226978 0.0594797
0.233097 0.223041 0.0567788
0.259098 0.220279 0.0541695
0.286427 0.216892 0.0513924
0.314778 0.213199 0.0483253
0.343755 0.209628 0.0452735
0.375738 0.204883 0.0415808
0.407645 0.200397 0.0378882
0.441123 0.195178 0.0341039
0.474708 0.190204 0.0300755
0.509346 0.184619 0.0259403
0.54432 0.178943 0.021622
0.579355 0.173495 0.0184634
0.615106 0.167529 0.0166323
0.650782 0.161837 0.0142367
0.685954 0.156344 0.0127565
0.00146487 0.262196 0.0781872
0.00230411 0.264851 0.0791943
0.00300603 0.267124 0.0800031
0.00666819 0.269368 0.080705
0.0132296 0.271092 0.0810864
0.019852 0.272984 0.0814374
0.028336 0.274174 0.0815442
0.0365911 0.275364 0.0815747
0.0479896 0.27602 0.0812543
0.0600748 0.276204 0.0806897
0.0739605 0.276158 0.0799268
0.0898451 0.276127 0.0788281
0.105882 0.276356 0.0778515
0.124056 0.275685 0.0768292
0.142153 0.275044 0.0757
0.163729 0.27364 0.0740215
0.186419 0.271611 0.0719768
0.210651 0.269398 0.0697795
0.2365 0.266453 0.0671244
0.262409 0.263752 0.0644846
0.290593 0.260121 0.0614633
0.318654 0.256809 0.058381
0.349599 0.252262 0.0547951
0.381613 0.247318 0.0508278
0.414099 0.242893 0.0469673
0.447578 0.23801 0.0427863
0.481331 0.233371 0.0391089
0.516228 0.228077 0.0354925
0.551049 0.223087 0.0317235
0.586496 0.217578 0.0287785
0.622187 0.211994 0.0256504
0.657588 0.20676 0.0227665
0.692714 0.201312 0.0202182
0.000381476 0.302052 0.0884871
0.000274662 0.30454 0.0893873
0.000228885 0.306844 0.090135
0.00611887 0.30959 0.0907454
0.01149 0.312047 0.0912337
0.018204 0.314504 0.0915541
0.0253147 0.316518 0.0918135
0.0339208 0.318151 0.0917678
0.0458076 0.319417 0.0914626
0.0577554 0.320378 0.0911421
0.0733349 0.32076 0.0906233
0.0888991 0.320867 0.0899519
0.105943 0.320806 0.0891127
0.123842 0.320226 0.0879683
0.143053 0.319539 0.0865797
0.165713 0.31751 0.084596
0.188525 0.315831 0.082536
0.213916 0.313726 0.0801251
0.239414 0.311269 0.0775464
0.266316 0.308675 0.0747997
0.294224 0.305486 0.0717021
0.323095 0.302235 0.0684367
0.355032 0.297627 0.064622
0.386954 0.293034 0.0611734
0.420127 0.288518 0.0576638
0.453788 0.283528 0.0538796
0.487938 0.278706 0.0502174
0.52282 0.27335 0.0462806
0.557809 0.268238 0.0424506
0.593454 0.262913 0.038941
0.629084 0.257679 0.0351568
0.664164 0.252934 0.0321965
0.699306 0.247852 0.0287327
0 0.346517 0.0994125
0 0.349783 0.100374
0.00233463 0.352483 0.101015
0.00601205 0.355276 0.101625
0.00981155 0.357687 0.102052
0.0152895 0.360067 0.102373
0.0203708 0.362112 0.102678
0.0314183 0.363531 0.1028
0.0434272 0.365042 0.102953
0.0571298 0.36611 0.102647
0.0722667 0.367056 0.102174
0.0877699 0.367529 0.101472
0.105272 0.367773 0.100526
0.122744 0.367712 0.0994125
0.144427 0.36669 0.0975814
0.167269 0.364965 0.0955673
0.191257 0.362921 0.0932174
0.216464 0.3608 0.0907607
0.242069 0.358236 0.0880751
0.269749 0.355352 0.0851606
0.297475 0.352117 0.0825666
0.328435 0.348424 0.0794995
0.36025 0.344213 0.0760967
0.392676 0.339925 0.0726024
0.426078 0.335683 0.0690776
0.459419 0.331106 0.0654307
0.494148 0.326421 0.0616922
0.528969 0.321386 0.0577707
0.564324 0.316533 0.0540475
0.599939 0.311315 0.0500801
0.635294 0.306493 0.0462806
0.670481 0.301396 0.0426337
0.705623 0.296315 0.0386969
0 0.393454 0.110704
0.000259403 0.396918 0.111543
0.00260929 0.399954 0.112123
0.00466926 0.403281 0.112917
0.00827039 0.405997 0.11371
0.0120241 0.408896 0.114549
0.0187381 0.411078 0.114977
0.0299992 0.41297 0.115145
0.0413214 0.414481 0.115114
0.0559854 0.415015 0.114473
0.0704051 0.415839 0.113954
0.0868696 0.41593 0.112978
0.104005 0.416236 0.112001
0.123186 0.415946 0.110567
0.145937 0.414893 0.108598
0.168566 0.41352 0.106508
0.193591 0.41146 0.103975
0.218448 0.409781 0.102129
0.245243 0.407172 0.0997482
0.272847 0.404639 0.0973678
0.301854 0.401328 0.0945449
0.333394 0.397574 0.0913558
0.364965 0.39353 0.088014
0.39826 0.389227 0.0845197
0.431342 0.384619 0.0809186
0.465537 0.379675 0.0770886
0.500206 0.375326 0.0733654
0.53518 0.370718 0.0694743
0.570611 0.366339 0.0657359
0.606134 0.361593 0.0618143
0.641215 0.357244 0.0588083
0.676402 0.352468 0.0556039
0.711254 0.347814 0.0525063
0 0.44416 0.122576
0.000854505 0.447288 0.123644
0.00196841 0.450172 0.124575
0.00329595 0.4533 0.125582
0.00553903 0.455909 0.126253
0.00755322 0.459266 0.127123
0.0177768 0.461219 0.127199
0.0280766 0.463447 0.127352
0.0404212 0.464729 0.126986
0.054078 0.46566 0.126497
0.0683452 0.466804 0.125841
0.0855268 0.467109 0.124712
0.102647 0.46775 0.123705
0.124727 0.466453 0.121691
0.14696 0.4654 0.120317
0.170642 0.463661 0.118517
0.195285 0.461997 0.116686
0.220584 0.459815 0.114565
0.248203 0.457282 0.112078
0.275731 0.455207 0.109773
0.306584 0.451789 0.10663
0.337819 0.448569 0.103578
0.370275 0.444587 0.100145
0.403082 0.440818 0.096788
0.436271 0.436622 0.0932021
0.471 0.432059 0.0893721
0.505638 0.427878 0.0857252
0.540993 0.423163 0.082414
0.576349 0.418753 0.0793164
0.611704 0.413901 0.0759747
0.646891 0.409354 0.0728161
0.682139 0.404547 0.0694438
0.717205 0.399954 0.0663462
0.000106813 0.495964 0.135607
0.000656138 0.499214 0.136568
0.00105287 0.502861 0.137652
0.00210575 0.505867 0.138399
0.00296025 0.508812 0.139101
0.00770581 0.511559 0.139574
0.0167849 0.513359 0.139528
0.0259861 0.515419 0.139528
0.0386206 0.516487 0.138964
0.0508888 0.517952 0.138537
0.0669413 0.518746 0.13756
0.0840925 0.519326 0.13695
0.103502 0.519509 0.13611
0.125475 0.518578 0.134661
0.147539 0.518013 0.133379
0.171969 0.516503 0.131487
0.196246 0.515389 0.129763
0.223011 0.513191 0.127428
0.250629 0.51075 0.125063
0.279576 0.508232 0.122347
0.310735 0.504601 0.119158
0.342153 0.501198 0.116075
0.374914 0.497154 0.112535
0.407538 0.493629 0.109209
0.441657 0.489326 0.106126
0.476371 0.484855 0.103166
0.511254 0.480659 0.100008
0.546654 0.475914 0.0966354
0.581918 0.471519 0.093431
0.617243 0.466697 0.0899977
0.652491 0.462287 0.0867475
0.687785 0.457572 0.083299
0.722515 0.453422 0.0801251
4.57771e-05 0.548928 0.148531
0 0.5523 0.149462
9.15541e-05 0.556207 0.150484
0.000289921 0.559457 0.151202
0.000518807 0.562661 0.151965
0.00827039 0.565209 0.15198
0.0153506 0.567437 0.151949
0.0249027 0.569604 0.151781
0.0355688 0.571176 0.151812
0.0478828 0.572808 0.151827
0.0650645 0.573297 0.151202
0.0823987 0.573693 0.150668
0.103914 0.573343 0.149371
0.125566 0.572625 0.148013
0.148714 0.571847 0.146517
0.172839 0.570504 0.144671
0.197803 0.569284 0.14284
0.225406 0.566918 0.140368
0.252934 0.56492 0.138079
0.283665 0.561456 0.134966
0.314885 0.557794 0.131838
0.3467 0.554452 0.129152
0.379294 0.550622 0.126329
0.412268 0.547021 0.123644
0.446983 0.542535 0.12047
0.481605 0.538415 0.117464
0.516884 0.533684 0.114046
0.552193 0.528878 0.11075
0.587427 0.524498 0.107317
0.622766 0.519768 0.103792
0.658274 0.515373 0.100404
0.693156 0.510887 0.0969558
0.727977 0.506783 0.0936599
0 0.604532 0.161669
0 0.608316 0.162631
6.10361e-05 0.611978 0.16347
0.000106813 0.615198 0.164096
0.00302129 0.617884 0.164477
0.0078584 0.620554 0.165042
0.013077 0.622721 0.165576
0.0221714 0.624826 0.165728
0.0307469 0.626596 0.165835
0.0464332 0.627726 0.16553
0.0635843 0.628229 0.16492
0.0826581 0.628595 0.164157
0.10399 0.628031 0.162829
0.125643 0.627359 0.161532
0.149462 0.626459 0.159792
0.173312 0.625193 0.158007
0.200107 0.623423 0.155856
0.227741 0.621042 0.153399
0.256733 0.618494 0.151354
0.28777 0.614893 0.14876
0.318669 0.611429 0.146334
0.351064 0.608011 0.143587
0.383505 0.604227 0.140749
0.417594 0.600305 0.137789
0.452308 0.59585 0.134524
0.48716 0.591699 0.13135
0.522408 0.58703 0.127871
0.557626 0.582391 0.124514
0.592935 0.578012 0.120958
0.628702 0.573129 0.117372
0.663661 0.568948 0.113893
0.698573 0.564477 0.110826
0.732357 0.560708 0.108385
0 0.660807 0.174762
0 0.664469 0.17557
0 0.668223 0.176913
0.000259403 0.67155 0.178042
0.00354009 0.674296 0.178759
0.00634775 0.676677 0.179309
0.0122225 0.678645 0.179675
0.0187991 0.680842 0.179889
0.0288548 0.682216 0.179889
0.0454108 0.683116 0.179355
0.0618753 0.683665 0.178759
0.0827649 0.683482 0.177615
0.103624 0.682979 0.176287
0.12639 0.682002 0.174807
0.149935 0.681147 0.173144
0.174838 0.679545 0.171878
0.202396 0.677546 0.170092
0.23006 0.675135 0.1682
0.260792 0.672099 0.165835
0.291295 0.668803 0.163302
0.323003 0.665171 0.160693
0.355261 0.661738 0.157824
0.388281 0.657755 0.15491
0.422904 0.653727 0.151644
0.457603 0.649332 0.148318
0.492683 0.645014 0.144991
0.527855 0.640253 0.141436
0.563149 0.635706 0.137957
0.599023 0.630579 0.134539
0.634394 0.625666 0.13164
0.669184 0.621302 0.128771
0.704021 0.616541 0.125811
0.73666 0.612848 0.123384
0 0.717678 0.188952
0 0.721157 0.190265
0 0.724971 0.191501
0.000991836 0.727749 0.192309
0.00242618 0.73048 0.193072
0.00469978 0.732738 0.193561
0.00972 0.734585 0.193835
0.0141299 0.736782 0.194064
0.0290074 0.737453 0.193668
0.0444038 0.738476 0.193194
0.0625467 0.738537 0.192248
0.0826581 0.738552 0.19115
0.103395 0.738018 0.190326
0.126772 0.736767 0.18941
0.149981 0.735927 0.188388
0.177081 0.733715 0.18674
0.2047 0.731731 0.184848
0.233814 0.728801 0.182696
0.264393 0.725643 0.180117
0.295064 0.722103 0.177462
0.32723 0.718517 0.17467
0.359457 0.714611 0.171618
0.393713 0.710094 0.168414
0.42826 0.705806 0.165026
0.463172 0.701076 0.161654
0.498314 0.696651 0.158526
0.533623 0.691844 0.155505
0.569451 0.68719 0.152499
0.605035 0.682307 0.149355
0.640009 0.677485 0.146471
0.674769 0.672663 0.14342
0.708675 0.667613 0.140612
0.74139 0.663386 0.137881
0 0.774166 0.20351
0 0.777539 0.204791
0.000106813 0.78117 0.205951
0.000732433 0.783688 0.206699
0.00109865 0.786633 0.207416
0.00364691 0.788617 0.207706
0.00631724 0.790417 0.207996
0.0140993 0.792065 0.207904
0.0284428 0.792844 0.207523
0.043183 0.793774 0.207507
0.0627451 0.793286 0.207019
0.0818036 0.793149 0.206424
0.103899 0.792004 0.205417
0.126909 0.791104 0.204486
0.151843 0.789349 0.202991
0.179583 0.78677 0.201083
0.207431 0.784482 0.199008
0.237903 0.781003 0.196521
0.267964 0.778012 0.194003
0.299519 0.774304 0.191089
0.331533 0.770809 0.188205
0.364538 0.766629 0.184955
0.399115 0.761257 0.181979
0.433661 0.7561 0.179065
0.469017 0.750713 0.176135
0.50428 0.745815 0.173037
0.5402 0.740307 0.169909
0.575845 0.735103 0.166674
0.611276 0.729625 0.163409
0.646097 0.724346 0.160403
0.680842 0.719448 0.157259
0.713771 0.714916 0.154604
0.746609 0.71075 0.151827
0 0.830457 0.218036
0 0.833768 0.219303
0 0.836881 0.220172
0 0.839338 0.220966
0.000671397 0.841917 0.221546
0.00254826 0.843641 0.221851
0.00416571 0.845777 0.222629
0.0167697 0.846418 0.222721
0.0289769 0.847013 0.222904
0.0447242 0.847272 0.222538
0.062501 0.846784 0.222019
0.0813764 0.84651 0.221286
0.104234 0.845411 0.220279
0.126925 0.844724 0.21915
0.154467 0.84033 0.217029
0.182345 0.835492 0.214954
0.211704 0.830884 0.212451
0.241718 0.826322 0.209918
0.272114 0.822324 0.207156
0.304189 0.817975 0.204578
0.336172 0.814313 0.202106
0.370504 0.80975 0.199161
0.405066 0.805447 0.196307
0.439963 0.801328 0.193225
0.475288 0.796674 0.190188
0.510964 0.792187 0.186923
0.546746 0.786618 0.183703
0.582498 0.781125 0.180285
0.617487 0.77554 0.177172
0.652247 0.770321 0.173968
0.686183 0.765072 0.170855
0.71928 0.760082 0.168017
0.751919 0.755474 0.165469
0 0.885634 0.232349
0 0.888808 0.233539
0 0.891585 0.234287
0 0.89398 0.235615
0.000854505 0.896361 0.236591
0.0016022 0.898329 0.237583
0.00743114 0.896788 0.23798
0.0177462 0.893812 0.237858
0.0286717 0.891005 0.237736
0.0450141 0.888014 0.237049
0.060853 0.885252 0.236469
0.0822766 0.88249 0.23534
0.105058 0.879759 0.23415
0.130098 0.876936 0.232441
0.157809 0.873503 0.230335
0.185962 0.870588 0.228016
0.215763 0.867475 0.225696
0.245472 0.864775 0.223774
0.27689 0.862196 0.221424
0.308965 0.859083 0.219028
0.342077 0.855924 0.216236
0.376654 0.852308 0.21326
0.41117 0.849363 0.210117
0.446525 0.845029 0.206806
0.482216 0.840925 0.203586
0.517891 0.835782 0.200153
0.553796 0.829786 0.19675
0.589212 0.824277 0.193301
0.624033 0.818738 0.190173
0.658701 0.81355 0.187335
0.69192 0.80853 0.185092
0.7252 0.803464 0.183047
0.756893 0.798993 0.181125
0 0.92752 0.247059
0 0.926177 0.248402
0 0.925032 0.249638
0.000183108 0.923873 0.250813
0.000549325 0.922881 0.251621
0.00115969 0.922011 0.252522
0.00949111 0.920317 0.252384
