luts/varicam_official/Cyan 1 33 E-E.cube
TITLE "Generated by Resolve"
LUT_3D_SIZE 5
0.0156252 0.0156252 0.0156252
0.0349126 0.00988785 0.0121309
0.108721 0.00125124 0.00512703
0.25452 0 0.000549325
0.34287 0 0
0.00401312 0.107332 0.0431067
0.0484321 0.117647 0.0475166
0.153704 0.113817 0.0432746
0.3411 0.0905165 0.0266423
0.443244 0.0758831 0.0162661
0.00062562 0.423102 0.12932
0.0415656 0.456046 0.140139
0.184756 0.468956 0.13994
0.408591 0.46099 0.128466
0.519768 0.453193 0.121477
0 0.899474 0.265904
0.0353399 0.911482 0.279118
0.220722 0.899733 0.279652
0.475914 0.897719 0.27126
0.591196 0.885298 0.267659
0 0.978973 0.326955
0.0408789 0.987778 0.340307
0.249958 1 0.340093
0.515358 0.994629 0.3308
0.630274 0.994156 0.327382
0.015198 0.0163729 0.0548714
0.0377203 0.0107576 0.0648051
0.115282 0.00172427 0.0673991
0.266712 0 0.0604868
0.356054 0 0.0542611
0.00436408 0.1178 0.124498
0.0509194 0.129015 0.142397
0.161044 0.125811 0.151995
0.35378 0.102586 0.150637
0.457176 0.0882887 0.147341
0.000656138 0.446326 0.259586
0.0437171 0.479301 0.28748
0.192691 0.492073 0.30399
0.420905 0.48368 0.308507
0.532845 0.475883 0.308476
0 0.91783 0.449729
0.0379644 0.921874 0.47924
0.23122 0.914611 0.494835
0.489464 0.917342 0.499184
0.604471 0.904921 0.50042
0 0.985946 0.533516
0.0490272 0.994186 0.559777
0.262348 1 0.571283
0.530159 0.997497 0.573358
0.644572 0.995239 0.573465
0.0139925 0.0191196 0.171435
0.0400092 0.0135958 0.198062
0.120928 0.00415045 0.218677
0.278157 0 0.228321
0.369665 7.62951e-05 0.228489
0.0043946 0.131106 0.297078
0.0526284 0.142519 0.330907
0.167407 0.140597 0.357168
0.365393 0.117708 0.37023
0.470558 0.103273 0.372442
0.000549325 0.472145 0.484016
0.0450752 0.504921 0.524163
0.200275 0.517327 0.550958
0.432547 0.508278 0.564355
0.545419 0.500374 0.5673
0 0.937392 0.708583
0.0407263 0.932982 0.742473
0.242283 0.929534 0.75964
0.502739 0.935958 0.764263
0.617685 0.921508 0.764462
4.57771e-05 0.990417 0.797635
0.056733 0.999893 0.824994
0.27509 1 0.834607
0.544823 0.998276 0.829084
0.658534 0.99707 0.826123
0.0120699 0.0240177 0.383673
0.0415198 0.0185092 0.424475
0.125673 0.00770581 0.456947
0.288441 0.000762951 0.475639
0.382834 0.000167849 0.479484
0.00440986 0.146548 0.548379
0.0538033 0.158877 0.590433
0.173739 0.156435 0.620249
0.376715 0.134173 0.634821
0.483574 0.119066 0.636606
0.00030518 0.498741 0.751904
0.0469825 0.531624 0.790722
0.208148 0.54284 0.812406
0.444617 0.532738 0.816846
0.557961 0.524788 0.815839
0 0.950942 0.954894
0.0470893 0.943099 0.973938
0.253742 0.944076 0.981155
0.516991 0.948852 0.970062
0.631174 0.936812 0.964233
6.10361e-05 0.994553 0.991135
0.0655528 1 0.993881
0.288396 1 0.988403
0.559716 0.999054 0.98529
0.672938 0.99881 0.986145
0.0109865 0.0269932 0.494514
0.0420081 0.0208896 0.536797
0.127825 0.00962844 0.570565
0.292851 0.00122072 0.588571
0.388083 0.000167849 0.591897
0.00454719 0.153521 0.662654
0.0543526 0.166079 0.702602
0.176745 0.16376 0.729763
0.381918 0.14107 0.73991
0.489372 0.125933 0.739132
0.000213626 0.510048 0.858015
0.0483101 0.542596 0.889525
0.211826 0.553155 0.903716
0.45008 0.54229 0.901503
0.563714 0.534234 0.896391
0 0.954131 1
0.0500343 0.94699 0.999878
0.259281 0.94992 0.998718
0.523507 0.954025 0.997253
0.637369 0.942779 0.994369
6.10361e-05 0.996139 0.999878
0.0692149 1 0.99971
0.294926 1 0.99942
0.56672 0.99942 0.999405
0.679011 0.998703 0.998581
