luts/varicam_official/Cyan 2 33 E-E.cube
TITLE "Generated by Resolve"
LUT_3D_SIZE 9
0.0156252 0.0156252 0.0156252
0.0199893 0.0143282 0.0148013
0.0436255 0.0075227 0.0102998
0.078645 0.00163272 0.00520333
0.133486 0.00164797 0.00321965
0.20943 0.000122072 0.00122072
0.307759 0 0
0.428077 0 1.5259e-05
0.563714 0 0
0.0114443 0.0410468 0.0205844
0.0220798 0.0426184 0.0224002
0.0501717 0.0404364 0.0206149
0.0917678 0.0343786 0.0157321
0.153384 0.0243534 0.0112459
0.238056 0.0124514 0.00505074
0.345159 0.00570687 0.000808728
0.471687 0.000671397 0.00015259
0.611383 0 0
0.00239567 0.109346 0.0395514
0.0214847 0.112673 0.0407568
0.0528572 0.112337 0.0399939
0.0997024 0.108125 0.0363317
0.171603 0.0993973 0.0293278
0.264118 0.0847181 0.0201114
0.378943 0.0639506 0.00976577
0.51162 0.0446174 0.00383001
0.65301 0.0246128 0.00161746
0.00241093 0.224704 0.068864
0.014313 0.232242 0.0711986
0.0492103 0.237613 0.0718395
0.105653 0.237156 0.0685588
0.184115 0.229664 0.0616007
0.286427 0.216892 0.0513924
0.407645 0.200397 0.0378882
0.54432 0.178943 0.021622
0.685954 0.156344 0.0127565
0 0.393454 0.110704
0.00827039 0.405997 0.11371
0.0413214 0.414481 0.115114
0.104005 0.416236 0.112001
0.193591 0.41146 0.103975
0.301854 0.401328 0.0945449
0.431342 0.384619 0.0809186
0.570611 0.366339 0.0657359
0.711254 0.347814 0.0525063
0 0.604532 0.161669
0.00302129 0.617884 0.164477
0.0307469 0.626596 0.165835
0.10399 0.628031 0.162829
0.200107 0.623423 0.155856
0.318669 0.611429 0.146334
0.452308 0.59585 0.134524
0.592935 0.578012 0.120958
0.732357 0.560708 0.108385
0 0.830457 0.218036
0.000671397 0.841917 0.221546
0.0289769 0.847013 0.222904
0.104234 0.845411 0.220279
0.211704 0.830884 0.212451
0.336172 0.814313 0.202106
0.475288 0.796674 0.190188
0.617487 0.77554 0.177172
0.751919 0.755474 0.165469
0 0.961334 0.276585
0.00047303 0.961318 0.279866
0.0262913 0.961028 0.279057
0.114702 0.962722 0.274769
0.229786 0.968597 0.2663
0.362936 0.977768 0.254185
0.505592 0.959243 0.243366
0.64654 0.936568 0.232654
0.77882 0.916854 0.223133
0 0.999908 0.329625
0.000106813 1 0.330785
0.0384222 1 0.32784
0.137224 1 0.323537
0.261646 1 0.315343
0.401038 1 0.303578
0.545174 1 0.292515
0.685115 0.998703 0.28217
0.803464 0.993027 0.274006
0.0155032 0.0157626 0.026276
0.0201877 0.014435 0.0291295
0.045182 0.00740063 0.0292058
0.0809033 0.00259403 0.0274357
0.136065 0.00187686 0.0215763
0.213977 0.000122072 0.0145571
0.313375 0 0.00648508
0.434653 0 0
0.570703 0 0.000747692
0.0109407 0.0433051 0.0430152
0.0227054 0.0451972 0.045716
0.0512856 0.0430152 0.0463111
0.0941634 0.0366064 0.0443122
0.156512 0.0263523 0.0388342
0.242329 0.0139773 0.0307774
0.351156 0.00642405 0.0209049
0.477928 0.000228885 0.0115816
0.618448 0 0.00474556
0.00198367 0.113725 0.0686198
0.0219577 0.116457 0.0709697
0.0543984 0.11577 0.0726024
0.101564 0.113085 0.0724804
0.174731 0.104036 0.0675975
0.269123 0.088777 0.0590219
0.384771 0.068513 0.0478828
0.518013 0.0481727 0.0343786
0.65977 0.025803 0.0172885
0.00234989 0.231205 0.105577
0.0150149 0.238712 0.109636
0.0505531 0.244099 0.112184
0.107836 0.243366 0.112108
0.187823 0.23534 0.107271
0.291005 0.223758 0.0982528
0.413336 0.207004 0.0885786
0.550301 0.185687 0.0762493
0.691981 0.163439 0.063386
0 0.402457 0.154513
0.00816358 0.414755 0.159884
0.0432746 0.422446 0.162051
0.105928 0.425025 0.163561
0.196994 0.420081 0.160342
0.30721 0.408957 0.153063
0.436713 0.392416 0.143786
0.576318 0.374884 0.133394
0.717174 0.356527 0.122087
0 0.614466 0.213367
0.00390631 0.628016 0.221103
0.031632 0.636072 0.225147
0.106432 0.637537 0.226139
0.204028 0.63238 0.223285
0.323751 0.620691 0.215839
0.457588 0.604593 0.20676
0.599039 0.586603 0.197131
0.736996 0.569604 0.188037
0 0.840543 0.281376
0.000961318 0.851514 0.289067
0.0301976 0.856764 0.2925
0.106981 0.853941 0.292271
0.216175 0.836789 0.288334
0.341527 0.82121 0.281437
0.481483 0.804456 0.271977
0.623194 0.783093 0.264775
0.756741 0.762921 0.258671
0 0.964157 0.348241
0.00143435 0.964431 0.355612
0.0260166 0.96492 0.358297
0.118807 0.967315 0.356481
0.234989 0.974441 0.353521
0.3691 0.981125 0.346548
0.511482 0.962173 0.337407
0.652033 0.942123 0.3299
0.782559 0.923781 0.324376
0 1 0.411658
0.000457771 1 0.418112
0.0417334 1 0.420066
0.141848 1 0.417243
0.268132 1 0.411749
0.40737 1 0.403586
0.551614 1 0.3944
0.69102 0.998535 0.386725
0.80798 0.994537 0.383017
0.0151827 0.0164187 0.0565805
0.0202029 0.0150607 0.0614023
0.0464027 0.00863661 0.0620737
0.0832227 0.00360113 0.0631723
0.13904 0.00210575 0.0606241
0.218296 0.000122072 0.0536507
0.319066 0 0.0447852
0.441108 0 0.0342412
0.577493 0 0.0214847
0.010544 0.0459907 0.078996
0.0232547 0.0482032 0.0849165
0.0524147 0.0458839 0.0879225
0.0963302 0.0392615 0.0895552
0.159396 0.029221 0.0881971
0.246372 0.01561 0.0819867
0.357137 0.0071107 0.0719463
0.484337 0.000106813 0.0602274
0.625269 0 0.0464637
0.00205997 0.118349 0.114122
0.0221408 0.12079 0.120531
0.0556954 0.120027 0.124163
0.10425 0.118166 0.126299
0.177615 0.109163 0.12517
0.273869 0.0931868 0.118944
0.390524 0.0732128 0.109758
0.523964 0.0520638 0.100679
0.6663 0.0267185 0.0894331
0.00213626 0.238331 0.159442
0.0157168 0.246128 0.167391
0.0517281 0.251057 0.172808
0.110155 0.249897 0.174548
0.191073 0.242908 0.175586
0.295293 0.231312 0.172244
0.418997 0.214084 0.164752
0.556176 0.192721 0.155917
0.697917 0.170794 0.146914
0 0.411917 0.217838
0.00766003 0.424033 0.228702
0.0448463 0.431357 0.236347
0.107866 0.434318 0.240116
0.200214 0.428931 0.240299
0.312383 0.417197 0.236713
0.44213 0.401465 0.229908
0.581796 0.383825 0.222034
0.722454 0.365713 0.215457
0 0.624811 0.290105
0.00456245 0.638498 0.301274
0.0336309 0.646113 0.308888
0.108843 0.647578 0.31194
0.208026 0.641718 0.311772
0.328359 0.630259 0.308949
0.462974 0.613794 0.303151
0.604685 0.596063 0.296666
0.741894 0.578851 0.29247
0 0.851087 0.367407
0.000946059 0.861814 0.377646
0.0322728 0.866621 0.38555
0.10988 0.859144 0.388952
0.220447 0.843381 0.387671
0.346853 0.828946 0.385245
0.486717 0.813184 0.379843
0.628504 0.790784 0.373617
0.761715 0.770993 0.370047
0 0.967285 0.445258
0.00202945 0.967697 0.455329
0.0251774 0.968902 0.462089
0.122621 0.972366 0.464027
0.24007 0.980453 0.461906
0.374716 0.982589 0.457511
0.517617 0.96582 0.451225
0.657908 0.948241 0.445487
0.785473 0.929595 0.442664
0 1 0.5187
0.00077821 1 0.526421
0.0448005 1 0.531014
0.145937 1 0.530938
0.273823 1 0.52668
0.413581 1 0.520943
0.557702 1 0.515129
0.696818 0.99852 0.509407
0.812024 0.995605 0.507347
0.0146639 0.0173342 0.100969
0.0204623 0.0158999 0.110704
0.047364 0.0104524 0.116609
0.0853437 0.005066 0.120089
0.142184 0.00239567 0.121218
0.222171 0.000106813 0.118456
0.324285 0 0.11162
0.447684 0 0.10132
0.584436 0 0.0896468
0.00972 0.049424 0.136095
0.023682 0.0516518 0.145586
0.0532998 0.0492714 0.15256
0.0982071 0.0423285 0.15639
0.162631 0.0322881 0.157351
0.250187 0.0173953 0.155718
0.362722 0.00775158 0.149111
0.490883 0.000289921 0.140093
0.632166 0 0.131151
0.00289921 0.12311 0.180774
0.022034 0.125505 0.18967
0.0565499 0.125948 0.198093
0.106844 0.123812 0.203967
0.180133 0.114717 0.20557
0.278233 0.098436 0.205051
0.396002 0.0783703 0.200717
0.530251 0.0560769 0.192844
0.672618 0.0272679 0.184634
0.00187686 0.245472 0.237537
0.0161593 0.253788 0.248692
0.0527047 0.258549 0.259297
0.112139 0.257008 0.26598
0.194049 0.251209 0.268238
0.299413 0.239307 0.267597
0.42475 0.221592 0.263737
0.561761 0.200793 0.257511
0.703304 0.179156 0.251026
0 0.42211 0.309331
0.00671397 0.434119 0.321462
0.0459754 0.441016 0.332128
0.110613 0.443748 0.339422
0.203326 0.438224 0.34139
0.317159 0.426154 0.340551
0.447425 0.411063 0.338018
0.587304 0.393164 0.3337
0.72784 0.37499 0.329183
0 0.635966 0.389899
0.00495918 0.649241 0.402579
0.0352483 0.657206 0.413199
0.110933 0.658061 0.42063
0.211749 0.651911 0.423835
0.332921 0.64007 0.422599
0.46836 0.62359 0.420233
0.610132 0.60592 0.416251
0.7467 0.588449 0.413092
0 0.861967 0.476265
0.000747692 0.872831 0.489982
0.0344091 0.877073 0.499504
0.112581 0.865324 0.505791
0.224643 0.850416 0.507057
0.352239 0.836973 0.505287
0.492042 0.821561 0.501488
0.633722 0.799115 0.497978
0.766278 0.779492 0.496056
0 0.970642 0.56228
0.00233463 0.971206 0.574594
0.0280461 0.972793 0.582391
0.126268 0.977264 0.586114
0.244968 0.98529 0.585824
0.380652 0.983993 0.582498
0.523613 0.969726 0.578119
0.6636 0.954604 0.574289
0.788769 0.935653 0.572229
0 1 0.640757
0.00077821 1 0.650721
0.0479591 1 0.656107
0.150454 1 0.657481
0.279576 1 0.654963
0.41944 1 0.650263
0.564187 1 0.643946
0.702266 0.998627 0.639002
0.8159 0.996506 0.637583
0.0139773 0.0191196 0.172763
0.0210727 0.0178225 0.184405
0.0482338 0.012665 0.193622
0.0872358 0.0068513 0.200748
0.145251 0.00265507 0.203906
0.225772 0 0.204257
0.329381 0 0.201968
0.453712 0 0.195468
0.591394 0 0.187137
0.0087129 0.0537423 0.217105
0.0240787 0.0555581 0.228351
0.0538796 0.0531319 0.238285
0.099733 0.0466773 0.246998
0.166125 0.0357061 0.251911
0.253849 0.0195621 0.253117
0.367849 0.00874342 0.250797
0.497047 0.000534066 0.245533
0.638544 0 0.237476
0.00354009 0.128405 0.271519
0.0215305 0.130694 0.284642
0.0572213 0.132418 0.295842
0.10898 0.130022 0.305776
0.183291 0.120745 0.311147
0.282338 0.104616 0.311803
0.401266 0.0838941 0.309834
0.536233 0.0603647 0.305241
0.67863 0.0310979 0.299123
0.00169375 0.253941 0.339773
0.0162509 0.262348 0.354345
0.0534218 0.266407 0.366293
0.114153 0.264805 0.375555
0.196963 0.259983 0.381048
0.303243 0.247684 0.382483
0.429938 0.229557 0.380789
0.567315 0.209018 0.377966
0.70901 0.18761 0.373816
0.000320439 0.43241 0.419272
0.0053254 0.444404 0.434714
0.0469062 0.451469 0.447303
0.113375 0.453559 0.456825
0.206165 0.447959 0.462562
0.321508 0.43621 0.4636
0.452384 0.420905 0.462196
0.592676 0.403006 0.459434
0.733089 0.384649 0.456641
0 0.647501 0.507851
0.00500496 0.660655 0.524178
0.0367895 0.668345 0.536904
0.113695 0.668315 0.54493
0.215274 0.662394 0.549386
0.337423 0.650187 0.550011
0.473472 0.634089 0.548074
0.61561 0.615213 0.544701
0.751369 0.598398 0.543145
0 0.873457 0.601083
0.000396735 0.883955 0.616083
0.0361791 0.884077 0.627054
0.11545 0.872068 0.633753
0.22858 0.857923 0.636164
0.35729 0.845487 0.635218
0.497627 0.829435 0.632151
0.638972 0.807797 0.628748
0.770932 0.787961 0.626612
0 0.973938 0.69073
0.00242618 0.974563 0.703761
0.0314183 0.976715 0.712322
0.129564 0.982132 0.716731
0.249714 0.986191 0.716442
0.386374 0.985656 0.712764
0.529137 0.973999 0.707927
0.669154 0.960037 0.703548
0.792264 0.94168 0.700755
0 1 0.77142
0.000534066 1 0.781109
0.0519722 1 0.786572
0.15491 1 0.787533
0.285115 1 0.78378
0.425757 1 0.777859
0.570764 1 0.770977
0.707973 0.998825 0.765759
0.820111 0.997574 0.760952
0.013077 0.0211948 0.2654
0.0213474 0.020737 0.280705
0.0487221 0.0153964 0.292195
0.0888533 0.0087892 0.302266
0.147982 0.00337224 0.310353
0.229953 0 0.313909
0.334539 0 0.31339
0.459495 0 0.309895
0.597818 0 0.304173
0.00738537 0.0584573 0.318929
0.0242313 0.0599222 0.335164
0.0543679 0.057496 0.348653
0.100984 0.0514534 0.358862
0.169192 0.0395666 0.366598
0.257572 0.0222171 0.370245
0.373053 0.0108034 0.368872
0.503151 0.000976577 0.365393
0.644816 0 0.360143
0.00395209 0.134188 0.383703
0.0214847 0.13724 0.399573
0.0574807 0.139452 0.413611
0.110994 0.136538 0.424323
0.186481 0.126802 0.431571
0.286275 0.111315 0.434745
0.406409 0.0898756 0.434318
0.542092 0.0646067 0.431144
0.684321 0.037644 0.426795
0.00141909 0.26276 0.458701
0.0161898 0.270924 0.475547
0.0540169 0.274678 0.489662
0.115694 0.274235 0.500694
0.200397 0.268849 0.507622
0.306889 0.256733 0.510857
0.434928 0.238148 0.509758
0.572702 0.217731 0.507179
0.714504 0.196155 0.503563
0.000503548 0.443046 0.544747
0.00354009 0.454917 0.562142
0.0473945 0.462501 0.576242
0.115938 0.463508 0.586664
0.209369 0.457618 0.591867
0.325795 0.44651 0.593851
0.457282 0.43122 0.592828
0.598321 0.412757 0.590311
0.738277 0.394675 0.586831
0 0.659434 0.638041
0.00476081 0.672251 0.654475
0.0382239 0.679637 0.667369
0.116228 0.67921 0.67599
0.218753 0.67303 0.68072
0.341894 0.660487 0.680507
0.478889 0.644266 0.678187
0.62063 0.625101 0.674815
0.756085 0.60827 0.671702
0 0.885084 0.73254
0.000167849 0.895201 0.748043
0.037583 0.889815 0.758312
0.119265 0.878569 0.764187
0.232242 0.865812 0.765957
0.362936 0.852338 0.76347
0.503243 0.837079 0.758892
0.644358 0.816129 0.754131
0.776028 0.796384 0.751141
0 0.977005 0.822065
0.00234989 0.977844 0.833753
0.0347601 0.980529 0.841123
0.133318 0.986725 0.843656
0.255131 0.987137 0.841489
0.391928 0.987884 0.836057
0.534752 0.978454 0.82858
0.674784 0.964385 0.821393
0.795895 0.948074 0.81619
0 1 0.892058
0.000320439 1 0.897932
0.055787 1 0.899855
0.159487 1 0.898344
0.290822 1 0.896819
0.432242 1 0.891096
0.577295 0.999985 0.88072
0.713863 0.999069 0.872786
0.824063 0.99881 0.868727
0.0121614 0.0236667 0.378729
0.0215457 0.0239567 0.396567
0.0493629 0.0184329 0.411399
0.0903639 0.0106661 0.423377
0.150561 0.00447089 0.432212
0.233829 0.000427253 0.437598
0.339208 0 0.438758
0.46508 0 0.435721
0.604471 0 0.430884
0.00567636 0.06392 0.440803
0.0241245 0.064744 0.457252
0.0547341 0.0624857 0.472572
0.101976 0.0565347 0.484947
0.171984 0.0439155 0.493187
0.262623 0.0253452 0.497246
0.377768 0.0130159 0.49752
0.509102 0.00204471 0.494667
0.651087 0 0.489601
0.00425727 0.1402 0.509621
0.0214237 0.144671 0.526833
0.057557 0.146792 0.542092
0.112734 0.143313 0.553872
0.189639 0.133837 0.561822
0.290288 0.117937 0.565011
0.41149 0.096025 0.564279
0.547875 0.0696422 0.56054
0.689982 0.0456855 0.556374
0.00109865 0.271733 0.589029
0.0164034 0.279561 0.605875
0.054551 0.282963 0.620554
0.117281 0.283787 0.631571
0.203738 0.277699 0.637934
0.310399 0.265476 0.640757
0.439979 0.246738 0.639033
0.578256 0.226215 0.635798
0.719982 0.204532 0.631754
0.000518807 0.453788 0.676249
0.00347906 0.466026 0.693492
0.0478218 0.473152 0.706859
0.118395 0.473579 0.716182
0.212955 0.467414 0.721218
0.330053 0.456657 0.722881
0.462486 0.441062 0.71928
0.603708 0.422385 0.714229
0.743572 0.404562 0.709606
0 0.671275 0.768627
0.00437934 0.683787 0.784756
0.0394903 0.690867 0.797177
0.118456 0.690455 0.803464
0.222797 0.68336 0.805188
0.346426 0.67068 0.803647
0.484199 0.653651 0.798657
0.625803 0.634897 0.791974
0.761242 0.617761 0.787137
0 0.896742 0.860441
0 0.905409 0.873335
0.0387121 0.895537 0.881758
0.123095 0.8851 0.884978
0.236057 0.873945 0.884123
0.368246 0.859373 0.87921
0.508995 0.84448 0.872648
0.650004 0.824018 0.864866
0.781384 0.804395 0.858518
0 0.979873 0.940246
0.00213626 0.981064 0.946273
0.0381628 0.984237 0.951705
0.137728 0.988495 0.952651
0.260304 0.988495 0.94699
0.397589 0.990494 0.937804
0.541085 0.98291 0.929183
0.680812 0.968627 0.916625
0.799817 0.953979 0.906996
0 1 0.967651
9.15541e-05 1 0.968597
0.0595712 1 0.972137
0.16492 1 0.979599
0.296742 1 0.980316
0.439216 1 0.974044
0.583627 0.999969 0.969436
0.719829 0.999344 0.960891
0.828595 0.999542 0.952438
0.0107881 0.0277714 0.506081
0.0214847 0.0274662 0.524529
0.0498054 0.0215305 0.539483
0.0915541 0.0127565 0.552407
0.152865 0.00610361 0.562036
0.237537 0.00112917 0.567514
0.344335 0 0.567651
0.470741 0 0.56492
0.610773 0 0.55938
0.00396735 0.0693523 0.570138
0.0239872 0.0697795 0.587488
0.0556191 0.0678264 0.603067
0.102907 0.0615854 0.615091
0.174884 0.0481575 0.622446
0.267292 0.0298772 0.626368
0.382361 0.0152438 0.625498
0.515419 0.0031281 0.620432
0.657404 4.57771e-05 0.614374
0.00444038 0.14667 0.640482
0.0213169 0.152209 0.657099
0.0580148 0.154025 0.671824
0.11458 0.149905 0.682338
0.192615 0.14081 0.688823
0.294743 0.124498 0.690776
0.416968 0.1019 0.688701
0.553597 0.0764019 0.683436
0.695766 0.0529641 0.677516
0.000747692 0.280674 0.718227
0.0164645 0.28809 0.734035
0.0549935 0.292561 0.747845
0.118669 0.293233 0.757534
0.207111 0.286412 0.761791
0.315312 0.273594 0.762463
0.444877 0.255634 0.759121
0.583932 0.234485 0.751598
0.725567 0.212604 0.743725
0.000396735 0.464408 0.802838
0.00540169 0.476829 0.818189
0.0479133 0.483726 0.829816
0.12079 0.483894 0.837446
0.216815 0.477699 0.837858
0.334478 0.466514 0.835172
0.467842 0.450492 0.829892
0.609232 0.431434 0.821378
0.748318 0.41416 0.813016
0 0.683391 0.890562
0.00444038 0.695064 0.902388
0.0408789 0.701488 0.910369
0.121111 0.700923 0.914733
0.227161 0.693263 0.912734
0.351034 0.680537 0.907744
0.489784 0.662699 0.899641
0.631342 0.643931 0.890776
0.766278 0.626947 0.880827
0 0.907774 0.964706
0 0.910445 0.971603
0.0395514 0.90132 0.975601
0.126955 0.891569 0.978683
0.240909 0.880247 0.976516
0.37377 0.865919 0.968566
0.514611 0.851652 0.961364
0.655055 0.831296 0.950408
0.786999 0.812055 0.936996
0 0.982376 0.996307
0.00189212 0.983917 1
0.041413 0.987839 1
0.142367 0.989242 0.998184
0.265843 0.990143 0.995605
0.403754 0.993698 0.989731
0.547463 0.984207 0.983505
0.686595 0.972229 0.976043
0.80412 0.959564 0.966888
0 1 0.998779
0 1 0.998306
0.0632486 1 0.998123
0.170947 1 0.998688
0.302968 1 0.999222
0.446204 1 0.99884
0.590539 0.999985 0.99855
0.725551 0.999649 0.997574
0.833356 0.999603 0.99881
0.00936904 0.0317693 0.635966
0.0213779 0.0309148 0.653925
0.0503395 0.0245823 0.668513
0.0932479 0.0156863 0.680995
0.155367 0.00790417 0.68809
0.241321 0.00166323 0.690944
0.349905 0.000167849 0.689815
0.476539 0 0.684825
0.617212 0 0.676081
0.00262455 0.0747997 0.699519
0.0239719 0.0747845 0.714458
0.0566262 0.0728161 0.727596
0.103914 0.0664988 0.738613
0.177676 0.0521553 0.743557
0.271748 0.0345617 0.744457
0.387701 0.0176547 0.741436
0.521599 0.00402838 0.734966
0.66363 0.0015259 0.725353
0.00437934 0.154086 0.764508
0.0212711 0.159472 0.779477
0.0588846 0.160861 0.791501
0.116335 0.156756 0.8
0.19585 0.147387 0.80444
0.299229 0.130648 0.802502
0.42237 0.1075 0.796994
0.559472 0.0827955 0.788983
0.702068 0.0593271 0.77705
0.000411994 0.289235 0.837018
0.0164034 0.296498 0.850767
0.0560006 0.302022 0.860777
0.12015 0.302235 0.867048
0.210559 0.294697 0.868498
0.320363 0.281849 0.863142
0.449958 0.2636 0.854826
0.590204 0.241993 0.84506
0.73135 0.220264 0.833097
0.000244144 0.474922 0.913268
0.00717174 0.487114 0.925719
0.0478676 0.493782 0.931533
0.123384 0.492973 0.933852
0.2206 0.487388 0.932647
0.339437 0.47567 0.925597
0.473442 0.459388 0.91519
0.614572 0.440818 0.903929
0.753231 0.423194 0.89221
0 0.694438 0.976364
0.00445563 0.705791 0.983566
0.0426642 0.711711 0.985397
0.123812 0.710948 0.986145
0.231418 0.70309 0.988098
0.356069 0.68957 0.984207
0.495644 0.671244 0.970687
0.63714 0.652369 0.957717
0.771115 0.635477 0.943877
0 0.918257 0.999908
0.00199893 0.915007 0.999802
0.0399939 0.906981 1
0.130983 0.897856 0.999847
0.246204 0.88484 0.999496
0.379232 0.872389 0.999161
0.520653 0.858396 0.99617
0.661006 0.838056 0.991577
0.791852 0.818601 0.984192
0 0.984573 1
0.00173953 0.986664 1
0.0449378 0.990692 1
0.146975 0.990173 1
0.271916 0.992065 0.999924
0.4103 0.997238 0.999832
0.554116 0.985367 0.999603
0.692714 0.976028 0.99762
0.809125 0.964828 0.995361
0 1 1
0 1 1
0.0668498 1 1
0.177249 1 1
0.309316 1 1
0.453574 1 1
0.597803 0.999985 1
0.731197 0.999985 1
0.838468 0.999664 0.999954
