luts/varicam_official/Cyan 1 33 E-E.cube
TITLE "Generated by Resolve"
LUT_3D_SIZE 33
0.0156252 0.0156252 0.0156252
0.0156252 0.0156252 0.0156252
0.0156252 0.0156252 0.0156252
0.0156252 0.0156252 0.0156252
0.0165103 0.0153658 0.0154574
0.0195468 0.0144656 0.0148775
0.0232853 0.0133364 0.0141756
0.0289769 0.0116274 0.0130922
0.0349126 0.00988785 0.0121309
0.0415808 0.00819409 0.0114137
0.048661 0.00660716 0.0106355
0.0564889 0.00491341 0.00970474
0.0645914 0.00323491 0.00874342
0.074342 0.00228885 0.0078584
0.0845655 0.00151064 0.00694286
0.0961929 0.00132753 0.00602731
0.108721 0.00125124 0.00512703
0.122621 0.00109865 0.00433356
0.136934 0.000885023 0.00347906
0.15404 0.000640879 0.00291447
0.171618 0.000396735 0.00241093
0.190692 0.000244144 0.00196841
0.210742 4.57771e-05 0.00146487
0.232364 0 0.00105287
0.25452 0 0.000549325
0.279622 0 0.000320439
0.305165 0 6.10361e-05
0.331975 0 0
0.34287 0 0
0.34287 0 0
0.34287 0 0
0.34287 0 0
0.34287 0 0
0.0155795 0.0159152 0.015671
0.0155642 0.0159762 0.0156863
0.0155489 0.0160983 0.0157168
0.0156252 0.0163882 0.0157931
0.017731 0.0160678 0.0155184
0.0212253 0.0153048 0.0150301
0.0260014 0.0142061 0.0146639
0.0316777 0.0129702 0.0141756
0.0379492 0.0116579 0.0135805
0.04477 0.0102541 0.0128634
0.0522469 0.00874342 0.0120241
0.0602121 0.00715648 0.0110933
0.0692302 0.00587472 0.0101472
0.079057 0.00492866 0.00915541
0.0898909 0.00476081 0.00822461
0.101823 0.00477607 0.00730907
0.114916 0.00448615 0.00643931
0.128969 0.00389105 0.00581369
0.144625 0.00315862 0.00531014
0.161624 0.00224308 0.00463874
0.179919 0.00140383 0.00387579
0.199451 0.000732433 0.00306706
0.220386 0.000350958 0.00225834
0.242435 0.000228885 0.00140383
0.266148 0.000167849 0.000732433
0.291478 0.000137331 0.000274662
0.317571 0.000106813 7.62951e-05
0.344762 7.62951e-05 7.62951e-05
0.355612 6.10361e-05 7.62951e-05
0.355612 6.10361e-05 7.62951e-05
0.355612 6.10361e-05 7.62951e-05
0.355612 6.10361e-05 7.62951e-05
0.355612 6.10361e-05 7.62951e-05
0.0151827 0.0183871 0.016144
0.0150607 0.019089 0.016434
0.0149844 0.0197604 0.0167391
0.0159609 0.0201114 0.0170138
0.0188449 0.0198825 0.0170901
0.022797 0.0193484 0.016968
0.0281682 0.0184024 0.0165713
0.0339513 0.0179294 0.0161746
0.0404669 0.0174411 0.0156405
0.0474403 0.0168307 0.0150149
0.0550851 0.0160372 0.0142672
0.0633097 0.0152438 0.0134585
0.0727245 0.0145571 0.012665
0.0827955 0.0137026 0.0118105
0.0944076 0.0127413 0.0108797
0.106874 0.0115053 0.0101625
0.120592 0.0100862 0.00947585
0.135286 0.00843824 0.00868238
0.151827 0.00695811 0.00781262
0.169207 0.00556954 0.00671397
0.188342 0.00453193 0.00560006
0.208499 0.00349432 0.0043183
0.230228 0.00263981 0.00292973
0.252888 0.00180056 0.00178531
0.277577 0.0011902 0.00122072
0.303014 0.000595102 0.000732433
0.3299 0.000350958 0.000808728
0.357717 0.000167849 0.000732433
0.369131 0.000106813 0.000686656
0.369131 0.000106813 0.000686656
0.369131 0.000106813 0.000686656
0.369131 0.000106813 0.000686656
0.369131 0.000106813 0.000686656
0.014023 0.02533 0.0180972
0.0137789 0.0267796 0.0188449
0.0139162 0.0280613 0.0195315
0.0158541 0.028809 0.0198825
0.0192111 0.0291752 0.0199588
0.0238956 0.0292973 0.0198367
0.0292668 0.0291752 0.0195468
0.035523 0.0288548 0.019089
0.0422217 0.028397 0.018555
0.049546 0.0277409 0.0180514
0.0574655 0.0269169 0.0175631
0.0663462 0.0260471 0.016968
0.0757763 0.0250858 0.0165103
0.0869154 0.023682 0.0158083
0.0988937 0.0220188 0.0149538
0.112032 0.0203098 0.0141146
0.126177 0.018616 0.0132296
0.141894 0.0168002 0.0121004
0.158648 0.0146792 0.0106966
0.177142 0.0126192 0.00917067
0.19675 0.0103914 0.00759899
0.217746 0.00790417 0.00607309
0.239963 0.00531014 0.00442512
0.263844 0.00343328 0.00357061
0.28864 0.00177005 0.00299077
0.314931 0.000961318 0.00260929
0.342275 0.000595102 0.00218204
0.370901 0.000640879 0.00173953
0.382712 0.000762951 0.00161746
0.382712 0.000762951 0.00161746
0.382712 0.000762951 0.00161746
0.382712 0.000762951 0.00161746
0.382712 0.000762951 0.00161746
0.0120089 0.0374304 0.0217136
0.0118257 0.0390326 0.0224918
0.012726 0.0402991 0.0230564
0.0155642 0.041001 0.0232547
0.0195315 0.0413977 0.0232395
0.0247349 0.041474 0.0230106
0.0304723 0.0413672 0.022797
0.0369726 0.0411231 0.0227207
0.0439002 0.0407111 0.0225681
0.051545 0.0402075 0.022385
0.0599069 0.0395209 0.0221561
0.0691386 0.0386664 0.0217899
0.0792096 0.0374609 0.0212558
0.0909743 0.0358282 0.0204318
0.103441 0.0339818 0.0195163
0.117144 0.0320134 0.0185092
0.132082 0.0298009 0.0172427
0.14847 0.0272831 0.0157168
0.165896 0.0243534 0.0142519
0.185092 0.021088 0.0127108
0.205142 0.0177615 0.0110628
0.226932 0.014313 0.0093843
0.249882 0.0114443 0.00793469
0.274311 0.00968948 0.00695811
0.299596 0.00817884 0.00593576
0.326452 0.00743114 0.00505074
0.354253 0.00645457 0.00401312
0.38381 0.00552377 0.00320439
0.395636 0.00511177 0.00285344
0.395636 0.00511177 0.00285344
0.395636 0.00511177 0.00285344
0.395636 0.00511177 0.00285344
0.395636 0.00511177 0.00285344
0.00979629 0.0509957 0.0256046
0.00982681 0.0526131 0.0263371
0.0120089 0.0537881 0.026688
0.0153353 0.054612 0.0269169
0.0200046 0.0550546 0.0271916
0.0254063 0.0552377 0.0274205
0.0316167 0.0552529 0.0275731
0.0381628 0.0551308 0.0276951
0.0455787 0.0547494 0.0276799
0.0535439 0.0542458 0.0275273
0.0623941 0.0535439 0.0272679
0.0717479 0.0526741 0.0269017
0.0830091 0.0512245 0.0261692
0.0949264 0.0498665 0.02533
0.108125 0.0485237 0.0244144
0.122194 0.047013 0.0234836
0.137865 0.0450294 0.022385
0.154406 0.0427558 0.021088
0.172976 0.0399481 0.0196841
0.192462 0.0367132 0.0180514
0.213535 0.0331121 0.0161898
0.235767 0.0295109 0.0142367
0.25951 0.026627 0.0126497
0.284077 0.0238651 0.0110781
0.310613 0.0214084 0.00956741
0.337697 0.0192569 0.00787366
0.366415 0.0168154 0.00654612
0.396155 0.014023 0.00546273
0.408042 0.0127871 0.00495918
0.408042 0.0127871 0.00495918
0.408042 0.0127871 0.00495918
0.408042 0.0127871 0.00495918
0.408042 0.0127871 0.00495918
0.00730907 0.0663462 0.0297704
0.00831617 0.0679179 0.0307469
0.0111849 0.068986 0.0315862
0.0151064 0.069688 0.0321965
0.0204471 0.0699321 0.032517
0.026276 0.0700389 0.0327916
0.0325933 0.0704662 0.0330358
0.039353 0.071107 0.0332799
0.0469368 0.0715801 0.0333257
0.0551919 0.0717632 0.0332647
0.0643015 0.0717632 0.0330816
0.0745861 0.0713664 0.0326543
0.0860609 0.0706798 0.0320897
0.0984054 0.0696574 0.0316167
0.112047 0.0683146 0.0308843
0.126833 0.0665446 0.0299687
0.143221 0.0644236 0.028748
0.160891 0.0619364 0.0273594
0.179767 0.0594034 0.0257877
0.199725 0.0565042 0.0240024
0.221546 0.0532082 0.0218967
0.244404 0.0498817 0.019852
0.268879 0.04654 0.0178988
0.294301 0.0429084 0.0158999
0.320989 0.0389105 0.0140078
0.348699 0.0343328 0.0120699
0.378241 0.0295567 0.0104829
0.408408 0.0242618 0.00854505
0.420722 0.0220645 0.00776684
0.420722 0.0220645 0.00776684
0.420722 0.0220645 0.00776684
0.420722 0.0220645 0.00776684
0.420722 0.0220645 0.00776684
0.00497444 0.0843977 0.0360266
0.0074464 0.0863355 0.0370336
0.0106355 0.0881056 0.0379339
0.0152438 0.0894026 0.0384985
0.0205081 0.0905318 0.0389563
0.0263828 0.0915236 0.0393378
0.0325475 0.0923476 0.0396582
0.0399481 0.0928969 0.0397955
0.0477913 0.09337 0.0398871
0.0565499 0.0935073 0.0398718
0.0660105 0.0934768 0.0399023
0.0770123 0.0932784 0.039704
0.0886702 0.0928664 0.0393988
0.1019 0.0919661 0.0387732
0.115938 0.090898 0.0380255
0.131685 0.0894179 0.0369726
0.148409 0.0877241 0.0357366
0.166812 0.0853895 0.0342107
0.185946 0.0829175 0.0325475
0.207279 0.0797894 0.030518
0.229603 0.0764935 0.0283665
0.25333 0.0727092 0.0263371
0.277928 0.068986 0.0243381
0.304128 0.0650034 0.0221408
0.330983 0.0609903 0.0197299
0.360037 0.0568246 0.0175479
0.389593 0.0527199 0.0151369
0.419928 0.0484627 0.0124361
0.432151 0.0467689 0.0112764
0.432151 0.0467689 0.0112764
0.432151 0.0467689 0.0112764
0.432151 0.0467689 0.0112764
0.432151 0.0467689 0.0112764
0.00401312 0.107332 0.0431067
0.00663767 0.109407 0.0440986
0.0102388 0.11104 0.0448463
0.0150454 0.112383 0.0453498
0.0203403 0.113664 0.0458534
0.0260319 0.114946 0.0463874
0.0326696 0.115969 0.0467384
0.0402533 0.116915 0.0471351
0.0484321 0.117647 0.0475166
0.0574655 0.118257 0.0477607
0.0677043 0.118517 0.0477455
0.0790265 0.118517 0.0475319
0.0914931 0.118105 0.0470588
0.104982 0.117494 0.0464637
0.119707 0.116457 0.0456245
0.136172 0.115221 0.0445106
0.153704 0.113817 0.0432746
0.17232 0.112169 0.0418555
0.192508 0.109987 0.040238
0.214267 0.107485 0.0384222
0.237064 0.104875 0.0365148
0.261433 0.101762 0.0343786
0.286793 0.0982986 0.0319829
0.313329 0.0946059 0.0293431
0.3411 0.0905165 0.0266423
0.370459 0.086183 0.0238499
0.400381 0.0817884 0.020737
0.431022 0.0775311 0.0175326
0.443244 0.0758831 0.0162661
0.443244 0.0758831 0.0162661
0.443244 0.0758831 0.0162661
0.443244 0.0758831 0.0162661
0.443244 0.0758831 0.0162661
0.0034638 0.132326 0.0504921
0.00610361 0.134676 0.0514992
0.0100862 0.13666 0.0523232
0.0144961 0.138521 0.0530709
0.0195773 0.140291 0.0538338
0.0252232 0.141878 0.0545663
0.0323949 0.143191 0.0551461
0.0400854 0.144366 0.0556344
0.0487678 0.145388 0.0559548
0.0581674 0.146441 0.056199
0.0690776 0.14699 0.0561227
0.0807965 0.147326 0.0558633
0.0937972 0.147402 0.055436
0.107576 0.147585 0.055024
0.123384 0.147082 0.0542306
0.140215 0.146334 0.0532692
0.158389 0.145174 0.0521248
0.177493 0.143801 0.0508583
0.198672 0.141726 0.0491798
0.220752 0.139605 0.047364
0.244526 0.137179 0.0452735
0.269215 0.134508 0.0429999
0.295186 0.131365 0.0404212
0.322087 0.127977 0.0376745
0.350927 0.124239 0.0348974
0.38027 0.120607 0.0321355
0.410727 0.116411 0.0290379
0.441718 0.112123 0.0261997
0.454246 0.110353 0.0251926
0.454246 0.110353 0.0251926
0.454246 0.110353 0.0251926
0.454246 0.110353 0.0251926
0.454246 0.110353 0.0251926
0.00321965 0.161578 0.0589914
0.00598154 0.163973 0.06009
0.00933852 0.166247 0.0610819
0.0133211 0.168383 0.0620127
0.0178836 0.17052 0.0628824
0.0242008 0.172335 0.0635996
0.0314794 0.174517 0.0642863
0.0395972 0.176425 0.0648356
0.0484321 0.178241 0.0652323
0.0585184 0.179553 0.0653849
0.069749 0.180575 0.0653849
0.0822003 0.181247 0.0652934
0.0952773 0.181949 0.065095
0.110185 0.182116 0.0646525
0.126528 0.181903 0.0639353
0.143999 0.181277 0.0629892
0.162539 0.180453 0.0618601
0.182803 0.179263 0.060441
0.204242 0.17789 0.0587778
0.227176 0.175982 0.0568704
0.251362 0.17377 0.0547189
0.276707 0.171221 0.05243
0.303136 0.168276 0.0501259
0.331075 0.164889 0.0476539
0.360159 0.16144 0.0451057
0.390005 0.157641 0.0424811
0.420752 0.153521 0.0395972
0.452461 0.149233 0.0367742
0.465354 0.147417 0.0356756
0.465354 0.147417 0.0356756
0.465354 0.147417 0.0356756
0.465354 0.147417 0.0356756
0.465354 0.147417 0.0356756
0.0031281 0.194781 0.0687114
0.00535592 0.197742 0.0698253
0.00788891 0.200763 0.0709544
0.0116274 0.203616 0.0719463
0.0163729 0.206317 0.0728618
0.0229648 0.208743 0.0736095
0.0302434 0.211017 0.0743114
0.0386206 0.213092 0.0747845
0.0476844 0.215061 0.075349
0.0587015 0.216358 0.0755779
0.0703899 0.217746 0.075761
0.0831006 0.218982 0.0757763
0.0965286 0.220203 0.0757
0.112612 0.220386 0.0750439
0.129396 0.220478 0.0742657
0.147555 0.220111 0.0732738
0.166781 0.21944 0.0720684
0.187808 0.218128 0.0704662
0.209598 0.2168 0.0687877
0.233555 0.214786 0.0670634
0.258259 0.212665 0.0653391
0.284245 0.210285 0.0634012
0.311162 0.208057 0.0614176
0.339666 0.205432 0.0591592
0.368734 0.202884 0.0568551
0.399313 0.199512 0.0540932
0.430213 0.196231 0.0513466
0.462394 0.192554 0.0484779
0.475319 0.191043 0.047303
0.475319 0.191043 0.047303
0.475319 0.191043 0.047303
0.475319 0.191043 0.047303
0.475319 0.191043 0.047303
0.00262455 0.232807 0.0791638
0.00392157 0.235996 0.0803235
0.00630198 0.238941 0.0813611
0.00952163 0.242161 0.082414
0.0148775 0.245258 0.0833448
0.0214084 0.248234 0.0843824
0.0290227 0.250843 0.0852064
0.0370794 0.25359 0.0860151
0.0469825 0.255543 0.0864729
0.0582132 0.257252 0.0867628
0.0704509 0.258747 0.0868849
0.0833295 0.260227 0.0869306
0.0985733 0.260731 0.0864271
0.114946 0.260853 0.0856947
0.132372 0.261082 0.0848859
0.150668 0.261662 0.0840162
0.170794 0.261646 0.0830396
0.192233 0.261295 0.0821088
0.215244 0.260426 0.0808728
0.239246 0.259312 0.0794842
0.264439 0.257923 0.0779278
0.290684 0.256062 0.0760967
0.318654 0.253803 0.0739605
0.347555 0.251469 0.0717174
0.377386 0.248539 0.0691386
0.407935 0.245411 0.0664225
0.439384 0.242573 0.0637369
0.471839 0.239475 0.0610361
0.484825 0.238285 0.0600748
0.484825 0.238285 0.0600748
0.484825 0.238285 0.0600748
0.484825 0.238285 0.0600748
0.484825 0.238285 0.0600748
0.00131228 0.274235 0.0902419
0.00221256 0.278035 0.0914778
0.00462348 0.281651 0.0927138
0.0081178 0.28513 0.0940261
0.0135348 0.288167 0.0951553
0.0197299 0.291234 0.0961624
0.0268101 0.294057 0.0970626
0.0348974 0.296849 0.0977798
0.0459449 0.299397 0.0982071
0.0575723 0.301961 0.098558
0.0701152 0.304204 0.0987411
0.0838178 0.306249 0.0987716
0.0995956 0.307454 0.0983749
0.116106 0.308721 0.0979934
0.13431 0.309453 0.0977188
0.153552 0.30988 0.097261
0.174456 0.309621 0.0964218
0.196429 0.309239 0.0953994
0.220127 0.308263 0.0940719
0.244434 0.307637 0.0927749
0.270527 0.306203 0.0910353
0.297551 0.304646 0.0891585
0.325948 0.302693 0.0870527
0.355093 0.300679 0.0848402
0.385306 0.298192 0.0823987
0.416068 0.295766 0.0803235
0.448478 0.292531 0.0779278
0.480995 0.289418 0.0755474
0.494011 0.288197 0.0745708
0.494011 0.288197 0.0745708
0.494011 0.288197 0.0745708
0.494011 0.288197 0.0745708
0.494011 0.288197 0.0745708
7.62951e-05 0.31931 0.102281
0.00149538 0.323613 0.103792
0.00363165 0.327916 0.105257
0.00726329 0.33193 0.106584
0.0117647 0.335851 0.107805
0.0173495 0.339544 0.108888
0.0234073 0.343343 0.10988
0.0332647 0.346303 0.11046
0.044419 0.349172 0.110979
0.0563973 0.351766 0.111467
0.0692302 0.354208 0.111818
0.0842298 0.355856 0.111986
0.100237 0.357443 0.112108
0.117815 0.358724 0.111986
0.136187 0.359686 0.111727
0.156313 0.360235 0.111147
0.177737 0.36051 0.110292
0.200687 0.36022 0.109163
0.224567 0.35967 0.107912
0.249973 0.358801 0.106416
0.276295 0.357595 0.104906
0.304036 0.356008 0.10309
0.332906 0.353918 0.101152
0.362783 0.351858 0.0992752
0.393072 0.349783 0.0974136
0.42472 0.347326 0.0952316
0.457069 0.344549 0.0928817
0.489815 0.341772 0.0904707
0.502937 0.340581 0.0895094
0.502937 0.340581 0.0895094
0.502937 0.340581 0.0895094
0.502937 0.340581 0.0895094
0.502937 0.340581 0.0895094
0.000427253 0.370077 0.115648
0.00166323 0.374578 0.117159
0.00344854 0.379126 0.118624
0.00619516 0.383291 0.11989
0.00979629 0.387335 0.121065
0.014435 0.391135 0.122148
0.0212406 0.394995 0.123323
0.0319066 0.398184 0.124117
0.043061 0.401358 0.124956
0.0550393 0.404135 0.125795
0.0687266 0.406668 0.126375
0.0843977 0.408652 0.126604
0.100938 0.41059 0.126711
0.118959 0.411749 0.126513
0.13814 0.412726 0.126131
0.159121 0.41323 0.125383
0.181308 0.413428 0.124453
0.204746 0.413184 0.123491
0.229068 0.41294 0.122499
0.255238 0.411902 0.121172
0.282139 0.410849 0.119936
0.310582 0.4094 0.118318
0.339818 0.407919 0.116594
0.369894 0.406073 0.114778
0.400748 0.404257 0.112825
0.432944 0.401816 0.110536
0.465415 0.399405 0.108202
0.498375 0.396658 0.105852
0.511498 0.395544 0.104921
0.511498 0.395544 0.104921
0.511498 0.395544 0.104921
0.511498 0.395544 0.104921
0.511498 0.395544 0.104921
0.00062562 0.423102 0.12932
0.00132753 0.428031 0.130922
0.00268559 0.432609 0.132311
0.00456245 0.437247 0.133867
0.00770581 0.441642 0.135409
0.0119783 0.445853 0.136934
0.0206455 0.44947 0.13814
0.0305333 0.452827 0.139239
0.0415656 0.456046 0.140139
0.0535744 0.458946 0.140917
0.0682231 0.461372 0.141314
0.0843519 0.463539 0.141512
0.101793 0.465248 0.141466
0.119997 0.466697 0.141314
0.140383 0.46775 0.140932
0.161837 0.468528 0.140581
0.184756 0.468956 0.13994
0.208469 0.4692 0.139284
0.233921 0.468772 0.138338
0.260243 0.468025 0.13727
0.288045 0.467155 0.135821
0.316747 0.46598 0.134203
0.346532 0.46453 0.132448
0.376883 0.462745 0.130602
0.408591 0.46099 0.128466
0.440757 0.458854 0.126238
0.473411 0.456657 0.124331
0.506508 0.454139 0.122286
0.519768 0.453193 0.121477
0.519768 0.453193 0.121477
0.519768 0.453193 0.121477
0.519768 0.453193 0.121477
0.519768 0.453193 0.121477
0.000427253 0.478904 0.143709
0.000839246 0.484108 0.145693
0.00141909 0.488899 0.147555
0.0028687 0.493629 0.149325
0.00538643 0.497963 0.151064
0.0110475 0.502098 0.152514
0.0194705 0.505623 0.153704
0.0289006 0.509453 0.154772
0.0392767 0.512993 0.155688
0.0519875 0.516197 0.156359
0.0676738 0.518715 0.156664
0.0843977 0.521233 0.156939
0.102037 0.523293 0.157397
0.121187 0.525032 0.157549
0.142321 0.525856 0.157382
0.164523 0.526635 0.157076
0.1879 0.527153 0.156527
0.212497 0.527367 0.155764
0.238407 0.526894 0.154788
0.26537 0.526467 0.153552
0.293873 0.525429 0.151949
0.322988 0.524269 0.150301
0.353109 0.522744 0.148562
0.38407 0.521126 0.146853
0.416068 0.519112 0.144991
0.448676 0.516793 0.143145
0.481514 0.514549 0.141299
0.514733 0.512154 0.139361
0.528099 0.511254 0.138552
0.528099 0.511254 0.138552
0.528099 0.511254 0.138552
0.528099 0.511254 0.138552
0.528099 0.511254 0.138552
0 0.536812 0.159731
0 0.542123 0.161746
0.000427253 0.547448 0.163684
0.00216678 0.552621 0.16556
0.00518807 0.557549 0.1673
0.0113069 0.561776 0.168658
0.0179446 0.565698 0.169802
0.0267033 0.569635 0.170809
0.0365148 0.573159 0.171801
0.0508583 0.576059 0.172656
0.0670176 0.578668 0.173495
0.0842756 0.580972 0.174121
0.102052 0.583124 0.174533
0.122972 0.584421 0.174487
0.144488 0.585397 0.174365
0.167346 0.58616 0.173907
0.19115 0.586419 0.173236
0.216754 0.586389 0.172351
0.242802 0.586038 0.171313
0.27097 0.58526 0.169818
0.299687 0.584131 0.168444
0.329397 0.582895 0.167147
0.359792 0.581323 0.165682
0.391623 0.579599 0.163943
0.423713 0.577554 0.162264
0.456474 0.575509 0.160403
0.489464 0.573205 0.158526
0.522911 0.570901 0.156542
0.536309 0.569879 0.155749
0.536309 0.569879 0.155749
0.536309 0.569879 0.155749
0.536309 0.569879 0.155749
0.536309 0.569879 0.155749
0 0.598489 0.176501
6.10361e-05 0.603769 0.178439
0.000808728 0.609155 0.180377
0.00225834 0.614115 0.182239
0.00553903 0.618738 0.183856
0.010132 0.622827 0.185153
0.0160372 0.627008 0.186603
0.0233616 0.630671 0.188159
0.034638 0.633936 0.18938
0.0503548 0.636744 0.190295
0.0669261 0.639338 0.191012
0.0841688 0.641581 0.191501
0.10341 0.643458 0.191684
0.124651 0.64448 0.191608
0.146807 0.64535 0.191287
0.170306 0.645823 0.190753
0.195056 0.646067 0.190066
0.220859 0.64596 0.189273
0.24802 0.64567 0.188418
0.276448 0.644648 0.187381
0.305699 0.643519 0.186114
0.335988 0.642069 0.184634
0.367056 0.640497 0.183017
0.398978 0.63859 0.181369
0.431449 0.636408 0.179522
0.464363 0.634195 0.177615
0.497765 0.631754 0.175662
0.531395 0.629389 0.173785
0.544808 0.628321 0.172992
0.544808 0.628321 0.172992
0.544808 0.628321 0.172992
0.544808 0.628321 0.172992
0.544808 0.628321 0.172992
0 0.660456 0.19324
0.000167849 0.665797 0.195361
0.000946059 0.671077 0.197467
0.00228885 0.676005 0.199481
0.00474556 0.680461 0.201358
0.00794995 0.684642 0.203113
0.0131075 0.688594 0.204715
0.0204776 0.692103 0.206073
0.0345006 0.695186 0.207095
0.0500496 0.697978 0.207919
0.0666667 0.70045 0.208484
0.0843214 0.702541 0.208835
0.104921 0.70399 0.208957
0.126558 0.704967 0.208896
0.149538 0.705776 0.208621
0.17351 0.706065 0.208301
0.199023 0.705989 0.207767
0.225406 0.705531 0.207065
0.253605 0.704921 0.206119
0.282277 0.703899 0.20499
0.312154 0.702495 0.20354
0.342824 0.700603 0.201877
0.374502 0.698695 0.200214
0.406638 0.696544 0.198535
0.439567 0.694224 0.196841
0.472633 0.691402 0.195132
0.506218 0.688731 0.193652
0.539971 0.68603 0.19237
0.553414 0.684916 0.191852
0.553414 0.684916 0.191852
0.553414 0.684916 0.191852
0.553414 0.684916 0.191852
0.553414 0.684916 0.191852
0 0.723095 0.210895
0.000259403 0.728466 0.213321
0.000656138 0.733608 0.215702
0.00141909 0.738354 0.217746
0.00259403 0.742611 0.219577
0.00541695 0.746868 0.221256
0.00921645 0.750759 0.222782
0.0202335 0.753918 0.223911
0.0348058 0.756573 0.224765
0.0501717 0.759075 0.225467
0.0664683 0.761364 0.226123
0.0856031 0.763058 0.226505
0.106554 0.764035 0.226734
0.129 0.764858 0.22681
0.15256 0.765286 0.226658
0.177401 0.765286 0.2262
0.203555 0.764797 0.225483
0.230961 0.764004 0.224582
0.259174 0.762615 0.22356
0.288746 0.760601 0.222141
0.319036 0.758602 0.220584
0.350271 0.756451 0.219226
0.3823 0.754238 0.217929
0.414832 0.751904 0.216602
0.447715 0.749554 0.215427
0.481239 0.746532 0.21416
0.514977 0.743603 0.212863
0.548836 0.740551 0.211612
0.562295 0.739406 0.211124
0.562295 0.739406 0.211124
0.562295 0.739406 0.211124
0.562295 0.739406 0.211124
0.562295 0.739406 0.211124
1.5259e-05 0.78587 0.22948
9.15541e-05 0.791241 0.231922
0.000198367 0.796063 0.234073
0.000381476 0.800275 0.235904
0.00155642 0.804303 0.237629
0.00434882 0.808286 0.239216
0.00988785 0.811734 0.240513
0.0225071 0.814481 0.241688
0.0357824 0.816876 0.242695
0.050309 0.819242 0.243549
0.0669413 0.820935 0.244251
0.0872969 0.821195 0.244617
0.108934 0.820829 0.244739
0.132082 0.820554 0.244709
0.15613 0.819898 0.244373
0.181933 0.818875 0.243656
0.208652 0.817624 0.242786
0.236728 0.816342 0.241764
0.265476 0.814557 0.240864
0.295598 0.812696 0.239857
0.326238 0.810834 0.238911
0.358053 0.808804 0.237934
0.390478 0.806363 0.236866
0.423316 0.804074 0.235752
0.456443 0.801541 0.234516
0.490227 0.798184 0.233112
0.524041 0.794644 0.231785
0.558038 0.791119 0.230488
0.571603 0.789761 0.229984
0.571603 0.789761 0.229984
0.571603 0.789761 0.229984
0.571603 0.789761 0.229984
0.571603 0.789761 0.229984
0 0.84773 0.247913
1.5259e-05 0.852674 0.250141
1.5259e-05 0.856977 0.252064
0.000335698 0.860899 0.253849
0.00209049 0.8636 0.255634
0.00459297 0.865538 0.257435
0.0135195 0.866728 0.258839
0.0242008 0.867567 0.259953
0.036347 0.868406 0.260929
0.0500649 0.869184 0.261814
0.0683452 0.869444 0.262272
0.0894026 0.869291 0.262425
0.112032 0.868986 0.26244
0.13547 0.868467 0.262196
0.160586 0.86775 0.261585
0.186908 0.866285 0.261006
0.21442 0.863828 0.26067
0.242771 0.86154 0.260212
0.272465 0.859403 0.25948
0.302831 0.857862 0.258869
0.334386 0.856184 0.257908
0.366491 0.85478 0.25687
0.39913 0.853605 0.255787
0.43209 0.85275 0.254627
0.465644 0.849943 0.253178
0.499474 0.846555 0.25182
0.533593 0.842817 0.250416
0.56762 0.839155 0.249287
0.581155 0.837644 0.248814
0.581155 0.837644 0.248814
0.581155 0.837644 0.248814
0.581155 0.837644 0.248814
0.581155 0.837644 0.248814
0 0.899474 0.265904
0 0.901915 0.268009
0 0.903853 0.270237
0.00077821 0.905776 0.272312
0.00265507 0.907637 0.27422
0.00714122 0.909102 0.275868
0.0150759 0.910353 0.277104
0.0241093 0.911315 0.278141
0.0353399 0.911482 0.279118
0.0501106 0.909667 0.279667
0.0705119 0.907835 0.279805
0.0924086 0.90605 0.27982
0.115679 0.904402 0.279576
0.139727 0.902968 0.279881
0.165728 0.901732 0.280018
0.192599 0.900603 0.279927
0.220722 0.899733 0.279652
0.249683 0.899184 0.279118
0.280003 0.899168 0.278569
0.310735 0.899306 0.277729
0.342916 0.899367 0.276524
0.375418 0.899901 0.275257
0.408438 0.900786 0.273991
0.442039 0.900481 0.27248
0.475914 0.897719 0.27126
0.509896 0.894316 0.270054
0.544015 0.890532 0.269047
0.577859 0.886839 0.268025
0.591196 0.885298 0.267659
0.591196 0.885298 0.267659
0.591196 0.885298 0.267659
0.591196 0.885298 0.267659
0.591196 0.885298 0.267659
0 0.937072 0.284581
0 0.938521 0.286748
0.000213626 0.938003 0.288823
0.00125124 0.937484 0.290761
0.00308232 0.937011 0.292546
0.00820935 0.936278 0.293812
0.014313 0.935561 0.29482
0.0232242 0.934905 0.295781
0.034287 0.934462 0.296681
0.0520485 0.933989 0.297124
0.0734722 0.933654 0.297673
0.0962692 0.933364 0.298268
0.119631 0.933471 0.298802
0.145251 0.93373 0.298909
0.17171 0.934447 0.298833
0.199527 0.935332 0.298466
0.228138 0.936599 0.297856
0.258061 0.937942 0.297139
0.288533 0.939696 0.296269
0.320363 0.941238 0.295216
0.352697 0.94316 0.294026
0.385657 0.945266 0.292897
0.418845 0.947326 0.29189
0.452567 0.945693 0.290852
0.48658 0.941894 0.289662
0.520775 0.937026 0.288502
