luts/varicam_official/Cyan 2 33 E-E.cube
TITLE "Generated by Resolve"
LUT_3D_SIZE 5
0.0156252 0.0156252 0.0156252
0.0436255 0.0075227 0.0102998
0.133486 0.00164797 0.00321965
0.307759 0 0
0.563714 0 0
0.00239567 0.109346 0.0395514
0.0528572 0.112337 0.0399939
0.171603 0.0993973 0.0293278
0.378943 0.0639506 0.00976577
0.65301 0.0246128 0.00161746
0 0.393454 0.110704
0.0413214 0.414481 0.115114
0.193591 0.41146 0.103975
0.431342 0.384619 0.0809186
0.711254 0.347814 0.0525063
0 0.830457 0.218036
0.0289769 0.847013 0.222904
0.211704 0.830884 0.212451
0.475288 0.796674 0.190188
0.751919 0.755474 0.165469
0 0.999908 0.329625
0.0384222 1 0.32784
0.261646 1 0.315343
0.545174 1 0.292515
0.803464 0.993027 0.274006
0.0151827 0.0164187 0.0565805
0.0464027 0.00863661 0.0620737
0.13904 0.00210575 0.0606241
0.319066 0 0.0447852
0.577493 0 0.0214847
0.00205997 0.118349 0.114122
0.0556954 0.120027 0.124163
0.177615 0.109163 0.12517
0.390524 0.0732128 0.109758
0.6663 0.0267185 0.0894331
0 0.411917 0.217838
0.0448463 0.431357 0.236347
0.200214 0.428931 0.240299
0.44213 0.401465 0.229908
0.722454 0.365713 0.215457
0 0.851087 0.367407
0.0322728 0.866621 0.38555
0.220447 0.843381 0.387671
0.486717 0.813184 0.379843
0.761715 0.770993 0.370047
0 1 0.5187
0.0448005 1 0.531014
0.273823 1 0.52668
0.557702 1 0.515129
0.812024 0.995605 0.507347
0.0139773 0.0191196 0.172763
0.0482338 0.012665 0.193622
0.145251 0.00265507 0.203906
0.329381 0 0.201968
0.591394 0 0.187137
0.00354009 0.128405 0.271519
0.0572213 0.132418 0.295842
0.183291 0.120745 0.311147
0.401266 0.0838941 0.309834
0.67863 0.0310979 0.299123
0.000320439 0.43241 0.419272
0.0469062 0.451469 0.447303
0.206165 0.447959 0.462562
0.452384 0.420905 0.462196
0.733089 0.384649 0.456641
0 0.873457 0.601083
0.0361791 0.884077 0.627054
0.22858 0.857923 0.636164
0.497627 0.829435 0.632151
0.770932 0.787961 0.626612
0 1 0.77142
0.0519722 1 0.786572
0.285115 1 0.78378
0.570764 1 0.770977
0.820111 0.997574 0.760952
0.0121614 0.0236667 0.378729
0.0493629 0.0184329 0.411399
0.150561 0.00447089 0.432212
0.339208 0 0.438758
0.604471 0 0.430884
0.00425727 0.1402 0.509621
0.057557 0.146792 0.542092
0.189639 0.133837 0.561822
0.41149 0.096025 0.564279
0.689982 0.0456855 0.556374
0.000518807 0.453788 0.676249
0.0478218 0.473152 0.706859
0.212955 0.467414 0.721218
0.462486 0.441062 0.71928
0.743572 0.404562 0.709606
0 0.896742 0.860441
0.0387121 0.895537 0.881758
0.236057 0.873945 0.884123
0.508995 0.84448 0.872648
0.781384 0.804395 0.858518
0 1 0.967651
0.0595712 1 0.972137
0.296742 1 0.980316
0.583627 0.999969 0.969436
0.828595 0.999542 0.952438
0.00936904 0.0317693 0.635966
0.0503395 0.0245823 0.668513
0.155367 0.00790417 0.68809
0.349905 0.000167849 0.689815
0.617212 0 0.676081
0.00437934 0.154086 0.764508
0.0588846 0.160861 0.791501
0.19585 0.147387 0.80444
0.42237 0.1075 0.796994
0.702068 0.0593271 0.77705
0.000244144 0.474922 0.913268
0.0478676 0.493782 0.931533
0.2206 0.487388 0.932647
0.473442 0.459388 0.91519
0.753231 0.423194 0.89221
0 0.918257 0.999908
0.0399939 0.906981 1
0.246204 0.88484 0.999496
0.520653 0.858396 0.99617
0.791852 0.818601 0.984192
0 1 1
0.0668498 1 1
0.309316 1 1
0.597803 0.999985 1
0.838468 0.999664 0.999954
