luts/varicam_official/Cyan 1 33 E-E.cube
TITLE "Generated by Resolve"
LUT_3D_SIZE 9
0.0156252 0.0156252 0.0156252
0.0165103 0.0153658 0.0154574
0.0349126 0.00988785 0.0121309
0.0645914 0.00323491 0.00874342
0.108721 0.00125124 0.00512703
0.171618 0.000396735 0.00241093
0.25452 0 0.000549325
0.34287 0 0
0.34287 0 0
0.0120089 0.0374304 0.0217136
0.0195315 0.0413977 0.0232395
0.0439002 0.0407111 0.0225681
0.0792096 0.0374609 0.0212558
0.132082 0.0298009 0.0172427
0.205142 0.0177615 0.0110628
0.299596 0.00817884 0.00593576
0.395636 0.00511177 0.00285344
0.395636 0.00511177 0.00285344
0.00401312 0.107332 0.0431067
0.0203403 0.113664 0.0458534
0.0484321 0.117647 0.0475166
0.0914931 0.118105 0.0470588
0.153704 0.113817 0.0432746
0.237064 0.104875 0.0365148
0.3411 0.0905165 0.0266423
0.443244 0.0758831 0.0162661
0.443244 0.0758831 0.0162661
0.00262455 0.232807 0.0791638
0.0148775 0.245258 0.0833448
0.0469825 0.255543 0.0864729
0.0985733 0.260731 0.0864271
0.170794 0.261646 0.0830396
0.264439 0.257923 0.0779278
0.377386 0.248539 0.0691386
0.484825 0.238285 0.0600748
0.484825 0.238285 0.0600748
0.00062562 0.423102 0.12932
0.00770581 0.441642 0.135409
0.0415656 0.456046 0.140139
0.101793 0.465248 0.141466
0.184756 0.468956 0.13994
0.288045 0.467155 0.135821
0.408591 0.46099 0.128466
0.519768 0.453193 0.121477
0.519768 0.453193 0.121477
0 0.660456 0.19324
0.00474556 0.680461 0.201358
0.0345006 0.695186 0.207095
0.104921 0.70399 0.208957
0.199023 0.705989 0.207767
0.312154 0.702495 0.20354
0.439567 0.694224 0.196841
0.553414 0.684916 0.191852
0.553414 0.684916 0.191852
0 0.899474 0.265904
0.00265507 0.907637 0.27422
0.0353399 0.911482 0.279118
0.115679 0.904402 0.279576
0.220722 0.899733 0.279652
0.342916 0.899367 0.276524
0.475914 0.897719 0.27126
0.591196 0.885298 0.267659
0.591196 0.885298 0.267659
0 0.978973 0.326955
0.00262455 0.983734 0.334997
0.0408789 0.987778 0.340307
0.135317 0.994781 0.341466
0.249958 1 0.340093
0.379187 0.99884 0.336019
0.515358 0.994629 0.3308
0.630274 0.994156 0.327382
0.630274 0.994156 0.327382
0 0.978973 0.326955
0.00262455 0.983734 0.334997
0.0408789 0.987778 0.340307
0.135317 0.994781 0.341466
0.249958 1 0.340093
0.379187 0.99884 0.336019
0.515358 0.994629 0.3308
0.630274 0.994156 0.327382
0.630274 0.994156 0.327382
0.0155032 0.0157473 0.0250248
0.0169985 0.0153506 0.0290379
0.036286 0.0101015 0.0301213
0.066865 0.00347906 0.0298314
0.112001 0.00144961 0.0273747
0.175799 0.000534066 0.0221561
0.260685 0 0.0162203
0.349401 0 0.00798047
0.349401 0 0.00798047
0.011368 0.0404364 0.0440528
0.0202487 0.0441596 0.0490272
0.045243 0.0435645 0.0514839
0.081651 0.0400397 0.0522927
0.135531 0.0321813 0.0500649
0.209934 0.0203555 0.0452583
0.305928 0.0102998 0.0370947
0.402411 0.0059968 0.0293431
0.402411 0.0059968 0.0293431
0.00421149 0.112306 0.0750286
0.0209659 0.118791 0.0802472
0.0497597 0.123003 0.0843519
0.0939803 0.123262 0.0865797
0.157534 0.119493 0.0860761
0.242267 0.110491 0.0827802
0.347707 0.0958114 0.0764782
0.450263 0.0817731 0.0693675
0.450263 0.0817731 0.0693675
0.00250248 0.240833 0.119768
0.0155795 0.253849 0.127321
0.0483711 0.263874 0.134173
0.101457 0.268605 0.138384
0.174868 0.270787 0.13962
0.269718 0.266743 0.137743
0.383841 0.257298 0.132647
0.491844 0.247364 0.127169
0.491844 0.247364 0.127169
0.000656138 0.434409 0.182757
0.00762951 0.453056 0.193118
0.0427405 0.467308 0.201343
0.104631 0.476265 0.20621
0.1888 0.480171 0.208682
0.293645 0.478233 0.208591
0.415076 0.471931 0.206104
0.526574 0.464347 0.20325
0.526574 0.464347 0.20325
0 0.673304 0.25919
0.00466926 0.693141 0.271229
0.0367742 0.707744 0.281102
0.1084 0.716106 0.287739
0.203708 0.717876 0.29131
0.318059 0.713878 0.29189
0.446113 0.705135 0.290059
0.560189 0.695796 0.288182
0.560189 0.695796 0.288182
0 0.908354 0.345754
0.00297551 0.91664 0.35874
0.0366827 0.916487 0.368307
0.119448 0.910399 0.373999
0.226215 0.90695 0.37673
0.349584 0.908415 0.376638
0.482979 0.907423 0.375067
0.597955 0.895003 0.374411
0.597955 0.895003 0.374411
0 0.982651 0.419852
0.00234989 0.986358 0.431403
0.0450904 0.990967 0.439506
0.140398 0.99884 0.443809
0.256336 1 0.445747
0.386343 0.999588 0.445899
0.522881 0.997192 0.444907
0.637156 0.994614 0.444022
0.637156 0.994614 0.444022
0 0.982651 0.419852
0.00234989 0.986358 0.431403
0.0450904 0.990967 0.439506
0.140398 0.99884 0.443809
0.256336 1 0.445747
0.386343 0.999588 0.445899
0.522881 0.997192 0.444907
0.637156 0.994614 0.444022
0.637156 0.994614 0.444022
0.015198 0.0163729 0.0548714
0.0174105 0.0158694 0.0614023
0.0377203 0.0107576 0.0648051
0.0690776 0.00389105 0.0670481
0.115282 0.00172427 0.0673991
0.180407 0.000671397 0.0652781
0.266712 0 0.0604868
0.356054 0 0.0542611
0.356054 0 0.0542611
0.0105745 0.0437934 0.0823987
0.0208743 0.0473182 0.0902113
0.0465705 0.0468605 0.0958572
0.0839399 0.0431067 0.100603
0.139086 0.0349279 0.102846
0.214832 0.023331 0.101839
0.31194 0.0131075 0.0977646
0.409613 0.00675975 0.0919509
0.409613 0.00675975 0.0919509
0.00436408 0.1178 0.124498
0.0214084 0.124514 0.134234
0.0509194 0.129015 0.142397
0.0961318 0.129351 0.148608
0.161044 0.125811 0.151995
0.247227 0.116762 0.152331
0.35378 0.102586 0.150637
0.457176 0.0882887 0.147341
0.457176 0.0882887 0.147341
0.00227359 0.249607 0.182864
0.0161288 0.263005 0.194598
0.0496986 0.272694 0.205066
0.103655 0.278691 0.214008
0.178393 0.280583 0.219837
0.274693 0.276158 0.222431
0.389456 0.267292 0.222522
0.498192 0.257267 0.221042
0.498192 0.257267 0.221042
0.000656138 0.446326 0.259586
0.00750744 0.465034 0.274464
0.0437171 0.479301 0.28748
0.106844 0.488487 0.29749
0.192691 0.492073 0.30399
0.29868 0.490105 0.3075
0.420905 0.48368 0.308507
0.532845 0.475883 0.308476
0.532845 0.475883 0.308476
0 0.686961 0.351537
0.00451667 0.706447 0.367559
0.038819 0.720745 0.381033
0.111391 0.728725 0.391089
0.208362 0.730053 0.397635
0.323384 0.725719 0.401999
0.45214 0.716548 0.404135
0.566461 0.707393 0.405341
0.566461 0.707393 0.405341
0 0.91783 0.449729
0.00366217 0.926085 0.46569
0.0379644 0.921874 0.47924
0.123247 0.916671 0.488701
0.23122 0.914611 0.494835
0.355734 0.917754 0.497826
0.489464 0.917342 0.499184
0.604471 0.904921 0.50042
0.604471 0.904921 0.50042
0 0.985946 0.533516
0.002121 0.988952 0.548363
0.0490272 0.994186 0.559777
0.145235 1 0.567254
0.262348 1 0.571283
0.393118 0.999847 0.573022
0.530159 0.997497 0.573358
0.644572 0.995239 0.573465
0.644572 0.995239 0.573465
0 0.985946 0.533516
0.002121 0.988952 0.548363
0.0490272 0.994186 0.559777
0.145235 1 0.567254
0.262348 1 0.571283
0.393118 0.999847 0.573022
0.530159 0.997497 0.573358
0.644572 0.995239 0.573465
0.644572 0.995239 0.573465
0.0146792 0.0173495 0.100694
0.017792 0.0167697 0.111666
0.0388647 0.0119478 0.119356
0.0709697 0.00494392 0.125963
0.118288 0.00262455 0.130541
0.184665 0.00077821 0.131914
0.27248 0 0.131319
0.362707 1.5259e-05 0.128679
0.362707 1.5259e-05 0.128679
0.00953689 0.0476844 0.142504
0.0213779 0.0510567 0.154314
0.0476997 0.0506294 0.163699
0.0860609 0.0467689 0.172732
0.142275 0.0388495 0.179248
0.219333 0.0267185 0.182391
0.317891 0.0163577 0.183444
0.416312 0.0083772 0.18175
0.416312 0.0083772 0.18175
0.0043946 0.124208 0.197772
0.0215152 0.131029 0.211856
0.0518196 0.135485 0.224414
0.0981613 0.136477 0.235676
0.16437 0.132937 0.243687
0.251972 0.123583 0.24831
0.359823 0.109865 0.250309
0.464149 0.0954452 0.24976
0.464149 0.0954452 0.24976
0.00195315 0.259449 0.271427
0.0163272 0.272725 0.287846
0.0506447 0.282231 0.30248
0.10573 0.289326 0.315068
0.182055 0.290898 0.324025
0.279561 0.286259 0.330037
0.395361 0.277684 0.333898
0.50486 0.26743 0.335409
0.50486 0.26743 0.335409
0.000595102 0.45922 0.361639
0.0075227 0.477592 0.379644
0.0445563 0.491508 0.396277
0.109117 0.500999 0.410254
0.196338 0.504341 0.420111
0.303914 0.502144 0.426871
0.426932 0.495598 0.431159
0.539345 0.487999 0.433448
0.539345 0.487999 0.433448
3.0518e-05 0.700938 0.465126
0.00422675 0.72015 0.484642
0.0406653 0.734417 0.501534
0.114565 0.741741 0.514427
0.212589 0.742779 0.523568
0.329046 0.737606 0.52961
0.458412 0.728283 0.533516
0.573175 0.718654 0.535866
0.573175 0.718654 0.535866
0 0.927565 0.574044
0.00471504 0.932815 0.592798
0.0391394 0.927428 0.607736
0.127031 0.923049 0.618524
0.237018 0.921996 0.625574
0.362219 0.926925 0.629725
0.496284 0.926696 0.632166
0.611276 0.913298 0.633967
0.611276 0.913298 0.633967
1.5259e-05 0.988235 0.662745
0.00262455 0.991608 0.679118
0.0530709 0.997391 0.691722
0.150362 1 0.700084
0.268803 1 0.70457
0.400061 0.999863 0.706447
0.537774 0.997909 0.706325
0.651362 0.996124 0.706874
0.651362 0.996124 0.706874
1.5259e-05 0.988235 0.662745
0.00262455 0.991608 0.679118
0.0530709 0.997391 0.691722
0.150362 1 0.700084
0.268803 1 0.70457
0.400061 0.999863 0.706447
0.537774 0.997909 0.706325
0.651362 0.996124 0.706874
0.651362 0.996124 0.706874
0.0139925 0.0191196 0.171435
0.0179446 0.0187076 0.18613
0.0400092 0.0135958 0.198062
0.0728923 0.00654612 0.209308
0.120928 0.00415045 0.218677
0.188785 0.000823987 0.224964
0.278157 0 0.228321
0.369665 7.62951e-05 0.228489
0.369665 7.62951e-05 0.228489
0.00843824 0.0522316 0.227008
0.0216373 0.0554818 0.243565
0.0484474 0.0549935 0.258045
0.0877852 0.0510872 0.270848
0.145281 0.0435187 0.280964
0.223835 0.030808 0.287877
0.323445 0.0196689 0.29192
0.423011 0.00985733 0.293172
0.423011 0.00985733 0.293172
0.0043946 0.131106 0.297078
0.0214389 0.13814 0.314748
0.0526284 0.142519 0.330907
0.099733 0.143999 0.34551
0.167407 0.140597 0.357168
0.256672 0.131075 0.365118
0.365393 0.117708 0.37023
0.470558 0.103273 0.372442
0.470558 0.103273 0.372442
0.00154116 0.269596 0.382239
0.0164492 0.282887 0.402426
0.0516365 0.292454 0.420539
0.107698 0.300359 0.436469
0.185229 0.30161 0.448493
0.284108 0.297063 0.45687
0.400793 0.288563 0.462318
0.510887 0.278294 0.465126
0.510887 0.278294 0.465126
0.000549325 0.472145 0.484016
0.00798047 0.490623 0.505348
0.0450752 0.504921 0.524163
0.111208 0.514366 0.53959
0.200275 0.517327 0.550958
0.308614 0.515023 0.558923
0.432547 0.508278 0.564355
0.545419 0.500374 0.5673
0.545419 0.500374 0.5673
7.62951e-05 0.715389 0.595285
0.00419623 0.734386 0.616403
0.042649 0.747936 0.634089
0.11754 0.755047 0.64799
0.217121 0.755261 0.65771
0.334386 0.749477 0.664042
0.464347 0.740246 0.667826
0.579293 0.730159 0.669917
0.579293 0.730159 0.669917
0 0.937392 0.708583
0.00538643 0.937789 0.727596
0.0407263 0.932982 0.742473
0.131426 0.92932 0.753185
0.242283 0.929534 0.75964
0.368231 0.935897 0.762768
0.502739 0.935958 0.764263
0.617685 0.921508 0.764462
0.617685 0.921508 0.764462
4.57771e-05 0.990417 0.797635
0.00299077 0.994156 0.813519
0.056733 0.999893 0.824994
0.155703 1 0.831754
0.27509 1 0.834607
0.406912 0.999847 0.833204
0.544823 0.998276 0.829084
0.658534 0.99707 0.826123
0.658534 0.99707 0.826123
4.57771e-05 0.990417 0.797635
0.00299077 0.994156 0.813519
0.056733 0.999893 0.824994
0.155703 1 0.831754
0.27509 1 0.834607
0.406912 0.999847 0.833204
0.544823 0.998276 0.829084
0.658534 0.99707 0.826123
0.658534 0.99707 0.826123
0.0130617 0.0212406 0.267338
0.0178683 0.021149 0.285985
0.0408331 0.0158694 0.301915
0.0742962 0.00862135 0.316213
0.123354 0.00581369 0.329274
0.192584 0.00077821 0.339086
0.283467 0.000183108 0.345296
0.376226 0.000122072 0.348089
0.376226 0.000122072 0.348089
0.00704967 0.0572518 0.335103
0.0216983 0.0604257 0.355062
0.0491646 0.0598611 0.372992
0.0895247 0.0560006 0.388983
0.148257 0.0486 0.402472
0.228107 0.0359655 0.412116
0.328984 0.0236057 0.418235
0.42948 0.0116732 0.42092
0.42948 0.0116732 0.42092
0.00436408 0.138628 0.416281
0.0211337 0.145708 0.437186
0.0531167 0.150668 0.45626
0.101503 0.15227 0.47306
0.170565 0.148577 0.486397
0.261036 0.139635 0.495674
0.371191 0.126055 0.501793
0.477302 0.111177 0.504967
0.477302 0.111177 0.504967
0.00131228 0.2804 0.510735
0.0164797 0.293385 0.532433
0.0521096 0.304402 0.552499
0.10956 0.311711 0.569375
0.188891 0.31249 0.582055
0.288808 0.308446 0.590936
0.406607 0.299611 0.596735
0.517296 0.289006 0.599237
0.517296 0.289006 0.599237
0.000427253 0.485496 0.617578
0.00854505 0.503761 0.639887
0.0458991 0.518212 0.659037
0.113924 0.527123 0.674372
0.204044 0.530083 0.68542
0.313817 0.527459 0.692729
0.438727 0.520409 0.69691
0.551873 0.512352 0.69897
0.551873 0.512352 0.69897
0.000137331 0.729885 0.731029
0.00416571 0.748653 0.751827
0.0443732 0.761837 0.768688
0.120897 0.768215 0.781338
0.221759 0.767849 0.789746
0.34023 0.76112 0.793942
0.470954 0.751568 0.795193
0.585809 0.741283 0.795132
0.585809 0.741283 0.795132
0 0.946792 0.84213
0.0059968 0.942657 0.859693
0.0439002 0.938186 0.87248
0.135805 0.935561 0.880674
0.248051 0.937041 0.884047
0.37499 0.944808 0.883558
0.510033 0.942412 0.880613
0.624384 0.929397 0.877409
0.624384 0.929397 0.877409
6.10361e-05 0.992569 0.924132
0.00334173 0.996674 0.933547
0.0611734 1 0.936278
0.161288 1 0.935042
0.281666 1 0.932387
0.414618 0.999771 0.929839
0.552193 0.998672 0.930068
0.665568 0.998138 0.928603
0.665568 0.998138 0.928603
6.10361e-05 0.992569 0.924132
0.00334173 0.996674 0.933547
0.0611734 1 0.936278
0.161288 1 0.935042
0.281666 1 0.932387
0.414618 0.999771 0.929839
0.552193 0.998672 0.930068
0.665568 0.998138 0.928603
0.665568 0.998138 0.928603
0.0120699 0.0240177 0.383673
0.0176852 0.0239567 0.405661
0.0415198 0.0185092 0.424475
0.0755016 0.0124208 0.441733
0.125673 0.00770581 0.456947
0.196551 0.00172427 0.468193
0.288441 0.000762951 0.475639
0.382834 0.000167849 0.479484
0.382834 0.000167849 0.479484
0.00563058 0.0628977 0.461677
0.021622 0.0656901 0.483314
0.0496376 0.0651102 0.502983
0.0909285 0.0619364 0.520409
0.151141 0.0540475 0.534691
0.23241 0.0412451 0.545113
0.334264 0.0277256 0.551659
0.435904 0.013901 0.554223
0.435904 0.013901 0.554223
0.00440986 0.146548 0.548379
0.0210422 0.153475 0.57026
0.0538033 0.158877 0.590433
0.103059 0.160647 0.607569
0.173739 0.156435 0.620249
0.265644 0.147829 0.629374
0.376715 0.134173 0.634821
0.483574 0.119066 0.636606
0.483574 0.119066 0.636606
0.00141909 0.290974 0.645762
0.0163882 0.30396 0.667369
0.0528572 0.315877 0.687068
0.111955 0.322744 0.702693
0.192416 0.3234 0.714092
0.293492 0.319493 0.72224
0.412421 0.310399 0.725353
0.523217 0.299947 0.725887
0.523217 0.299947 0.725887
0.00030518 0.498741 0.751904
0.00935378 0.517082 0.7729
0.0469825 0.531624 0.790722
0.11664 0.540291 0.803662
0.208148 0.54284 0.812406
0.318837 0.539986 0.816724
0.444617 0.532738 0.816846
0.557961 0.524788 0.815839
0.557961 0.524788 0.815839
0.000167849 0.744274 0.860792
0.00419623 0.762676 0.879103
0.0462501 0.775051 0.892821
0.124468 0.780957 0.901411
0.226642 0.77937 0.905837
0.346044 0.772366 0.905776
0.477272 0.762295 0.903075
0.592142 0.751766 0.900069
0.592142 0.751766 0.900069
0 0.950942 0.954894
0.00650034 0.946975 0.966201
0.0470893 0.943099 0.973938
0.140597 0.941314 0.97937
0.253742 0.944076 0.981155
0.381445 0.953552 0.974792
0.516991 0.948852 0.970062
0.631174 0.936812 0.964233
0.631174 0.936812 0.964233
6.10361e-05 0.994553 0.991135
0.00392157 0.9991 0.994217
0.0655528 1 0.993881
0.166964 1 0.989975
0.288396 1 0.988403
0.422232 0.999725 0.985931
0.559716 0.999054 0.98529
0.672938 0.99881 0.986145
0.672938 0.99881 0.986145
6.10361e-05 0.994553 0.991135
0.00392157 0.9991 0.994217
0.0655528 1 0.993881
0.166964 1 0.989975
0.288396 1 0.988403
0.422232 0.999725 0.985931
0.559716 0.999054 0.98529
0.672938 0.99881 0.986145
0.672938 0.99881 0.986145
0.0109865 0.0269932 0.494514
0.017731 0.0265812 0.517159
0.0420081 0.0208896 0.536797
0.0762646 0.0157626 0.555154
0.127825 0.00962844 0.570565
0.199802 0.0028687 0.581552
0.292851 0.00122072 0.588571
0.388083 0.000167849 0.591897
0.388083 0.000167849 0.591897
0.00468452 0.0678569 0.57557
0.0215915 0.0703288 0.597482
0.0501411 0.0697185 0.616876
0.0924086 0.0669108 0.634028
0.15378 0.0588083 0.647242
0.236194 0.0458839 0.65655
0.339254 0.0313268 0.662013
0.44152 0.0159457 0.663264
0.44152 0.0159457 0.663264
0.00454719 0.153521 0.662654
0.0208438 0.160418 0.683665
0.0543526 0.166079 0.702602
0.104967 0.167803 0.71841
0.176745 0.16376 0.729763
0.269474 0.155032 0.736614
0.381918 0.14107 0.73991
0.489372 0.125933 0.739132
0.489372 0.125933 0.739132
0.00146487 0.300359 0.757443
0.0160678 0.313756 0.777615
0.0535592 0.325765 0.794888
0.113817 0.332036 0.808606
0.195651 0.332982 0.816464
0.297902 0.328664 0.820203
0.417777 0.319127 0.82089
0.528984 0.308934 0.817884
0.528984 0.308934 0.817884
0.000213626 0.510048 0.858015
0.0101167 0.528405 0.875471
0.0483101 0.542596 0.889525
0.119234 0.550912 0.899199
0.211826 0.553155 0.903716
0.323735 0.549889 0.904524
0.45008 0.54229 0.901503
0.563714 0.534234 0.896391
0.563714 0.534234 0.896391
0.000167849 0.75613 0.955474
0.00444038 0.77409 0.966415
0.0476844 0.78616 0.975097
0.127657 0.791211 0.977752
0.231037 0.788647 0.97702
0.351522 0.781445 0.977417
0.48307 0.770718 0.970703
0.598138 0.760113 0.963058
0.598138 0.760113 0.963058
0 0.954131 1
0.00666819 0.950347 1
0.0500343 0.94699 0.999878
0.144991 0.945998 0.999283
0.259281 0.94992 0.998718
0.387579 0.959976 0.999634
0.523507 0.954025 0.997253
0.637369 0.942779 0.994369
0.637369 0.942779 0.994369
6.10361e-05 0.996139 0.999878
0.00462348 1 0.99971
0.0692149 1 0.99971
0.172305 1 0.999954
0.294926 1 0.99942
0.429221 0.99971 0.999481
0.56672 0.99942 0.999405
0.679011 0.998703 0.998581
0.679011 0.998703 0.998581
6.10361e-05 0.996139 0.999878
0.00462348 1 0.99971
0.0692149 1 0.99971
0.172305 1 0.999954
0.294926 1 0.99942
0.429221 0.99971 0.999481
0.56672 0.99942 0.999405
0.679011 0.998703 0.998581
0.679011 0.998703 0.998581
0.0109865 0.0269932 0.494514
0.017731 0.0265812 0.517159
0.0420081 0.0208896 0.536797
0.0762646 0.0157626 0.555154
0.127825 0.00962844 0.570565
0.199802 0.0028687 0.581552
0.292851 0.00122072 0.588571
0.388083 0.000167849 0.591897
0.388083 0.000167849 0.591897
0.00468452 0.0678569 0.57557
0.0215915 0.0703288 0.597482
0.0501411 0.0697185 0.616876
0.0924086 0.0669108 0.634028
0.15378 0.0588083 0.647242
0.236194 0.0458839 0.65655
0.339254 0.0313268 0.662013
0.44152 0.0159457 0.663264
0.44152 0.0159457 0.663264
0.00454719 0.153521 0.662654
0.0208438 0.160418 0.683665
0.0543526 0.166079 0.702602
0.104967 0.167803 0.71841
0.176745 0.16376 0.729763
0.269474 0.155032 0.736614
0.381918 0.14107 0.73991
0.489372 0.125933 0.739132
0.489372 0.125933 0.739132
0.00146487 0.300359 0.757443
0.0160678 0.313756 0.777615
0.0535592 0.325765 0.794888
0.113817 0.332036 0.808606
0.195651 0.332982 0.816464
0.297902 0.328664 0.820203
0.417777 0.319127 0.82089
0.528984 0.308934 0.817884
0.528984 0.308934 0.817884
0.000213626 0.510048 0.858015
0.0101167 0.528405 0.875471
0.0483101 0.542596 0.889525
0.119234 0.550912 0.899199
0.211826 0.553155 0.903716
0.323735 0.549889 0.904524
0.45008 0.54229 0.901503
0.563714 0.534234 0.896391
0.563714 0.534234 0.896391
0.000167849 0.75613 0.955474
0.00444038 0.77409 0.966415
0.0476844 0.78616 0.975097
0.127657 0.791211 0.977752
0.231037 0.788647 0.97702
0.351522 0.781445 0.977417
0.48307 0.770718 0.970703
0.598138 0.760113 0.963058
0.598138 0.760113 0.963058
0 0.954131 1
0.00666819 0.950347 1
0.0500343 0.94699 0.999878
0.144991 0.945998 0.999283
0.259281 0.94992 0.998718
0.387579 0.959976 0.999634
0.523507 0.954025 0.997253
0.637369 0.942779 0.994369
0.637369 0.942779 0.994369
6.10361e-05 0.996139 0.999878
0.00462348 1 0.99971
0.0692149 1 0.99971
0.172305 1 0.999954
0.294926 1 0.99942
0.429221 0.99971 0.999481
0.56672 0.99942 0.999405
0.679011 0.998703 0.998581
0.679011 0.998703 0.998581
6.10361e-05 0.996139 0.999878
0.00462348 1 0.99971
0.0692149 1 0.99971
0.172305 1 0.999954
0.294926 1 0.99942
0.429221 0.99971 0.999481
0.56672 0.99942 0.999405
0.679011 0.998703 0.998581
0.679011 0.998703 0.998581
