luts/varicam_official/Fashion 1 33 E-E.cube
TITLE "Generated by Resolve"
LUT_3D_SIZE 9
0.0156252 0.0156252 0.0156252
0.0180209 0.0149081 0.0151827
0.0576944 0.00389105 0.00761425
0.209674 0 0
0.625757 0 0
0.999069 0 0
1 0 0
1 0 0
1 0 0
0.0151827 0.0183261 0.0160678
0.0175631 0.0176242 0.0156252
0.0572518 0.00653086 0.00808728
0.209232 0 0
0.625345 0 0
0.999054 0 0
1 0 0
1 0 0
1 0 0
0.00769055 0.064271 0.0238651
0.010071 0.0635691 0.0234226
0.0497444 0.0518044 0.0160372
0.201724 0.0128481 0
0.618036 0 0
0.998779 0 0
1 0 0
1 0 0
1 0 0
0 0.24715 0.0552987
0.000503548 0.246433 0.0548409
0.0214694 0.234638 0.0474098
0.172229 0.18967 0.0190585
0.588495 0.0670329 0
0.997696 0 0
1 0 0
1 0 0
1 0 0
0 0.736339 0.139315
0 0.735622 0.138857
0 0.723827 0.131426
0.0933394 0.678889 0.103044
0.50959 0.555749 0.0256199
0.973266 0.404379 0
1 0.379324 0
1 0.379324 0
1 0.379324 0
0 1 0.231891
0 1 0.231434
0 1 0.224002
0.0177615 1 0.195621
0.422675 0.997009 0.118105
0.922591 0.9308 0.0224002
1 0.906218 0.00674449
1 0.906218 0.00674449
1 0.906218 0.00674449
0 1 0.242008
0 1 0.24155
0 1 0.234119
0.0153811 1 0.205737
0.413291 1 0.127993
0.913085 0.998184 0.032517
1 0.975341 0.016846
1 0.975341 0.016846
1 0.975341 0.016846
0 1 0.242008
0 1 0.24155
0 1 0.234119
0.0153811 1 0.205737
0.413291 1 0.127993
0.913085 0.998184 0.032517
1 0.975341 0.016846
1 0.975341 0.016846
1 0.975341 0.016846
0 1 0.242008
0 1 0.24155
0 1 0.234119
0.0153811 1 0.205737
0.413291 1 0.127993
0.913085 0.998184 0.032517
1 0.975341 0.016846
1 0.975341 0.016846
1 0.975341 0.016846
0.01561 0.0156558 0.0176394
0.0179904 0.0149386 0.0171817
0.0576638 0.00392157 0.0096437
0.209644 0 0.000244144
0.625757 0 0
0.999069 0 0
1 0 0
1 0 0
1 0 0
0.0151522 0.0183566 0.0180819
0.0175479 0.0176547 0.0176394
0.0572213 0.00654612 0.0101167
0.209201 0 0.000274662
0.62533 0 0
0.999054 0 0
1 0 0
1 0 0
1 0 0
0.00766003 0.064332 0.0259098
0.0100404 0.0636149 0.025452
0.0497292 0.0518502 0.0180667
0.201709 0.0128634 0.000885023
0.618021 0 0
0.998779 0 0
1 0 0
1 0 0
1 0 0
0 0.247181 0.0573129
0.000503548 0.246464 0.0568551
0.0214542 0.234684 0.0494392
0.172213 0.1897 0.021088
0.588479 0.0670787 0
0.997696 0 0
1 0 0
1 0 0
1 0 0
0 0.736385 0.141314
0 0.735668 0.140871
0 0.723873 0.13344
0.0933242 0.678935 0.105074
0.50959 0.555795 0.0276188
0.975448 0.404425 0
1 0.37937 0
1 0.37937 0
1 0.37937 0
0 1 0.233921
0 1 0.233478
0 1 0.226047
0.0177615 1 0.197665
0.422644 0.997314 0.120119
0.92369 0.932219 0.024445
1 0.907607 0.00877394
1 0.907607 0.00877394
1 0.907607 0.00877394
0 1 0.244038
0 1 0.24358
0 1 0.236149
0.0153658 1 0.207767
0.41326 1 0.130022
0.914183 0.998383 0.0345464
1 0.975631 0.0188602
1 0.975631 0.0188602
1 0.975631 0.0188602
0 1 0.244038
0 1 0.24358
0 1 0.236149
0.0153658 1 0.207767
0.41326 1 0.130022
0.914183 0.998383 0.0345464
1 0.975631 0.0188602
1 0.975631 0.0188602
1 0.975631 0.0188602
0 1 0.244038
0 1 0.24358
0 1 0.236149
0.0153658 1 0.207767
0.41326 1 0.130022
0.914183 0.998383 0.0345464
1 0.975631 0.0188602
1 0.975631 0.0188602
1 0.975631 0.0188602
0.0152285 0.0163272 0.0520333
0.0176242 0.01561 0.0515908
0.0572976 0.00425727 0.0441901
0.209277 0 0.0170138
0.625589 0 0
0.999069 0 0
1 0 0
1 0 0
1 0 0
0.014786 0.0190433 0.0525063
0.0171664 0.0183413 0.0520638
0.0568551 0.00694286 0.0446632
0.208835 0 0.0174411
0.625147 0 0
0.999054 0 0
1 0 0
1 0 0
1 0 0
0.00729381 0.0651255 0.0604257
0.00967422 0.0644083 0.0599832
0.0493477 0.0526131 0.0525826
0.201389 0.0133059 0.0246433
0.617655 0 0
0.998764 0 0
1 0 0
1 0 0
1 0 0
0 0.247837 0.0918288
0.000488289 0.247135 0.0913863
0.0212406 0.235401 0.0839246
0.171923 0.190448 0.0555886
0.588205 0.0677806 0
0.997681 0 0
1 0 0
1 0 0
1 0 0
0 0.737087 0.175708
0 0.736385 0.17528
0 0.724697 0.16791
0.0930648 0.679759 0.13959
0.509331 0.556603 0.0619211
0.994751 0.405234 4.57771e-05
1 0.380194 0
1 0.380194 0
1 0.380194 0
0 1 0.268544
0 1 0.268086
0 1 0.260655
0.0176852 1 0.232273
0.422278 1 0.154528
0.933288 0.945159 0.0590524
1 0.920195 0.0433814
1 0.920195 0.0433814
1 0.920195 0.0433814
0 1 0.278508
0 1 0.278065
0 1 0.270695
0.0152743 1 0.242344
0.412894 1 0.16463
0.923781 1 0.0691691
1 0.978714 0.053254
1 0.978714 0.053254
1 0.978714 0.053254
0 1 0.278508
0 1 0.278065
0 1 0.270695
0.0152743 1 0.242344
0.412894 1 0.16463
0.923781 1 0.0691691
1 0.978714 0.053254
1 0.978714 0.053254
1 0.978714 0.053254
0 1 0.278508
0 1 0.278065
0 1 0.270695
0.0152743 1 0.242344
0.412894 1 0.16463
0.923781 1 0.0691691
1 0.978714 0.053254
1 0.978714 0.053254
1 0.978714 0.053254
0.0137942 0.0195315 0.190845
0.0161898 0.0188144 0.190387
0.0559854 0.00701915 0.182956
0.207904 0 0.154574
0.62417 0 0.0768292
0.999008 0 0.00807202
1 0 0.000244144
1 0 0.000244144
1 0 0.000244144
0.0133669 0.0222477 0.191318
0.0157626 0.0215305 0.19086
0.0555428 0.00973526 0.183429
0.207462 0 0.155047
0.623728 0 0.0773022
0.998993 0 0.00831617
1 0 0.00047303
1 0 0.00047303
1 0 0.00047303
0.00598154 0.0682383 0.199176
0.0083772 0.0675364 0.198734
0.0481575 0.0557717 0.191302
0.200046 0.0152132 0.162921
0.616342 0 0.0852369
0.998734 0 0.012253
1 0 0.00436408
1 0 0.00436408
1 0 0.00436408
0 0.251057 0.230503
0.000411994 0.25034 0.23006
0.0201877 0.238544 0.22269
0.170611 0.193606 0.194293
0.586892 0.0707561 0.116609
0.997635 0 0.0280461
1 0 0.0200809
1 0 0.0200809
1 0 0.0200809
0 0.740307 0.314519
0 0.73959 0.314076
0 0.727794 0.306645
0.091722 0.682857 0.278264
0.508003 0.559716 0.200626
0.994705 0.408347 0.105043
1 0.383291 0.0893721
1 0.383291 0.0893721
1 0.383291 0.0893721
0 1 0.407233
0 1 0.40679
0 1 0.399329
0.0173648 1 0.371054
0.420966 1 0.293324
0.93196 0.948302 0.197864
1 0.923308 0.181949
1 0.923308 0.181949
1 0.923308 0.181949
0 1 0.417212
0 1 0.41677
0 1 0.409384
0.0149691 1 0.381048
0.41146 1 0.303426
0.922576 1 0.207858
1 0.981811 0.192065
1 0.981811 0.192065
1 0.981811 0.192065
0 1 0.417212
0 1 0.41677
0 1 0.409384
0.0149691 1 0.381048
0.41146 1 0.303426
0.922576 1 0.207858
1 0.981811 0.192065
1 0.981811 0.192065
1 0.981811 0.192065
0 1 0.417212
0 1 0.41677
0 1 0.409384
0.0149691 1 0.381048
0.41146 1 0.303426
0.922576 1 0.207858
1 0.981811 0.192065
1 0.981811 0.192065
1 0.981811 0.192065
0.0104372 0.0278477 0.561944
0.0128328 0.0271458 0.561502
0.0525063 0.0153964 0.554131
0.204486 0 0.52578
0.620798 0 0.448066
0.998886 0 0.35259
1 0 0.336797
1 0 0.336797
1 0 0.336797
0.00999466 0.0305791 0.562417
0.0123751 0.0298772 0.561975
0.0520638 0.0181125 0.554604
0.204044 0.000274662 0.526253
0.620356 0 0.448524
0.998871 0 0.353063
1 0 0.33727
1 0 0.33727
1 0 0.33727
0.00257877 0.0766766 0.570367
0.00495918 0.0759594 0.569924
0.0445563 0.0641642 0.562539
0.196567 0.0213779 0.534188
0.612863 0 0.456458
0.998596 0 0.360998
1 0 0.345205
1 0 0.345205
1 0 0.345205
0 0.259373 0.60174
0.000244144 0.258671 0.601297
0.0174563 0.246952 0.593851
0.167132 0.201984 0.56553
0.583413 0.0789044 0.487831
0.997513 0 0.392325
1 0 0.376532
1 0 0.376532
1 0 0.376532
0 0.748623 0.685756
0 0.747921 0.685313
0 0.736233 0.677882
0.0882429 0.691295 0.6495
0.50454 0.568154 0.571847
0.994583 0.416724 0.47628
1 0.39173 0.460609
1 0.39173 0.460609
1 0.39173 0.460609
0 1 0.778454
0 1 0.777996
0 1 0.770535
0.0164797 1 0.742184
0.417487 1 0.664561
0.928496 0.956558 0.568963
1 0.931762 0.553185
1 0.931762 0.553185
1 0.931762 0.553185
0 1 0.788449
0 1 0.788006
0 1 0.780621
0.0140536 1 0.75227
0.408103 1 0.67454
0.91899 1 0.57908
1 0.990234 0.563302
1 0.990234 0.563302
1 0.990234 0.563302
0 1 0.788449
0 1 0.788006
0 1 0.780621
0.0140536 1 0.75227
0.408103 1 0.67454
0.91899 1 0.57908
1 0.990234 0.563302
1 0.990234 0.563302
1 0.990234 0.563302
0 1 0.788449
0 1 0.788006
0 1 0.780621
0.0140536 1 0.75227
0.408103 1 0.67454
0.91899 1 0.57908
1 0.990234 0.563302
1 0.990234 0.563302
1 0.990234 0.563302
0.00666819 0.0368811 0.961776
0.00906386 0.0361791 0.961334
0.0487373 0.0245365 0.953964
0.200732 0 0.925628
0.617029 0 0.847913
0.998749 0 0.752453
1 0 0.736629
1 0 0.736629
1 0 0.736629
0.00622568 0.0395972 0.962234
0.00860609 0.0389105 0.961807
0.0482948 0.0272374 0.954437
0.20029 0.000961318 0.926101
0.616587 0 0.848386
0.998734 0 0.752926
1 0 0.737087
1 0 0.737087
1 0 0.737087
0.000900282 0.0856947 0.970184
0.00308232 0.0849928 0.969741
0.0408637 0.0731975 0.962341
0.192798 0.0294957 0.933989
0.609094 0 0.85626
0.998459 0 0.760784
1 0 0.745022
1 0 0.745022
1 0 0.745022
0 0.268406 0.991745
3.0518e-05 0.267704 0.991592
0.0144808 0.256062 0.98851
0.163394 0.211093 0.965347
0.579614 0.0879683 0.887633
0.99736 0.000228885 0.792126
1 0 0.776379
1 0 0.776379
1 0 0.776379
0 0.757763 1
0 0.757046 1
0 0.745266 1
0.0844434 0.700313 0.999954
0.50071 0.577157 0.971603
0.99443 0.425803 0.876143
1 0.400778 0.86038
1 0.400778 0.86038
1 0.400778 0.86038
0 1 1
0 1 1
0 1 1
0.0155032 1 1
0.413764 1 0.997879
0.924681 0.965255 0.963943
1 0.940826 0.948241
1 0.940826 0.948241
1 0.940826 0.948241
0 1 1
0 1 1
0 1 1
0.0131228 1 1
0.404334 1 1
0.915282 1 0.978607
1 0.999283 0.963165
1 0.999283 0.963165
1 0.999283 0.963165
0 1 1
0 1 1
0 1 1
0.0131228 1 1
0.404334 1 1
0.915282 1 0.978607
1 0.999283 0.963165
1 0.999283 0.963165
1 0.999283 0.963165
0 1 1
0 1 1
0 1 1
0.0131228 1 1
0.404334 1 1
0.915282 1 0.978607
1 0.999283 0.963165
1 0.999283 0.963165
1 0.999283 0.963165
0.00634775 0.0378576 0.998779
0.00872816 0.0371405 0.998352
0.0484169 0.02533 0.991012
0.200397 0 0.962509
0.616709 0 0.884993
0.998734 0 0.789532
1 0 0.773632
1 0 0.773632
1 0 0.773632
0.00590524 0.0405585 0.998901
0.00828565 0.0398413 0.998505
0.0479591 0.0280461 0.99147
0.199954 0.00102235 0.962982
0.616266 0 0.885466
0.998718 0 0.78999
1 0 0.77409
1 0 0.77409
1 0 0.77409
0.00077821 0.0865034 1
0.00292973 0.0857862 0.999954
0.0404669 0.0740368 0.997925
0.192447 0.0302434 0.970993
0.608759 0 0.893339
0.998444 0 0.797772
1 0 0.781964
1 0 0.781964
1 0 0.781964
0 0.269368 1
1.5259e-05 0.26865 1
0.0141909 0.256855 1
0.163043 0.211887 0.997192
0.579309 0.088777 0.924666
0.997345 0.000274662 0.829206
1 0 0.813428
1 0 0.813428
1 0 0.813428
0 0.758556 1
0 0.757855 1
0 0.746105 1
0.0841535 0.701137 1
0.50045 0.577966 0.998688
0.99443 0.426596 0.913222
1 0.401679 0.897307
1 0.401679 0.897307
1 0.401679 0.897307
0 1 1
0 1 1
0 1 1
0.0154421 1 1
0.413397 1 1
0.924269 0.966171 0.999237
1 0.941619 0.989181
1 0.941619 0.989181
1 0.941619 0.989181
0 1 1
0 1 1
0 1 1
0.0130159 1 1
0.404013 1 1
0.914885 1 1
1 1 1
1 1 1
1 1 1
0 1 1
0 1 1
0 1 1
0.0130159 1 1
0.404013 1 1
0.914885 1 1
1 1 1
1 1 1
1 1 1
0 1 1
0 1 1
0 1 1
0.0130159 1 1
0.404013 1 1
0.914885 1 1
1 1 1
1 1 1
1 1 1
0.00634775 0.0378576 0.998779
0.00872816 0.0371405 0.998352
0.0484169 0.02533 0.991012
0.200397 0 0.962509
0.616709 0 0.884993
0.998734 0 0.789532
1 0 0.773632
1 0 0.773632
1 0 0.773632
0.00590524 0.0405585 0.998901
0.00828565 0.0398413 0.998505
0.0479591 0.0280461 0.99147
0.199954 0.00102235 0.962982
0.616266 0 0.885466
0.998718 0 0.78999
1 0 0.77409
1 0 0.77409
1 0 0.77409
0.00077821 0.0865034 1
0.00292973 0.0857862 0.999954
0.0404669 0.0740368 0.997925
0.192447 0.0302434 0.970993
0.608759 0 0.893339
0.998444 0 0.797772
1 0 0.781964
1 0 0.781964
1 0 0.781964
0 0.269368 1
1.5259e-05 0.26865 1
0.0141909 0.256855 1
0.163043 0.211887 0.997192
0.579309 0.088777 0.924666
0.997345 0.000274662 0.829206
1 0 0.813428
1 0 0.813428
1 0 0.813428
0 0.758556 1
0 0.757855 1
0 0.746105 1
0.0841535 0.701137 1
0.50045 0.577966 0.998688
0.99443 0.426596 0.913222
1 0.401679 0.897307
1 0.401679 0.897307
1 0.401679 0.897307
0 1 1
0 1 1
0 1 1
0.0154421 1 1
0.413397 1 1
0.924269 0.966171 0.999237
1 0.941619 0.989181
1 0.941619 0.989181
1 0.941619 0.989181
0 1 1
0 1 1
0 1 1
0.0130159 1 1
0.404013 1 1
0.914885 1 1
1 1 1
1 1 1
1 1 1
0 1 1
0 1 1
0 1 1
0.0130159 1 1
0.404013 1 1
0.914885 1 1
1 1 1
1 1 1
1 1 1
0 1 1
0 1 1
0 1 1
0.0130159 1 1
0.404013 1 1
0.914885 1 1
1 1 1
1 1 1
1 1 1
0.00634775 0.0378576 0.998779
0.00872816 0.0371405 0.998352
0.0484169 0.02533 0.991012
0.200397 0 0.962509
0.616709 0 0.884993
0.998734 0 0.789532
1 0 0.773632
1 0 0.773632
1 0 0.773632
0.00590524 0.0405585 0.998901
0.00828565 0.0398413 0.998505
0.0479591 0.0280461 0.99147
0.199954 0.00102235 0.962982
0.616266 0 0.885466
0.998718 0 0.78999
1 0 0.77409
1 0 0.77409
1 0 0.77409
0.00077821 0.0865034 1
0.00292973 0.0857862 0.999954
0.0404669 0.0740368 0.997925
0.192447 0.0302434 0.970993
0.608759 0 0.893339
0.998444 0 0.797772
1 0 0.781964
1 0 0.781964
1 0 0.781964
0 0.269368 1
1.5259e-05 0.26865 1
0.0141909 0.256855 1
0.163043 0.211887 0.997192
0.579309 0.088777 0.924666
0.997345 0.000274662 0.829206
1 0 0.813428
1 0 0.813428
1 0 0.813428
0 0.758556 1
0 0.757855 1
0 0.746105 1
0.0841535 0.701137 1
0.50045 0.577966 0.998688
0.99443 0.426596 0.913222
1 0.401679 0.897307
1 0.401679 0.897307
1 0.401679 0.897307
0 1 1
0 1 1
0 1 1
0.0154421 1 1
0.413397 1 1
0.924269 0.966171 0.999237
1 0.941619 0.989181
1 0.941619 0.989181
1 0.941619 0.989181
0 1 1
0 1 1
0 1 1
0.0130159 1 1
0.404013 1 1
0.914885 1 1
1 1 1
1 1 1
1 1 1
0 1 1
0 1 1
0 1 1
0.0130159 1 1
0.404013 1 1
0.914885 1 1
1 1 1
1 1 1
1 1 1
0 1 1
0 1 1
0 1 1
0.0130159 1 1
0.404013 1 1
0.914885 1 1
1 1 1
1 1 1
1 1 1
