luts/varicam_official/Fashion 2 33 E-E.cube
TITLE "Generated by Resolve"
LUT_3D_SIZE 9
0.0156252 0.0156252 0.0156252
0.0278325 0.0119631 0.0133059
0.0662547 0.00175479 0.00598154
0.180224 0 0
0.470085 0 0
0.933333 0 0
1 0 0
1 0 0
1 0 0
0.013138 0.0312963 0.0182803
0.0272374 0.0282597 0.016846
0.068574 0.016846 0.00947585
0.193591 0 0.000320439
0.500145 0 0
0.967376 0 0
1 0 0
1 0 0
1 0 0
0.00740063 0.0818494 0.0286107
0.0214694 0.0819715 0.0283513
0.0660868 0.0723278 0.0222324
0.20206 0.0340734 0.00430304
0.524453 0 0
0.968139 0 0
1 0 0
1 0 0
1 0 0
0.00132753 0.246372 0.0594644
0.00347906 0.252827 0.0609751
0.0469673 0.248798 0.0560464
0.192966 0.214282 0.0323491
0.530282 0.120165 0
0.953307 0.00440986 0
1 0 0
1 0 0
1 0 0
0 0.644327 0.13167
0 0.65832 0.134646
0.00766003 0.664576 0.131609
0.148135 0.637949 0.108721
0.500084 0.550347 0.0494698
0.93106 0.427665 0.000274662
1 0.391348 0
1 0.39408 0
1 0.390845 0
0 1 0.227909
0 1 0.229099
0 1 0.226642
0.0977646 1 0.202365
0.465064 0.997803 0.141314
0.897475 0.930678 0.0661173
1 0.902007 0.0492256
1 0.906752 0.0542763
1 0.909361 0.0582284
0 1 0.260884
0 1 0.260365
0 1 0.25481
0.122606 1 0.225803
0.504952 1 0.16318
0.923919 1 0.0944839
1 0.979446 0.0873884
1 0.979583 0.0949111
1 0.97969 0.101213
0 1 0.270146
0 1 0.267933
0 1 0.26331
0.173281 1 0.235996
0.566979 1 0.174731
0.952392 0.99472 0.11516
1 0.980117 0.119997
1 0.980423 0.133974
1 0.980713 0.146471
0 1 0.282246
0 1 0.280415
0.0222324 1 0.27657
0.238102 1 0.247791
0.636286 1 0.193072
0.979812 0.989029 0.14844
1 0.981094 0.162982
1 0.981643 0.18526
1 0.982147 0.205936
0.0155032 0.0157626 0.0263676
0.0277104 0.0121614 0.0238041
0.0665293 0.00169375 0.0154421
0.18117 0 0.00173953
0.472786 0 0
0.936797 0 0
1 0 0
1 0 0
1 0 0
0.0133974 0.0317998 0.0299382
0.0275578 0.0289311 0.0285039
0.0691081 0.0174105 0.021088
0.195682 0 0.00347906
0.503792 0 0
0.971008 0 0
1 0 0
1 0 0
1 0 0
0.00794995 0.0835279 0.0402991
0.0219577 0.0836347 0.0401312
0.0673686 0.0739452 0.033814
0.204959 0.0353857 0.0106966
0.528817 0 0
0.968566 0 0
1 0 0
1 0 0
1 0 0
0.00141909 0.250263 0.0714885
0.00328069 0.256764 0.0729381
0.0482643 0.252461 0.0684062
0.196155 0.217792 0.0453346
0.535256 0.123476 0.00177005
0.95433 0.00415045 0
1 0 0
1 0 0
1 0 0
0 0.651102 0.144762
0 0.664515 0.148669
0.0077821 0.671199 0.146914
0.151522 0.643915 0.125017
0.505699 0.555703 0.0656901
0.934295 0.434424 0.000961318
1 0.399283 0
1 0.402029 0.000442512
1 0.39884 0.000854505
0 1 0.243565
0 1 0.24593
0 1 0.2439
0.102907 1 0.219684
0.471534 0.998962 0.161837
0.901427 0.932937 0.0902113
1 0.905638 0.0771344
1 0.910414 0.0835889
1 0.913054 0.0883192
0 1 0.279545
0 1 0.279393
0 1 0.27747
0.127932 1 0.251942
0.511986 1 0.190967
0.928298 1 0.125582
1 0.980194 0.123384
1 0.980438 0.1346
1 0.980652 0.144137
0 1 0.295384
0 1 0.295033
0 1 0.293309
0.17969 1 0.268788
0.573739 1 0.212741
0.954894 0.994568 0.158663
1 0.981186 0.166506
1 0.981643 0.18526
1 0.982055 0.202121
0 1 0.314092
0 1 0.314122
0.0258335 1 0.315694
0.24448 1 0.292073
0.642969 1 0.241184
0.98056 0.989914 0.203662
1 0.982574 0.223056
1 0.9832 0.250019
1 0.98381 0.275792
0.0151522 0.016556 0.0608225
0.0268864 0.0130465 0.0585946
0.065919 0.00190738 0.0502937
0.181079 0 0.0265202
0.474388 0 0
0.938643 0 0
1 0 0
1 0 0
1 0 0
0.013138 0.0326848 0.0658122
0.0272831 0.0298772 0.0653239
0.0690776 0.0183719 0.0584573
0.196872 0 0.0337377
0.506249 0 0.00015259
0.972442 0 0
1 0 0
1 0 0
1 0 0
0.00816358 0.0853132 0.0780041
0.0220645 0.0856794 0.0796674
0.0682078 0.0760052 0.0745556
0.207294 0.0372778 0.0508888
0.532921 0 0.00564584
0.968719 0 0
1 0 0
1 0 0
1 0 0
0.00146487 0.25449 0.112093
0.00289921 0.261326 0.115892
0.0495003 0.257481 0.1131
0.199313 0.222263 0.0907607
0.540719 0.127596 0.031632
0.955383 0.00500496 0
1 0.00062562 0
1 0 0
1 0 0
0 0.659556 0.188983
0 0.672969 0.19443
0.0077821 0.679927 0.194888
0.155276 0.652491 0.174304
0.512032 0.564065 0.117479
0.938643 0.444373 0.0419013
1 0.411337 0.0239261
1 0.415167 0.0269627
1 0.413031 0.0272984
0 1 0.28957
0 1 0.293553
1.5259e-05 1 0.295705
0.109773 1 0.276081
0.480827 1 0.219898
0.907683 0.937148 0.150637
1 0.912337 0.139712
1 0.917342 0.147601
1 0.920211 0.15433
0 1 0.328084
0 1 0.331228
0 1 0.33286
0.137758 1 0.310201
0.524224 1 0.253513
0.933364 0.99913 0.194369
1 0.981903 0.196139
1 0.982238 0.209735
1 0.982528 0.221424
0 1 0.349691
0 1 0.351232
0 1 0.35465
0.192126 1 0.335622
0.586923 1 0.283925
0.959854 0.994553 0.235767
1 0.98323 0.251331
1 0.983764 0.273838
1 0.984237 0.294072
0 1 0.377142
0 1 0.379919
0.0328832 1 0.386206
0.258122 1 0.36791
0.657069 1 0.324437
0.982742 0.990951 0.294118
1 0.984833 0.32105
1 0.985504 0.353094
1 0.98613 0.383291
0.014023 0.019089 0.169909
0.0247196 0.0159152 0.168963
0.06392 0.00427253 0.159503
0.179217 0 0.133333
0.472923 0 0.0709239
0.938964 0 0
1 0 0
1 0 0
1 0 0
0.01178 0.0348821 0.180179
0.0260471 0.0323491 0.181521
0.0679026 0.0208743 0.175479
0.196017 0 0.150744
0.506447 0 0.0888533
0.971603 0 0.0107881
1 0 0.000228885
1 0 0
1 0 0
0.00756847 0.0885176 0.196323
0.0213474 0.0892042 0.200671
0.0678569 0.0795453 0.19823
0.207843 0.0409552 0.175723
0.535348 0 0.115618
0.968185 0 0.0332036
1 0 0.00784314
1 0 0.00595102
1 0 0.00361639
0.00128176 0.260258 0.235401
0.00302129 0.267063 0.242847
0.0498207 0.263447 0.24387
0.201053 0.228229 0.224613
0.54432 0.134096 0.167041
0.956054 0.0105135 0.0858015
1 0.00424201 0.05449
1 0.00222782 0.0512093
1 0 0.0456397
0 0.668971 0.318944
0 0.682963 0.328527
0.00717174 0.689723 0.335225
0.158389 0.662715 0.321538
0.517479 0.574151 0.268742
0.942611 0.456016 0.197086
1 0.42565 0.17969
1 0.430045 0.184009
1 0.428977 0.184161
0 1 0.427344
0 1 0.437705
0 1 0.44744
0.115633 1 0.433371
0.488945 1 0.381994
0.912535 0.943908 0.318212
1 0.92108 0.314458
1 0.92639 0.326009
1 0.929717 0.333913
0 1 0.476753
0 1 0.483986
0 1 0.493462
0.146532 1 0.478645
0.535058 1 0.429969
0.936599 0.998932 0.377401
1 0.98616 0.384756
1 0.986526 0.402426
1 0.986877 0.41767
0 1 0.508721
0 1 0.514641
0.0047303 1 0.52813
0.203983 1 0.51603
0.59939 1 0.47129
0.963729 0.996872 0.433021
1 0.987747 0.453208
1 0.988373 0.479286
1 0.988922 0.50219
0 1 0.549371
0 1 0.555047
0.0396887 1 0.569223
0.27187 1 0.559701
0.670008 1 0.522148
0.984497 0.99472 0.499352
1 0.989548 0.530694
1 0.99025 0.564111
1 0.990906 0.594705
0.0116121 0.0250706 0.440146
0.020737 0.0224308 0.441169
0.0597543 0.0109407 0.432715
0.174166 0 0.405417
0.467597 0 0.34078
0.935241 0 0.239841
1 0 0.170214
1 0 0.149096
1 0 0.125109
0.0090486 0.0402075 0.457313
0.022797 0.0380407 0.46128
0.0645151 0.026978 0.45687
0.192126 0.000854505 0.432258
0.503365 0 0.368933
0.968933 0 0.272221
1 0 0.212696
1 0 0.194156
1 0 0.171389
0.0052491 0.0944991 0.479316
0.0188754 0.0953536 0.486946
0.0654307 0.086183 0.487053
0.205997 0.0478676 0.466484
0.53431 0.000320439 0.40708
0.966247 0 0.31809
1 0 0.272419
1 0 0.260594
1 0 0.24445
0.000885023 0.268055 0.524437
0.00291447 0.275212 0.535698
0.0480659 0.272312 0.541329
0.200702 0.237461 0.52517
0.545785 0.143923 0.470542
0.955535 0.0166934 0.390387
1 0.00827039 0.359915
1 0.00650034 0.355779
1 0.00250248 0.346548
0 0.681193 0.615579
0 0.695155 0.629755
0.00563058 0.702358 0.641032
0.160311 0.674952 0.630014
0.520684 0.587167 0.579965
0.945739 0.470878 0.510781
1 0.442527 0.495781
1 0.44802 0.50074
1 0.447471 0.500237
0 1 0.731609
0 1 0.744976
0 1 0.758694
0.119814 1 0.74789
0.495232 1 0.69955
0.915648 0.953277 0.63888
1 0.933043 0.636622
1 0.938766 0.648432
1 0.942306 0.656382
0 1 0.785519
0 1 0.795346
0 1 0.809491
0.153216 1 0.797421
0.544015 1 0.749249
0.938521 1 0.699199
1 0.993393 0.70779
1 0.99379 0.722942
1 0.994125 0.735424
0 1 0.823804
0 1 0.831571
0.0108492 1 0.846296
0.21416 1 0.834821
0.610727 1 0.789929
0.966613 1 0.748104
1 0.994873 0.764294
1 0.995422 0.78497
1 0.995834 0.803311
0 1 0.866041
0 1 0.871992
0.0449073 1 0.887114
0.285512 1 0.869841
0.681804 1 0.828092
0.985107 0.998444 0.800534
1 0.996292 0.825559
1 0.996826 0.852064
1 0.997314 0.876173
0.00772107 0.0340124 0.833738
0.0148165 0.0319677 0.835401
0.0536202 0.0204929 0.828199
0.166369 0.000564584 0.803769
0.458854 0 0.742565
0.927993 0 0.645167
1 0 0.579171
1 0 0.561074
1 0 0.53843
0.00553903 0.0475319 0.849577
0.0180972 0.0458839 0.852613
0.0595102 0.0352026 0.848081
0.185534 0.00607309 0.824674
0.49633 0 0.763607
0.965042 0 0.668986
1 0 0.613138
1 0 0.599191
1 0 0.581582
0.00344854 0.101991 0.870283
0.0156252 0.103349 0.876219
0.0611582 0.0946212 0.874952
0.20174 0.056611 0.852659
0.530221 0.00215152 0.793057
0.963516 0 0.704982
1 0 0.662303
1 0 0.653498
1 0 0.640986
0.000259403 0.277089 0.913527
0.00210575 0.284199 0.920012
0.045182 0.281315 0.920119
0.198627 0.246876 0.89984
0.544564 0.154482 0.841566
0.954253 0.0256962 0.759823
1 0.0124666 0.730175
1 0.0113222 0.727779
1 0.00706493 0.721981
0 0.693294 0.987747
0 0.706966 0.989441
0.00384527 0.714855 0.989456
0.160418 0.687221 0.983169
0.522225 0.599832 0.934447
0.948043 0.485298 0.861158
1 0.458961 0.843793
1 0.464927 0.846235
1 0.466011 0.846265
0 1 0.999969
0 1 0.999847
0 1 0.99913
0.122835 1 1
0.500389 1 0.988251
0.918257 0.962356 0.953857
1 0.944305 0.945434
1 0.950103 0.951858
1 0.953964 0.956039
0 1 1
0 1 1
0 1 1
0.159976 1 1
0.552117 1 1
0.940261 1 0.986221
1 0.999603 0.979797
1 0.999695 0.983429
1 0.999756 0.986282
0 1 1
0 1 1
0.0161593 1 1
0.224537 1 1
0.622003 1 1
0.969787 1 0.992157
1 0.999924 0.993164
1 1 0.996674
1 1 0.997436
0 1 1
0 1 1
0.0496834 1 1
0.299763 1 1
0.69453 1 1
0.986572 1 0.998672
1 1 0.998383
1 1 0.999512
1 1 1
0.00634775 0.0378576 0.998779
0.0108339 0.0364996 0.997971
0.0489357 0.0251774 0.990906
0.159747 0.00181582 0.970092
0.4495 0 0.916182
0.920577 0 0.828214
1 0 0.774243
1 0 0.773632
1 0 0.772839
0.00454719 0.0487678 0.999283
0.0153353 0.0477607 0.998093
0.0561685 0.0374151 0.991653
0.179095 0.00784314 0.968795
0.488731 0 0.911101
0.961547 0 0.822766
1 0 0.77615
1 0 0.775464
1 0 0.774792
0.00257877 0.102998 1
0.0142367 0.10425 1
0.0587472 0.096025 0.998245
0.198123 0.0589456 0.97467
0.526711 0.00274662 0.91368
0.962203 0 0.826856
1 0 0.788067
1 0 0.787457
1 0 0.786511
4.57771e-05 0.278553 1
0.00173953 0.28574 1
0.0439918 0.283497 1
0.19765 0.249104 0.999222
0.544045 0.157916 0.940047
0.953994 0.0297551 0.855741
1 0.0148928 0.825818
1 0.0145876 0.825742
1 0.0110933 0.824842
0 0.697292 1
0 0.711162 1
0.00334173 0.719265 1
0.161868 0.692073 1
0.525277 0.604547 0.99765
0.950378 0.491478 0.929824
1 0.46688 0.908507
1 0.474434 0.909804
1 0.476539 0.910155
0 1 1
0 1 1
0 1 1
0.127352 1 1
0.506844 1 1
0.922118 0.965759 0.999237
1 0.948791 0.990677
1 0.955123 0.991989
1 0.959335 0.992874
0 1 1
0 1 1
0 1 1
0.169009 1 1
0.561791 1 1
0.944244 1 1
1 1 1
1 1 1
1 1 1
0 1 1
0 1 1
0.0214389 1 1
0.236515 1 1
0.63415 1 1
0.972717 1 1
1 1 1
1 1 1
1 1 1
0 1 1
0 1 1
0.0612802 1 1
0.315145 1 1
0.708309 1 1
0.989807 1 1
1 1 1
1 1 1
1 1 1
0.00634775 0.0378576 0.998779
0.0077821 0.0374151 0.99852
0.0450446 0.0263218 0.991653
0.152712 0.00248722 0.971405
0.438651 0 0.918196
0.911879 0 0.829831
1 0 0.774304
1 0 0.773632
1 0 0.773632
0.0049897 0.046067 0.999161
0.0133516 0.0459602 0.998154
0.0535439 0.0361181 0.991836
0.173281 0.00782788 0.969604
0.480232 0 0.91249
0.954772 0 0.82388
1 0 0.776089
1 0 0.775418
1 0 0.774823
0.00138857 0.0999466 1
0.0135042 0.101183 1
0.0563821 0.0939651 0.99855
0.194186 0.0577401 0.975052
0.521691 0.00270085 0.914351
0.961517 0 0.827253
1 0 0.787961
1 0 0.787518
1 0 0.786694
4.57771e-05 0.27509 1
0.00134279 0.282643 1
0.0434577 0.281239 1
0.196216 0.248142 0.999054
0.542794 0.157046 0.940093
0.953674 0.029984 0.855879
1 0.0157626 0.826047
1 0.0160525 0.826123
1 0.0134279 0.825452
0 0.696162 1
0 0.709895 1
0.0033875 0.719112 1
0.16289 0.692805 1
0.526909 0.606119 0.997681
0.951766 0.494301 0.930098
1 0.471199 0.909239
1 0.480171 0.91078
1 0.483299 0.91133
0 1 1
0 1 1
0 1 1
0.131487 1 1
0.511925 1 1
0.925643 0.967544 0.999268
1 0.951751 0.991287
1 0.958282 0.99266
1 0.962921 0.993622
0 1 1
0 1 1
0 1 1
0.177157 1 1
0.570352 1 1
0.947707 1 1
1 1 1
1 1 1
1 1 1
0 1 1
0 1 1
0.0264439 1 1
0.247395 1 1
0.645243 1 1
0.975067 1 1
1 1 1
1 1 1
1 1 1
0 1 1
0 1 1
0.0736706 1 1
0.330175 1 1
0.721798 1 1
0.992859 1 1
1 1 1
1 1 1
1 1 1
0.00634775 0.0378576 0.998779
0.00634775 0.0378576 0.998779
0.0403754 0.0276951 0.992554
0.144121 0.00329595 0.973022
0.425528 0 0.920623
0.900572 0 0.831937
1 0 0.774395
1 0 0.773632
1 0 0.773632
0.00553903 0.0427405 0.999008
0.0110323 0.0435798 0.998276
0.0501411 0.0343633 0.992065
0.166674 0.00779736 0.970489
0.469215 0 0.91426
0.945464 0 0.825391
1 0 0.775952
1 0 0.775296
1 0 0.774746
0.000213626 0.0970169 1
0.0124361 0.0970016 1
0.0532845 0.090959 0.999039
0.188754 0.0560159 0.97557
0.513924 0.00257877 0.915404
0.96051 0 0.827832
1 0 0.787701
1 0 0.787381
1 0 0.786648
4.57771e-05 0.269963 1
0.00047303 0.277562 1
0.0421454 0.277119 1
0.193469 0.245502 0.998657
0.538918 0.155276 0.940383
0.952743 0.0285496 0.855985
1 0.0151827 0.825895
1 0.0166323 0.826276
1 0.0148928 0.825818
0 0.691936 1
0 0.706157 1
0.0034638 0.716518 1
0.162844 0.690761 1
0.526497 0.605737 0.997665
0.952041 0.494743 0.930144
1 0.47335 0.909606
1 0.483299 0.91133
1 0.487984 0.912139
0 1 1
0 1 1
0 1 1
0.133745 1 1
0.515206 1 1
0.928023 0.968566 0.999283
1 0.953643 0.991684
1 0.960815 0.993179
1 0.966079 0.994278
0 1 1
0 1 1
0 1 1
0.183047 1 1
0.57702 1 1
0.950607 1 1
1 1 1
1 1 1
1 1 1
0 1 1
0 1 1
0.0308537 1 1
0.256916 1 1
0.654368 1 1
0.977234 1 1
1 1 1
1 1 1
1 1 1
0 1 1
0 1 1
0.0856489 1 1
0.34374 1 1
0.733547 1 1
0.995605 1 1
1 1 1
1 1 1
1 1 1
