luts/varicam_official/Fashion_Lo Con.cube
TITLE "Generated by Resolve"
LUT_3D_SIZE 9
0.0156252 0.0156252 0.0156252
0.047837 0.00636301 0.00950637
0.140902 0 0
0.336004 0 0
0.636133 0 0
0.966827 0 0
1 0 0
1 0 0
1 0 0
0.00981155 0.0510567 0.021561
0.0421759 0.0413977 0.0155795
0.133959 0.0162203 0.00129702
0.327092 0.000259403 0
0.626001 0 0
0.9561 0 0
1 0 0
1 0 0
1 0 0
0 0.152132 0.0389563
0.0260777 0.141588 0.0327001
0.117556 0.114229 0.0156252
0.310643 0.0573434 0
0.608377 0.0065156 0
0.938186 0 0
1 0 0
1 0 0
1 0 0
0 0.364279 0.0753643
0.00433356 0.352758 0.0690013
0.0836957 0.325353 0.0518502
0.276539 0.268299 0.0166476
0.573968 0.180331 0
0.903487 0.0832837 0
1 0.0377966 0
1 0.0312352 0
1 0.0318456 0
0 0.691524 0.131624
0 0.67953 0.125048
0.0321965 0.651453 0.10779
0.224475 0.593912 0.0716564
0.521859 0.505837 0.016907
0.851087 0.40856 0
0.995911 0.343145 0
1 0.332341 0
1 0.333425 0
0 0.968765 0.1935
0 0.962631 0.186801
0.00616464 0.947082 0.169543
0.166812 0.914382 0.133486
0.464439 0.857786 0.07776
0.792981 0.760693 0.0171054
0.980667 0.69514 0
1 0.683711 0
1 0.684138 0
0 1 0.234867
0 1 0.228321
0 1 0.211048
0.128344 1 0.175082
0.425666 0.998566 0.119661
0.754177 0.976165 0.0582742
0.959609 0.932815 0.0168002
1 0.921187 0.009308
1 0.921401 0.00935378
0 1 0.242008
0 1 0.235569
0 1 0.218372
0.122515 1 0.182361
0.419699 1 0.126802
0.748043 1 0.0656748
0.955612 0.987015 0.0241398
1 0.975341 0.016846
1 0.975341 0.016846
0 1 0.242008
0 1 0.235508
0 1 0.218235
0.123308 1 0.182208
0.420691 1 0.126619
0.748913 1 0.0655222
0.955978 0.986893 0.0240635
1 0.975341 0.016846
1 0.975341 0.016846
0.0153201 0.0160372 0.0417639
0.0477913 0.00674449 0.035996
0.140337 0 0.0190127
0.335302 0 0.00155642
0.636027 0 0
0.966079 0 0
1 0 0
1 0 0
1 0 0
0.00950637 0.0517128 0.0481422
0.0417639 0.0418097 0.0418097
0.133425 0.0165866 0.0248722
0.326497 0.000289921 0.00230411
0.625223 0 0
0.955383 0 0
1 0 0
1 0 0
1 0 0
0 0.152407 0.0656748
0.0259251 0.141939 0.059144
0.117037 0.114656 0.0419776
0.30959 0.0579538 0.00994888
0.607614 0.00660716 0
0.937713 0 0
1 0 0
1 0 0
1 0 0
0 0.364385 0.102205
0.0041352 0.353048 0.0954147
0.083238 0.325628 0.0781872
0.275639 0.268284 0.0422522
0.573343 0.180682 0.0021973
0.902846 0.0836042 0
1 0.037995 0
1 0.0314336 0
1 0.0318456 0
0 0.691585 0.158618
0 0.679149 0.15169
0.0316014 0.651148 0.134112
0.223545 0.593668 0.0979934
0.520943 0.505699 0.0426032
0.850004 0.408896 0.00134279
1 0.343389 0
1 0.33193 0
1 0.333013 0
0 0.968902 0.220951
0 0.962768 0.213779
0.00595102 0.947021 0.196246
0.166339 0.914015 0.160037
0.463218 0.858244 0.104433
0.792432 0.760388 0.0428626
0.994873 0.694987 0.00604257
1 0.683497 0.00366217
1 0.68394 0.0037995
0 1 0.262791
0 1 0.255741
0 1 0.238193
0.127413 1 0.202029
0.424445 1 0.146258
0.753079 0.993423 0.0849928
0.975875 0.946273 0.0433051
1 0.934554 0.035935
1 0.934768 0.0360723
0 1 0.270207
0 1 0.263355
0 1 0.245762
0.121553 1 0.209461
0.418402 1 0.153887
0.746899 1 0.0923934
0.968826 0.989975 0.0510109
1 0.978454 0.0434119
1 0.978454 0.0434119
0 1 0.270634
0 1 0.2636
0 1 0.24593
0.122347 1 0.209628
0.419394 1 0.153918
0.747768 1 0.0924544
0.969207 0.989883 0.0510567
1 0.978454 0.0435187
1 0.978454 0.0435187
0.0145266 0.017731 0.116442
0.0472419 0.00816358 0.110918
0.139956 0 0.0942855
0.335134 0 0.0587778
0.635203 0 0.0130007
0.96527 0 0
1 0 0
1 0 0
1 0 0
0.00874342 0.0533455 0.122774
0.0411994 0.0435798 0.116274
0.132662 0.0179446 0.0994125
0.325704 0.000488289 0.0636759
0.624475 0 0.0135958
0.954345 0 0.000137331
1 0 0
1 0 0
1 0 0
0 0.154147 0.140368
0.0251316 0.143618 0.133455
0.116289 0.116289 0.116335
0.308843 0.0592966 0.080354
0.606561 0.00703441 0.0262455
0.936492 0 0.00144961
1 0 0
1 0 0
1 0 0
0 0.366155 0.17731
0.00393683 0.354696 0.170047
0.082414 0.326909 0.152499
0.275029 0.269932 0.116594
0.572106 0.182025 0.0610971
0.901778 0.084947 0.0113069
1 0.0386969 0.000946059
1 0.0321813 0
1 0.0328374 0
0 0.69276 0.233738
0 0.680812 0.226352
0.0310826 0.652277 0.208637
0.222629 0.594919 0.172549
0.519753 0.506935 0.11696
0.84889 0.410147 0.0557717
1 0.344533 0.0169528
1 0.333013 0.0139162
1 0.334112 0.0143893
0 0.969802 0.296269
0 0.963699 0.288746
0.00581369 0.947921 0.270802
0.16524 0.914916 0.234424
0.462196 0.859632 0.178866
0.791012 0.762036 0.117418
0.994629 0.696284 0.0758373
1 0.684672 0.0684825
1 0.68513 0.068986
0 1 0.338598
0 1 0.330983
0 1 0.313207
0.126268 1 0.276753
0.423362 1 0.220859
0.752071 0.993713 0.159426
0.974975 0.947829 0.117876
1 0.935821 0.110231
1 0.936034 0.110475
0 1 0.346212
0 1 0.338964
0 1 0.320897
0.120043 1 0.284535
0.417105 1 0.228733
0.745815 1 0.167163
0.968078 0.991287 0.125521
1 0.980072 0.117876
1 0.980072 0.11809
0 1 0.347051
0 1 0.339529
0 1 0.321386
0.121233 1 0.284733
0.418082 1 0.228977
0.746242 1 0.167498
0.968261 0.991257 0.125917
1 0.980072 0.11809
1 0.980072 0.11809
0.0130007 0.0214084 0.274434
0.0461891 0.0115816 0.26865
0.138949 0 0.252247
0.334005 0 0.216785
0.633692 0 0.162203
0.963821 0 0.101854
1 0 0.0622568
1 0 0.057084
1 0 0.0587167
0.00741588 0.0570535 0.280278
0.0397955 0.0472267 0.273228
0.131167 0.0207065 0.256443
0.32462 0.000839246 0.220722
0.623148 0 0.166049
0.952834 0 0.105196
1 0 0.0651255
1 0 0.0589456
1 0 0.0603494
0 0.157626 0.297856
0.023621 0.147158 0.290333
0.11487 0.119921 0.272938
0.307393 0.062974 0.237385
0.605051 0.00788891 0.182223
0.935027 0 0.121309
1 0 0.0805066
1 0 0.0742504
1 0 0.0753796
0 0.369696 0.33463
0.00361639 0.357855 0.326863
0.0809186 0.330434 0.309453
0.273594 0.273075 0.273106
0.570611 0.185565 0.218051
0.900343 0.0884871 0.156863
1 0.0406043 0.115663
1 0.0343786 0.108949
1 0.0348516 0.110079
0 0.696345 0.391699
0 0.68394 0.383398
0.0294499 0.655863 0.365621
0.221149 0.598428 0.32929
0.518257 0.510491 0.273457
0.847547 0.413123 0.212375
1 0.347646 0.171054
1 0.336706 0.164004
1 0.33727 0.164736
0 0.971572 0.454139
0 0.965545 0.445899
0.00534066 0.949737 0.427649
0.163394 0.916899 0.391424
0.460319 0.862913 0.335607
0.789517 0.765515 0.274205
0.994217 0.699458 0.232471
1 0.687816 0.225315
1 0.688258 0.225727
0 1 0.496635
0 1 0.48864
0 1 0.470069
0.124834 1 0.433463
0.421393 1 0.377752
0.750195 0.994308 0.316091
0.973297 0.951186 0.274464
1 0.939284 0.26714
1 0.939284 0.26714
0 1 0.50486
0 1 0.496574
0 1 0.478492
0.118532 1 0.441611
0.415106 1 0.385885
0.743923 1 0.324163
0.966369 0.994125 0.282338
1 0.98378 0.274815
1 0.98378 0.274815
0 1 0.505837
0 1 0.497475
0 1 0.479011
0.119326 1 0.442435
0.416098 1 0.386343
0.74435 1 0.324407
0.966567 0.994095 0.282628
1 0.983795 0.275151
1 0.983795 0.275151
0.0108492 0.0269169 0.518578
0.0440986 0.0170291 0.512337
0.137163 0 0.495796
0.332021 0 0.460639
0.632029 0 0.405798
0.962005 0 0.345937
1 0 0.306493
1 0 0.301457
1 0 0.303456
0.0049897 0.0629282 0.523171
0.0375219 0.0527962 0.516228
0.129213 0.0256962 0.499123
0.322347 0.00143435 0.463539
0.621241 0 0.408545
0.950912 0 0.348196
1 0 0.308156
1 0 0.302678
1 0 0.303975
0 0.163409 0.540322
0.021561 0.15256 0.532967
0.11281 0.125628 0.515496
0.305547 0.0686351 0.479484
0.603174 0.00920119 0.42443
0.932631 0 0.36379
1 0 0.32314
1 0 0.316976
1 0 0.318334
0 0.375128 0.577585
0.00306706 0.36376 0.569574
0.0788586 0.335912 0.551598
0.271153 0.278981 0.515343
0.568475 0.191119 0.460258
0.898024 0.0940261 0.399145
1 0.0437629 0.358022
1 0.0373541 0.351476
1 0.038117 0.352895
0 0.701762 0.634424
0 0.689448 0.625788
0.0273136 0.661387 0.607813
0.218784 0.603906 0.571481
0.516106 0.516091 0.515694
0.845304 0.418631 0.454597
1 0.353109 0.413413
1 0.34165 0.406302
1 0.342748 0.407294
0 0.97464 0.697032
0 0.96875 0.688548
0.00468452 0.95288 0.670115
0.161181 0.920058 0.633631
0.457954 0.867643 0.577798
0.786847 0.770687 0.515953
0.993683 0.70486 0.474708
1 0.693416 0.467521
1 0.693874 0.468009
0 1 0.739956
0 1 0.731014
0 1 0.712673
0.12224 1 0.675898
0.419074 1 0.62005
0.747845 0.995361 0.558206
0.971115 0.956664 0.516594
1 0.944564 0.508888
1 0.944778 0.509331
0 1 0.748196
0 1 0.739635
0 1 0.720806
0.11577 1 0.684108
0.412482 1 0.628016
0.741146 1 0.566247
0.963806 0.998474 0.5243
1 0.989242 0.516609
1 0.989258 0.517006
0 1 0.749401
0 1 0.740764
0 1 0.72192
0.116564 1 0.684764
0.413458 1 0.628626
0.741588 1 0.566567
0.964004 0.998474 0.524666
1 0.989258 0.517006
1 0.989258 0.517006
0.00816358 0.03299 0.787655
0.0420233 0.0229496 0.780957
0.134905 0.0011902 0.763973
0.330373 0 0.728603
0.630381 0 0.673564
0.959991 0 0.613626
1 0 0.573663
1 0 0.568872
1 0 0.570275
0.00297551 0.0691081 0.791714
0.0352789 0.0590982 0.784817
0.127062 0.0318761 0.767697
0.320134 0.00207523 0.731975
0.619242 0 0.676966
0.948837 0 0.616129
1 0 0.575936
1 0 0.570352
1 0 0.571481
0 0.169741 0.808911
0.0189059 0.158999 0.801328
0.110338 0.13167 0.783764
0.302937 0.0749828 0.748257
0.600656 0.0110018 0.693141
0.930602 0 0.631937
1 0 0.591241
1 0 0.584955
1 0 0.586175
0 0.381735 0.845747
0.00250248 0.369787 0.837827
0.0762951 0.342382 0.820035
0.268696 0.285023 0.783703
0.56582 0.197147 0.728542
0.895552 0.100053 0.66746
1 0.0475929 0.626291
1 0.0411841 0.61973
1 0.0417334 0.620584
0 0.707973 0.902403
0 0.69601 0.894102
0.0252537 0.667338 0.876097
0.216342 0.609949 0.839506
0.513451 0.522118 0.783932
0.842817 0.424659 0.722606
1 0.359167 0.681376
1 0.347692 0.67422
1 0.348791 0.675105
0 0.978103 0.96492
0 0.972137 0.956664
0.00399786 0.95639 0.938262
0.158633 0.923629 0.90161
0.455482 0.871504 0.845838
0.784375 0.776745 0.784375
0.993133 0.711055 0.742733
1 0.699001 0.735424
1 0.699886 0.735927
0 1 0.959152
0 1 0.954879
0 1 0.94464
0.119677 1 0.923491
0.416602 1 0.882383
0.745388 0.996521 0.820661
0.968338 0.962554 0.779019
1 0.950591 0.771344
1 0.950607 0.771664
0 1 0.963653
0 1 0.959258
0 1 0.949172
0.113313 1 0.928176
0.409827 1 0.89012
0.738659 1 0.828626
0.961379 1 0.786725
1 0.995254 0.779065
1 0.99527 0.779385
0 1 0.96405
0 1 0.959655
0 1 0.949477
0.114107 1 0.928588
0.410819 1 0.890593
0.739086 1 0.82887
0.961563 1 0.787015
1 0.99527 0.779385
1 0.99527 0.779385
0.00663767 0.0369879 0.967727
0.040528 0.0270695 0.961166
0.13402 0.00384527 0.944106
0.329061 0 0.907851
0.629313 0 0.852369
0.958694 0 0.791318
1 0 0.751034
1 0 0.745068
1 0 0.745693
0.00164797 0.0734569 0.9729
0.0336614 0.0632334 0.966308
0.125689 0.0360723 0.949111
0.31928 0.00248722 0.91313
0.61796 0 0.857771
0.947555 0 0.796567
1 0 0.755856
1 0 0.749203
1 0 0.749935
0 0.174182 0.988434
0.017319 0.163607 0.98291
0.10901 0.136187 0.965881
0.301625 0.0791791 0.929992
0.599435 0.0121309 0.874479
0.928817 0 0.813519
1 0 0.772229
1 0 0.765393
1 0 0.765972
0 0.385748 0.998627
0.00209049 0.374304 0.99736
0.0748608 0.346441 0.992676
0.267292 0.289494 0.965911
0.564584 0.201556 0.910475
0.894148 0.104494 0.849134
1 0.049897 0.807797
1 0.0435492 0.800702
1 0.0441291 0.801175
0 0.712535 1
0 0.700084 1
0.023621 0.672038 1
0.214496 0.614694 0.997604
0.511711 0.526162 0.966079
0.841077 0.428855 0.904616
1 0.363256 0.863172
1 0.351751 0.855817
1 0.352834 0.856321
0 0.980331 1
0 0.974395 1
0.00349432 0.958877 1
0.156878 0.925933 1
0.453727 0.874022 0.99881
0.78262 0.780789 0.966506
0.992737 0.715129 0.924727
1 0.703014 0.917357
1 0.703899 0.917678
0 1 1
0 1 1
0 1 1
0.117922 1 1
0.414923 1 0.999283
0.743633 0.99733 0.991424
0.966705 0.966705 0.964462
1 0.954818 0.956802
1 0.954833 0.95697
0 1 1
0 1 1
0 1 1
0.111589 1 1
0.408255 1 1
0.736461 1 0.996536
0.95964 1 0.974304
1 0.999344 0.966781
1 0.999344 0.966781
0 1 1
0 1 1
0 1 1
0.111986 1 1
0.408743 1 1
0.737331 1 0.996551
0.959625 1 0.974456
1 0.999344 0.966781
1 0.999344 0.966781
0.00634775 0.0378576 0.998779
0.0406348 0.0276188 0.992493
0.134218 0.00424201 0.974868
0.329931 0 0.938399
0.630014 0 0.88249
0.959289 0 0.820996
1 0 0.780362
1 0 0.773632
1 0 0.773632
0.00141909 0.0744182 1
0.0335393 0.0642405 0.997848
0.125856 0.0369421 0.981659
0.319326 0.00263981 0.945571
0.618128 0 0.889906
0.947616 0 0.828412
1 0 0.787213
1 0 0.780102
1 0 0.780194
0 0.175494 1
0.0170596 0.164553 1
0.108919 0.137194 0.996704
0.301671 0.0801862 0.963012
0.599496 0.0126345 0.907423
0.928862 0 0.845914
1 0 0.804562
1 0 0.797452
1 0 0.797589
0 0.387381 1
0.00202945 0.375494 1
0.0747082 0.347494 1
0.267262 0.290517 0.99469
0.564782 0.202548 0.943755
0.893843 0.105226 0.882292
1 0.0505989 0.840833
1 0.0440833 0.833356
1 0.0449531 0.833585
0 0.713756 1
0 0.701396 1
0.0235752 0.673213 1
0.214572 0.61529 1
0.511971 0.527276 0.997253
0.841108 0.429999 0.938033
1 0.364462 0.896574
1 0.35317 0.888975
1 0.353704 0.889067
0 0.980758 1
0 0.974868 1
0.00344854 0.959258 1
0.156558 0.92636 1
0.45391 0.874342 1
0.782666 0.781979 0.997101
0.99266 0.715846 0.95816
1 0.704173 0.950729
1 0.704616 0.950805
0 1 1
0 1 1
0 1 1
0.117678 1 1
0.414542 1 1
0.743297 0.997467 1
0.966384 0.967498 0.997955
1 0.955535 0.992081
1 0.955535 0.992081
0 1 1
0 1 1
0 1 1
0.111238 1 1
0.40795 1 1
0.736156 1 1
0.959274 1 1
1 1 1
1 1 1
0 1 1
0 1 1
0 1 1
0.111635 1 1
0.408453 1 1
0.736584 1 1
0.959274 1 1
1 1 1
1 1 1
0.00634775 0.0378576 0.998779
0.0410163 0.027512 0.992432
0.135012 0.00416571 0.974716
0.330724 0 0.938247
0.631006 0 0.882307
0.960159 0 0.820829
1 0 0.780301
1 0 0.773632
1 0 0.773632
0.00140383 0.0748455 1
0.0338598 0.0645457 0.997833
0.126329 0.0370642 0.981598
0.320089 0.00265507 0.94548
0.619074 0 0.889769
0.948455 0 0.828275
1 0 0.787228
1 0 0.780148
1 0 0.780224
0 0.176059 1
0.0172274 0.165042 1
0.109133 0.137407 0.996689
0.302434 0.0802319 0.962905
0.600427 0.012726 0.907286
0.929686 0 0.845808
1 0 0.804578
1 0 0.797498
1 0 0.797635
0 0.387808 1
0.00201419 0.376333 1
0.0748302 0.348302 1
0.267597 0.290837 0.994705
0.565209 0.202838 0.94374
0.894209 0.105531 0.882277
1 0.0509346 0.840894
1 0.0443732 0.833432
1 0.0449531 0.833585
0 0.71429 1
0 0.7019 1
0.0238193 0.673136 1
0.214878 0.615717 1
0.512367 0.527657 0.997177
0.841031 0.430533 0.938125
1 0.364401 0.896529
1 0.35317 0.888975
1 0.354238 0.889158
0 0.980835 1
0 0.974929 1
0.00343328 0.959396 1
0.156878 0.926543 1
0.453834 0.874754 1
0.782666 0.781979 0.997101
0.99266 0.715846 0.95816
1 0.704173 0.950729
1 0.704616 0.950805
0 1 1
0 1 1
0 1 1
0.118074 1 1
0.414542 1 1
0.743297 0.997467 1
0.966537 0.967651 0.997986
1 0.955535 0.992081
1 0.955535 0.992081
0 1 1
0 1 1
0 1 1
0.111238 1 1
0.40795 1 1
0.736156 1 1
0.959274 1 1
1 1 1
1 1 1
0 1 1
0 1 1
0 1 1
0.111635 1 1
0.408453 1 1
0.736584 1 1
0.959274 1 1
1 1 1
1 1 1
