luts/varicam_official/Fashion_Lo Con.cube
TITLE "Generated by Resolve"
LUT_3D_SIZE 5
0.0156252 0.0156252 0.0156252
0.140902 0 0
0.636133 0 0
1 0 0
1 0 0
0 0.152132 0.0389563
0.117556 0.114229 0.0156252
0.608377 0.0065156 0
1 0 0
1 0 0
0 0.691524 0.131624
0.0321965 0.651453 0.10779
0.521859 0.505837 0.016907
0.995911 0.343145 0
1 0.333425 0
0 1 0.234867
0 1 0.211048
0.425666 0.998566 0.119661
0.959609 0.932815 0.0168002
1 0.921401 0.00935378
0 1 0.242008
0 1 0.218235
0.420691 1 0.126619
0.955978 0.986893 0.0240635
1 0.975341 0.016846
0.0145266 0.017731 0.116442
0.139956 0 0.0942855
0.635203 0 0.0130007
1 0 0
1 0 0
0 0.154147 0.140368
0.116289 0.116289 0.116335
0.606561 0.00703441 0.0262455
1 0 0
1 0 0
0 0.69276 0.233738
0.0310826 0.652277 0.208637
0.519753 0.506935 0.11696
1 0.344533 0.0169528
1 0.334112 0.0143893
0 1 0.338598
0 1 0.313207
0.423362 1 0.220859
0.974975 0.947829 0.117876
1 0.936034 0.110475
0 1 0.347051
0 1 0.321386
0.418082 1 0.228977
0.968261 0.991257 0.125917
1 0.980072 0.11809
0.0108492 0.0269169 0.518578
0.137163 0 0.495796
0.632029 0 0.405798
1 0 0.306493
1 0 0.303456
0 0.163409 0.540322
0.11281 0.125628 0.515496
0.603174 0.00920119 0.42443
1 0 0.32314
1 0 0.318334
0 0.701762 0.634424
0.0273136 0.661387 0.607813
0.516106 0.516091 0.515694
1 0.353109 0.413413
1 0.342748 0.407294
0 1 0.739956
0 1 0.712673
0.419074 1 0.62005
0.971115 0.956664 0.516594
1 0.944778 0.509331
0 1 0.749401
0 1 0.72192
0.413458 1 0.628626
0.964004 0.998474 0.524666
1 0.989258 0.517006
0.00663767 0.0369879 0.967727
0.13402 0.00384527 0.944106
0.629313 0 0.852369
1 0 0.751034
1 0 0.745693
0 0.174182 0.988434
0.10901 0.136187 0.965881
0.599435 0.0121309 0.874479
1 0 0.772229
1 0 0.765972
0 0.712535 1
0.023621 0.672038 1
0.511711 0.526162 0.966079
1 0.363256 0.863172
1 0.352834 0.856321
0 1 1
0 1 1
0.414923 1 0.999283
0.966705 0.966705 0.964462
1 0.954833 0.95697
0 1 1
0 1 1
0.408743 1 1
0.959625 1 0.974456
1 0.999344 0.966781
0.00634775 0.0378576 0.998779
0.135012 0.00416571 0.974716
0.631006 0 0.882307
1 0 0.780301
1 0 0.773632
0 0.176059 1
0.109133 0.137407 0.996689
0.600427 0.012726 0.907286
1 0 0.804578
1 0 0.797635
0 0.71429 1
0.0238193 0.673136 1
0.512367 0.527657 0.997177
1 0.364401 0.896529
1 0.354238 0.889158
0 1 1
0 1 1
0.414542 1 1
0.966537 0.967651 0.997986
1 0.955535 0.992081
0 1 1
0 1 1
0.408453 1 1
0.959274 1 1
1 1 1
