luts/varicam_official/Fashion 1 33 E-E.cube
TITLE "Generated by Resolve"
LUT_3D_SIZE 5
0.0156252 0.0156252 0.0156252
0.0576944 0.00389105 0.00761425
0.625757 0 0
1 0 0
1 0 0
0.00769055 0.064271 0.0238651
0.0497444 0.0518044 0.0160372
0.618036 0 0
1 0 0
1 0 0
0 0.736339 0.139315
0 0.723827 0.131426
0.50959 0.555749 0.0256199
1 0.379324 0
1 0.379324 0
0 1 0.242008
0 1 0.234119
0.413291 1 0.127993
1 0.975341 0.016846
1 0.975341 0.016846
0 1 0.242008
0 1 0.234119
0.413291 1 0.127993
1 0.975341 0.016846
1 0.975341 0.016846
0.0152285 0.0163272 0.0520333
0.0572976 0.00425727 0.0441901
0.625589 0 0
1 0 0
1 0 0
0.00729381 0.0651255 0.0604257
0.0493477 0.0526131 0.0525826
0.617655 0 0
1 0 0
1 0 0
0 0.737087 0.175708
0 0.724697 0.16791
0.509331 0.556603 0.0619211
1 0.380194 0
1 0.380194 0
0 1 0.278508
0 1 0.270695
0.412894 1 0.16463
1 0.978714 0.053254
1 0.978714 0.053254
0 1 0.278508
0 1 0.270695
0.412894 1 0.16463
1 0.978714 0.053254
1 0.978714 0.053254
0.0104372 0.0278477 0.561944
0.0525063 0.0153964 0.554131
0.620798 0 0.448066
1 0 0.336797
1 0 0.336797
0.00257877 0.0766766 0.570367
0.0445563 0.0641642 0.562539
0.612863 0 0.456458
1 0 0.345205
1 0 0.345205
0 0.748623 0.685756
0 0.736233 0.677882
0.50454 0.568154 0.571847
1 0.39173 0.460609
1 0.39173 0.460609
0 1 0.788449
0 1 0.780621
0.408103 1 0.67454
1 0.990234 0.563302
1 0.990234 0.563302
0 1 0.788449
0 1 0.780621
0.408103 1 0.67454
1 0.990234 0.563302
1 0.990234 0.563302
0.00634775 0.0378576 0.998779
0.0484169 0.02533 0.991012
0.616709 0 0.884993
1 0 0.773632
1 0 0.773632
0.00077821 0.0865034 1
0.0404669 0.0740368 0.997925
0.608759 0 0.893339
1 0 0.781964
1 0 0.781964
0 0.758556 1
0 0.746105 1
0.50045 0.577966 0.998688
1 0.401679 0.897307
1 0.401679 0.897307
0 1 1
0 1 1
0.404013 1 1
1 1 1
1 1 1
0 1 1
0 1 1
0.404013 1 1
1 1 1
1 1 1
0.00634775 0.0378576 0.998779
0.0484169 0.02533 0.991012
0.616709 0 0.884993
1 0 0.773632
1 0 0.773632
0.00077821 0.0865034 1
0.0404669 0.0740368 0.997925
0.608759 0 0.893339
1 0 0.781964
1 0 0.781964
0 0.758556 1
0 0.746105 1
0.50045 0.577966 0.998688
1 0.401679 0.897307
1 0.401679 0.897307
0 1 1
0 1 1
0.404013 1 1
1 1 1
1 1 1
0 1 1
0 1 1
0.404013 1 1
1 1 1
1 1 1
