luts/varicam_official/Fashion 2 33 E-E.cube
TITLE "Generated by Resolve"
LUT_3D_SIZE 5
0.0156252 0.0156252 0.0156252
0.0662547 0.00175479 0.00598154
0.470085 0 0
1 0 0
1 0 0
0.00740063 0.0818494 0.0286107
0.0660868 0.0723278 0.0222324
0.524453 0 0
1 0 0
1 0 0
0 0.644327 0.13167
0.00766003 0.664576 0.131609
0.500084 0.550347 0.0494698
1 0.391348 0
1 0.390845 0
0 1 0.260884
0 1 0.25481
0.504952 1 0.16318
1 0.979446 0.0873884
1 0.97969 0.101213
0 1 0.282246
0.0222324 1 0.27657
0.636286 1 0.193072
1 0.981094 0.162982
1 0.982147 0.205936
0.0151522 0.016556 0.0608225
0.065919 0.00190738 0.0502937
0.474388 0 0
1 0 0
1 0 0
0.00816358 0.0853132 0.0780041
0.0682078 0.0760052 0.0745556
0.532921 0 0.00564584
1 0 0
1 0 0
0 0.659556 0.188983
0.0077821 0.679927 0.194888
0.512032 0.564065 0.117479
1 0.411337 0.0239261
1 0.413031 0.0272984
0 1 0.328084
0 1 0.33286
0.524224 1 0.253513
1 0.981903 0.196139
1 0.982528 0.221424
0 1 0.377142
0.0328832 1 0.386206
0.657069 1 0.324437
1 0.984833 0.32105
1 0.98613 0.383291
0.0116121 0.0250706 0.440146
0.0597543 0.0109407 0.432715
0.467597 0 0.34078
1 0 0.170214
1 0 0.125109
0.0052491 0.0944991 0.479316
0.0654307 0.086183 0.487053
0.53431 0.000320439 0.40708
1 0 0.272419
1 0 0.24445
0 0.681193 0.615579
0.00563058 0.702358 0.641032
0.520684 0.587167 0.579965
1 0.442527 0.495781
1 0.447471 0.500237
0 1 0.785519
0 1 0.809491
0.544015 1 0.749249
1 0.993393 0.70779
1 0.994125 0.735424
0 1 0.866041
0.0449073 1 0.887114
0.681804 1 0.828092
1 0.996292 0.825559
1 0.997314 0.876173
0.00634775 0.0378576 0.998779
0.0489357 0.0251774 0.990906
0.4495 0 0.916182
1 0 0.774243
1 0 0.772839
0.00257877 0.102998 1
0.0587472 0.096025 0.998245
0.526711 0.00274662 0.91368
1 0 0.788067
1 0 0.786511
0 0.697292 1
0.00334173 0.719265 1
0.525277 0.604547 0.99765
1 0.46688 0.908507
1 0.476539 0.910155
0 1 1
0 1 1
0.561791 1 1
1 1 1
1 1 1
0 1 1
0.0612802 1 1
0.708309 1 1
1 1 1
1 1 1
0.00634775 0.0378576 0.998779
0.0403754 0.0276951 0.992554
0.425528 0 0.920623
1 0 0.774395
1 0 0.773632
0.000213626 0.0970169 1
0.0532845 0.090959 0.999039
0.513924 0.00257877 0.915404
1 0 0.787701
1 0 0.786648
0 0.691936 1
0.0034638 0.716518 1
0.526497 0.605737 0.997665
1 0.47335 0.909606
1 0.487984 0.912139
0 1 1
0 1 1
0.57702 1 1
1 1 1
1 1 1
0 1 1
0.0856489 1 1
0.733547 1 1
1 1 1
1 1 1
