luts/varicam_official/Fashion 1 33 E-E.cube
TITLE "Generated by Resolve"
LUT_3D_SIZE 33
0.0156252 0.0156252 0.0156252
0.0156252 0.0156252 0.0156252
0.0156252 0.0156252 0.0156252
0.0156252 0.0156252 0.0156252
0.0180209 0.0149081 0.0151827
0.0233616 0.0133059 0.0141604
0.0310826 0.0109865 0.0126955
0.0413519 0.00798047 0.0107424
0.0576944 0.00389105 0.00761425
0.0779583 0 0.00418097
0.108965 0 0.0011902
0.152102 0 0
0.209674 0 0
0.284459 0 0
0.379644 0 0
0.494728 0 0
0.625757 0 0
0.766629 0 0
0.906371 0 0
0.982879 0 0
0.999069 0 0
1 0 0
1 0 0
1 0 0
1 0 0
1 0 0
1 0 0
1 0 0
1 0 0
1 0 0
1 0 0
1 0 0
1 0 0
0.0156252 0.0156252 0.0156252
0.0156252 0.0156252 0.0156252
0.0156252 0.0156252 0.0156252
0.0156252 0.0156252 0.0156252
0.0180209 0.0149081 0.0151827
0.0233616 0.0133059 0.0141604
0.0310826 0.0109865 0.0126955
0.0413519 0.00798047 0.0107424
0.0576944 0.00389105 0.00761425
0.0779583 0 0.00418097
0.108965 0 0.0011902
0.152102 0 0
0.209674 0 0
0.284459 0 0
0.379644 0 0
0.494728 0 0
0.625757 0 0
0.766629 0 0
0.906371 0 0
0.982879 0 0
0.999069 0 0
1 0 0
1 0 0
1 0 0
1 0 0
1 0 0
1 0 0
1 0 0
1 0 0
1 0 0
1 0 0
1 0 0
1 0 0
0.0156252 0.0156252 0.0156252
0.0156252 0.0156252 0.0156252
0.0156252 0.0156252 0.0156252
0.0156252 0.0156252 0.0156252
0.0180209 0.0149081 0.0151827
0.0233616 0.0133059 0.0141604
0.0310826 0.0109865 0.0126955
0.0413519 0.00798047 0.0107424
0.0576944 0.00389105 0.00761425
0.0779583 0 0.00418097
0.108965 0 0.0011902
0.152102 0 0
0.209674 0 0
0.284459 0 0
0.379644 0 0
0.494728 0 0
0.625757 0 0
0.766629 0 0
0.906371 0 0
0.982879 0 0
0.999069 0 0
1 0 0
1 0 0
1 0 0
1 0 0
1 0 0
1 0 0
1 0 0
1 0 0
1 0 0
1 0 0
1 0 0
1 0 0
0.0156252 0.0156252 0.0156252
0.0156252 0.0156252 0.0156252
0.0156252 0.0156252 0.0156252
0.0156252 0.0156252 0.0156252
0.0180209 0.0149081 0.0151827
0.0233616 0.0133059 0.0141604
0.0310826 0.0109865 0.0126955
0.0413519 0.00798047 0.0107424
0.0576944 0.00389105 0.00761425
0.0779583 0 0.00418097
0.108965 0 0.0011902
0.152102 0 0
0.209674 0 0
0.284459 0 0
0.379644 0 0
0.494728 0 0
0.625757 0 0
0.766629 0 0
0.906371 0 0
0.982879 0 0
0.999069 0 0
1 0 0
1 0 0
1 0 0
1 0 0
1 0 0
1 0 0
1 0 0
1 0 0
1 0 0
1 0 0
1 0 0
1 0 0
0.0151827 0.0183261 0.0160678
0.0151827 0.0183261 0.0160678
0.0151827 0.0183261 0.0160678
0.0151827 0.0183261 0.0160678
0.0175631 0.0176242 0.0156252
0.0229038 0.016022 0.0146181
0.0306401 0.0137179 0.0131533
0.0408942 0.0106966 0.0112154
0.0572518 0.00653086 0.00808728
0.0775158 0.00241093 0.00460822
0.108537 0.00148013 0.00134279
0.151659 0.000595102 1.5259e-05
0.209232 0 0
0.284001 0 0
0.379232 0 0
0.494301 0 0
0.625345 0 0
0.766186 0 0
0.905928 0 0
0.982574 0 0
0.999054 0 0
1 0 0
1 0 0
1 0 0
1 0 0
1 0 0
1 0 0
1 0 0
1 0 0
1 0 0
1 0 0
1 0 0
1 0 0
0.0141756 0.0244602 0.0170901
0.0141756 0.0244602 0.0170901
0.0141756 0.0244602 0.0170901
0.0141756 0.0244602 0.0170901
0.016556 0.0237583 0.0166476
0.0218967 0.0221714 0.0156405
0.0296178 0.0198825 0.0142061
0.0398871 0.0168765 0.0122835
0.0562295 0.0125124 0.00915541
0.0765087 0.00788891 0.0055848
0.107561 0.00486763 0.00164797
0.150683 0.00196841 4.57771e-05
0.208209 0 0
0.282994 0 0
0.378271 0 0
0.493339 0 0
0.624369 0 0
0.765194 0 0
0.904952 0 0
0.981872 0 0
0.999023 0 0
1 0 0
1 0 0
1 0 0
1 0 0
1 0 0
1 0 0
1 0 0
1 0 0
1 0 0
1 0 0
1 0 0
1 0 0
0.0127108 0.0333104 0.018555
0.0127108 0.0333104 0.018555
0.0127108 0.0333104 0.018555
0.0127108 0.0333104 0.018555
0.0150912 0.0326085 0.0181125
0.0204318 0.0310369 0.0171359
0.0281682 0.0287785 0.0157168
0.0384222 0.0257725 0.0138247
0.0547799 0.0211337 0.0106966
0.0750591 0.0157778 0.00698863
0.106172 0.00972 0.00210575
0.149264 0.00393683 9.15541e-05
0.20676 0 0
0.281544 0 0
0.376898 0 0
0.491966 0 0
0.622995 0 0
0.763745 0 0
0.903548 0 0
0.980865 0 0
0.998962 0 0
1 0 0
1 0 0
1 0 0
1 0 0
1 0 0
1 0 0
1 0 0
1 0 0
1 0 0
1 0 0
1 0 0
1 0 0
0.0107118 0.0455177 0.0205997
0.0107118 0.0455177 0.0205997
0.0107118 0.0455177 0.0205997
0.0107118 0.0455177 0.0205997
0.0130922 0.0448157 0.0201572
0.0184329 0.0432746 0.0191958
0.026154 0.0410163 0.017792
0.0364233 0.0380255 0.0159304
0.0527657 0.0331121 0.0128176
0.0730602 0.027039 0.0089723
0.104219 0.0179141 0.00314336
0.147311 0.00883497 0.000442512
0.204746 0.00190738 0
0.279561 0.000198367 0
0.374975 0 0
0.490043 0 0
0.621057 0 0
0.761761 0 0
0.901595 0 0
0.979492 0 0
0.998886 0 0
1 0 0
1 0 0
1 0 0
1 0 0
1 0 0
1 0 0
1 0 0
1 0 0
1 0 0
1 0 0
1 0 0
1 0 0
0.00769055 0.064271 0.0238651
0.00769055 0.064271 0.0238651
0.00769055 0.064271 0.0238651
0.00769055 0.064271 0.0238651
0.010071 0.0635691 0.0234226
0.0154116 0.0619821 0.0224308
0.0231327 0.0597086 0.0209964
0.033402 0.0566567 0.019089
0.0497444 0.0518044 0.0160372
0.0700389 0.0457923 0.0122377
0.101198 0.0366674 0.00642405
0.144289 0.0254978 0.0021973
0.201724 0.0128481 0
0.276539 0.00131228 0
0.371954 0 0
0.487022 0 0
0.618036 0 0
0.75874 0 0
0.898573 0 0
0.977417 0 0
0.998779 0 0
1 0 0
1 0 0
1 0 0
1 0 0
1 0 0
1 0 0
1 0 0
1 0 0
1 0 0
1 0 0
1 0 0
1 0 0
0.00428778 0.0893416 0.0282139
0.00428778 0.0893416 0.0282139
0.00428778 0.0893416 0.0282139
0.00428778 0.0893416 0.0282139
0.00660716 0.0886244 0.0277562
0.0118105 0.0870222 0.0267338
0.0193332 0.0847181 0.0252689
0.0293584 0.0816358 0.023331
0.0457008 0.0768292 0.020325
0.0659953 0.0708629 0.0165866
0.0971542 0.0617075 0.0107576
0.14023 0.0489509 0.00483711
0.197696 0.0319066 0.000488289
0.272526 0.0122225 0
0.367895 0.00483711 0
0.482979 0 0
0.613993 0 0
0.754696 0 0
0.89453 0 0
0.97464 0 0
0.998627 0 0
1 0 0
1 0 0
1 0 0
1 0 0
1 0 0
1 0 0
1 0 0
1 0 0
1 0 0
1 0 0
1 0 0
1 0 0
0.00062562 0.1252 0.0343481
0.00062562 0.1252 0.0343481
0.00062562 0.1252 0.0343481
0.00062562 0.1252 0.0343481
0.00274662 0.124483 0.0338903
0.00747692 0.122881 0.0328832
0.014313 0.120562 0.0314183
0.0235447 0.117494 0.0294652
0.0398871 0.112688 0.0264744
0.0601816 0.106706 0.0227207
0.0913405 0.0974289 0.016907
0.134432 0.0847028 0.00914015
0.191928 0.0677195 0.00209049
0.266865 0.0458381 0
0.362097 0.0210117 0
0.477165 0 0
0.608179 0 0
0.748882 0 0
0.888716 0 0
0.970703 0 0
0.998428 0 0
1 0 0
1 0 0
1 0 0
1 0 0
1 0 0
1 0 0
1 0 0
1 0 0
1 0 0
1 0 0
1 0 0
1 0 0
0 0.177722 0.0433356
0 0.177722 0.0433356
0 0.177722 0.0433356
0 0.177722 0.0433356
0.00134279 0.177005 0.0428931
0.00436408 0.175402 0.0418708
0.00872816 0.173083 0.0404059
0.0150759 0.170001 0.038468
0.0314183 0.165194 0.035462
0.0517128 0.159213 0.0317082
0.0828717 0.14992 0.0258946
0.125963 0.137209 0.0178225
0.183474 0.120226 0.00828565
0.258427 0.0979629 0
0.353628 0.0699168 0
0.468696 0.0396277 0
0.599725 0.0155642 0
0.740414 0 0
0.880247 0 0
0.964889 0 0
0.998108 0 0
1 0 0
1 0 0
1 0 0
1 0 0
1 0 0
1 0 0
1 0 0
1 0 0
1 0 0
1 0 0
1 0 0
1 0 0
0 0.24715 0.0552987
0 0.24715 0.0552987
0 0.24715 0.0552987
0 0.24715 0.0552987
0.000503548 0.246433 0.0548409
0.00161746 0.244831 0.0538186
0.00325017 0.242512 0.0523537
0.00633249 0.239445 0.0504158
0.0214694 0.234638 0.0474098
0.0405737 0.228641 0.0436713
0.0716716 0.219364 0.0378424
0.114717 0.206638 0.0297704
0.172229 0.18967 0.0190585
0.247196 0.167407 0.0065156
0.342397 0.139239 0
0.457465 0.105241 0
0.588495 0.0670329 0
0.729274 0.0346685 0
0.869047 0.0155642 0
0.957214 0.00231937 0
0.997696 0 0
1 0 0
1 0 0
1 0 0
1 0 0
1 0 0
1 0 0
1 0 0
1 0 0
1 0 0
1 0 0
1 0 0
1 0 0
0 0.337636 0.0708324
0 0.337636 0.0708324
0 0.337636 0.0708324
0 0.337636 0.0708324
0 0.336919 0.0703746
0 0.335317 0.0693828
0 0.332998 0.0679484
0.000839246 0.329915 0.0660258
0.0113375 0.325109 0.0629892
0.0260471 0.319142 0.059205
0.0570535 0.309911 0.0533761
0.100114 0.297169 0.0453498
0.157641 0.280171 0.0346227
0.232532 0.257969 0.0208591
0.327733 0.229801 0.00550851
0.442817 0.195804 0
0.573922 0.157031 0
0.714717 0.115389 0
0.854444 0.0740063 0
0.947188 0.0420233 0
0.997147 0.0277867 0
1 0.0211948 0
1 0.0189364 0
1 0.0187839 0
1 0.0187839 0
1 0.0187839 0
1 0.0187839 0
1 0.0187839 0
1 0.0187839 0
1 0.0187839 0
1 0.0187839 0
1 0.0187839 0
1 0.0187839 0
0 0.450874 0.0901656
0 0.450874 0.0901656
0 0.450874 0.0901656
0 0.450874 0.0901656
0 0.450156 0.0897231
0 0.448554 0.0887617
0 0.446235 0.0873732
0.000259403 0.443153 0.0855116
0.00347906 0.438346 0.0823835
0.0109255 0.43238 0.0785382
0.039704 0.423194 0.0727092
0.0819104 0.410452 0.064744
0.139452 0.393423 0.054078
0.214237 0.371283 0.0399634
0.309514 0.343114 0.022385
0.424582 0.309117 0.00514229
0.555764 0.270268 0
0.696422 0.228626 0
0.836194 0.187274 0
0.9346 0.149477 0
0.994324 0.118898 0
1 0.100526 0
1 0.094255 0
1 0.093843 0
1 0.093843 0
1 0.093843 0
1 0.093843 0
1 0.093843 0
1 0.093843 0
1 0.093843 0
1 0.093843 0
1 0.093843 0
1 0.093843 0
0 0.58526 0.113283
0 0.58526 0.113283
0 0.58526 0.113283
0 0.58526 0.113283
0 0.584543 0.11284
0 0.58294 0.111864
0 0.580621 0.110445
0 0.577554 0.108553
0 0.572747 0.10547
0.00289921 0.566766 0.101656
0.0219883 0.557534 0.0958267
0.0602426 0.544793 0.0878309
0.117708 0.527794 0.0771344
0.192569 0.505592 0.0630808
0.287907 0.477424 0.0452735
0.402975 0.443442 0.024033
0.534005 0.404654 0.00537118
0.674769 0.363012 0
0.814557 0.32163 0
0.919722 0.283787 0
0.985412 0.253285 0
1 0.234897 0
1 0.228626 0
1 0.228229 0
1 0.228229 0
1 0.228229 0
1 0.228229 0
1 0.228229 0
1 0.228229 0
1 0.228229 0
1 0.228229 0
1 0.228229 0
1 0.228229 0
0 0.736339 0.139315
0 0.736339 0.139315
0 0.736339 0.139315
0 0.736339 0.139315
0 0.735622 0.138857
0 0.73402 0.137835
0 0.731701 0.13637
0 0.728634 0.134432
0 0.723827 0.131426
0.000808728 0.717845 0.127687
0.00616464 0.708644 0.121859
0.0374914 0.695903 0.113787
0.0933394 0.678889 0.103044
0.168292 0.656718 0.0890974
0.263493 0.62855 0.0712596
0.378561 0.594568 0.0497902
0.50959 0.555749 0.0256199
0.650385 0.514107 0.00611887
0.790204 0.472724 0
0.903059 0.434989 0
0.973266 0.404379 0
1 0.386023 0
1 0.379751 0
1 0.379324 0
1 0.379324 0
1 0.379324 0
1 0.379324 0
1 0.379324 0
1 0.379324 0
1 0.379324 0
1 0.379324 0
1 0.379324 0
1 0.379324 0
0 0.894667 0.166506
0 0.894667 0.166506
0 0.894667 0.166506
0 0.894667 0.166506
0 0.89395 0.166049
0 0.892348 0.165042
0 0.890028 0.163577
0 0.886961 0.161624
0 0.882155 0.158541
0 0.876173 0.154742
0 0.866987 0.14902
0.0212711 0.854246 0.140993
0.0678416 0.837217 0.130251
0.142809 0.815076 0.116304
0.23801 0.786892 0.098436
0.353079 0.752758 0.0769818
0.484092 0.714061 0.052491
0.624796 0.672419 0.0266728
0.76466 0.631067 0.00642405
0.884169 0.593317 0
0.960433 0.562707 0
0.99855 0.54435 0
1 0.538079 0
1 0.537636 0
1 0.537636 0
1 0.537636 0
1 0.537636 0
1 0.537636 0
1 0.537636 0
1 0.537636 0
1 0.537636 0
1 0.537636 0
1 0.537636 0
0 0.96788 0.192844
0 0.96788 0.192844
0 0.96788 0.192844
0 0.96788 0.192844
0 0.967468 0.192401
0 0.966567 0.191379
0 0.965255 0.189914
0 0.963516 0.187961
0 0.960784 0.184955
0 0.957412 0.181186
0 0.952239 0.175387
0.00985733 0.944961 0.16733
0.0430457 0.935271 0.156588
0.117876 0.92285 0.142657
0.21326 0.906889 0.124895
0.328328 0.887282 0.103319
0.459342 0.860121 0.0788281
0.600046 0.818494 0.0526741
0.739879 0.777157 0.0268559
0.860975 0.739406 0.00540169
0.947326 0.708766 0
0.991669 0.69041 0
1 0.684138 0
1 0.683711 0
1 0.683711 0
1 0.683711 0
1 0.683711 0
1 0.683711 0
1 0.683711 0
1 0.683711 0
1 0.683711 0
1 0.683711 0
1 0.683711 0
0 1 0.215625
0 1 0.215625
0 1 0.215625
0 1 0.215625
0 1 0.215167
0 1 0.21416
0 1 0.21268
0 1 0.210742
0 1 0.207736
0 1 0.203998
0 1 0.198169
0.000854505 1 0.190097
0.0230411 0.99881 0.179355
0.0965438 0.993896 0.165408
0.191745 0.982055 0.147509
0.306813 0.967559 0.126101
0.438071 0.950362 0.10164
0.578729 0.929442 0.0754406
0.718456 0.902602 0.0492256
0.839689 0.867277 0.0254063
0.935225 0.837201 0.00613413
0.983917 0.818998 0.0010071
0.999847 0.812726 0.000366217
1 0.812345 0.000320439
1 0.812345 0.000320439
1 0.812345 0.000320439
1 0.812345 0.000320439
1 0.812345 0.000320439
1 0.812345 0.000320439
1 0.812345 0.000320439
1 0.812345 0.000320439
1 0.812345 0.000320439
1 0.812345 0.000320439
0 1 0.231891
0 1 0.231891
0 1 0.231891
0 1 0.231891
0 1 0.231434
0 1 0.230426
0 1 0.228962
0 1 0.227008
0 1 0.224002
0 1 0.220264
0 1 0.214435
0 1 0.206363
0.0177615 1 0.195621
0.0811475 1 0.181704
0.176471 1 0.163973
0.291539 0.999939 0.142382
0.422675 0.997009 0.118105
0.563348 0.986862 0.0917525
0.703136 0.973068 0.0657054
0.824277 0.952712 0.0417487
0.922591 0.9308 0.0224002
0.976959 0.912886 0.0110323
0.998444 0.906615 0.00701915
1 0.906218 0.00674449
1 0.906218 0.00674449
1 0.906218 0.00674449
1 0.906218 0.00674449
1 0.906218 0.00674449
1 0.906218 0.00674449
1 0.906218 0.00674449
1 0.906218 0.00674449
1 0.906218 0.00674449
1 0.906218 0.00674449
0 1 0.240711
0 1 0.240711
0 1 0.240711
0 1 0.240711
0 1 0.240284
0 1 0.239322
0 1 0.237919
0 1 0.236057
0 1 0.232944
0 1 0.229084
0 1 0.22327
0 1 0.215305
0.0156405 1 0.204623
0.0728008 1 0.190524
0.168215 1 0.172808
0.283299 1 0.151415
0.414313 1 0.126925
0.555001 0.999985 0.100572
0.694835 0.999496 0.0745251
0.815915 0.995544 0.050721
0.914137 0.983276 0.0314641
0.972747 0.966415 0.019852
0.997192 0.960143 0.0158541
1 0.959716 0.0155642
1 0.959716 0.0155642
1 0.959716 0.0155642
1 0.959716 0.0155642
1 0.959716 0.0155642
1 0.959716 0.0155642
1 0.959716 0.0155642
1 0.959716 0.0155642
1 0.959716 0.0155642
1 0.959716 0.0155642
0 1 0.242008
0 1 0.242008
0 1 0.242008
0 1 0.242008
0 1 0.24155
0 1 0.240528
0 1 0.239063
0 1 0.237125
0 1 0.234119
0 1 0.230381
0 1 0.224552
0 1 0.21648
0.0153811 1 0.205737
0.0717479 1 0.191806
0.166949 1 0.17409
0.282032 1 0.152483
0.413291 1 0.127993
0.553933 1 0.101854
0.69366 1 0.0758221
0.814893 1 0.0518654
0.913085 0.998184 0.032517
0.972351 0.98204 0.0209049
0.99707 0.975769 0.0170596
1 0.975341 0.016846
1 0.975341 0.016846
1 0.975341 0.016846
1 0.975341 0.016846
1 0.975341 0.016846
1 0.975341 0.016846
1 0.975341 0.016846
1 0.975341 0.016846
1 0.975341 0.016846
1 0.975341 0.016846
0 1 0.242008
0 1 0.242008
0 1 0.242008
0 1 0.242008
0 1 0.24155
0 1 0.240528
0 1 0.239063
0 1 0.237125
0 1 0.234119
0 1 0.230381
0 1 0.224552
0 1 0.21648
0.0153811 1 0.205737
0.0717479 1 0.191806
0.166949 1 0.17409
0.282032 1 0.152483
0.413291 1 0.127993
0.553933 1 0.101854
0.69366 1 0.0758221
0.814893 1 0.0518654
0.913085 0.998184 0.032517
0.972351 0.98204 0.0209049
0.99707 0.975769 0.0170596
1 0.975341 0.016846
1 0.975341 0.016846
1 0.975341 0.016846
1 0.975341 0.016846
1 0.975341 0.016846
1 0.975341 0.016846
1 0.975341 0.016846
1 0.975341 0.016846
1 0.975341 0.016846
1 0.975341 0.016846
0 1 0.242008
0 1 0.242008
0 1 0.242008
0 1 0.242008
0 1 0.24155
0 1 0.240528
0 1 0.239063
0 1 0.237125
0 1 0.234119
0 1 0.230381
0 1 0.224552
0 1 0.21648
0.0153811 1 0.205737
0.0717479 1 0.191806
0.166949 1 0.17409
0.282032 1 0.152483
0.413291 1 0.127993
0.553933 1 0.101854
0.69366 1 0.0758221
0.814893 1 0.0518654
0.913085 0.998184 0.032517
0.972351 0.98204 0.0209049
0.99707 0.975769 0.0170596
1 0.975341 0.016846
1 0.975341 0.016846
1 0.975341 0.016846
1 0.975341 0.016846
1 0.975341 0.016846
1 0.975341 0.016846
1 0.975341 0.016846
1 0.975341 0.016846
1 0.975341 0.016846
1 0.975341 0.016846
0 1 0.242008
0 1 0.242008
0 1 0.242008
0 1 0.242008
0 1 0.24155
0 1 0.240528
0 1 0.239063
0 1 0.237125
0 1 0.234119
0 1 0.230381
0 1 0.224552
0 1 0.21648
0.0153811 1 0.205737
0.0717479 1 0.191806
0.166949 1 0.17409
0.282032 1 0.152483
0.413291 1 0.127993
0.553933 1 0.101854
0.69366 1 0.0758221
0.814893 1 0.0518654
0.913085 0.998184 0.032517
0.972351 0.98204 0.0209049
0.99707 0.975769 0.0170596
1 0.975341 0.016846
1 0.975341 0.016846
1 0.975341 0.016846
1 0.975341 0.016846
1 0.975341 0.016846
1 0.975341 0.016846
1 0.975341 0.016846
1 0.975341 0.016846
1 0.975341 0.016846
1 0.975341 0.016846
0 1 0.242008
0 1 0.242008
0 1 0.242008
0 1 0.242008
0 1 0.24155
0 1 0.240528
0 1 0.239063
0 1 0.237125
0 1 0.234119
0 1 0.230381
0 1 0.224552
0 1 0.21648
0.0153811 1 0.205737
0.0717479 1 0.191806
0.166949 1 0.17409
0.282032 1 0.152483
0.413291 1 0.127993
0.553933 1 0.101854
0.69366 1 0.0758221
0.814893 1 0.0518654
0.913085 0.998184 0.032517
0.972351 0.98204 0.0209049
0.99707 0.975769 0.0170596
1 0.975341 0.016846
1 0.975341 0.016846
1 0.975341 0.016846
1 0.975341 0.016846
1 0.975341 0.016846
1 0.975341 0.016846
1 0.975341 0.016846
1 0.975341 0.016846
1 0.975341 0.016846
1 0.975341 0.016846
0 1 0.242008
0 1 0.242008
0 1 0.242008
0 1 0.242008
0 1 0.24155
0 1 0.240528
0 1 0.239063
0 1 0.237125
0 1 0.234119
