luts/varicam_official/Fashion_Lo Con.cube
TITLE "Generated by Resolve"
LUT_3D_SIZE 33
0.0156252 0.0156252 0.0156252
0.0156252 0.0156252 0.0156252
0.023743 0.0131991 0.0140841
0.0345159 0.00996414 0.0120394
0.047837 0.00636301 0.00950637
0.0640421 0.00230411 0.00639353
0.0841535 0 0.00358587
0.109346 0 0.00115969
0.140902 0 0
0.177874 0 0
0.223987 0 0
0.274052 0 0
0.336004 0 0
0.402258 0 0
0.475502 0 0
0.55433 0 0
0.636133 0 0
0.721126 0 0
0.805188 0 0
0.887663 0 0
0.966827 0 0
0.983124 0 0
0.992218 0 0
1 0 0
1 0 0
1 0 0
1 0 0
1 0 0
1 0 0
1 0 0
1 0 0
1 0 0
1 0 0
0.0156252 0.0156252 0.0156252
0.0156252 0.0156252 0.0156252
0.0238346 0.0131685 0.0140688
0.0347143 0.0099031 0.0120089
0.0480964 0.00628672 0.00944533
0.0641794 0.00227359 0.00637827
0.0843519 0 0.00357061
0.109346 0 0.00115969
0.140642 0 0
0.177615 0 0
0.223316 0 0
0.273655 0 0
0.33521 0 0
0.401358 0 0
0.474601 0 0
0.553353 0 0
0.635157 0 0
0.720134 0 0
0.804242 0 0
0.886793 0 0
0.965515 0 0
0.982971 0 0
0.992065 0 0
1 0 0
1 0 0
1 0 0
1 0 0
1 0 0
1 0 0
1 0 0
1 0 0
1 0 0
1 0 0
0.0141451 0.024567 0.0171054
0.0141299 0.0246738 0.0171206
0.0223545 0.0221408 0.0155795
0.0331273 0.0189364 0.0135653
0.0464637 0.0153201 0.0110475
0.0624247 0.0110475 0.00799573
0.0822919 0.00758373 0.00488289
0.107332 0.00505074 0.00169375
0.138384 0.00276188 6.10361e-05
0.175311 0.000656138 1.5259e-05
0.220768 0 0
0.270695 0 0
0.332479 0 0
0.398032 0 0
0.471275 0 0
0.549874 0 0
0.631601 0 0
0.716533 0 0
0.800717 0 0
0.883436 0 0
0.962097 0 0
0.981598 0 0
0.991302 0 0
1 0 0
1 0 0
1 0 0
1 0 0
1 0 0
1 0 0
1 0 0
1 0 0
1 0 0
1 0 0
0.012192 0.0364233 0.0190585
0.012192 0.0364233 0.0190585
0.0205081 0.0338903 0.0175326
0.0311894 0.0307774 0.0155795
0.044419 0.0269322 0.0131075
0.060502 0.0222629 0.0100252
0.0803845 0.0172274 0.00650034
0.105486 0.0114748 0.00230411
0.136309 0.00624094 0.000137331
0.173159 0.00148013 3.0518e-05
0.218524 0 0
0.268467 0 0
0.329839 0 0
0.395789 0 0
0.468574 0 0
0.547127 0 0
0.628824 0 0
0.713664 0 0
0.797909 0 0
0.880339 0 0
0.958907 0 0
0.980117 0 0
0.990524 0 0
1 0 0
1 0 0
1 0 0
1 0 0
1 0 0
1 0 0
1 0 0
1 0 0
1 0 0
1 0 0
0.00981155 0.0510567 0.021561
0.00981155 0.0510567 0.021561
0.018143 0.0484932 0.0200198
0.0288243 0.0453651 0.0180819
0.0421759 0.0413977 0.0155795
0.0579995 0.0366674 0.0125887
0.0778515 0.0307774 0.00885023
0.102983 0.0234226 0.00415045
0.133959 0.0162203 0.00129702
0.17055 0.00898756 0.000320439
0.215839 0.00427253 0
0.265751 0.000717174 0
0.327092 0.000259403 0
0.393027 0 0
0.465797 0 0
0.54432 0 0
0.626001 0 0
0.710307 0 0
0.794598 0 0
0.877562 0 0
0.9561 0 0
0.978393 0 0
0.989609 0 0
1 0 0
1 0 0
1 0 0
1 0 0
1 0 0
1 0 0
1 0 0
1 0 0
1 0 0
1 0 0
0.00697337 0.0686809 0.0246433
0.00700389 0.0685435 0.0246128
0.0153201 0.0659342 0.0230411
0.0260014 0.0627604 0.0210422
0.039353 0.058793 0.0185397
0.055314 0.054078 0.0155795
0.0750439 0.0482643 0.011902
0.10016 0.0409094 0.00720226
0.130907 0.0324712 0.00350958
0.167758 0.0228733 0.000839246
0.213031 0.0127718 0
0.262959 0.002121 0
0.323903 0.000747692 0
0.389776 0 0
0.462547 0 0
0.541054 0 0
0.622705 0 0
0.707027 0 0
0.791348 0 0
0.874327 0 0
0.952865 0 0
0.976303 0 0
0.988617 0 0
1 0 0
1 0 0
1 0 0
1 0 0
1 0 0
1 0 0
1 0 0
1 0 0
1 0 0
1 0 0
0.00415045 0.0905776 0.0284276
0.00418097 0.0903792 0.0283818
0.0123598 0.0876478 0.0267491
0.0227359 0.0844434 0.0247196
0.0358434 0.0805219 0.0222629
0.0518196 0.0756237 0.0192874
0.0715496 0.06981 0.0156252
0.0966354 0.0626383 0.0109712
0.127382 0.0535439 0.00645457
0.164233 0.0426032 0.00207523
0.209552 0.0291905 0.000427253
0.259159 0.014725 1.5259e-05
0.320424 0.00914015 0
0.386267 0.00442512 0
0.459037 0.000976577 0
0.537041 0 0
0.618692 0 0
0.703487 0 0
0.787335 0 0
0.870344 0 0
0.94844 0 0
0.97377 0 0
0.98735 0 0
1 0 0
1 0 0
1 0 0
1 0 0
1 0 0
1 0 0
1 0 0
1 0 0
1 0 0
1 0 0
0.00135805 0.117983 0.0331121
0.00138857 0.117784 0.0330816
0.00898756 0.115053 0.0314488
0.0186465 0.111849 0.0294194
0.0314336 0.107713 0.0269169
0.0473793 0.103029 0.0239872
0.0673075 0.0971389 0.0202945
0.0922408 0.0897383 0.0156252
0.122988 0.0806439 0.0102846
0.159823 0.0697795 0.00424201
0.204822 0.0566415 0.00143435
0.254871 0.0417945 6.10361e-05
0.31606 0.0279088 0
0.381384 0.0148013 0
0.45417 0.00329595 0
0.532647 0 0
0.614282 0 0
0.698619 0 0
0.782452 0 0
0.865507 0 0
0.944076 0 0
0.970611 0 0
0.985824 0 0
1 0 0
1 0 0
1 0 0
1 0 0
1 0 0
1 0 0
1 0 0
1 0 0
1 0 0
1 0 0
0 0.152132 0.0389563
0 0.151843 0.0389105
0.0062562 0.14902 0.0372473
0.0141604 0.145525 0.035172
0.0260777 0.141588 0.0327001
0.0419165 0.136934 0.0297856
0.0618753 0.130755 0.0260471
0.0868086 0.123323 0.0213931
0.117556 0.114229 0.0156252
0.154391 0.103395 0.00872816
0.199405 0.0903182 0.00401312
0.249485 0.0754406 0.00015259
0.310643 0.0573434 0
0.375967 0.0393378 0
0.448722 0.022446 0
0.526696 0.0128634 0
0.608377 0.0065156 0
0.692653 0.0016022 0
0.77702 0 0
0.859632 0 0
0.938186 0 0
0.966766 0 0
0.983871 0 0
1 0 0
1 0 0
1 0 0
1 0 0
1 0 0
1 0 0
1 0 0
1 0 0
1 0 0
1 0 0
0 0.192493 0.0458686
0 0.192218 0.0458228
0.00404364 0.189349 0.0441444
0.00906386 0.185885 0.0420844
0.0195773 0.181949 0.0395972
0.035584 0.176974 0.0366217
0.055375 0.171115 0.0329595
0.0804913 0.163622 0.0282597
0.111315 0.154513 0.0224918
0.14789 0.143755 0.0156252
0.19295 0.130404 0.00819409
0.24303 0.115526 0.000320439
0.304189 0.0974136 0
0.369512 0.0784161 0
0.442267 0.0582284 0
0.520241 0.0383917 0
0.601907 0.0194553 0
0.686198 0.00476081 0
0.770077 0 0
0.853178 0 0
0.931304 0 0
0.962097 0 0
0.981567 0 0
1 0 0
1 0 0
1 0 0
1 0 0
1 0 0
1 0 0
1 0 0
1 0 0
1 0 0
1 0 0
0 0.24242 0.0544747
0 0.242054 0.0544137
0.00199893 0.239109 0.0527199
0.00451667 0.235538 0.0506294
0.0133822 0.231586 0.0481422
0.0282292 0.226566 0.0451667
0.0476081 0.220645 0.0414588
0.0724804 0.21323 0.0368048
0.103273 0.204105 0.0310369
0.139864 0.193347 0.0241703
0.18526 0.179904 0.0157778
0.235004 0.165118 0.00663767
0.296162 0.147021 0.00263981
0.361486 0.127703 0
0.434272 0.106188 0
0.512261 0.0831617 0
0.593881 0.0601663 0
0.678279 0.0395209 0
0.762127 0.0261997 0
0.844739 0.0166018 0
0.923369 0.00721752 0
0.956329 0.00230411 0
0.97879 0 0
1 0 0
1 0 0
1 0 0
1 0 0
1 0 0
1 0 0
1 0 0
1 0 0
1 0 0
1 0 0
0 0.297078 0.06392
0 0.296712 0.063859
4.57771e-05 0.293736 0.0621347
0.000122072 0.290196 0.0600748
0.00701915 0.286244 0.0575875
0.0204929 0.281193 0.0545968
0.0388495 0.275319 0.0509041
0.0637064 0.267521 0.0461891
0.0944686 0.258412 0.0404212
0.131044 0.247639 0.0335546
0.17644 0.234195 0.0251011
0.226184 0.219409 0.0158694
0.287343 0.201312 0.00654612
0.352667 0.181994 0
0.425406 0.160861 0
0.50338 0.137819 0
0.585077 0.113725 0
0.669581 0.0889143 0
0.753338 0.0647135 0
0.83595 0.0406043 0
0.914687 0.0176547 0
0.950118 0.00560006 0
0.975616 0 0
1 0 0
1 0 0
1 0 0
1 0 0
1 0 0
1 0.000198367 0
1 0.000198367 0
1 0.000411994 0
1 0.000610361 0
1 0.000823987 0
0 0.364279 0.0753643
0 0.363836 0.075288
0 0.3608 0.0736248
0 0.357153 0.0715801
0.00433356 0.352758 0.0690013
0.0125887 0.348104 0.0660258
0.0281071 0.341833 0.0622416
0.0531014 0.334417 0.0575418
0.0836957 0.325353 0.0518502
0.120623 0.314443 0.0450141
0.165728 0.301091 0.0365759
0.215396 0.286397 0.0272679
0.276539 0.268299 0.0166476
0.341863 0.248981 0.00741588
0.414664 0.227481 0.00164797
0.492714 0.204379 0
0.573968 0.180331 0
0.658305 0.15581 0
0.74258 0.130831 0
0.825193 0.106371 0
0.903487 0.0832837 0
0.942473 0.0663767 0
0.971862 0.0532082 0
1 0.0442817 0
1 0.0377966 0
1 0.0338293 0
1 0.0316167 0
1 0.0312352 0
1 0.0312352 0
1 0.0314336 0
1 0.0316472 0
1 0.0316472 0
1 0.0318456 0
0 0.436515 0.0876936
0 0.436011 0.0876173
0 0.432395 0.0858625
0 0.429221 0.0839551
0.00195315 0.424765 0.0813764
0.00573739 0.419577 0.078233
0.0182956 0.413718 0.0744793
0.0420386 0.406394 0.0698253
0.0724651 0.396765 0.0640269
0.109163 0.385885 0.0572976
0.154238 0.372564 0.0488441
0.204181 0.357794 0.0393988
0.265019 0.339788 0.0280613
0.330358 0.32047 0.0167849
0.403159 0.29897 0.00613413
0.481224 0.275853 0.00166323
0.562509 0.251774 0
0.646845 0.22681 0
0.731044 0.202335 0
0.813672 0.177874 0
0.891936 0.154833 0
0.934066 0.1346 0
0.967422 0.11603 0
0.998657 0.100328 0
0.999695 0.0898299 0
1 0.0827344 0
1 0.0794537 0
1 0.0784924 0
1 0.078996 0
1 0.0794842 0
1 0.0794842 0
1 0.0799878 0
1 0.0799878 0
0 0.516213 0.101366
0 0.515724 0.101274
0 0.512566 0.0995956
0 0.508888 0.097612
0.000427253 0.504433 0.0950179
0.00122072 0.499779 0.0919966
0.0106508 0.493385 0.0881514
0.0309911 0.485985 0.0834974
0.059678 0.476356 0.0776837
0.0962844 0.465568 0.0709697
0.14168 0.45211 0.0624399
0.191272 0.437354 0.0530709
0.252216 0.419348 0.0417334
0.317617 0.400031 0.0297856
0.390417 0.378531 0.016907
0.468406 0.355489 0.00712596
0.550103 0.331334 0
0.633951 0.306523 0
0.717815 0.281697 0
0.8009 0.257557 0
0.879057 0.234409 0
0.924926 0.213657 0
0.961608 0.195132 0
0.994385 0.180026 0
0.998764 0.1691 0
1 0.162356 0
1 0.158572 0
1 0.158206 0
1 0.158206 0
1 0.158694 0
1 0.158694 0
1 0.159197 0
1 0.159197 0
0 0.602197 0.116213
0 0.601663 0.116121
0 0.59794 0.11429
0 0.594736 0.112322
0 0.590234 0.109728
0 0.585046 0.106661
0.00628672 0.579156 0.102922
0.0204318 0.571267 0.0981765
0.046067 0.562112 0.0924086
0.0826581 0.551278 0.0856184
0.127901 0.537377 0.0770886
0.177569 0.522667 0.0677653
0.238468 0.504662 0.0563821
0.303838 0.485344 0.0441901
0.376638 0.463844 0.0306706
0.454627 0.440757 0.0178836
0.536309 0.416587 0.00656138
0.620218 0.391775 0.00163272
0.70457 0.366796 0
0.787137 0.342855 0
0.865339 0.319753 0
0.91519 0.299001 0
0.954757 0.280552 0
0.988251 0.2654 0
0.997421 0.254414 0
1 0.247211 0
1 0.243961 0
1 0.243061 0
1 0.243595 0
1 0.243595 0
1 0.244114 0
1 0.244114 0
1 0.244648 0
0 0.691524 0.131624
0 0.69099 0.131533
0 0.687755 0.129747
0 0.684047 0.127642
0 0.67953 0.125048
0 0.674327 0.122042
0.00315862 0.668467 0.118334
0.0102541 0.660609 0.113588
0.0321965 0.651453 0.10779
0.0684215 0.640024 0.100832
0.113497 0.626673 0.0924239
0.163577 0.611917 0.0831159
0.224475 0.593912 0.0716564
0.289845 0.574563 0.0594034
0.362188 0.553201 0.0459602
0.440162 0.530083 0.0314031
0.521859 0.505837 0.016907
0.606332 0.480873 0.00556954
0.690166 0.456046 0.00102235
0.772793 0.431586 0
0.851087 0.40856 0
0.905074 0.387854 0
0.947616 0.369909 0
0.981353 0.354131 0
0.995911 0.343145 0
1 0.336599 0
1 0.332799 0
1 0.331807 0
1 0.332341 0
1 0.332341 0
1 0.332891 0
1 0.332891 0
1 0.333425 0
0 0.78439 0.147539
0 0.783856 0.147448
0 0.780056 0.145541
0 0.776333 0.143435
0 0.771817 0.140841
0 0.767163 0.137942
0.000762951 0.760693 0.134127
0.00247196 0.752758 0.129381
0.0207523 0.743572 0.123568
0.0544747 0.732784 0.116701
0.0989853 0.718837 0.108186
0.148745 0.704082 0.0989395
0.209628 0.686061 0.0875868
0.274998 0.666728 0.0753643
0.347341 0.645365 0.0618143
0.42533 0.622309 0.0472267
0.506996 0.598154 0.0321508
0.591363 0.573205 0.0175479
0.675242 0.548379 0.00688182
0.757946 0.523888 0
0.83624 0.500755 0
0.894438 0.48011 0
0.940215 0.461692 0
0.974304 0.446464 0
0.994354 0.435477 0
1 0.428382 0
1 0.425132 0
1 0.424125 0
1 0.424125 0
1 0.424674 0
1 0.424674 0
1 0.425208 0
1 0.425208 0
0 0.876432 0.163363
0 0.875395 0.163195
0 0.87216 0.161379
0 0.868421 0.159258
0 0.863951 0.156649
0 0.858778 0.153597
0 0.852293 0.149752
0 0.844923 0.145159
0.0141909 0.835279 0.139315
0.0415961 0.82446 0.132464
0.0841382 0.811063 0.124025
0.133974 0.795819 0.114702
0.194858 0.777798 0.103304
0.260243 0.75845 0.0910658
0.333028 0.736873 0.0774701
0.411048 0.713817 0.0628977
0.492226 0.68983 0.047715
0.576562 0.664881 0.0319829
0.660441 0.640055 0.0179446
0.74316 0.615579 0.00642405
0.821378 0.592477 0.00106813
0.883009 0.571801 0
0.931792 0.553368 0
0.967224 0.537591 0
0.991638 0.527123 0
0.999329 0.520027 0
1 0.516243 0
1 0.51577 0
1 0.51577 0
1 0.51577 0
1 0.516289 0
1 0.516289 0
1 0.516808 0
0 0.948577 0.17882
0 0.948455 0.178744
0 0.945739 0.176837
0 0.942718 0.174746
0 0.938949 0.172107
0 0.934691 0.1691
0 0.929152 0.165286
0 0.922454 0.160723
0.0101625 0.913848 0.154879
0.0295109 0.903822 0.148013
0.0699168 0.89131 0.139483
0.119646 0.877852 0.130251
0.180621 0.861265 0.118776
0.246143 0.843091 0.106447
0.318486 0.82324 0.0929885
0.39649 0.801617 0.0784161
0.477684 0.778775 0.0632334
0.562005 0.753826 0.0474403
0.645884 0.729 0.0317998
0.728588 0.70454 0.0169833
0.806714 0.681529 0.0049897
0.870695 0.660807 0.00109865
0.922225 0.642313 0
0.960067 0.626978 0
0.987533 0.615991 0
0.997848 0.608896 0
1 0.605112 0
1 0.604547 0
1 0.604547 0
1 0.604547 0
1 0.60499 0
1 0.60499 0
1 0.60499 0
0 0.968765 0.1935
0 0.968658 0.193408
0 0.966888 0.191501
0 0.964996 0.189395
0 0.962631 0.186801
0 0.959884 0.183795
0 0.956558 0.180056
0 0.952285 0.175326
0.00616464 0.947082 0.169543
0.0179751 0.940673 0.162615
0.0560311 0.93312 0.154162
0.10573 0.924636 0.144839
0.166812 0.914382 0.133486
0.232319 0.903334 0.121248
0.304662 0.891035 0.107698
0.382757 0.875624 0.093019
0.464439 0.857786 0.07776
0.548272 0.832975 0.0621653
0.632151 0.808148 0.0465705
0.714855 0.783703 0.0312657
0.792981 0.760693 0.0171054
0.85687 0.739956 0.00607309
0.910445 0.721462 0
0.953201 0.706142 0
0.980667 0.69514 0
0.994736 0.688045 0
1 0.68426 0
1 0.683268 0
1 0.683711 0
1 0.683711 0
1 0.683711 0
1 0.684138 0
1 0.684138 0
0 0.989151 0.206607
0 0.989044 0.206531
0 0.988266 0.204623
0 0.987518 0.202533
0 0.986603 0.199969
0 0.985519 0.196994
0 0.984176 0.193179
0 0.982681 0.188525
0.00265507 0.980591 0.18262
0.00766003 0.978302 0.175769
0.0440986 0.973968 0.167239
0.0937057 0.969039 0.157992
0.154772 0.960037 0.146548
0.219913 0.950134 0.13431
0.292714 0.939239 0.120729
0.370825 0.926757 0.106142
0.452079 0.912779 0.0909895
0.536416 0.895079 0.0753185
0.620279 0.876753 0.0596017
0.702464 0.857557 0.0442206
0.781109 0.834318 0.0295415
0.844892 0.813596 0.0167849
0.899886 0.795605 0.00721752
0.946929 0.779843 0.00163272
0.974502 0.768963 0.000350958
0.991958 0.761807 0
1 0.758007 0
1 0.757107 0
1 0.757504 0
1 0.757504 0
1 0.757504 0
1 0.7579 0
1 0.7579 0
0 1 0.218189
0 1 0.218082
0 1 0.216251
0 1 0.214115
0 1 0.211551
0 1 0.208652
0 1 0.204837
0 1 0.200137
0.000442512 1 0.194324
0.00128176 1 0.187411
0.0350958 0.998413 0.178958
0.0827955 0.996139 0.169665
0.143786 0.989944 0.158206
0.209262 0.983215 0.145953
0.281651 0.975586 0.132418
0.359823 0.966873 0.117876
0.441138 0.957122 0.102739
0.525475 0.944717 0.0870222
0.609216 0.93193 0.0713359
0.691798 0.917403 0.0558633
0.770092 0.897734 0.0412604
0.833875 0.879347 0.0282139
0.890547 0.862104 0.0166018
0.940459 0.846418 0.00691234
0.96878 0.835554 0.00331121
0.988937 0.828412 0.0015259
0.999344 0.824598 0.000793469
1 0.823713 0.000595102
1 0.823713 0.000595102
1 0.824018 0.000610361
1 0.824018 0.000610361
1 0.824018 0.000610361
1 0.824323 0.000610361
0 1 0.227909
0 1 0.227863
0 1 0.226001
0 1 0.223957
0 1 0.221393
0 1 0.218448
0 1 0.214649
0 1 0.209995
0 1 0.204135
0 1 0.197238
0.0306554 1 0.188769
0.0737774 1 0.179492
0.134829 1 0.168124
0.199908 1 0.155978
0.27274 1 0.14226
0.350927 0.997894 0.127764
0.432258 0.993347 0.112703
0.516091 0.981552 0.0969711
0.599847 0.969665 0.0813306
0.682429 0.957794 0.0659342
0.760754 0.945968 0.0513008
0.824537 0.933074 0.0381628
0.881926 0.918791 0.0264744
0.933715 0.903517 0.0166171
0.963531 0.892592 0.00987259
0.985473 0.885481 0.00543221
0.997711 0.881697 0.00302129
1 0.880705 0.00234989
1 0.880705 0.00234989
1 0.880705 0.00234989
1 0.880919 0.00239567
1 0.880919 0.00239567
1 0.880919 0.00239567
0 1 0.234867
0 1 0.234821
0 1 0.232944
0 1 0.2309
0 1 0.228321
0 1 0.225376
0 1 0.221576
0 1 0.216953
0 1 0.211048
0 1 0.204196
0.027924 1 0.195727
0.067216 1 0.18645
0.128344 1 0.175082
0.193957 1 0.162844
0.266331 1 0.149233
0.344427 0.999542 0.134722
0.425666 0.998566 0.119661
0.509987 0.995987 0.103838
0.593378 0.992874 0.0882582
0.67602 0.987701 0.0728618
0.754177 0.976165 0.0582742
0.817945 0.965194 0.0451209
0.875395 0.954376 0.0334325
0.927459 0.943603 0.0235447
0.959609 0.932815 0.0168002
0.982284 0.925658 0.0123598
0.99559 0.921843 0.00994888
1 0.920974 0.00927749
1 0.921187 0.009308
1 0.921187 0.009308
1 0.921187 0.009308
1 0.921187 0.009308
1 0.921401 0.00935378
0 1 0.239155
0 1 0.239139
0 1 0.237324
0 1 0.235355
0 1 0.232807
0 1 0.229816
0 1 0.225986
0 1 0.221332
0 1 0.215534
0 1 0.208728
0.0264286 1 0.200214
0.0632334 1 0.190875
0.124529 1 0.179492
0.189776 1 0.16733
0.262577 1 0.15375
0.3402 1 0.1393
0.421912 1 0.124041
0.505745 1 0.108309
0.589593 0.999741 0.0926833
0.672221 0.998245 0.0772869
0.750347 0.993072 0.0626993
0.813993 0.986908 0.0496376
0.871092 0.979599 0.0380865
0.923201 0.970825 0.0281834
0.957 0.960266 0.0213321
0.980194 0.953185 0.016846
0.994079 0.949416 0.0144503
1 0.948501 0.0137942
1 0.948501 0.0137942
1 0.948501 0.0137942
1 0.948501 0.0137942
1 0.948501 0.0137942
1 0.948608 0.0138094
0 1 0.241382
0 1 0.241382
0 1 0.239597
0 1 0.237644
0 1 0.235096
0 1 0.23212
0 1 0.22829
0 1 0.223621
0 1 0.217823
0 1 0.211063
0.0257572 1 0.202518
0.0614481 1 0.193164
0.122301 1 0.181857
0.187961 1 0.169635
0.260304 1 0.156161
0.338445 1 0.141558
0.419699 1 0.126375
0.504036 1 0.110597
0.58735 1 0.095079
0.669947 1 0.0796979
0.748119 1 0.065095
0.81178 0.998169 0.0520638
0.869123 0.994354 0.0404517
0.920943 0.988159 0.0306096
0.955856 0.977707 0.0236515
0.97908 0.970794 0.0191653
0.993301 0.967041 0.0168002
1 0.966033 0.0161898
1 0.966033 0.0161898
1 0.966033 0.0161898
1 0.966033 0.0161898
1 0.966033 0.0161898
1 0.966033 0.0161898
0 1 0.242008
0 1 0.242008
0 1 0.240146
0 1 0.238148
0 1 0.235599
0 1 0.232685
0 1 0.228885
0 1 0.224262
0 1 0.218372
