luts/varicam_official/Fashion 2 33 E-E.cube
TITLE "Generated by Resolve"
LUT_3D_SIZE 33
0.0156252 0.0156252 0.0156252
0.0165866 0.0153353 0.0154421
0.0191653 0.0145724 0.0149538
0.0228733 0.0134585 0.0142519
0.0278325 0.0119631 0.0133059
0.0339513 0.010132 0.0121462
0.0416114 0.00791943 0.0106966
0.0530251 0.005066 0.00851453
0.0662547 0.00175479 0.00598154
0.084535 0 0.00355535
0.1084 0 0.00125124
0.140124 0 0
0.180224 0 0
0.233646 0 0
0.298039 0 0
0.375586 0 0
0.470085 0 0
0.576135 0 0
0.69247 0 0
0.813764 0 0
0.933333 0 0
0.983993 0 0
0.998291 0 0
1 0 0
1 0 0
1 0 0
1 0 0
1 0 0
1 0 0
1 0 0
1 0 0
1 0 0
1 0 0
0.0154269 0.0168765 0.0158389
0.0164492 0.0166629 0.0156558
0.0192111 0.0159457 0.0151522
0.0232242 0.0146334 0.014374
0.0283055 0.0130159 0.0133974
0.0345159 0.0110628 0.0122072
0.0426337 0.0084535 0.0106203
0.0543526 0.00531014 0.00834669
0.067628 0.00169375 0.00576791
0.0867933 0 0.00334173
0.110842 0 0.00102235
0.143496 0 0
0.183612 0 0
0.2383 0 0
0.303243 0 0
0.381903 0 0
0.476417 0 0
0.58291 0 0
0.699382 0 0
0.820417 0 0
0.939422 0 0
0.984726 0 0
0.999023 0 0
1 0 0
1 0 0
1 0 0
1 0 0
1 0 0
1 0 0
1 0 0
1 0 0
1 0 0
1 0 0
0.0148775 0.0202029 0.0163882
0.0160678 0.0201419 0.0162051
0.0189975 0.0193637 0.015671
0.0229953 0.0182803 0.0149233
0.0281376 0.0167391 0.013962
0.0344396 0.0148623 0.0127718
0.0429847 0.0123598 0.0111391
0.0548257 0.00909438 0.00885023
0.0682231 0.00543221 0.0062562
0.0881666 0.00329595 0.00364691
0.112474 0.00199893 0.000946059
0.146563 0.000915541 1.5259e-05
0.186999 1.5259e-05 0
0.243198 0 0
0.310094 0 0
0.39028 0 0
0.485328 0 0
0.593561 0 0
0.71075 0 0
0.831373 0 0
0.949859 0 0
0.985946 0 0
1 0 0
1 0 0
1 0 0
1 0 0
1 0 0
1 0 0
1 0 0
1 0 0
1 0 0
1 0 0
1 0 0
0.0140688 0.0250858 0.0171969
0.0156405 0.024918 0.0170138
0.0184634 0.0242924 0.0166781
0.0225223 0.0232853 0.0160983
0.0278477 0.0218051 0.0152743
0.034226 0.0200198 0.0141909
0.0429999 0.0175479 0.0125277
0.0549477 0.0142214 0.0102388
0.0685893 0.0104372 0.00753796
0.0892805 0.00756847 0.00453193
0.113802 0.0047303 0.00114443
0.148745 0.00224308 0.000137331
0.190524 0 0
0.247181 0 0
0.31548 0 0
0.396979 0 0
0.492638 0 0
0.60177 0 0
0.719661 0 0
0.841031 0 0
0.959167 0 0
0.98677 0 0
1 0 0
1 0 0
1 0 0
1 0 0
1 0 0
1 0 0
1 0 0
1 0 0
1 0 0
1 0 0
1 0 0
0.013138 0.0312963 0.0182803
0.0149844 0.0310674 0.0182956
0.0178683 0.0306096 0.0180514
0.022034 0.0295872 0.0175479
0.0272374 0.0282597 0.016846
0.0336919 0.026566 0.0158541
0.0429084 0.0240177 0.0142824
0.0549477 0.0207065 0.0120851
0.068574 0.016846 0.00947585
0.090013 0.0125277 0.00602731
0.114733 0.00781262 0.00207523
0.150942 0.00360113 0.000900282
0.193591 0 0.000320439
0.250584 0 7.62951e-05
0.320653 0 0
0.403449 0 0
0.500145 0 0
0.609735 0 0
0.727749 0 0
0.849287 0 0
0.967376 0 0
0.987259 0 0
1 0 0
1 0 0
1 0 0
1 0 0
1 0 0
1 0 0
1 0 0
1 0 0
1 0 0
1 0 0
1 0 0
0.0123445 0.0387579 0.0198367
0.0142824 0.0386053 0.019852
0.0170596 0.0383001 0.0197299
0.0211948 0.0373999 0.0193332
0.0265812 0.0361334 0.0187228
0.0330968 0.0345312 0.0178073
0.0425727 0.0319219 0.0162203
0.0546273 0.0284276 0.0140841
0.0684825 0.0243839 0.0116274
0.0906996 0.0181888 0.00761425
0.115648 0.0110933 0.00302129
0.152636 0.00497444 0.00178531
0.196796 0 0.00077821
0.254124 0 0.00015259
0.3252 0 0
0.409247 0 0
0.50692 0 0
0.617075 0 0
0.736049 0 0
0.857816 0 0
0.971893 0 0
0.987778 0 0
1 0 0
1 0 0
1 0 0
1 0 0
1 0 0
1 0 0
1 0 0
1 0 0
1 0 0
1 0 0
1 0 0
0.0110781 0.049897 0.0220645
0.0130922 0.0498512 0.0220951
0.0158083 0.0498817 0.0221866
0.019913 0.0492256 0.0218967
0.0252537 0.0482032 0.0213169
0.031754 0.0466926 0.0204929
0.0415656 0.0441901 0.0190127
0.0536965 0.0409705 0.0170291
0.06804 0.0368353 0.0145113
0.0906539 0.0304875 0.0104829
0.115953 0.02327 0.00602731
0.153841 0.0152743 0.00366217
0.198917 0.00767529 0.00149538
0.256565 0.0018616 0.000228885
0.329412 0.000320439 0
0.414725 0 0
0.513436 0 0
0.624247 0 0
0.743435 0 0
0.864958 0 0
0.971054 0 0
0.988159 0 0
1 0 0
1 0 0
1 0 0
1 0 0
1 0 0
1 0 0
1 0 0
1 0 0
1 0 0
1 0 0
1 0 0
0.00941482 0.0641947 0.0250095
0.0116121 0.0641031 0.0249943
0.0142061 0.0642863 0.0251926
0.0182803 0.0637522 0.0249332
0.023621 0.0627146 0.0243992
0.0301823 0.0614481 0.0236515
0.0402991 0.058854 0.0222171
0.0525216 0.055787 0.0203555
0.0674144 0.0518044 0.0178836
0.0902266 0.0453803 0.013901
0.116533 0.0380255 0.00958267
0.15465 0.0279545 0.00573739
0.201007 0.016495 0.00239567
0.258976 0.00317388 0.000198367
0.332799 0.000640879 0
0.41976 0 0
0.519478 0 0
0.630426 0 0
0.749767 0 0
0.870878 0 0
0.969879 0 0
0.988586 0 0
1 0 0
1 0 0
1 0 0
1 0 0
1 0 0
1 0 0
1 0 0
1 0 0
1 0 0
1 0 0
1 0 0
0.00740063 0.0818494 0.0286107
0.00976577 0.0819409 0.0285954
0.012314 0.0825666 0.0288548
0.0162814 0.0825513 0.0288243
0.0214694 0.0819715 0.0283513
0.0278477 0.0810101 0.0277256
0.0383001 0.0789197 0.0263371
0.0506142 0.0760815 0.0245823
0.0660868 0.0723278 0.0222324
0.0890059 0.0661479 0.0183413
0.116121 0.058732 0.0139925
0.154452 0.047776 0.00880446
0.20206 0.0340734 0.00430304
0.26038 0.0169985 0.000686656
0.335943 0.00947585 0.000183108
0.423728 0.00323491 0
0.524453 0 0
0.636057 0 0
0.755566 0 0
0.876249 0 0
0.968139 0 0
0.989013 0 0
1 0 0
1 0 0
1 0 0
1 0 0
1 0 0
1 0 0
1 0 0
1 0 0
1 0 0
1 0 0
1 0 0
0.00529488 0.108598 0.0337682
0.00755322 0.108873 0.0337682
0.00991836 0.109499 0.0341192
0.013611 0.109483 0.0340734
0.0184024 0.109102 0.0337224
0.0245365 0.108293 0.0331884
0.0352331 0.10634 0.0318608
0.0475319 0.103716 0.0302129
0.0638285 0.0996872 0.0277104
0.0866712 0.0938735 0.0239719
0.11487 0.0861067 0.0192874
0.153429 0.075349 0.0128634
0.202411 0.0614328 0.00726329
0.262074 0.0444038 0.00233463
0.33756 0.0258946 0.000518807
0.426596 0.00852979 0
0.528344 0 0
0.641032 0 0
0.760647 0 0
0.880888 0 0
0.965789 0 0
0.989532 0 0
1 0 0
1 0 0
1 0 0
1 0 0
1 0 0
1 0 0
1 0 0
1 0 0
1 0 0
1 0 0
1 0 0
0.00341802 0.141543 0.0399786
0.00547799 0.142168 0.0401007
0.0075227 0.143343 0.0405432
0.010544 0.144381 0.0407721
0.0144503 0.144472 0.0405737
0.0201114 0.144305 0.040177
0.0307317 0.142809 0.0390021
0.0430457 0.14081 0.0374609
0.0599069 0.137453 0.035111
0.0828565 0.131975 0.0314794
0.112139 0.124392 0.0265507
0.150866 0.114061 0.0198367
0.2009 0.100328 0.0127565
0.261891 0.0830701 0.00547799
0.337682 0.0614633 0.00102235
0.428046 0.038407 6.10361e-05
0.53077 0.0204623 0
0.643565 0.00726329 0
0.763333 0 0
0.883146 0 0
0.962432 0 0
0.990021 0 0
1 0 0
1 0 0
1 0 0
1 0 0
1 0 0
1 0 0
1 0 0
1 0 0
1 0 0
1 0 0
1 0 0
0.00263981 0.186984 0.0484779
0.00392157 0.187594 0.0485847
0.00520333 0.188708 0.0489815
0.00683604 0.190082 0.0493629
0.00903334 0.190478 0.0493019
0.0143282 0.190158 0.0488136
0.0249027 0.188937 0.047776
0.037171 0.187198 0.0464332
0.0549783 0.183536 0.0439002
0.0778058 0.178866 0.0404822
0.108156 0.171969 0.0355688
0.146777 0.16228 0.0290532
0.198199 0.14847 0.0202182
0.260548 0.131426 0.0106661
0.336645 0.110307 0.00228885
0.427817 0.0844129 0.000442512
0.531594 0.0544747 0
0.645487 0.0259556 0
0.764828 0.00958267 0
0.884077 0.00460822 0
0.958389 0.000915541 0
0.990921 0 0
1 0 0
1 0 0
1 0 0
1 0 0
1 0 0
1 0 0
1 0 0
1 0 0
1 0 0
1 0 0
1 0 0
0.00132753 0.246372 0.0594644
0.00184634 0.247349 0.0596323
0.00233463 0.248981 0.0601053
0.00280766 0.251514 0.0607919
0.00347906 0.252827 0.0609751
0.00862135 0.253315 0.0606394
0.0180056 0.25304 0.0597391
0.0288396 0.251881 0.0585489
0.0469673 0.248798 0.0560464
0.0698711 0.244404 0.0526436
0.101305 0.237201 0.047715
0.140185 0.227863 0.0413519
0.192966 0.214282 0.0323491
0.256321 0.197238 0.0217441
0.332876 0.175982 0.00952163
0.425437 0.150072 0.00195315
0.530282 0.120165 0
0.644297 0.0882277 0
0.764141 0.0561074 0
0.882795 0.0251316 0
0.953307 0.00440986 0
0.992462 0 0
1 0 0
1 0 0
1 0 0
1 0 0
1 0 0
1 0 0
1 0 0
1 0 0
1 0 0
1 0 0
1 0 0
0 0.320134 0.0730602
0 0.321004 0.0731975
0 0.323522 0.0737163
0 0.326802 0.0746319
0 0.329137 0.0750744
0.004654 0.330541 0.0748455
0.0112612 0.330816 0.0741436
0.0184176 0.330632 0.0730907
0.03682 0.328252 0.0706493
0.0595407 0.324834 0.0675059
0.0922103 0.31812 0.062562
0.131014 0.30959 0.0564431
0.185183 0.296056 0.0471962
0.249928 0.279408 0.0361181
0.327398 0.25861 0.0230411
0.420691 0.233066 0.00933852
0.526009 0.204028 0.00198367
0.640635 0.171374 0
0.760479 0.13756 0
0.878599 0.103502 0
0.947509 0.0754559 0
0.994797 0.0563668 0
1 0.0438239 0
1 0.0385901 0
1 0.0376745 0
1 0.0374762 0
1 0.0372625 0
1 0.0366522 0
1 0.0360266 0
1 0.0354162 0
1 0.0343786 0
1 0.033341 0
1 0.0323186 0
0 0.410208 0.0893873
0 0.41178 0.0896468
0 0.414191 0.0902113
0 0.41854 0.09131
6.10361e-05 0.421927 0.0920272
0.00222782 0.423682 0.0918441
0.00454719 0.425437 0.0914321
0.00703441 0.426154 0.0905928
0.0260624 0.423987 0.0880751
0.0473182 0.42153 0.0852064
0.080766 0.415305 0.0801862
0.120668 0.406775 0.0739452
0.175006 0.394522 0.0650492
0.241337 0.377768 0.0537423
0.320043 0.357794 0.0401923
0.413153 0.333043 0.0239872
0.519524 0.30399 0.00920119
0.634638 0.272297 0.00166323
0.754131 0.238834 0
0.871534 0.205997 0
0.941405 0.175784 0
0.998825 0.150835 0
1 0.1355 0
1 0.129274 0
1 0.12903 0
1 0.12903 0
1 0.128542 0
1 0.128038 0
1 0.127062 0
1 0.12607 0
1 0.124086 0
1 0.122591 0
1 0.120104 0
0 0.520134 0.109209
0 0.521706 0.109453
0 0.524117 0.110002
0 0.52845 0.111162
0 0.532433 0.111894
0 0.535042 0.111955
0 0.537102 0.111696
0.00213626 0.53782 0.110811
0.0165713 0.536965 0.108583
0.032105 0.534813 0.105776
0.0668803 0.528984 0.100786
0.107958 0.520851 0.0944381
0.162539 0.509316 0.0856794
0.229984 0.492927 0.074342
0.310033 0.472786 0.0606394
0.403906 0.448554 0.0442512
0.510887 0.420523 0.0255894
0.626154 0.388952 0.00984207
0.745968 0.356497 0.00199893
0.862394 0.324117 0.000137331
0.93576 0.294896 0
1 0.272251 0
1 0.25832 0
1 0.253285 0
1 0.253727 0
1 0.254276 0
1 0.254276 0
1 0.254276 0
1 0.253758 0
1 0.253223 0
1 0.252171 0
1 0.250568 0
1 0.248447 0
0 0.644327 0.13167
0 0.646571 0.132036
0 0.649149 0.132586
0 0.653849 0.133822
0 0.65832 0.134646
0 0.661524 0.134874
0 0.663737 0.134585
0.0018616 0.66537 0.133761
0.00766003 0.664576 0.131609
0.0166629 0.66273 0.128801
0.0515297 0.656886 0.123827
0.0936446 0.649424 0.117525
0.148135 0.637949 0.108721
0.217166 0.621653 0.0973983
0.298161 0.602304 0.0840467
0.392721 0.57792 0.0679637
0.500084 0.550347 0.0494698
0.616526 0.51902 0.0289464
0.735348 0.486885 0.0121614
0.851591 0.45568 0.00273136
0.93106 0.427665 0.000274662
1 0.406729 0
1 0.394034 0
1 0.390188 0
1 0.391348 0
1 0.392447 0
1 0.39353 0
1 0.39353 0
1 0.39408 0
1 0.393545 0
1 0.393011 0
1 0.392477 0
1 0.390845 0
0 0.780468 0.156115
0 0.782254 0.156466
0 0.785428 0.157107
0 0.790082 0.158175
0 0.795178 0.159213
0 0.798489 0.159472
0 0.801038 0.159319
0 0.802609 0.158389
0 0.80206 0.156435
0.0074464 0.799573 0.15346
0.0374304 0.794644 0.148562
0.0778668 0.786572 0.14229
0.132662 0.77525 0.133989
0.203037 0.758907 0.122606
0.285557 0.738994 0.108934
0.381079 0.715251 0.0929732
0.48867 0.687449 0.0744945
0.605051 0.657053 0.0542763
0.724407 0.625177 0.0334936
0.838468 0.594797 0.0160983
0.926482 0.568048 0.00518807
0.997314 0.547707 0.00201419
1 0.536217 0.000289921
1 0.534066 0
1 0.535317 0
1 0.537423 0
1 0.538476 0
1 0.539528 0
1 0.540581 0
1 0.540581 0
1 0.540597 0
1 0.540597 0
1 0.539559 0
0 0.921523 0.181613
0 0.923171 0.181857
0 0.926146 0.182467
0 0.929778 0.183276
0 0.933669 0.184375
0 0.932723 0.184665
0 0.93138 0.184604
0 0.928435 0.183413
0 0.924605 0.18146
0.00715648 0.919249 0.1785
0.0246433 0.912306 0.173953
0.062211 0.903075 0.167559
0.1178 0.891798 0.159182
0.189288 0.87776 0.147875
0.273411 0.861448 0.134005
0.369741 0.842359 0.117769
0.478004 0.818891 0.0993057
0.594308 0.788281 0.0793774
0.712764 0.756634 0.0588388
0.824414 0.726482 0.0392615
0.916136 0.700343 0.0231785
0.987793 0.680629 0.0129702
1 0.669917 0.00834669
1 0.668544 0.00773632
1 0.670588 0.00823987
1 0.672374 0.00872816
1 0.674144 0.00921645
1 0.675486 0.00967422
1 0.676371 0.00999466
1 0.677272 0.0103609
1 0.677714 0.0105745
1 0.677714 0.0107424
1 0.677729 0.0108492
0 0.968872 0.206363
0 0.968978 0.2065
0 0.969223 0.206806
0 0.969741 0.20734
0 0.970748 0.208331
0 0.971557 0.208759
0 0.972 0.208682
0 0.971878 0.207416
0 0.971603 0.205798
0.00366217 0.971099 0.202625
0.0096437 0.970245 0.198123
0.0489967 0.968704 0.191226
0.105608 0.967422 0.182742
0.177707 0.965637 0.171237
0.263111 0.964004 0.157214
0.360723 0.959594 0.140841
0.469703 0.945464 0.122301
0.58555 0.915404 0.102358
0.703487 0.884337 0.082063
0.812711 0.854658 0.0628214
0.904662 0.829953 0.046479
0.979828 0.811414 0.0344701
1 0.801923 0.0281224
1 0.801572 0.0272679
1 0.804211 0.0284428
1 0.806409 0.0294804
1 0.808621 0.030518
1 0.810391 0.0315099
1 0.811719 0.0323491
1 0.812802 0.033051
1 0.813428 0.0336919
1 0.814069 0.034226
1 0.814389 0.034699
0 1 0.227909
0 1 0.227985
0 1 0.228092
0 1 0.228321
0 1 0.229099
0 1 0.229496
0 1 0.229541
0 1 0.228382
0 1 0.226642
0.00030518 1 0.223148
0.000656138 1 0.218463
0.0425116 1 0.211307
0.0977646 1 0.202365
0.170062 1 0.190768
0.257282 1 0.176501
0.355779 0.999405 0.159945
0.465064 0.997803 0.141314
0.581567 0.996399 0.121477
0.698405 0.987213 0.10132
0.805249 0.956451 0.0821546
0.897475 0.930678 0.0661173
0.973556 0.911681 0.0542916
0.998718 0.901656 0.0482032
1 0.900526 0.0480201
1 0.902007 0.0492256
1 0.903502 0.0504463
1 0.904585 0.051606
1 0.905669 0.0530251
1 0.906752 0.0542763
1 0.907622 0.0554971
1 0.908278 0.0565194
1 0.908919 0.0573892
1 0.909361 0.0582284
0 1 0.244434
0 1 0.244434
0 1 0.244282
0 1 0.244282
0 1 0.245167
0 1 0.245884
0 1 0.245518
0 1 0.244144
0 1 0.242298
0 1 0.238285
0.00207523 1 0.233433
0.0418097 1 0.225971
0.095613 1 0.21648
0.168139 1 0.2047
0.256992 1 0.189776
0.357626 1 0.172625
0.467491 1 0.153826
0.583917 1 0.133654
0.700343 1 0.11342
0.804486 0.997345 0.0946059
0.897261 0.986053 0.0787823
0.969787 0.969772 0.0674601
0.999191 0.959884 0.0621958
1 0.959091 0.0630808
1 0.959976 0.0647593
1 0.960769 0.0664225
1 0.961547 0.0679332
1 0.962219 0.0694133
1 0.96289 0.0707561
1 0.963455 0.0720684
1 0.963912 0.0732128
1 0.964355 0.0742046
1 0.964706 0.0751812
0 1 0.254658
0 1 0.254383
0 1 0.254231
0 1 0.254429
0 1 0.255009
0 1 0.255619
0 1 0.254871
0 1 0.253239
0 1 0.250721
0 1 0.246342
0.0078584 1 0.240742
0.0447242 1 0.232853
0.101228 1 0.222736
0.17583 1 0.210544
0.264851 1 0.195529
0.366522 1 0.178164
0.476799 1 0.159075
0.593408 1 0.138857
0.709239 1 0.118761
0.810376 1 0.100572
0.903532 0.999481 0.0857557
0.972122 0.988495 0.0755474
1 0.979248 0.0713512
1 0.978286 0.0723583
1 0.9785 0.0740826
1 0.978698 0.0757916
1 0.978882 0.0775006
1 0.979049 0.079057
1 0.979217 0.0804608
1 0.979339 0.0818647
1 0.979355 0.0830854
1 0.979385 0.0843214
1 0.9794 0.0853895
0 1 0.258762
0 1 0.25861
0 1 0.258335
0 1 0.258167
0 1 0.258381
0 1 0.258656
0 1 0.257618
0 1 0.25597
0 1 0.253208
0 1 0.248829
0.0140993 1 0.242878
0.0505226 1 0.234958
0.111421 1 0.224506
0.187549 1 0.212039
0.277058 1 0.197101
0.379675 1 0.179614
0.490715 1 0.160372
0.606882 1 0.141115
0.721508 1 0.122042
0.819944 1 0.104494
0.913451 1 0.0902113
0.978012 0.988281 0.0806287
1 0.980285 0.0775616
1 0.979278 0.0787823
1 0.979324 0.0807813
1 0.979355 0.0826276
1 0.979385 0.0843214
1 0.979416 0.0859998
1 0.979446 0.0876936
1 0.979477 0.0892348
1 0.979507 0.0906081
1 0.979522 0.0919966
1 0.979553 0.0932174
0 1 0.260884
0 1 0.260609
0 1 0.260426
0 1 0.260227
0 1 0.260365
0 1 0.260426
0 1 0.259525
0 1 0.257923
0 1 0.25481
0 1 0.25066
0.020676 1 0.244388
0.0568246 1 0.236515
0.122606 1 0.225803
0.200183 1 0.213184
0.290501 1 0.198291
0.393683 1 0.181445
0.504952 1 0.16318
0.621118 1 0.143984
0.73492 1 0.1252
0.830076 1 0.108202
0.923919 1 0.0944839
0.981262 0.98735 0.0860761
1 0.980255 0.0837415
1 0.9794 0.0852369
1 0.979446 0.0873884
1 0.979477 0.0893873
1 0.979507 0.0913863
1 0.979553 0.0932174
1 0.979583 0.0949111
1 0.979614 0.0966049
1 0.979644 0.0982986
1 0.979675 0.0998245
1 0.97969 0.101213
0 1 0.263081
0 1 0.262806
0 1 0.262562
0 1 0.262379
0 1 0.262119
0 1 0.262135
0 1 0.261418
0 1 0.259907
0 1 0.25658
0 1 0.25243
0.0274662 1 0.245838
0.0661021 1 0.237888
0.134188 1 0.227176
0.213687 1 0.215167
0.304967 1 0.200793
0.408255 1 0.184222
0.52018 1 0.165835
0.635843 1 0.146914
0.748333 1 0.128527
0.840543 1 0.111986
0.932479 0.999359 0.0991684
0.983917 0.986511 0.091783
1 0.980224 0.0900587
1 0.979522 0.0918441
1 0.979568 0.0941482
1 0.979599 0.0962997
1 0.979644 0.0984512
1 0.97969 0.100435
1 0.979721 0.102434
1 0.979767 0.104753
1 0.979828 0.107073
1 0.979873 0.109407
1 0.979934 0.111742
0 1 0.26537
0 1 0.265049
0 1 0.26482
0 1 0.264561
0 1 0.264027
0 1 0.263874
0 1 0.263325
0 1 0.261631
0 1 0.25835
0.00140383 1 0.254292
0.0345006 1 0.247333
0.0784772 1 0.239811
0.146151 1 0.230167
0.227192 1 0.217868
0.319921 1 0.20351
0.423484 1 0.186892
0.535164 1 0.168704
0.65098 1 0.14992
0.762417 1 0.131868
0.851331 1 0.116121
0.938994 0.997803 0.104234
0.986664 0.985672 0.097612
1 0.980179 0.0965286
1 0.979644 0.0986038
1 0.97969 0.101061
1 0.979736 0.103471
1 0.979812 0.106645
1 0.979873 0.109621
1 0.97995 0.112581
1 0.980011 0.115328
1 0.980072 0.11809
1 0.980133 0.120623
1 0.980179 0.123171
0 1 0.26772
0 1 0.267506
0 1 0.26714
0 1 0.266743
0 1 0.265904
0 1 0.265614
0 1 0.265278
0 1 0.263355
0 1 0.260197
