luts/varicam_official/Golden 1 33 E-E.cube
TITLE "Generated by Resolve"
LUT_3D_SIZE 5
0.0156252 0.0156252 0.0156252
0.104265 0 0.00164797
0.714702 0 0
1 0 0
1 0 0
0.00340276 0.0979934 0.0296941
0.0955673 0.0703899 0.0122683
0.708263 0 0
1 0 0
1 0 0
0 0.73904 0.139773
0.00787366 0.693843 0.118959
0.606607 0.511131 0.00889601
1 0.370092 0
1 0.372839 0
0 1 0.237995
0 1 0.218647
0.516472 1 0.104707
0.984787 0.939681 0.0142214
1 0.936599 0.011902
0 1 0.242008
0 1 0.222751
0.518334 1 0.108492
0.983154 0.978836 0.0188754
1 0.975341 0.016846
0.0152895 0.0161593 0.0462043
0.103197 0 0.027985
0.714397 0 0
1 0 0
1 0 0
0.00314336 0.0991226 0.0618601
0.0946059 0.0704356 0.0437324
0.704677 0 0
1 0 0
1 0 0
0 0.734905 0.174701
0.00781262 0.689723 0.150759
0.601785 0.50811 0.03682
1 0.365209 0
1 0.367178 0
0 1 0.27657
0 1 0.253193
0.509926 1 0.138369
0.994461 0.95227 0.0465858
1 0.948837 0.0447089
0 1 0.283009
0 1 0.25922
0.511055 1 0.143557
0.993149 0.982437 0.0522774
1 0.978622 0.0497597
0.0122072 0.0235142 0.371664
0.100954 0.00230411 0.349935
0.717189 0 0.248203
1 0 0.183902
1 0 0.200778
0.00117494 0.108064 0.393133
0.0918288 0.0781415 0.371344
0.70164 0 0.261524
1 0 0.17705
1 0 0.18291
0 0.741543 0.511818
0.00624094 0.695735 0.478752
0.597116 0.513329 0.363272
1 0.369558 0.273075
1 0.371389 0.275196
0 1 0.618921
0 1 0.584451
0.504051 1 0.466285
0.992828 0.959136 0.373251
1 0.955413 0.372076
0 1 0.630976
0 1 0.594751
0.503517 1 0.474113
0.991318 0.990097 0.380377
1 0.986007 0.377386
0.00743114 0.0346685 0.863264
0.0984054 0.00776684 0.843305
0.727382 0 0.74226
1 0 0.665492
1 0 0.674113
0 0.121111 0.884932
0.0882582 0.0903334 0.862638
0.699382 0 0.750912
1 0 0.664881
1 0 0.668605
0 0.754162 0.99321
0.00392157 0.707179 0.967971
0.592447 0.524971 0.852659
1 0.380636 0.7617
1 0.381949 0.763149
0 1 1
0 1 0.996506
0.498512 1 0.953582
0.990768 0.969985 0.860563
1 0.965988 0.859113
0 1 1
0 1 0.99884
0.49749 1 0.9608
0.987152 0.999084 0.866773
1 0.99707 0.863844
0.00634775 0.0378576 0.998779
0.0998703 0.0100099 0.981292
0.737835 0 0.862272
1 0 0.774548
1 0 0.773632
0 0.126604 1
0.0884565 0.094789 0.994965
0.700816 0 0.881529
1 0 0.791012
1 0 0.78967
0 0.759106 1
0.00323491 0.7122 1
0.592462 0.529168 0.986679
1 0.384634 0.896376
1 0.385504 0.89453
0 1 1
0 1 1
0.497185 1 1
0.990311 0.973129 0.997299
1 0.969162 0.994858
0 1 1
0 1 1
0.495735 1 1
0.98587 1 1
1 1 1
