luts/varicam_official/Golden_2.cube
TITLE "Generated by Resolve"
LUT_3D_SIZE 9
0.0156252 0.0156252 0.0156252
0.0156252 0.0156252 0.0156252
0.150271 0 0
0.456962 0 0
0.843275 0 0
0.999222 0 0
1 0 0
1 0 0
1 0 0
0.0156252 0.0156252 0.0156252
0.0156252 0.0156252 0.0156252
0.148196 0 0
0.499077 0 0
0.90071 0 0
1 0 0
1 0 0
1 0 0
1 0 0
0.00213626 0.110369 0.0318151
0.00190738 0.112627 0.0321965
0.123339 0.0678416 0.00865187
0.425177 0.00537118 0
0.804959 0 0
0.991836 0 0
1 0 0
1 0 0
1 0 0
0 0.405783 0.0824292
0 0.394858 0.0805676
0.0705425 0.331746 0.0546426
0.358541 0.239048 0.0056611
0.731151 0.125917 0
0.970855 0.0458381 0
1 0.0274205 0
1 0.0277562 0
1 0.0291905 0
0 0.801663 0.1505
0 0.782773 0.147265
0.00758373 0.707958 0.120424
0.280583 0.610666 0.0661479
0.649607 0.493782 0.00425727
0.933898 0.397024 0
1 0.353307 0
1 0.350164 0
1 0.351247 0
0 0.99292 0.208972
0 0.988388 0.206119
0 0.967391 0.181735
0.207279 0.923796 0.129671
0.57348 0.841154 0.060029
0.879637 0.74229 0.00210575
0.995682 0.693492 0
1 0.686778 0
1 0.685466 0
0 1 0.238453
0 1 0.237659
0 1 0.218585
0.158541 1 0.168963
0.51986 0.992279 0.10071
0.831189 0.95285 0.0405432
0.981674 0.910643 0.0100099
1 0.903258 0.00622568
1 0.902007 0.00601205
0 1 0.242008
0 1 0.242008
0 1 0.226429
0.137301 1 0.179614
0.494163 1 0.112978
0.809644 1 0.0529793
0.973129 0.981811 0.0207523
1 0.975021 0.0168307
1 0.974487 0.0167849
0 1 0.242008
0 1 0.242008
0 1 0.227695
0.124117 1 0.182071
0.477394 1 0.116091
0.798154 1 0.0554208
0.969558 0.982864 0.0214237
1 0.975341 0.016846
1 0.975341 0.016846
0.0156252 0.0156252 0.0156252
0.0156252 0.0156252 0.0156252
0.148714 0 0
0.455604 0 0
0.843748 0 0
0.999603 0 0
1 0 0
1 0 0
1 0 0
0.0156252 0.0156252 0.0156252
0.0156252 0.0156252 0.0156252
0.150271 0 0
0.504417 0 0
0.901579 0 0
1 0 0
1 0 0
1 0 0
1 0 0
0.00201419 0.111604 0.0320134
0.00189212 0.11284 0.0322271
0.122652 0.0674601 0.00868238
0.423545 0.0053254 0
0.802777 0 0
0.991424 0 0
1 0 0
1 0 0
1 0 0
0 0.403601 0.082063
0 0.392248 0.0801251
0.0692149 0.329229 0.0544594
0.355932 0.236484 0.00555428
0.727901 0.123537 0
0.969833 0.0432898 0
1 0.0255741 0
1 0.0259251 0
1 0.0271458 0
0 0.797894 0.149859
0 0.778454 0.146532
0.00779736 0.703609 0.119905
0.277302 0.607019 0.0660716
0.645716 0.489784 0.00389105
0.932494 0.392477 0
1 0.348196 0
1 0.344762 0
1 0.345312 0
0 0.991806 0.208286
0 0.987274 0.205417
0 0.965972 0.18143
0.203342 0.921874 0.129793
0.568902 0.838132 0.0601663
0.877195 0.738552 0.00259403
0.995331 0.688975 0
1 0.681941 0
1 0.680186 0
0 1 0.23827
0 1 0.237461
0 1 0.218647
0.154116 1 0.169451
0.514305 0.99176 0.101411
0.827634 0.951751 0.0409857
0.980819 0.908446 0.00978103
1 0.900938 0.00582895
1 0.899474 0.0055848
0 1 0.242008
0 1 0.242008
0 1 0.226886
0.132509 1 0.180499
0.488243 1 0.114076
0.805707 1 0.0538186
0.971969 0.981888 0.0209506
1 0.97438 0.0167849
1 0.973846 0.0167391
0 1 0.242008
0 1 0.242008
0 1 0.228153
0.11931 1 0.182956
0.470985 1 0.117281
0.793896 1 0.0563211
0.968307 0.983246 0.0216678
1 0.975341 0.016846
1 0.975341 0.016846
0.015198 0.0164187 0.0557412
0.0152438 0.0163119 0.0517128
0.14316 0 0.0218662
0.447288 0 0
0.837278 0 0
0.999603 0 0
1 0 0
1 0 0
1 0 0
0.015259 0.0162356 0.0488594
0.0152743 0.0162203 0.0483253
0.14992 0 0.0226139
0.500832 0 0
0.895018 0 0
1 0 0
1 0 0
1 0 0
1 0 0
0.00209049 0.110201 0.0613413
0.00209049 0.110201 0.0612345
0.118303 0.0656138 0.0324254
0.414893 0.00529488 0.000717174
0.79321 0 0
0.989899 0 0
1 0 0
1 0 0
1 0 0
0 0.395056 0.109697
0 0.383185 0.104494
0.0652781 0.321187 0.0721599
0.346685 0.229572 0.0179751
0.718074 0.116396 0
0.966903 0.0351568 0
1 0.0206149 0
1 0.0207675 0
1 0.0219883 0
0 0.785382 0.173877
0 0.765866 0.166094
0.00805676 0.692424 0.132998
0.267567 0.597299 0.0776226
0.635904 0.480064 0.00947585
0.927108 0.381857 0
1 0.335088 0
1 0.330907 0
1 0.331426 0
0 0.989151 0.22916
0 0.984634 0.221881
0 0.962554 0.191272
0.194614 0.916594 0.136965
0.557931 0.831052 0.0651865
0.870573 0.730465 0.00604257
0.995056 0.678279 0
1 0.670954 0
1 0.669627 0
0 1 0.256733
0 1 0.251789
0 1 0.225162
0.14493 1 0.172671
0.502846 0.990768 0.102831
0.820584 0.949264 0.0417792
0.978882 0.904295 0.0093843
1 0.896101 0.00500496
1 0.894621 0.00474556
0 1 0.257099
0 1 0.252491
0 1 0.228748
0.122911 1 0.182284
0.476905 1 0.116182
0.798184 0.999924 0.055375
0.969879 0.981338 0.0212863
1 0.973205 0.0166934
1 0.972717 0.0166629
0 1 0.251774
0 1 0.247089
0 1 0.228962
0.110124 1 0.184665
0.460136 1 0.119295
0.786679 1 0.057847
0.966293 0.983841 0.022034
1 0.975341 0.016846
1 0.975341 0.016846
0.0137636 0.0196078 0.194369
0.0138552 0.0194247 0.185412
0.14049 0 0.147372
0.444709 0 0.093019
0.836973 0 0.0312047
1 0 0.0115358
1 0 0.0138247
1 0 0.0313878
1 0 0.0457008
0.013901 0.0193179 0.180789
0.013901 0.0193332 0.181323
0.157412 0 0.162646
0.500725 0 0.115099
0.89276 0 0.0530098
1 0 0.0121614
1 0 0.00830091
1 0 0.0167544
1 0 0.0245518
0.00155642 0.113298 0.190326
0.00163272 0.112261 0.189334
0.115511 0.0675059 0.152529
0.409979 0.00561532 0.0964218
0.787717 0 0.0273442
0.988846 0 0.00347906
1 0 0.00215152
1 0 0.00285344
1 0 0.0037995
0 0.39408 0.237308
0 0.381643 0.227314
0.0627451 0.319188 0.185153
0.340261 0.228229 0.127398
0.711284 0.114702 0.0559854
0.964431 0.0304112 0.00898756
1 0.0179141 9.15541e-05
1 0.0178531 0
1 0.0191501 0
0 0.780804 0.298177
0 0.760586 0.284153
0.00764477 0.68716 0.240528
0.261021 0.592599 0.181933
0.627649 0.475227 0.108141
0.922759 0.37586 0.0453193
1 0.327642 0.0193942
1 0.322362 0.0174716
1 0.322347 0.0171359
0 0.987854 0.350668
0 0.983383 0.337331
0 0.961303 0.295125
0.187045 0.913283 0.236118
0.548775 0.827344 0.161807
0.864515 0.725231 0.0967727
1 0.671351 0.0620279
1 0.662928 0.0560311
1 0.661143 0.0542306
0 1 0.376425
0 1 0.365438
0 1 0.326192
0.135607 1 0.268803
0.491371 1 0.195071
0.812512 0.966918 0.128786
0.992828 0.914611 0.0923476
1 0.905425 0.0856641
1 0.9037 0.0836805
0 1 0.374792
0 1 0.363989
0 1 0.328435
0.111772 1 0.272969
0.462226 1 0.201495
0.788403 1 0.135821
0.980697 0.986709 0.0972305
1 0.978134 0.0893416
1 0.977905 0.0871595
0 1 0.368444
0 1 0.357427
0 1 0.322576
0.0974289 1 0.268803
0.444495 1 0.198108
0.776196 1 0.131289
0.975067 0.989151 0.0908522
1 0.979324 0.081239
1 0.979278 0.0787823
0.0118257 0.0245212 0.417639
0.0119478 0.0242313 0.405783
0.138689 0 0.363516
0.444831 0 0.311177
0.840497 0 0.254734
1 0 0.244343
1 0 0.26041
1 0 0.280171
1 0 0.297032
0.0119783 0.024155 0.402304
0.0119326 0.0242466 0.40618
0.161776 0 0.395514
0.502434 0 0.349233
0.891768 0 0.289723
1 0 0.252125
1 0 0.250935
1 0 0.261204
1 0 0.271077
0.000701915 0.119371 0.4112
0.000762951 0.117678 0.409079
0.113359 0.0721447 0.366278
0.407218 0.00645457 0.309407
0.783978 0 0.24097
0.987976 0 0.18851
1 0 0.170886
1 0 0.175357
1 0 0.180911
0 0.397238 0.454978
0 0.384329 0.4421
0.0600443 0.321523 0.390463
0.336095 0.23061 0.329427
0.706645 0.116716 0.256336
0.962814 0.028748 0.196628
1 0.0172274 0.170382
1 0.0172732 0.17055
1 0.0182193 0.172686
0 0.781918 0.513603
0 0.761624 0.496178
0.00660716 0.687861 0.43949
0.256352 0.59321 0.375982
0.622278 0.475441 0.299825
0.9196 0.375814 0.235325
1 0.326314 0.202991
1 0.320363 0.198734
1 0.320348 0.198367
0 0.988128 0.564172
0 0.984009 0.545403
0 0.962066 0.488624
0.181704 0.9131 0.423957
0.542016 0.827985 0.347173
0.859754 0.725368 0.280095
1 0.670512 0.243565
1 0.661311 0.236301
1 0.659083 0.234272
0 1 0.587884
0 1 0.569711
0 1 0.515587
0.129076 1 0.452949
0.483696 1 0.376501
0.806989 0.969345 0.307576
0.991348 0.916197 0.267918
1 0.90634 0.258549
1 0.904585 0.255314
0 1 0.583398
0 1 0.564981
0 1 0.51487
0.104051 1 0.454398
0.453727 1 0.377951
0.782223 1 0.307561
0.977951 0.990662 0.265034
1 0.981628 0.254276
1 0.981323 0.250309
0 1 0.573831
0 1 0.554681
0 1 0.506142
0.0897688 1 0.445335
0.435477 1 0.368429
0.769406 1 0.296452
0.970489 0.992996 0.251682
1 0.98294 0.238605
1 0.982818 0.233387
0.00939956 0.0303502 0.669993
0.00950637 0.0300908 0.659083
0.137606 0 0.617044
0.446632 0 0.566278
0.846693 0 0.513252
1 0 0.50309
1 0 0.512947
1 0 0.52958
1 0 0.54374
0.00950637 0.0300908 0.659083
0.00943008 0.0302739 0.66688
0.164523 0 0.655421
0.504936 0 0.605432
0.892088 0 0.544121
1 0 0.505562
1 0 0.502693
1 0 0.511528
1 0 0.520027
0 0.126833 0.66836
0 0.124483 0.664485
0.111452 0.0779278 0.619989
0.405295 0.00813306 0.562585
0.781582 0 0.493904
0.987182 0 0.441199
1 0 0.423636
1 0 0.428458
1 0 0.434241
0 0.402975 0.708751
0 0.389593 0.695247
0.0571908 0.326558 0.641733
0.332143 0.235035 0.580072
0.702251 0.121386 0.50634
0.961196 0.0278782 0.446265
1 0.0172427 0.420233
1 0.0171054 0.419913
1 0.018143 0.422217
0 0.785382 0.765988
0 0.764538 0.747723
0.00527962 0.691188 0.689235
0.252033 0.596323 0.624369
0.617136 0.47895 0.547768
0.916686 0.378439 0.482643
1 0.327855 0.450126
1 0.32163 0.445777
1 0.321096 0.445289
0 0.988998 0.816052
0 0.985336 0.796429
0 0.96434 0.737194
0.176898 0.914672 0.67129
0.536309 0.83093 0.592508
0.855406 0.728237 0.524376
1 0.672312 0.486473
1 0.662562 0.47866
1 0.660761 0.47631
0 1 0.839918
0 1 0.820523
0 1 0.763241
0.123552 1 0.698161
0.476829 1 0.619364
0.801709 0.973159 0.548852
0.989258 0.919783 0.507454
1 0.909438 0.497642
1 0.907668 0.493324
0 1 0.835111
0 1 0.815427
0 1 0.761532
0.0977188 1 0.69749
0.446159 1 0.618784
0.776318 1 0.546624
0.973938 0.996094 0.502251
1 0.98674 0.490455
1 0.986435 0.485695
0 1 0.825498
0 1 0.804959
0 1 0.750866
0.0826276 1 0.686259
0.427451 1 0.607263
0.76318 1 0.533028
0.965911 0.997711 0.486656
1 0.98819 0.471778
1 0.988052 0.465858
0.00729381 0.0350042 0.878004
0.00735485 0.0348516 0.871412
0.137331 0.00210575 0.83389
0.449912 0 0.782116
0.858213 0 0.724865
1 0 0.696086
1 0 0.697719
1 0 0.708003
1 0 0.714412
0.00733959 0.0348974 0.873823
0.00726329 0.0351263 0.882902
0.166888 0.000762951 0.860761
0.507805 0 0.803418
0.893248 0 0.737697
1 0 0.695491
1 0 0.68954
1 0 0.69514
1 0 0.700526
0 0.133196 0.884001
0 0.130236 0.880201
0.110246 0.0834516 0.839551
0.404105 0.00996414 0.782345
0.780072 0 0.713069
0.986648 0 0.659678
1 0 0.640864
1 0 0.64416
1 0 0.648737
0 0.408347 0.923964
0 0.39501 0.912703
0.0550393 0.331228 0.865766
0.329686 0.239857 0.806073
0.699443 0.125414 0.733364
0.959716 0.0306096 0.673381
1 0.0174563 0.646784
1 0.0170901 0.64651
1 0.018204 0.648325
0 0.789761 0.976669
0 0.76849 0.963729
0.00419623 0.694347 0.916503
0.248676 0.599771 0.855589
0.613245 0.482139 0.780316
0.914397 0.381704 0.716182
1 0.330755 0.68368
1 0.323781 0.679286
1 0.323247 0.679194
0 0.989944 0.994675
0 0.986648 0.990753
0 0.966674 0.964645
0.172686 0.916991 0.905623
0.531609 0.834028 0.828473
0.851362 0.731701 0.760662
1 0.674846 0.723262
1 0.664805 0.715724
1 0.662577 0.713558
0 1 0.983215
0 1 0.976287
0 1 0.953338
0.118288 1 0.917144
0.471366 1 0.853284
0.797421 0.977127 0.784253
0.987198 0.923766 0.743648
1 0.913191 0.734188
1 0.911452 0.731273
0 1 0.981323
0 1 0.97496
0 1 0.954543
0.0919509 1 0.917327
0.439429 1 0.856016
0.77116 1 0.78558
0.970031 0.999344 0.742611
1 0.991989 0.731411
1 0.991684 0.727428
0 1 0.978073
0 1 0.971588
0 1 0.950988
0.0767987 1 0.911376
0.420157 1 0.847272
0.757916 1 0.775174
0.961807 1 0.729992
1 0.993622 0.716381
1 0.9935 0.711467
0.00648508 0.0373236 0.983505
0.0065156 0.0372931 0.981735
0.138857 0.00358587 0.953826
0.456504 0 0.896773
0.879454 0 0.826322
1 0 0.78085
1 0 0.770718
1 0 0.771313
1 0 0.771832
0.00648508 0.0373236 0.983261
0.00642405 0.0374609 0.988952
0.17023 0.000793469 0.958312
0.512352 0 0.896178
0.895949 0 0.82652
1 0 0.780529
1 0 0.770169
1 0 0.770474
1 0 0.770809
0 0.137758 0.99443
0 0.134447 0.993622
0.110292 0.0867475 0.967941
0.404623 0.0110018 0.911864
0.780224 0 0.841901
0.986389 0 0.786847
1 0 0.765835
1 0 0.766522
1 0 0.767865
0 0.412284 1
0 0.398215 1
0.053666 0.334768 0.993667
0.327977 0.242679 0.946715
0.6981 0.128237 0.875135
0.958968 0.0328985 0.815564
1 0.017319 0.789029
1 0.0169985 0.787839
1 0.0178531 0.788846
0 0.792111 1
0 0.770977 1
0.0034638 0.697246 1
0.246265 0.602487 0.991531
0.610712 0.48423 0.930953
0.912795 0.383276 0.868391
1 0.332143 0.836835
1 0.32517 0.832975
1 0.324102 0.832639
0 0.990585 1
0 0.987503 1
0 0.968078 1
0.169863 0.918318 1
0.527962 0.836057 0.983597
0.848936 0.733684 0.923705
1 0.676463 0.888136
1 0.66627 0.882078
1 0.663615 0.880812
0 1 1
0 1 1
0 1 1
0.114931 1 1
0.467002 1 0.986709
0.794003 0.980194 0.949874
0.98558 0.926406 0.912047
1 0.915892 0.903273
1 0.913954 0.900557
0 1 1
0 1 1
0 1 1
0.0876478 1 1
0.434333 1 0.997757
0.767193 1 0.965774
0.96698 1 0.924346
1 0.996017 0.914321
1 0.995727 0.911467
0 1 1
0 1 1
0 1 1
0.0720531 1 1
0.414496 1 0.996033
0.753445 1 0.959335
0.958495 1 0.915938
1 0.998001 0.903761
1 0.997909 0.900481
0.00634775 0.0378576 0.998779
0.00634775 0.0378576 0.998779
0.142031 0.00349432 0.973404
0.465766 0 0.913161
0.891859 0 0.83357
1 0 0.784176
1 0 0.773632
1 0 0.773632
1 0 0.773632
0.00634775 0.0378576 0.998779
0.00634775 0.0378576 0.998779
0.174334 0.000427253 0.967376
0.517983 0 0.903426
0.899702 0 0.832105
1 0 0.78497
1 0 0.773632
1 0 0.773632
1 0 0.773632
0 0.140215 1
0 0.136294 1
0.111177 0.0880598 0.991409
0.406058 0.0115206 0.935866
0.781308 0 0.865797
0.986557 0 0.8103
1 0 0.788571
1 0 0.788174
1 0 0.788464
0 0.414466 1
0 0.400046 1
0.0534218 0.335866 1
0.327977 0.243793 0.983566
0.697749 0.129091 0.913619
0.95877 0.0334173 0.854551
1 0.0171969 0.827863
1 0.0166323 0.826139
1 0.0175174 0.826444
0 0.793118 1
0 0.771527 1
0.00323491 0.697643 1
0.245457 0.603067 1
0.609522 0.48452 0.978119
0.912123 0.383536 0.917205
1 0.331701 0.886381
1 0.324193 0.882704
1 0.323125 0.882536
0 0.990585 1
0 0.987671 1
0 0.96849 1
0.168429 0.918486 1
0.526146 0.836271 1
0.847395 0.733639 0.980316
1 0.676188 0.946227
1 0.665476 0.941176
1 0.663279 0.940688
0 1 1
0 1 1
0 1 1
0.112535 1 1
0.464134 1 1
0.791913 0.981476 0.999008
0.984726 0.92694 0.982116
1 0.91632 0.975784
1 0.914427 0.974868
0 1 1
0 1 1
0 1 1
0.084596 1 1
0.431296 1 1
0.764523 1 1
0.965057 1 1
1 0.99762 0.995361
1 0.99736 0.994369
0 1 1
0 1 1
0 1 1
0.0684977 1 1
0.41091 1 1
0.74966 1 1
0.95642 1 0.997696
1 0.999893 0.992065
1 0.999863 0.990875
