luts/varicam_official/Golden 1 33 E-E.cube
TITLE "Generated by Resolve"
LUT_3D_SIZE 33
0.0156252 0.0156252 0.0156252
0.0156252 0.0156252 0.0156252
0.0156252 0.0156252 0.0156252
0.0156252 0.0156252 0.0156252
0.0156252 0.0156252 0.0156252
0.0210727 0.0139925 0.0146029
0.0418708 0.00784314 0.0106355
0.0684672 0.00120546 0.00555428
0.104265 0 0.00164797
0.149752 0 0
0.20502 0 0
0.270604 0 0
0.348806 0 0
0.433463 0 0
0.523796 0 0
0.618357 0 0
0.714702 0 0
0.808042 0 0
0.897231 0 0
0.975875 0 0
0.985351 0 0
0.994934 0 0
1 0 0
1 0 0
1 0 0
1 0 0
1 0 0
1 0 0
1 0 0
1 0 0
1 0 0
1 0 0
1 0 0
0.0156252 0.0156252 0.0156252
0.0156252 0.0156252 0.0156252
0.0156252 0.0156252 0.0156252
0.0156252 0.0156252 0.0156252
0.0156252 0.0156252 0.0156252
0.0212558 0.0139467 0.0145571
0.0421302 0.0077821 0.0105898
0.0688487 0.00109865 0.00547799
0.105013 0 0.00157168
0.15079 0 0
0.206683 0 0
0.272587 0 0
0.351202 0 0
0.436622 0 0
0.528161 0 0
0.623285 0 0
0.720134 0 0
0.81471 0 0
0.904631 0 0
0.976989 0 0
0.98677 0 0
0.996353 0 0
1 0 0
1 0 0
1 0 0
1 0 0
1 0 0
1 0 0
1 0 0
1 0 0
1 0 0
1 0 0
1 0 0
0.0156252 0.0156252 0.0156252
0.0156252 0.0156252 0.0156252
0.0156252 0.0156252 0.0156252
0.0156252 0.0156252 0.0156252
0.0156252 0.0156252 0.0156252
0.0214542 0.0138857 0.0145266
0.0425116 0.00769055 0.0105135
0.0692454 0.0010071 0.00540169
0.105577 0 0.0015259
0.152102 0 0
0.208347 0 0
0.274861 0 0
0.354391 0 0
0.441138 0 0
0.533486 0 0
0.630213 0 0
0.730022 0 0
0.827085 0 0
0.916365 0 0
0.978058 0 0
0.987503 0 0
0.996887 0 0
1 0 0
1 0 0
1 0 0
1 0 0
1 0 0
1 0 0
1 0 0
1 0 0
1 0 0
1 0 0
1 0 0
0.0156252 0.0156252 0.0156252
0.0156252 0.0156252 0.0156252
0.0156252 0.0156252 0.0156252
0.0156252 0.0156252 0.0156252
0.0156252 0.0156252 0.0156252
0.0215457 0.0138552 0.0145113
0.042771 0.00761425 0.0104677
0.0697642 0.000869764 0.00531014
0.106523 0 0.00143435
0.153399 0 0
0.211002 0 0
0.278859 0 0
0.359594 0 0
0.450187 0 0
0.545602 0 0
0.643061 0 0
0.740398 0 0
0.83328 0 0
0.920714 0 0
0.978393 0 0
0.987793 0 0
0.997131 0 0
1 0 0
1 0 0
1 0 0
1 0 0
1 0 0
1 0 0
1 0 0
1 0 0
1 0 0
1 0 0
1 0 0
0.0156252 0.0156252 0.0156252
0.0156252 0.0156252 0.0156252
0.0156252 0.0156252 0.0156252
0.0156252 0.0156252 0.0156252
0.0156252 0.0156252 0.0156252
0.0216373 0.0138247 0.0144808
0.0430304 0.00755322 0.0104219
0.0702831 0.000747692 0.00520333
0.107652 0 0.00132753
0.156008 0 0
0.216999 0 0
0.287648 0 0
0.367987 0 0
0.456962 0 0
0.549966 0 0
0.645533 0 0
0.741878 0 0
0.834226 0 0
0.920714 0 0
0.978347 0 0
0.987686 0 0
0.996979 0 0
1 0 0
1 0 0
1 0 0
1 0 0
1 0 0
1 0 0
1 0 0
1 0 0
1 0 0
1 0 0
1 0 0
0.0156252 0.0156252 0.0156252
0.0156252 0.0156252 0.0156252
0.0156252 0.0156252 0.0156252
0.0156252 0.0156252 0.0156252
0.0156252 0.0156252 0.0156252
0.0214542 0.0138857 0.0145266
0.0432898 0.00749218 0.0103761
0.0714427 0.000457771 0.0049897
0.110094 0 0.00108339
0.159121 0 0
0.218326 0 0
0.287221 0 0
0.366278 0 0
0.454063 0 0
0.54583 0 0
0.640757 0 0
0.736522 0 0
0.828504 0 0
0.914946 0 0
0.977157 0 0
0.986648 0 0
0.996185 0 0
1 0 0
1 0 0
1 0 0
1 0 0
1 0 0
1 0 0
1 0 0
1 0 0
1 0 0
1 0 0
1 0 0
0.0127108 0.0333104 0.018555
0.0126345 0.0337224 0.018616
0.0125429 0.0343481 0.0187228
0.0124208 0.0350652 0.0188449
0.0122683 0.0360113 0.0189975
0.018677 0.0340429 0.0178073
0.0404212 0.0278782 0.0138399
0.0676432 0.0201877 0.00866712
0.105257 0.0116426 0.00234989
0.152834 0.00419623 9.15541e-05
0.210437 0 0
0.277623 0 0
0.356481 0 0
0.44303 0 0
0.534249 0 0
0.628016 0 0
0.723156 0 0
0.815625 0 0
0.902464 0 0
0.972854 0 0
0.983658 0 0
0.994369 0 0
1 0 0
1 0 0
1 0 0
1 0 0
1 0 0
1 0 0
1 0 0
1 0 0
1 0 0
1 0 0
1 0 0
0.00816358 0.0612955 0.0233463
0.00796521 0.0625772 0.0235752
0.00782788 0.0634318 0.0237125
0.00775158 0.0638437 0.0237888
0.00770581 0.0641337 0.0238499
0.014786 0.0613718 0.0224308
0.0365454 0.0547799 0.0183566
0.0633707 0.046952 0.0133669
0.100938 0.0360723 0.00636301
0.148241 0.0241703 0.00192264
0.205417 0.0121004 0
0.272099 0.00138857 0
0.350561 0.000259403 0
0.436454 0 0
0.527031 0 0
0.620722 0 0
0.715831 0 0
0.807446 0 0
0.894621 0 0
0.968231 0 0
0.980591 0 0
0.99292 0 0
1 0 0
1 0 0
1 0 0
1 0 0
1 0 0
1 0 0
1 0 0
1 0 0
1 0 0
1 0 0
1 0 0
0.00340276 0.0979934 0.0296941
0.00331121 0.0988174 0.0298314
0.00325017 0.099443 0.0299382
0.00323491 0.0996414 0.0299687
0.00323491 0.0996414 0.0299687
0.0103456 0.0962081 0.0283665
0.0313268 0.0892958 0.0241855
0.0580758 0.081239 0.0192416
0.0955673 0.0703899 0.0122683
0.142687 0.0566262 0.00538643
0.199573 0.0399786 0.000839246
0.266224 0.0217288 0
0.344213 0.0119783 0
0.429984 0.00407416 0
0.520012 0 0
0.613672 0 0
0.708263 0 0
0.799939 0 0
0.887251 0 0
0.962493 0 0
0.976883 0 0
0.991287 0 0
1 0 0
1 0 0
1 0 0
1 0 0
1 0 0
1 0 0
1 0 0
1 0 0
1 0 0
1 0 0
1 0 0
0 0.143603 0.0375067
0 0.144457 0.037644
0 0.144747 0.0376898
0 0.144747 0.0376898
0 0.144457 0.037644
0.00616464 0.140154 0.0358434
0.0246586 0.132799 0.0315862
0.0513008 0.124697 0.0266575
0.0887465 0.113542 0.0196536
0.135973 0.0995956 0.0108186
0.19263 0.0831311 0.00347906
0.259403 0.0635691 0
0.337255 0.0410773 0
0.422553 0.0208133 0
0.51252 0.00836194 0
0.605661 0.00418097 0
0.699763 0.000808728 0
0.79147 0 0
0.87892 0 0
0.955352 0 0
0.972503 0 0
0.98938 0 0
1 0 0
1 0 0
1 0 0
1 0 0
1 0 0
1 0 0
1 0 0
1 0 0
1 0 0
1 0 0
1 0 0
0 0.200748 0.0472725
0 0.201022 0.0473335
0 0.201312 0.0473793
0 0.201022 0.0473335
0 0.200458 0.0472267
0.00341802 0.196063 0.0453651
0.0159457 0.188434 0.0410773
0.0427558 0.180011 0.0360723
0.0801862 0.168856 0.0290837
0.127306 0.154955 0.0202487
0.18407 0.138186 0.0101015
0.250523 0.118715 0
0.328405 0.0959335 0
0.413275 0.0716259 0
0.503243 0.0466926 0
0.596384 0.0225223 0
0.690532 0.00424201 0
0.782238 0 0
0.869291 0 0
0.94667 0 0
0.966949 0 0
0.98706 0 0
1 0 0
1 0 0
1 0 0
1 0 0
1 0 0
1 0 0
1 0 0
1 0 0
1 0 0
1 0 0
1 0 0
0 0.271565 0.0595102
0 0.271931 0.0595712
0 0.271931 0.0595712
0 0.271565 0.0595102
0 0.270466 0.0593271
0.00102235 0.265431 0.0572976
0.00830091 0.257099 0.0528725
0.0321508 0.248539 0.0478676
0.0695354 0.236988 0.0407874
0.116503 0.223117 0.0319829
0.173342 0.206332 0.0213931
0.239902 0.186557 0.00967422
0.317372 0.163973 0.00183108
0.402289 0.138888 0
0.492241 0.112673 0
0.584863 0.0862898 0
0.679118 0.0614023 0
0.770352 0.0419471 0
0.85745 0.0247654 0
0.935805 0.00885023 0
0.960067 0.00199893 0
0.984192 0 0
1 0 0
1 0 0
1 0 0
1 0 0
1 0 0
1 0 0
1 0 0
1 0 0
1 0 0
1 0 0
1 0 0
0 0.352041 0.0732738
0 0.352041 0.0732738
0 0.352041 0.0732738
0 0.351171 0.0731365
0 0.349859 0.0729076
0 0.343771 0.0706951
0.0037232 0.335058 0.0662699
0.0200351 0.326406 0.0611734
0.0574044 0.314382 0.0539864
0.104601 0.300008 0.0451209
0.161608 0.283146 0.0345006
0.227832 0.263539 0.0222629
0.305379 0.240589 0.00927749
0.390265 0.215915 0.00267033
0.479789 0.189868 0
0.572534 0.16286 0
0.666758 0.135424 0
0.757931 0.108812 0
0.844617 0.0835737 0
0.923583 0.0607462 0
0.952361 0.0465705 0
0.981033 0.038056 0
1 0.0323796 0
1 0.0278172 0
1 0.0257572 0
1 0.0248875 0
1 0.0249027 0
1 0.0253147 0
1 0.0257267 0
1 0.0261234 0
1 0.0265354 0
1 0.0269474 0
1 0.0275578 0
0 0.440467 0.0883803
0 0.439979 0.0882887
0 0.439979 0.0882887
0 0.438987 0.0881208
0 0.437003 0.0877852
0 0.43035 0.0854963
0.00155642 0.421378 0.0810712
0.00817884 0.41207 0.0757305
0.0443275 0.400015 0.0685283
0.0913863 0.385504 0.0597086
0.148287 0.3682 0.0490578
0.214481 0.348623 0.0365606
0.292042 0.325689 0.0221256
0.376532 0.301198 0.009308
0.466163 0.274678 0.00155642
0.558953 0.247639 0
0.653071 0.220264 0
0.744228 0.193713 0
0.830915 0.168551 0
0.910201 0.145068 0
0.943847 0.124941 0
0.976898 0.108568 0
0.999039 0.0949264 0
0.999969 0.0852216 0
1 0.0801251 0
1 0.0783093 0
1 0.0784924 0
1 0.0794842 0
1 0.0804761 0
1 0.0814679 0
1 0.0824598 0
1 0.0834516 0
1 0.0844434 0
0 0.535531 0.104677
0 0.535531 0.104677
0 0.534539 0.104509
0 0.533547 0.104341
0 0.531563 0.10399
0 0.524834 0.101656
0.000183108 0.515328 0.0971237
0.000991836 0.50605 0.0918135
0.031342 0.493828 0.0845808
0.0767681 0.479332 0.0757458
0.13373 0.461997 0.0650645
0.199664 0.44239 0.0526131
0.277455 0.418952 0.0381018
0.362097 0.393957 0.0227817
0.451637 0.367971 0.00944533
0.544381 0.340566 0
0.63801 0.313329 0
0.729259 0.286793 0
0.815976 0.261585 0
0.895262 0.238071 0
0.934432 0.217945 0
0.970413 0.201144 0
0.995087 0.187564 0
0.999802 0.177844 0
1 0.172641 0
1 0.170794 0
1 0.170581 0
1 0.171572 0
1 0.172564 0
1 0.173053 0
1 0.174044 0
1 0.175036 0
1 0.176028 0
0 0.63714 0.122255
0 0.636606 0.122164
0 0.635554 0.121981
0 0.634485 0.121798
0 0.63238 0.121431
0 0.624781 0.118837
0 0.615015 0.114168
0.000183108 0.605646 0.108965
0.0186923 0.593439 0.101717
0.0612345 0.578302 0.0926833
0.118059 0.560967 0.082002
0.184649 0.54078 0.0694743
0.26186 0.517952 0.0549935
0.346532 0.492943 0.0392462
0.436164 0.466423 0.0234684
0.528435 0.439063 0.0091249
0.622248 0.411337 0.00175479
0.713451 0.384833 0
0.800137 0.359686 0
0.87982 0.336309 0
0.924834 0.316213 0
0.962493 0.299474 0
0.989181 0.285832 0
0.999496 0.275654 0
1 0.270542 0
1 0.268742 0
1 0.268467 0
1 0.269535 0
1 0.270054 0
1 0.271122 0
1 0.272175 0
1 0.272709 0
1 0.273762 0
0 0.73904 0.139773
0 0.738506 0.139681
0 0.737423 0.139498
0 0.736339 0.139315
0 0.733639 0.138842
0 0.725856 0.136172
0 0.716045 0.131456
0.000183108 0.706554 0.126253
0.00787366 0.693843 0.118959
0.04654 0.678645 0.109834
0.102525 0.661265 0.0991226
0.168902 0.641138 0.0867018
0.246128 0.617777 0.0721294
0.330846 0.592752 0.0563211
0.420508 0.566217 0.0395819
0.512779 0.538857 0.0227512
0.606607 0.511131 0.00889601
0.697307 0.484779 0.00248722
0.784115 0.459113 0
0.864164 0.435737 0
0.915038 0.415717 0
0.954513 0.398962 0
0.983078 0.38529 0
0.999222 0.375128 0
1 0.370092 0
1 0.367758 0
1 0.367987 0
1 0.368521 0
1 0.369055 0
1 0.370138 0
1 0.371221 0
1 0.371756 0
1 0.372839 0
0 0.840497 0.157183
0 0.83946 0.157
0 0.838407 0.156817
0 0.837369 0.156649
0 0.834775 0.156191
0 0.826551 0.153399
0 0.817334 0.148775
0 0.807385 0.143481
0 0.794583 0.136172
0.0334173 0.779477 0.127062
0.0869459 0.762081 0.11632
0.153521 0.741329 0.103807
0.230671 0.718502 0.0894331
0.315572 0.692912 0.0734417
0.404822 0.666545 0.056733
0.497093 0.639292 0.0394903
0.590784 0.611566 0.0220798
0.681636 0.58468 0.00851453
0.767941 0.559625 0.0009308
0.848661 0.535531 0
0.904906 0.515694 0
0.946334 0.498955 0
0.976944 0.484733 0
0.998535 0.474617 0
0.999908 0.46952 0
1 0.467674 0
1 0.467338 0
1 0.467857 0
1 0.468376 0
1 0.469413 0
1 0.469932 0
1 0.47097 0
1 0.471504 0
0 0.938933 0.174136
0 0.937896 0.173953
0 0.936858 0.17377
0 0.935286 0.173495
0 0.932677 0.173053
0 0.924392 0.170199
0 0.914626 0.165423
0 0.904616 0.15996
0 0.892012 0.152834
0.0246738 0.876799 0.14374
0.0719158 0.859342 0.132967
0.138628 0.838666 0.120409
0.215457 0.815442 0.105882
0.300328 0.790249 0.0900587
0.389685 0.763272 0.0733196
0.481971 0.736019 0.0560616
0.575677 0.708293 0.0385138
0.666499 0.681407 0.0223087
0.752789 0.655909 0.00910964
0.833112 0.632563 0
0.893568 0.612085 0
0.937423 0.5953 0
0.970428 0.581613 0
0.996033 0.570962 0
0.999191 0.565881 0
1 0.5635 0
1 0.563165 0
1 0.563684 0
1 0.564721 0
1 0.56524 0
1 0.565774 0
1 0.566812 0
1 0.56733 0
0 0.963195 0.189441
0 0.962966 0.189273
0 0.962737 0.18912
0 0.962417 0.188876
0 0.961852 0.188464
0 0.958541 0.185641
0 0.953033 0.18088
0 0.946853 0.175494
0 0.938491 0.168307
0.0163272 0.92784 0.159182
0.0579843 0.915099 0.148318
0.124681 0.900603 0.135836
0.201587 0.883757 0.121386
0.286656 0.864897 0.105425
0.375601 0.844297 0.0887465
0.467887 0.821729 0.0714885
0.561593 0.793988 0.0540017
0.652399 0.767117 0.0370947
0.738628 0.74165 0.0216831
0.818967 0.71783 0.00840772
0.880415 0.697322 0.00196841
0.927459 0.680461 0
0.963546 0.666331 0
0.990127 0.656123 0
0.997345 0.650965 0
1 0.648508 0
1 0.648081 0
1 0.648524 0
1 0.648966 0
1 0.649409 0
1 0.649851 0
1 0.650278 0
1 0.651164 0
0 0.98407 0.203403
0 0.983841 0.203265
0 0.98352 0.203052
0 0.983185 0.202853
0 0.98262 0.202502
0 0.980468 0.199756
0 0.977371 0.195056
0 0.97409 0.189792
0 0.969757 0.182559
0.00849927 0.96408 0.173342
0.0452277 0.956939 0.162478
0.111559 0.948196 0.150057
0.188968 0.936309 0.135515
0.273686 0.923415 0.1196
0.363088 0.908873 0.102876
0.455497 0.891325 0.0855726
0.548699 0.867262 0.0682689
0.63946 0.843626 0.0513466
0.725643 0.819944 0.0352636
0.805585 0.796216 0.0202792
0.866941 0.775692 0.00796521
0.917449 0.758404 0.0024567
0.95697 0.744625 0.000579843
0.983627 0.73402 3.0518e-05
0.99527 0.728832 0
1 0.726329 0
1 0.725902 0
1 0.726299 0
1 0.726299 0
1 0.726696 0
1 0.727489 0
1 0.727886 0
1 0.728283 0
0 1 0.215732
0 1 0.215625
0 1 0.215457
0 1 0.215244
0 1 0.214984
0 1 0.212345
0 1 0.207767
0 1 0.202518
0 1 0.195331
0.00132753 1 0.186175
0.0338293 0.997909 0.175311
0.100343 0.99202 0.162768
0.177157 0.980423 0.148241
0.262348 0.967453 0.132326
0.351461 0.953964 0.115679
0.443992 0.939971 0.0983597
0.537194 0.925948 0.0810559
0.627909 0.911147 0.0639658
0.714031 0.892424 0.0478218
0.793973 0.868589 0.0328222
0.855344 0.848081 0.0199893
0.90866 0.831205 0.0093843
0.950866 0.817151 0.00218204
0.977646 0.806683 0.000106813
0.9935 0.801343 0
1 0.798901 0
1 0.798169 0
1 0.798566 0
1 0.798962 0
1 0.799359 0
1 0.799756 0
1 0.800061 1.5259e-05
1 0.800366 1.5259e-05
0 1 0.225666
0 1 0.225559
0 1 0.225391
0 1 0.225238
0 1 0.224918
0 1 0.222232
0 1 0.217624
0 1 0.212329
0 1 0.205142
0.000366217 1 0.195956
0.0299535 0.999405 0.185061
0.0917678 0.997818 0.172564
0.168551 0.994507 0.158175
0.253437 0.9906 0.142199
0.343053 0.98526 0.125475
0.43505 0.977691 0.1084
0.528298 0.963775 0.0909133
0.618921 0.950149 0.0739757
0.705058 0.935363 0.0578317
0.784894 0.919554 0.0428473
0.846265 0.903838 0.0298772
0.900908 0.888014 0.0190127
0.944686 0.874266 0.0106966
0.972808 0.863737 0.00550851
0.990494 0.858412 0.0030518
0.998703 0.855558 0.00177005
1 0.855039 0.00137331
1 0.855039 0.00137331
1 0.855344 0.00138857
1 0.855665 0.00138857
1 0.85597 0.00140383
1 0.856275 0.00140383
1 0.85658 0.00141909
0 1 0.232868
0 1 0.232792
0 1 0.232685
0 1 0.232547
0 1 0.232364
0 1 0.229755
0 1 0.225254
0 1 0.22005
0 1 0.212909
0 1 0.203754
0.0272831 1 0.192859
0.0850385 1 0.180377
0.161929 1 0.166018
0.24686 1 0.150057
0.336004 0.998978 0.13344
0.428458 0.995987 0.116274
0.521706 0.98793 0.0987411
0.611872 0.979812 0.0819257
0.697963 0.969741 0.0658579
0.77763 0.957671 0.0508736
0.838987 0.945434 0.0378424
0.893904 0.932601 0.027039
0.938903 0.920348 0.0182193
0.969055 0.909773 0.0116579
0.987457 0.904387 0.00820935
0.997131 0.901534 0.00636301
1 0.900938 0.00582895
1 0.900938 0.00582895
1 0.901152 0.00587472
1 0.901366 0.00590524
1 0.901366 0.00590524
1 0.901579 0.00593576
1 0.901793 0.00598154
0 1 0.237995
0 1 0.237964
0 1 0.237903
0 1 0.237842
0 1 0.23772
0 1 0.235309
0 1 0.230945
0 1 0.225742
0 1 0.218647
0 1 0.209522
0.0256352 1 0.198672
0.0802319 1 0.186175
0.157183 1 0.171847
0.242222 1 0.155917
0.331365 1 0.1393
0.423239 1 0.12221
0.516472 1 0.104707
0.606714 0.999359 0.0878767
0.692729 0.994202 0.0718547
0.772198 0.983871 0.0568704
0.833585 0.974334 0.0438544
0.888518 0.965164 0.0330663
0.934127 0.955627 0.0242618
0.966278 0.945312 0.0177005
0.984787 0.939681 0.0142214
0.99556 0.936858 0.0124056
1 0.936248 0.0118563
1 0.936248 0.0118563
1 0.93637 0.0118715
1 0.93637 0.0118715
1 0.936477 0.0118868
1 0.936599 0.011902
1 0.936599 0.011902
0 1 0.241093
0 1 0.241093
0 1 0.241077
0 1 0.241062
0 1 0.241032
0 1 0.238697
0 1 0.234333
0 1 0.228962
0 1 0.221912
0 1 0.212863
0.0248722 1 0.201984
0.0778668 1 0.189364
0.154833 1 0.175036
0.239963 1 0.159197
0.329168 1 0.14255
0.421088 1 0.125353
0.51429 1 0.107866
0.604517 0.999893 0.0910353
0.690028 0.998947 0.0750896
0.76939 0.996841 0.0601358
0.830747 0.99237 0.0472572
0.885557 0.985122 0.0364996
0.931411 0.976257 0.0276799
0.96466 0.96614 0.0209964
0.983185 0.960723 0.0175174
0.994537 0.957916 0.0157168
1 0.957076 0.0151522
1 0.957076 0.0151522
1 0.957198 0.0151675
1 0.957198 0.0151675
1 0.957305 0.0151827
1 0.957427 0.015198
1 0.957534 0.0152132
0 1 0.24181
0 1 0.241794
0 1 0.241779
0 1 0.241764
0 1 0.241733
0 1 0.239384
0 1 0.235111
0 1 0.229877
0 1 0.222873
0 1 0.213779
0.0249638 1 0.20293
0.0776684 1 0.190372
0.154482 1 0.176074
0.239261 1 0.160235
0.328527 1 0.143557
0.420508 1 0.126375
0.513726 1 0.108995
0.60383 1 0.0922103
0.689708 1 0.0761883
0.768948 0.999847 0.061265
0.829984 0.998352 0.0483864
0.884718 0.994781 0.037644
0.930617 0.988418 0.0288243
0.96434 0.978363 0.0221103
0.982681 0.972915 0.0186465
0.994278 0.970092 0.016907
1 0.969253 0.0164187
1 0.969299 0.0164187
1 0.969299 0.0164187
1 0.96936 0.0164187
1 0.96936 0.0164187
1 0.969406 0.0164187
1 0.969406 0.0164187
0 1 0.242008
0 1 0.242008
0 1 0.242008
0 1 0.242008
0 1 0.242008
0 1 0.239612
0 1 0.235309
0 1 0.230167
0 1 0.223133
