luts/varicam_official/Golden_2.cube
TITLE "Generated by Resolve"
LUT_3D_SIZE 33
0.0156252 0.0156252 0.0156252
0.0156252 0.0156252 0.0156252
0.0156252 0.0156252 0.0156252
0.0156252 0.0156252 0.0156252
0.0156252 0.0156252 0.0156252
0.0327001 0.0105135 0.0123903
0.0623636 0.00273136 0.00672923
0.100694 0 0.00199893
0.150271 0 0
0.211337 0 0
0.282856 0 0
0.365591 0 0
0.456962 0 0
0.552392 0 0
0.650462 0 0
0.74902 0 0
0.843275 0 0
0.931594 0 0
0.979858 0 0
0.989487 0 0
0.999222 0 0
1 0 0
1 0 0
1 0 0
1 0 0
1 0 0
1 0 0
1 0 0
1 0 0
1 0 0
1 0 0
1 0 0
1 0 0
0.0156252 0.0156252 0.0156252
0.0156252 0.0156252 0.0156252
0.0156252 0.0156252 0.0156252
0.0156252 0.0156252 0.0156252
0.0156252 0.0156252 0.0156252
0.031754 0.0107881 0.0125734
0.0611887 0.00302129 0.00694286
0.0995651 0 0.00210575
0.149233 0 0
0.210346 0 0
0.282856 0 0
0.366384 0 0
0.458778 0 0
0.555779 0 0
0.655406 0 0
0.755215 0 0
0.851835 0 0
0.941604 0 0
0.981323 0 0
0.991531 0 0
1 0 0
1 0 0
1 0 0
1 0 0
1 0 0
1 0 0
1 0 0
1 0 0
1 0 0
1 0 0
1 0 0
1 0 0
1 0 0
0.0156252 0.0156252 0.0156252
0.0156252 0.0156252 0.0156252
0.0156252 0.0156252 0.0156252
0.0156252 0.0156252 0.0156252
0.0156252 0.0156252 0.0156252
0.0306096 0.0111391 0.0127871
0.0601511 0.00328069 0.00714122
0.098436 0 0.00221256
0.148196 0 0
0.21001 0 0
0.283253 0 0
0.368383 0 0
0.462394 0 0
0.561593 0 0
0.663813 0 0
0.766629 0 0
0.868086 0 0
0.968566 0 0
0.98497 0 0
0.994995 0 0
1 0 0
1 0 0
1 0 0
1 0 0
1 0 0
1 0 0
1 0 0
1 0 0
1 0 0
1 0 0
1 0 0
1 0 0
1 0 0
0.0156252 0.0156252 0.0156252
0.0156252 0.0156252 0.0156252
0.0156252 0.0156252 0.0156252
0.0156252 0.0156252 0.0156252
0.0156252 0.0156252 0.0156252
0.0294652 0.0114748 0.0130007
0.0591135 0.00354009 0.00733959
0.0975052 0 0.00230411
0.147677 0 0
0.210666 0 0
0.286046 0 0
0.372778 0 0
0.470985 0 0
0.576135 0 0
0.69247 0 0
0.799954 0 0
0.897231 0 0
0.97641 0 0
0.986191 0 0
0.995819 0 0
1 0 0
1 0 0
1 0 0
1 0 0
1 0 0
1 0 0
1 0 0
1 0 0
1 0 0
1 0 0
1 0 0
1 0 0
1 0 0
0.0156252 0.0156252 0.0156252
0.0156252 0.0156252 0.0156252
0.0156252 0.0156252 0.0156252
0.0156252 0.0156252 0.0156252
0.0156252 0.0156252 0.0156252
0.0280308 0.011902 0.0132753
0.0579538 0.00383001 0.00756847
0.0967575 0 0.00238041
0.148196 0 0
0.214008 0 0
0.294438 0 0
0.395468 0 0
0.499077 0 0
0.604242 0 0
0.708278 0 0
0.808042 0 0
0.90071 0 0
0.976501 0 0
0.986084 0 0
0.995529 0 0
1 0 0
1 0 0
1 0 0
1 0 0
1 0 0
1 0 0
1 0 0
1 0 0
1 0 0
1 0 0
1 0 0
1 0 0
1 0 0
0.0156252 0.0156252 0.0156252
0.0156252 0.0156252 0.0156252
0.0156252 0.0156252 0.0156252
0.0156252 0.0156252 0.0156252
0.0156252 0.0156252 0.0156252
0.0261234 0.0124819 0.0136416
0.0565194 0.00418097 0.00784314
0.0973068 0 0.00231937
0.156786 0 0
0.227985 0 0
0.309636 0 0
0.400443 0 0
0.497627 0 0
0.598901 0 0
0.700374 0 0
0.798047 0 0
0.8907 0 0
0.975235 0 0
0.98468 0 0
0.994034 0 0
1 0 0
1 0 0
1 0 0
1 0 0
1 0 0
1 0 0
1 0 0
1 0 0
1 0 0
1 0 0
1 0 0
1 0 0
1 0 0
0.0135653 0.0281071 0.0176852
0.0134432 0.0288396 0.0178073
0.0133211 0.0295567 0.0179294
0.0131838 0.030396 0.0180667
0.0129854 0.0316472 0.0182803
0.0218814 0.0300145 0.0167849
0.0525826 0.0216526 0.0110933
0.0917525 0.0128786 0.00440986
0.142855 0.00491341 0.000106813
0.206134 0 0
0.281178 0 0
0.366766 0 0
0.460456 0 0
0.558206 0 0
0.657298 0 0
0.755291 0 0
0.849134 0 0
0.934691 0 0
0.977234 0 0
0.988037 0 0
0.998749 0 0
1 0 0
1 0 0
1 0 0
1 0 0
1 0 0
1 0 0
1 0 0
1 0 0
1 0 0
1 0 0
1 0 0
1 0 0
0.00852979 0.0590219 0.0229496
0.00793469 0.0627146 0.0235904
0.00724804 0.0669718 0.0243381
0.00700389 0.0685435 0.0246128
0.00695811 0.0688182 0.0246586
0.0167086 0.0634928 0.0224765
0.0466011 0.0536812 0.0167544
0.0842756 0.0423133 0.00968948
0.133013 0.0289006 0.00297551
0.193576 0.0149081 0
0.265507 0.00155642 0
0.349569 0.000274662 0
0.440787 0 0
0.536034 0 0
0.633814 0 0
0.730892 0 0
0.823896 0 0
0.910842 0 0
0.970474 0 0
0.982849 0 0
0.995239 0 0
1 0 0
1 0 0
1 0 0
1 0 0
1 0 0
1 0 0
1 0 0
1 0 0
1 0 0
1 0 0
1 0 0
1 0 0
0.00213626 0.110369 0.0318151
0.00195315 0.112215 0.0321202
0.00183108 0.113451 0.0323339
0.00180056 0.113664 0.0323796
0.00190738 0.112627 0.0321965
0.0105135 0.10547 0.0297551
0.0390478 0.0942855 0.0238499
0.0758221 0.0822766 0.0168612
0.123339 0.0678416 0.00865187
0.18204 0.0502632 0.00135805
0.253376 0.0291447 0.000106813
0.335851 0.0158083 0
0.425177 0.00537118 0
0.518791 0 0
0.615427 0 0
0.712001 0 0
0.804959 0 0
0.891752 0 0
0.962753 0 0
0.977417 0 0
0.991836 0 0
1 0 0
1 0 0
1 0 0
1 0 0
1 0 0
1 0 0
1 0 0
1 0 0
1 0 0
1 0 0
1 0 0
1 0 0
0 0.169192 0.041886
0 0.170047 0.0420233
0 0.170321 0.0420691
0 0.169757 0.0419776
0 0.167773 0.0416419
0.00535592 0.158282 0.0389105
0.0298009 0.145373 0.0327306
0.0660868 0.132464 0.0256962
0.112566 0.117586 0.016846
0.17023 0.0998093 0.00637827
0.241093 0.0782025 0.000808728
0.321843 0.0540322 0
0.409888 0.0313573 0
0.502525 0.0146334 0
0.598016 0.00712596 0
0.694133 0.0015259 0
0.786938 0 0
0.874723 0 0
0.953597 0 0
0.970886 0 0
0.988022 0 0
1 0 0
1 0 0
1 0 0
1 0 0
1 0 0
1 0 0
1 0 0
1 0 0
1 0 0
1 0 0
1 0 0
1 0 0
0 0.238407 0.0537881
0 0.238773 0.0538491
0 0.238407 0.0537881
0 0.236942 0.0535286
0 0.23331 0.052903
0.00213626 0.22211 0.0500038
0.0194247 0.206912 0.0434272
0.0545663 0.192905 0.0363165
0.100221 0.177249 0.0274662
0.156832 0.159213 0.0166323
0.227466 0.137179 0.00355535
0.307424 0.11281 0.000274662
0.393927 0.0868849 0
0.485664 0.0594492 0
0.581125 0.0312657 0
0.676738 0.0105135 0
0.769375 0.00280766 0
0.857542 0.00167849 0
0.939086 0.000701915 0
0.963058 0.000228885 0
0.983352 0 0
1 0 0
1 0 0
1 0 0
1 0 0
1 0 0
1 0 0
1 0 0
1 0 0
1 0 0
1 0 0
1 0 0
1 0 0
0 0.317968 0.0674754
0 0.31754 0.0673991
0 0.316228 0.0671855
0 0.313603 0.0667277
0 0.308797 0.065919
0 0.295689 0.0628824
0.00956741 0.279774 0.0561685
0.0413062 0.265553 0.0490883
0.086244 0.249714 0.0402991
0.142641 0.231052 0.0294194
0.212314 0.208972 0.0162966
0.290806 0.18468 0.00526436
0.376699 0.158587 0
0.468055 0.130907 0
0.562615 0.102647 0
0.658228 0.0759747 0
0.750729 0.0524147 0
0.839078 0.0320592 0
0.920317 0.0134127 0
0.953506 0.0040589 0
0.9776 0 0
1 0 0
1 0 0
1 0 0
1 0 0
1 0 0
1 0 0
1 0 0
1 0 0
1 0 0
1 0 0
1 0 0
1 0 0
0 0.405783 0.0824292
0 0.404913 0.0822766
0 0.402731 0.0819104
0 0.399664 0.0813916
0 0.394858 0.0805676
0 0.382559 0.0778821
0.0043183 0.363424 0.0707103
0.0263676 0.348165 0.0634165
0.0705425 0.331746 0.0546426
0.127199 0.312078 0.0437324
0.195819 0.289693 0.0305638
0.273579 0.265415 0.0166629
0.358541 0.239048 0.0056611
0.449134 0.211032 0
0.543862 0.182162 0
0.638911 0.153643 0
0.731151 0.125917 0
0.820081 0.0995499 0
0.901503 0.0751202 0
0.942489 0.0580453 0
0.970855 0.0458381 0
0.999222 0.0383612 0
1 0.0333257 0
1 0.0295567 0
1 0.0274205 0
1 0.0271153 0
1 0.0273594 0
1 0.0275578 0
1 0.0277562 0
1 0.0281682 0
1 0.0285801 0
1 0.0287785 0
1 0.0291905 0
0 0.502358 0.0989853
0 0.500862 0.0987411
0 0.497902 0.0982223
0 0.494438 0.0976272
0 0.488487 0.0966049
0 0.475776 0.0940719
0.00135805 0.453544 0.0863508
0.0137026 0.437263 0.0788739
0.0541848 0.419593 0.0699779
0.110674 0.399588 0.0591287
0.178531 0.377142 0.0459907
0.255833 0.351919 0.0311742
0.339956 0.325185 0.0164645
0.429725 0.297246 0.00369268
0.524514 0.268208 0.000686656
0.618997 0.239292 0
0.711528 0.210956 0
0.800671 0.18407 0
0.881621 0.159762 0
0.930098 0.138384 0
0.962966 0.119142 0
0.994858 0.103716 0
0.999451 0.0928359 0
1 0.0853895 0
1 0.0803845 0
1 0.0798962 0
1 0.0799878 0
1 0.0799878 0
1 0.0809796 0
1 0.0814679 0
1 0.0819562 0
1 0.0824598 0
1 0.0834516 0
0 0.601663 0.116121
0 0.599542 0.115755
0 0.596368 0.115206
0 0.591608 0.114382
0 0.58526 0.113283
0 0.572656 0.110918
0 0.548379 0.10277
0.00497444 0.530663 0.0951247
0.0370184 0.512779 0.086305
0.0934768 0.492119 0.0753033
0.160449 0.469169 0.0622568
0.236851 0.443656 0.0475319
0.320485 0.417075 0.0317693
0.409979 0.388754 0.0151827
0.504234 0.359503 0.00349432
0.598581 0.330663 0
0.690867 0.302403 0
0.780682 0.274861 0
0.861601 0.250416 0
0.91635 0.228367 0
0.953674 0.208789 0
0.986984 0.193088 0
0.997208 0.181827 0
1 0.173434 0
1 0.168185 0
1 0.167056 0
1 0.167117 0
1 0.167117 0
1 0.167605 0
1 0.168109 0
1 0.168109 0
1 0.168597 0
1 0.169589 0
0 0.701793 0.133394
0 0.699092 0.132921
0 0.695842 0.132372
0 0.69044 0.131441
0 0.68397 0.130327
0 0.671489 0.128176
0 0.646128 0.119707
0.00205997 0.628611 0.112291
0.0200351 0.610391 0.10341
0.0754406 0.589715 0.0923629
0.142031 0.566003 0.0793317
0.217334 0.541222 0.0648508
0.300481 0.514107 0.0489204
0.389532 0.485283 0.0320134
0.483543 0.455894 0.0160372
0.577462 0.426596 0.00537118
0.6701 0.397681 0
0.75935 0.370214 0
0.840986 0.345113 0
0.901625 0.322835 0
0.943771 0.302434 0
0.977172 0.287144 0
0.993332 0.274937 0
1 0.26569 0
1 0.260533 0
1 0.258976 0
1 0.258412 0
1 0.258412 0
1 0.258412 0
1 0.258946 0
1 0.258946 0
1 0.259464 0
1 0.259998 0
0 0.801663 0.1505
0 0.798962 0.150042
0 0.795193 0.149401
0 0.789792 0.14847
0 0.782773 0.147265
0 0.770901 0.145235
0 0.744961 0.136797
0.000518807 0.726879 0.129412
0.00758373 0.707958 0.120424
0.0581826 0.6869 0.109331
0.123507 0.663294 0.0964523
0.198322 0.638086 0.0820172
0.280583 0.610666 0.0661479
0.369635 0.581796 0.0491646
0.462928 0.552087 0.0314183
0.556756 0.522774 0.0158541
0.649607 0.493782 0.00425727
0.738933 0.465751 0.000503548
0.820645 0.440635 0
0.886061 0.417716 0
0.933898 0.397024 0
0.967315 0.381109 0
0.988495 0.368582 0
1 0.358923 0
1 0.353307 0
1 0.351385 0
1 0.350698 0
1 0.350164 0
1 0.350164 0
1 0.350164 0
1 0.350698 0
1 0.350698 0
1 0.351247 0
0 0.897261 0.166964
0 0.894148 0.166415
0 0.890501 0.165789
0 0.885283 0.164889
0 0.878004 0.163638
0 0.866545 0.161669
0 0.841077 0.15346
0 0.822904 0.146059
0 0.804074 0.137133
0.0423133 0.782971 0.126131
0.105135 0.75967 0.11339
0.179431 0.734173 0.0990616
0.261204 0.706996 0.08336
0.349874 0.677806 0.0662699
0.442817 0.648386 0.0485847
0.536568 0.618677 0.0308232
0.629023 0.589807 0.0142672
0.718471 0.561791 0.00233463
0.80032 0.536019 0
0.869902 0.512856 0
0.924041 0.491981 0
0.957443 0.475624 0
0.983124 0.462135 0
1 0.452186 0
1 0.446586 0
1 0.443793 0
1 0.44303 0
1 0.442496 0
1 0.442496 0
1 0.442496 0
1 0.442496 0
1 0.442496 0
1 0.442496 0
0 0.953475 0.182391
0 0.952697 0.181827
0 0.951812 0.18117
0 0.950698 0.180362
0 0.949126 0.179232
0 0.946792 0.177523
0 0.934157 0.16965
0 0.916106 0.162173
0 0.896925 0.153307
0.0298161 0.87538 0.142351
0.0874495 0.851789 0.129641
0.160739 0.826658 0.115434
0.241993 0.799619 0.0997482
0.331106 0.770184 0.0827039
0.423377 0.740429 0.065095
0.517037 0.710765 0.0472877
0.609735 0.681346 0.0298466
0.698772 0.65301 0.0145876
0.781003 0.627237 0.00494392
0.85333 0.603922 0
0.911055 0.582574 0
0.94754 0.565866 0
0.976333 0.552758 0
0.998169 0.541894 0
0.999496 0.536339 0
1 0.532753 0
1 0.531914 0
1 0.531395 0
1 0.530877 0
1 0.530877 0
1 0.530358 0
1 0.530358 0
1 0.530358 0
0 0.973327 0.196643
0 0.972564 0.196155
0 0.971679 0.195605
0 0.970443 0.194705
0 0.968887 0.193576
0 0.966537 0.191882
0 0.957687 0.184283
0 0.948867 0.176867
0 0.93817 0.168093
0.0191043 0.924666 0.157351
0.070634 0.90869 0.144839
0.143328 0.890349 0.130739
0.224216 0.869657 0.115129
0.31284 0.846677 0.0981918
0.405234 0.821744 0.0805982
0.49836 0.794354 0.0628367
0.590723 0.765347 0.0453193
0.679728 0.737331 0.0284886
0.762875 0.711131 0.0141909
0.836622 0.687495 0.0039826
0.896284 0.666758 0.000442512
0.936812 0.649592 0
0.968826 0.635782 0
0.994247 0.62475 0
0.99823 0.619272 0
1 0.615579 0
1 0.614221 0
1 0.613779 0
1 0.613352 0
1 0.612909 0
1 0.612909 0
1 0.612467 0
1 0.612467 0
0 0.99292 0.208972
0 0.992142 0.208484
0 0.99115 0.207858
0 0.989929 0.207095
0 0.988388 0.206119
0 0.986053 0.204654
0 0.979797 0.197604
0 0.974029 0.190448
0 0.967391 0.181735
0.010071 0.959243 0.171206
0.0548867 0.949081 0.158892
0.127245 0.937209 0.144961
0.207279 0.923796 0.129671
0.295903 0.908934 0.112657
0.387457 0.891875 0.0952316
0.480461 0.869856 0.0775921
0.57348 0.841154 0.060029
0.661997 0.813504 0.0433204
0.745113 0.787305 0.0275883
0.820005 0.763455 0.0134585
0.879637 0.74229 0.00210575
0.925231 0.724849 0
0.9608 0.710735 0
0.986206 0.699718 0
0.995682 0.693492 0
1 0.689525 0
1 0.688106 0
1 0.687221 0
1 0.686778 0
1 0.686351 0
1 0.685908 0
1 0.685466 0
1 0.685466 0
0 1 0.219364
0 1 0.218936
0 1 0.218448
0 1 0.217868
0 1 0.21706
0 1 0.215991
0 1 0.209644
0 0.998718 0.202701
0 0.996201 0.194095
0.00271611 0.993149 0.183627
0.0410773 0.98764 0.171374
0.11252 0.978363 0.157504
0.192218 0.964752 0.142077
0.280583 0.950149 0.125277
0.372061 0.934325 0.107805
0.464576 0.917418 0.0902724
0.55761 0.897826 0.0727092
0.646128 0.878355 0.0558938
0.729656 0.855528 0.0400397
0.805722 0.831159 0.0254368
0.865309 0.810117 0.013077
0.914412 0.792645 0.00561532
0.953613 0.777966 0.00132753
0.979095 0.767147 0.00015259
0.99295 0.760616 0
1 0.756481 0
1 0.754788 0
1 0.753948 0
1 0.753552 0
1 0.753155 0
1 0.752758 0
1 0.752361 0
1 0.751965 0
0 1 0.228122
0 1 0.227832
0 1 0.227512
0 1 0.227054
0 1 0.226307
0 1 0.225177
0 1 0.219013
0 1 0.212253
0 1 0.203861
0.000595102 1 0.193668
0.0320592 0.998886 0.181735
0.0995499 0.995468 0.168154
0.179095 0.988449 0.15288
0.266987 0.979843 0.136126
0.358038 0.969772 0.118914
0.450492 0.957687 0.101442
0.542977 0.943114 0.0839857
0.632074 0.928389 0.0670481
0.71548 0.910582 0.0512703
0.792615 0.889647 0.0365454
0.85182 0.870832 0.0239719
0.90399 0.853483 0.0132906
0.946365 0.839155 0.00540169
0.972427 0.828229 0.00227359
0.989609 0.821241 0.00106813
0.999496 0.816999 0.000564584
0.999954 0.815518 0.000411994
1 0.814801 0.000381476
1 0.814496 0.000366217
1 0.813886 0.000350958
1 0.813581 0.000350958
1 0.813275 0.000335698
1 0.81297 0.000335698
0 1 0.234363
0 1 0.234073
0 1 0.233707
0 1 0.23331
0 1 0.232761
0 1 0.231998
0 1 0.226673
0 1 0.220218
0 1 0.212177
0 1 0.202304
0.025742 1 0.190631
0.0883192 1 0.177264
0.167742 1 0.162234
0.254627 1 0.145693
0.345266 0.998077 0.128664
0.437568 0.992309 0.111376
0.530083 0.977539 0.0937514
0.61886 0.963394 0.0769665
0.702693 0.949798 0.0611582
0.780926 0.935882 0.0462501
0.840146 0.921401 0.0335699
0.893599 0.905562 0.0227512
0.939025 0.890532 0.0138399
0.966232 0.879561 0.00801099
0.985565 0.872328 0.00445563
0.997818 0.867872 0.00233463
0.999649 0.86598 0.00173953
1 0.865187 0.00163272
1 0.864866 0.00161746
1 0.864256 0.0016022
1 0.863645 0.00158694
1 0.86334 0.00158694
1 0.863035 0.00157168
0 1 0.238453
0 1 0.2383
0 1 0.238132
0 1 0.237903
0 1 0.237659
0 1 0.237278
0 1 0.232822
0 1 0.226566
0 1 0.218585
0 1 0.208789
0.0216068 1 0.197223
0.078996 1 0.183978
0.158541 1 0.168963
0.244984 1 0.152514
0.335302 0.999405 0.135485
0.42742 0.997528 0.118227
0.51986 0.992279 0.10071
0.608789 0.986267 0.0839704
0.692958 0.97731 0.0681468
0.771984 0.964828 0.0532235
0.831189 0.95285 0.0405432
0.884901 0.94081 0.0297246
0.932143 0.928481 0.0205386
0.961074 0.917861 0.0142214
0.981674 0.910643 0.0100099
0.99559 0.905882 0.00730907
0.999115 0.904555 0.00657664
1 0.903899 0.00633249
1 0.903258 0.00622568
1 0.903059 0.00619516
1 0.902632 0.00611887
1 0.902205 0.00604257
1 0.902007 0.00601205
0 1 0.241138
0 1 0.241093
0 1 0.241062
0 1 0.24097
0 1 0.240696
0 1 0.24033
0 1 0.23621
0 1 0.23003
0 1 0.222446
0 1 0.213031
0.0181582 1 0.201801
0.0718853 1 0.188708
0.150958 1 0.173892
0.237263 1 0.157656
0.326711 1 0.140856
0.418601 1 0.123674
0.510933 1 0.106264
0.6 0.999496 0.0895705
0.684489 0.995743 0.0737621
0.763119 0.986526 0.0590219
0.823117 0.977493 0.0463264
0.877287 0.96846 0.0354009
0.925826 0.959381 0.0261234
0.956359 0.949081 0.0198062
0.978256 0.941894 0.0154726
0.99324 0.937133 0.0126802
0.998398 0.935943 0.0119631
1 0.935454 0.0117189
1 0.935225 0.0116884
1 0.934874 0.0116274
1 0.934768 0.0116121
1 0.934539 0.0115816
1 0.93431 0.0115358
0 1 0.241779
0 1 0.241733
0 1 0.241703
0 1 0.241657
0 1 0.241596
0 1 0.24152
0 1 0.238102
0 1 0.232303
0 1 0.22504
0 1 0.215976
0.0155489 1 0.20502
0.0656596 1 0.192157
0.145006 1 0.177386
0.230381 1 0.161471
0.319997 1 0.144671
0.411353 1 0.127489
0.503685 1 0.110079
0.592889 0.999924 0.0933547
0.677775 0.999344 0.0774701
0.75642 0.997482 0.0626993
0.817044 0.993011 0.0500801
0.871885 0.986526 0.0389868
0.921187 0.978195 0.0295567
0.952773 0.968215 0.0231632
0.97583 0.960784 0.0185855
0.991501 0.955871 0.0156558
0.997681 0.954574 0.0149386
1 0.953872 0.0146334
1 0.953643 0.0146029
1 0.953414 0.0145724
1 0.953079 0.0145113
1 0.95285 0.0144808
1 0.952728 0.0144656
0 1 0.242008
0 1 0.242008
0 1 0.242008
0 1 0.242008
0 1 0.242008
0 1 0.242008
0 1 0.238834
0 1 0.233143
0 1 0.225956
