luts/varicam_official/Golden 1 33 E-E.cube
TITLE "Generated by Resolve"
LUT_3D_SIZE 9
0.0156252 0.0156252 0.0156252
0.0156252 0.0156252 0.0156252
0.104265 0 0.00164797
0.348806 0 0
0.714702 0 0
0.985351 0 0
1 0 0
1 0 0
1 0 0
0.0156252 0.0156252 0.0156252
0.0156252 0.0156252 0.0156252
0.107652 0 0.00132753
0.367987 0 0
0.741878 0 0
0.987686 0 0
1 0 0
1 0 0
1 0 0
0.00340276 0.0979934 0.0296941
0.00323491 0.0996414 0.0299687
0.0955673 0.0703899 0.0122683
0.344213 0.0119783 0
0.708263 0 0
0.976883 0 0
1 0 0
1 0 0
1 0 0
0 0.352041 0.0732738
0 0.349859 0.0729076
0.0574044 0.314382 0.0539864
0.305379 0.240589 0.00927749
0.666758 0.135424 0
0.952361 0.0465705 0
1 0.0257572 0
1 0.0257267 0
1 0.0275578 0
0 0.73904 0.139773
0 0.733639 0.138842
0.00787366 0.693843 0.118959
0.246128 0.617777 0.0721294
0.606607 0.511131 0.00889601
0.915038 0.415717 0
1 0.370092 0
1 0.369055 0
1 0.372839 0
0 0.98407 0.203403
0 0.98262 0.202502
0 0.969757 0.182559
0.188968 0.936309 0.135515
0.548699 0.867262 0.0682689
0.866941 0.775692 0.00796521
0.99527 0.728832 0
1 0.726299 0
1 0.728283 0
0 1 0.237995
0 1 0.23772
0 1 0.218647
0.157183 1 0.171847
0.516472 1 0.104707
0.833585 0.974334 0.0438544
0.984787 0.939681 0.0142214
1 0.93637 0.0118715
1 0.936599 0.011902
0 1 0.242008
0 1 0.242008
0 1 0.223072
0.155291 1 0.176257
0.514885 1 0.109133
0.83032 1 0.0485847
0.982757 0.978943 0.0189364
1 0.975341 0.016846
1 0.975341 0.016846
0 1 0.242008
0 1 0.242008
0 1 0.222751
0.15848 1 0.175662
0.518334 1 0.108492
0.832288 1 0.0481727
0.983154 0.978836 0.0188754
1 0.975341 0.016846
1 0.975341 0.016846
0.0156252 0.0156252 0.0156252
0.0156252 0.0156252 0.0156252
0.104265 0 0.00164797
0.348806 0 0
0.715694 0 0
0.985641 0 0
1 0 0
1 0 0
1 0 0
0.0156252 0.0156252 0.0156252
0.0156252 0.0156252 0.0156252
0.108965 0 0.0011902
0.369589 0 0
0.74284 0 0
0.987747 0 0
1 0 0
1 0 0
1 0 0
0.00331121 0.0988174 0.0298314
0.00320439 0.099855 0.0300145
0.0955673 0.0703899 0.0122683
0.344213 0.0119783 0
0.707805 0 0
0.976822 0 0
1 0 0
1 0 0
1 0 0
0 0.351614 0.0732128
0 0.349432 0.0728313
0.0570993 0.314061 0.0539712
0.304646 0.240391 0.00933852
0.665919 0.134829 0
0.951995 0.0460212 0
1 0.0253452 0
1 0.0251164 0
1 0.0269474 0
0 0.737957 0.13959
0 0.732555 0.138659
0.00790417 0.692882 0.118837
0.245502 0.616938 0.0720836
0.605295 0.510491 0.0089723
0.914382 0.414435 0
1 0.368551 0
1 0.367437 0
1 0.370687 0
0 0.983734 0.203189
0 0.9823 0.202289
0 0.969314 0.182467
0.187564 0.935821 0.135607
0.54699 0.866514 0.0683452
0.866224 0.774441 0.00790417
0.995148 0.727337 0
1 0.725124 0
1 0.726696 0
0 1 0.237949
0 1 0.237675
0 1 0.218708
0.155627 1 0.172091
0.514565 1 0.105013
0.832334 0.974136 0.0440528
0.984421 0.939345 0.0142214
1 0.93579 0.01178
1 0.936141 0.0118257
0 1 0.242008
0 1 0.242008
0 1 0.223209
0.153689 1 0.176562
0.512901 1 0.109499
0.829007 1 0.0488746
0.982376 0.979065 0.0190127
1 0.975341 0.016846
1 0.975341 0.016846
0 1 0.242008
0 1 0.242008
0 1 0.222889
0.156893 1 0.175967
0.515862 1 0.108949
0.83064 1 0.0485237
0.982666 0.978973 0.018967
1 0.975341 0.016846
1 0.975341 0.016846
0.0152895 0.0161593 0.0462043
0.0152895 0.016144 0.0456855
0.103197 0 0.027985
0.347265 0 0.00144961
0.714397 0 0
0.985809 0 0
1 0 0
1 0 0
1 0 0
0.0152895 0.0161593 0.0459907
0.0152895 0.0161746 0.0467384
0.110109 0 0.0305943
0.368795 0 0.000518807
0.740978 0 0
0.987366 0 0
1 0 0
1 0 0
1 0 0
0.00314336 0.0991226 0.0618601
0.0030518 0.0999466 0.0624094
0.0946059 0.0704356 0.0437324
0.342092 0.011902 0.00614939
0.704677 0 0
0.976349 0 0
1 0 0
1 0 0
1 0 0
0 0.350118 0.107134
0 0.347478 0.106035
0.0561074 0.312093 0.0854047
0.302037 0.238911 0.0393835
0.662623 0.133547 0.000640879
0.951064 0.0442054 0
1 0.0240177 0
1 0.0240787 0
1 0.025742 0
0 0.734905 0.174701
0 0.729488 0.172717
0.00781262 0.689723 0.150759
0.242649 0.614313 0.103944
0.601785 0.50811 0.03682
0.912428 0.411673 0.000991836
1 0.365209 0
1 0.363928 0
1 0.367178 0
0 0.983093 0.239933
0 0.981659 0.237659
0 0.968185 0.215427
0.184604 0.938537 0.1682
0.543206 0.872389 0.100725
0.863508 0.775387 0.0395209
1 0.727642 0.0122225
1 0.724971 0.0110628
1 0.726741 0.0115663
0 1 0.27657
0 1 0.274586
0 1 0.253193
0.151858 1 0.205768
0.509926 1 0.138369
0.829358 0.994018 0.076997
0.994461 0.95227 0.0465858
1 0.948501 0.0443427
1 0.948837 0.0447089
0 1 0.281758
0 1 0.279973
0 1 0.258564
0.149935 1 0.211002
0.50811 1 0.143587
0.825696 1 0.0823835
0.992828 0.982544 0.0520333
1 0.978607 0.0494392
1 0.978622 0.0496529
0 1 0.283009
0 1 0.281025
0 1 0.25922
0.152728 1 0.211215
0.511055 1 0.143557
0.826993 1 0.0826276
0.993149 0.982437 0.0522774
1 0.978622 0.0497597
1 0.978622 0.0497597
0.0141299 0.0188754 0.159579
0.0141451 0.0188602 0.158495
0.102403 0.00062562 0.139162
0.347158 0 0.0961166
0.715694 0 0.0332494
0.985595 0 0.00888075
1 0 0.00062562
1 0 0.000259403
1 0 0.00030518
0.0141146 0.0188907 0.160128
0.0140993 0.0189364 0.16257
0.110582 0.000381476 0.149722
0.368978 0 0.10692
0.740261 0 0.0422675
0.986725 0 0.0109255
1 0 0.000610361
1 0 0.000244144
1 0 0.000274662
0.00236515 0.102373 0.178439
0.00233463 0.1028 0.179049
0.093492 0.0730907 0.158404
0.34052 0.0132448 0.113542
0.703243 0 0.0479591
0.97557 0 0.00758373
1 0 0.00350958
1 0 0.00376898
1 0 0.00456245
0 0.352453 0.226062
0 0.349798 0.223987
0.0549935 0.314275 0.200381
0.300404 0.240818 0.153903
0.660197 0.135241 0.0874189
0.94995 0.0446784 0.0274205
1 0.0244602 0.00833143
1 0.0243687 0.00915541
1 0.0261387 0.0110628
0 0.73666 0.29575
0 0.731197 0.291844
0.00730907 0.691386 0.2663
0.240726 0.615625 0.218692
0.59942 0.509468 0.151461
0.910842 0.412589 0.0905318
1 0.365774 0.0611276
1 0.36434 0.0601205
1 0.36762 0.0623178
0 0.983551 0.362692
0 0.982177 0.358251
0 0.96875 0.331945
0.182513 0.938491 0.283391
0.540475 0.873838 0.21561
0.861433 0.776684 0.15436
1 0.728191 0.124132
1 0.725338 0.122438
1 0.72755 0.123873
0 1 0.401434
0 1 0.396811
0 1 0.371221
0.149157 1 0.322255
0.507073 1 0.254017
0.826673 0.995804 0.192432
0.993744 0.954543 0.1617
1 0.950576 0.159289
1 0.950927 0.160159
0 1 0.408515
0 1 0.403891
0 1 0.377707
0.146761 1 0.328618
0.504463 1 0.260212
0.823056 1 0.198306
0.992081 0.985275 0.167544
1 0.98114 0.164874
1 0.98114 0.165148
0 1 0.411505
0 1 0.406348
0 1 0.379873
0.149538 1 0.330007
0.50692 1 0.261097
0.824353 1 0.19939
0.992325 0.985214 0.168307
1 0.981155 0.165423
1 0.981155 0.165423
0.0122072 0.0235142 0.371664
0.0122225 0.0234836 0.370199
0.100954 0.00230411 0.349935
0.347082 0 0.308095
0.717189 0 0.248203
0.985122 0 0.20087
1 0 0.183902
1 0 0.192096
1 0 0.200778
0.0122072 0.0235447 0.373144
0.0121614 0.0236515 0.377951
0.110185 0.00109865 0.366629
0.368841 0 0.324681
0.740169 0 0.26125
0.985946 0 0.205753
1 0 0.184283
1 0 0.188922
1 0 0.194858
0.00117494 0.108064 0.393133
0.00115969 0.108278 0.39353
0.0918288 0.0781415 0.371344
0.339345 0.0156252 0.32639
0.70164 0 0.261524
0.97438 0 0.203098
1 0 0.17705
1 0 0.178866
1 0 0.18291
0 0.357763 0.441199
0 0.355093 0.438544
0.0529641 0.319066 0.412757
0.298329 0.245655 0.366064
0.658274 0.140047 0.299763
0.948867 0.0469062 0.239857
1 0.0261997 0.211765
1 0.026276 0.212467
1 0.0281834 0.216022
0 0.741543 0.511818
0 0.735515 0.506752
0.00624094 0.695735 0.478752
0.238376 0.62002 0.430655
0.597116 0.513329 0.363272
0.909361 0.416953 0.302617
1 0.369558 0.273075
1 0.368124 0.272801
1 0.371389 0.275196
0 0.985046 0.579477
0 0.983688 0.573343
0 0.970413 0.545068
0.179858 0.939986 0.495445
0.537621 0.878035 0.42739
0.858839 0.780789 0.366064
1 0.732189 0.335546
1 0.729229 0.334173
1 0.731029 0.335927
0 1 0.618921
0 1 0.612711
0 1 0.584451
0.146426 1 0.534966
0.504051 1 0.466285
0.824002 0.9991 0.404059
0.992828 0.959136 0.373251
1 0.955184 0.371298
1 0.955413 0.372076
0 1 0.627222
0 1 0.620584
0 1 0.59205
0.143877 1 0.541604
0.50106 1 0.472724
0.82005 1 0.41033
0.991043 0.990158 0.379324
1 0.985992 0.376654
1 0.985992 0.37702
0 1 0.630976
0 1 0.624262
0 1 0.594751
0.146258 1 0.54374
0.503517 1 0.474113
0.821347 1 0.411536
0.991318 0.990097 0.380377
1 0.986007 0.377386
1 0.986007 0.377386
0.00975052 0.0294499 0.633402
0.00976577 0.0294194 0.632227
0.0994125 0.00411994 0.612116
0.346975 0 0.570825
0.720607 0 0.512795
0.984283 0 0.465827
1 0 0.448066
1 0 0.456123
1 0 0.463905
0.00972 0.0295262 0.636515
0.0096437 0.0297246 0.644297
0.109224 0.00164797 0.630869
0.368811 0 0.587686
0.739559 0 0.524407
0.984878 0 0.469108
1 0 0.447318
1 0 0.452232
1 0 0.457679
0 0.115068 0.656291
0 0.115068 0.656291
0.0898146 0.084535 0.633341
0.337591 0.0188449 0.588403
0.700053 0 0.523186
0.972992 0 0.464897
1 0 0.438666
1 0 0.440848
1 0 0.445121
0 0.36495 0.703822
0 0.361379 0.70013
0.0505379 0.325841 0.674388
0.296178 0.251865 0.627176
0.656245 0.146273 0.560861
0.947265 0.0507668 0.501198
1 0.0285954 0.47277
1 0.0288548 0.473487
1 0.0309606 0.477195
0 0.747967 0.773877
0 0.741924 0.7682
0.0049897 0.701595 0.740017
0.235904 0.625925 0.691371
0.59472 0.519249 0.624048
0.907774 0.422843 0.563012
1 0.375433 0.533898
1 0.37351 0.533349
1 0.376791 0.535836
0 0.986862 0.841276
0 0.985656 0.834867
0 0.972671 0.805722
0.17705 0.942382 0.756374
0.53518 0.882902 0.688106
0.856107 0.786374 0.626383
1 0.737667 0.595834
1 0.734707 0.594598
1 0.736507 0.596429
0 1 0.880476
0 1 0.873976
0 1 0.845487
0.143648 1 0.795209
0.500633 1 0.726558
0.821027 1 0.664546
0.991806 0.964935 0.633631
1 0.960876 0.631342
1 0.961105 0.632151
0 1 0.889067
0 1 0.882078
0 1 0.852674
0.140764 1 0.802457
0.497627 1 0.733074
0.816876 1 0.670863
0.989288 0.99588 0.639292
1 0.991821 0.636744
1 0.991836 0.637125
0 1 0.892958
0 1 0.885573
0 1 0.855497
0.143145 1 0.804334
0.500069 1 0.734554
0.818173 1 0.671748
0.989578 0.995819 0.640406
1 0.991836 0.637125
1 0.991836 0.637125
0.00743114 0.0346685 0.863264
0.0074464 0.0346532 0.862669
0.0984054 0.00776684 0.843305
0.348028 0 0.801404
0.727382 0 0.74226
0.983749 0 0.687083
1 0 0.665492
1 0 0.669673
1 0 0.674113
0.00740063 0.0347601 0.867491
0.00732433 0.0349432 0.875425
0.108598 0.00508125 0.857466
0.368841 0 0.811749
0.739437 0 0.74583
0.984131 0 0.688167
1 0 0.664363
1 0 0.666865
1 0 0.669902
0 0.121111 0.884932
0 0.121096 0.884642
0.0882582 0.0903334 0.862638
0.336568 0.0216678 0.816709
0.699382 0 0.750912
0.971786 0 0.691783
1 0 0.664881
1 0 0.665904
1 0 0.668605
0 0.37142 0.930571
0 0.367864 0.927565
0.048661 0.331746 0.903044
0.294713 0.257664 0.856031
0.654551 0.151659 0.789502
0.946059 0.0558938 0.729122
1 0.0310063 0.700633
1 0.0313573 0.700542
1 0.033341 0.703471
0 0.754162 0.99321
0 0.747631 0.990234
0.00392157 0.707179 0.967971
0.234104 0.631434 0.919966
0.592447 0.524971 0.852659
0.906386 0.428031 0.791516
1 0.380636 0.7617
1 0.378668 0.760784
1 0.381949 0.763149
0 0.988418 1
0 0.987366 0.999939
0 0.974609 0.996338
0.174914 0.944381 0.982101
0.533104 0.887388 0.916274
0.854002 0.791424 0.854749
0.999908 0.742779 0.824125
1 0.739513 0.822416
1 0.741299 0.823896
0 1 1
0 1 1
0 1 0.996506
0.141146 1 0.991806
0.498512 1 0.953582
0.818799 1 0.891798
0.990768 0.969985 0.860563
1 0.965759 0.858091
1 0.965988 0.859113
0 1 1
0 1 1
0 1 0.997681
0.138109 1 0.993362
0.495033 1 0.959945
0.814481 1 0.897581
0.986954 0.999084 0.866148
1 0.997055 0.863508
1 0.99707 0.863844
0 1 1
0 1 1
0 1 0.99884
0.14049 1 0.994873
0.49749 1 0.9608
0.815457 1 0.898344
0.987152 0.999084 0.866773
1 0.99707 0.863844
1 0.99707 0.863844
0.00648508 0.0373388 0.983658
0.00648508 0.0373388 0.983581
0.0985122 0.0101472 0.965911
0.351232 0 0.920211
0.732692 0 0.852369
0.983703 0 0.792798
1 0 0.76759
1 0 0.768444
1 0 0.76997
0.00646983 0.0373693 0.985183
0.00643931 0.0374304 0.987503
0.108797 0.00717174 0.968444
0.370901 0 0.920378
0.74078 0 0.852308
0.983902 0 0.792798
1 0 0.766979
1 0 0.767315
1 0 0.768368
0 0.125093 0.995254
0 0.124666 0.995148
0.0878157 0.0935836 0.980896
0.33695 0.0231022 0.934737
0.699611 0 0.867582
0.971328 0 0.807004
1 0 0.778164
1 0 0.777127
1 0 0.778271
0 0.37525 1
0 0.371725 1
0.0478981 0.33518 1
0.294224 0.261051 0.975311
0.654246 0.155047 0.908751
0.945541 0.0591897 0.847868
1 0.0326696 0.818067
1 0.0327611 0.816571
1 0.0348058 0.81767
0 0.757763 1
0 0.751263 1
0.00329595 0.710979 1
0.233539 0.635096 1
0.592218 0.527947 0.972229
0.905928 0.431174 0.911482
1 0.38381 0.881132
1 0.381842 0.879225
1 0.384543 0.880079
0 0.989303 1
0 0.988342 1
0 0.975769 1
0.174105 0.945739 1
0.531853 0.890181 1
0.853193 0.794141 0.97464
0.999817 0.745586 0.944137
1 0.742153 0.941878
1 0.743908 0.942382
0 1 1
0 1 1
0 1 1
0.140383 1 1
0.497322 1 1
0.817685 1 0.999527
0.990372 0.972656 0.981826
1 0.968658 0.979202
1 0.968872 0.9794
0 1 1
0 1 1
0 1 1
0.137041 1 1
0.493904 1 1
0.813306 1 1
0.985824 1 0.986954
1 0.99971 0.984543
1 0.99971 0.984619
0 1 1
0 1 1
0 1 1
0.13904 1 1
0.495872 1 1
0.813962 1 1
0.986023 1 0.987015
1 0.99971 0.984619
1 0.99971 0.984619
0.00634775 0.0378576 0.998779
0.00634775 0.0378576 0.998779
0.0998703 0.0100099 0.981292
0.356313 0 0.933486
0.737835 0 0.862272
0.984176 0 0.80119
1 0 0.774548
1 0 0.773632
1 0 0.773632
0.00634775 0.0378576 0.998779
0.00634775 0.0378576 0.998779
0.110216 0.00691234 0.979355
0.373541 0 0.930282
0.743542 0 0.861204
0.984115 0 0.801236
1 0 0.774578
1 0 0.773632
1 0 0.773632
0 0.126604 1
0 0.126192 1
0.0884565 0.094789 0.994965
0.338277 0.023682 0.948898
0.700816 0 0.881529
0.971466 0 0.82034
1 0 0.791012
1 0 0.789334
1 0 0.78967
0 0.377325 1
0 0.373388 1
0.048127 0.336614 1
0.295033 0.262287 0.9897
0.655467 0.155749 0.923766
0.945663 0.0602426 0.862715
1 0.0333562 0.832624
1 0.0335699 0.83064
1 0.0356146 0.831174
0 0.759106 1
0 0.752621 1
0.00323491 0.7122 1
0.233722 0.635813 1
0.592462 0.529168 0.986679
0.906371 0.431815 0.926863
1 0.384634 0.896376
1 0.382803 0.894072
1 0.385504 0.89453
0 0.989502 1
0 0.988479 1
0 0.976089 1
0.174273 0.946075 1
0.532143 0.890745 1
0.852934 0.794934 0.989654
0.999802 0.746288 0.959716
1 0.74287 0.957275
1 0.744183 0.957488
0 1 1
0 1 1
0 1 1
0.140261 1 1
0.497185 1 1
0.817441 1 1
0.990311 0.973129 0.997299
1 0.968948 0.994827
1 0.969162 0.994858
0 1 1
0 1 1
0 1 1
0.136812 1 1
0.493767 1 1
0.813169 1 1
0.985687 1 1
1 1 1
1 1 1
0 1 1
0 1 1
0 1 1
0.138811 1 1
0.495735 1 1
0.813825 1 1
0.98587 1 1
1 1 1
1 1 1
