luts/varicam_official/Golden_2.cube
TITLE "Generated by Resolve"
LUT_3D_SIZE 5
0.0156252 0.0156252 0.0156252
0.150271 0 0
0.843275 0 0
1 0 0
1 0 0
0.00213626 0.110369 0.0318151
0.123339 0.0678416 0.00865187
0.804959 0 0
1 0 0
1 0 0
0 0.801663 0.1505
0.00758373 0.707958 0.120424
0.649607 0.493782 0.00425727
1 0.353307 0
1 0.351247 0
0 1 0.238453
0 1 0.218585
0.51986 0.992279 0.10071
0.981674 0.910643 0.0100099
1 0.902007 0.00601205
0 1 0.242008
0 1 0.227695
0.477394 1 0.116091
0.969558 0.982864 0.0214237
1 0.975341 0.016846
0.015198 0.0164187 0.0557412
0.14316 0 0.0218662
0.837278 0 0
1 0 0
1 0 0
0.00209049 0.110201 0.0613413
0.118303 0.0656138 0.0324254
0.79321 0 0
1 0 0
1 0 0
0 0.785382 0.173877
0.00805676 0.692424 0.132998
0.635904 0.480064 0.00947585
1 0.335088 0
1 0.331426 0
0 1 0.256733
0 1 0.225162
0.502846 0.990768 0.102831
0.978882 0.904295 0.0093843
1 0.894621 0.00474556
0 1 0.251774
0 1 0.228962
0.460136 1 0.119295
0.966293 0.983841 0.022034
1 0.975341 0.016846
0.0118257 0.0245212 0.417639
0.138689 0 0.363516
0.840497 0 0.254734
1 0 0.26041
1 0 0.297032
0.000701915 0.119371 0.4112
0.113359 0.0721447 0.366278
0.783978 0 0.24097
1 0 0.170886
1 0 0.180911
0 0.781918 0.513603
0.00660716 0.687861 0.43949
0.622278 0.475441 0.299825
1 0.326314 0.202991
1 0.320348 0.198367
0 1 0.587884
0 1 0.515587
0.483696 1 0.376501
0.991348 0.916197 0.267918
1 0.904585 0.255314
0 1 0.573831
0 1 0.506142
0.435477 1 0.368429
0.970489 0.992996 0.251682
1 0.982818 0.233387
0.00729381 0.0350042 0.878004
0.137331 0.00210575 0.83389
0.858213 0 0.724865
1 0 0.697719
1 0 0.714412
0 0.133196 0.884001
0.110246 0.0834516 0.839551
0.780072 0 0.713069
1 0 0.640864
1 0 0.648737
0 0.789761 0.976669
0.00419623 0.694347 0.916503
0.613245 0.482139 0.780316
1 0.330755 0.68368
1 0.323247 0.679194
0 1 0.983215
0 1 0.953338
0.471366 1 0.853284
0.987198 0.923766 0.743648
1 0.911452 0.731273
0 1 0.978073
0 1 0.950988
0.420157 1 0.847272
0.961807 1 0.729992
1 0.9935 0.711467
0.00634775 0.0378576 0.998779
0.142031 0.00349432 0.973404
0.891859 0 0.83357
1 0 0.773632
1 0 0.773632
0 0.140215 1
0.111177 0.0880598 0.991409
0.781308 0 0.865797
1 0 0.788571
1 0 0.788464
0 0.793118 1
0.00323491 0.697643 1
0.609522 0.48452 0.978119
1 0.331701 0.886381
1 0.323125 0.882536
0 1 1
0 1 1
0.464134 1 1
0.984726 0.92694 0.982116
1 0.914427 0.974868
0 1 1
0 1 1
0.41091 1 1
0.95642 1 0.997696
1 0.999863 0.990875
