luts/varicam_official/Hangover.cube
TITLE "Generated by Resolve"
LUT_3D_SIZE 9
0.0156252 0.0156252 0.0156252
0.0377661 0.00898756 0.011429
0.223987 0 0
0.613443 0 0
0.983017 0 0
1 0 0
1 0 0
1 0 0
1 0 0
0.0148775 0.0202029 0.0163882
0.0258335 0.0131685 0.0137789
0.192355 0 0
0.570809 0 0
0.978103 0 0
1 0 0
1 0 0
1 0 0
1 0 0
0 0.15697 0.0397803
0 0.145312 0.0377966
0.133944 0.0907149 0.00979629
0.477012 0 0
0.914656 0 0
1 0 0
1 0 0
1 0 0
1 0 0
0 0.480079 0.0951705
0 0.459281 0.0915999
0.0499733 0.401587 0.0679179
0.364996 0.28719 0.00862135
0.806256 0.138994 0
1 0.045304 0
1 0.0273594 0
1 0.0193942 0
1 0.0116426 0
0 0.920699 0.170993
0 0.898833 0.167224
0 0.845853 0.148104
0.229938 0.73959 0.0926375
0.666453 0.588678 0.010544
0.972961 0.462715 0
1 0.417655 0
1 0.395514 0
1 0.373922 0
0 1 0.228702
0 1 0.227146
0 1 0.214878
0.109667 0.995666 0.167529
0.533333 0.947463 0.0864424
0.901411 0.851652 0.0133974
1 0.802823 7.62951e-05
1 0.787121 0
1 0.770932 0
0 1 0.242008
0 1 0.242008
0 1 0.236789
0.0414282 1 0.198871
0.43566 1 0.123674
0.833585 0.998322 0.0476387
0.994568 0.96791 0.0167391
1 0.964752 0.0160983
1 0.962509 0.0159304
0 1 0.242008
0 1 0.242008
0 1 0.239994
0.00402838 1 0.208713
0.359228 1 0.138064
0.782406 1 0.0587625
0.98613 0.977951 0.0183108
1 0.975341 0.016846
1 0.975341 0.016846
0 1 0.242008
0 1 0.242008
0 1 0.242008
0 1 0.216815
0.282032 1 0.152483
0.720195 1 0.0708629
0.970916 0.982467 0.0211643
1 0.975341 0.016846
1 0.975341 0.016846
0.0156252 0.0156252 0.0156252
0.0365148 0.00936904 0.0116579
0.219989 0 0
0.608606 0 0
0.982589 0 0
1 0 0
1 0 0
1 0 0
1 0 0
0.0150607 0.0190585 0.0161898
0.025452 0.0126802 0.0137636
0.189364 0 0
0.565957 0 0
0.977615 0 0
1 0 0
1 0 0
1 0 0
1 0 0
0 0.153841 0.0392462
0 0.142184 0.0372625
0.131228 0.0891737 0.010071
0.471794 0.000457771 0
0.90985 0 0
1 0 0
1 0 0
1 0 0
1 0 0
0 0.474128 0.0941482
0 0.453346 0.0905776
0.0486915 0.396323 0.0673228
0.360418 0.283528 0.00892653
0.801205 0.1355 0
1 0.042359 0
1 0.0249027 0
1 0.0169375 0
1 0.00898756 0
0 0.914458 0.169909
0 0.892058 0.166064
0 0.84033 0.147478
0.225757 0.734874 0.092546
0.661814 0.583597 0.0103151
0.97174 0.457099 0
1 0.410636 0
1 0.388495 0
1 0.366903 0
0 1 0.228229
0 1 0.226459
0 1 0.214496
0.105135 0.995529 0.167803
0.527581 0.945769 0.0869459
0.898482 0.848753 0.0133974
1 0.798962 0
1 0.782376 0
1 0.765789 0
0 1 0.242008
0 1 0.242008
0 1 0.237125
0.0383764 1 0.199634
0.429282 1 0.124834
0.829679 0.998245 0.0484321
0.994079 0.9673 0.0167544
1 0.964111 0.0160525
1 0.961822 0.0158846
0 1 0.242008
0 1 0.242008
0 1 0.240238
0.000946059 1 0.209522
0.352926 1 0.139254
0.778149 1 0.0596628
0.984878 0.978317 0.0185397
1 0.975341 0.016846
1 0.975341 0.016846
0 1 0.242008
0 1 0.242008
0 1 0.242008
0 1 0.217456
0.275914 1 0.153628
0.714549 1 0.0719158
0.969665 0.982834 0.0214084
1 0.975341 0.016846
1 0.975341 0.016846
0.0149081 0.0169528 0.0812543
0.0342718 0.0110933 0.0703746
0.21413 0 0.0307012
0.601556 0 3.0518e-05
0.981552 0 0
1 0 0
1 0 0
1 0 0
1 0 0
0.014847 0.0183719 0.0622873
0.0239414 0.013901 0.0578927
0.184741 0 0.024567
0.558053 0 0
0.976501 0 0
1 0 0
1 0 0
1 0 0
1 0 0
0 0.149706 0.0721141
0 0.137987 0.0656901
0.126879 0.0874037 0.0340124
0.464057 0.00170901 0
0.902525 0 0
1 0 0
1 0 0
1 0 0
1 0 0
0 0.465583 0.111711
0 0.444266 0.10454
0.0464179 0.388251 0.0771649
0.353155 0.277897 0.0151827
0.793896 0.130251 0
1 0.0384222 0
1 0.0212253 0
1 0.0132753 0
1 0.00550851 0
0 0.905226 0.175174
0 0.883268 0.167544
0 0.831952 0.146517
0.220462 0.727489 0.0922103
0.655177 0.576928 0.0104524
0.969329 0.449363 0
1 0.40145 0
1 0.379324 0
1 0.357717 0
0 1 0.227619
0 1 0.225605
0 1 0.214069
0.0991989 0.995468 0.16817
0.520012 0.943771 0.0876478
0.894667 0.844953 0.0133974
1 0.79234 0
1 0.775662 0
1 0.759075 0
0 1 0.242008
0 1 0.242008
0 1 0.237507
0.0343786 1 0.200626
0.420951 1 0.126345
0.824155 0.998154 0.049546
0.993469 0.966537 0.0167544
1 0.963211 0.0159762
1 0.960052 0.0156252
0 1 0.242008
0 1 0.242008
0 1 0.240589
0 1 0.210452
0.344671 1 0.140795
0.772564 1 0.0608377
0.983246 0.978805 0.0188449
1 0.975341 0.016846
1 0.975341 0.016846
0 1 0.242008
0 1 0.242008
0 1 0.242008
0 1 0.21828
0.268238 1 0.155062
0.707149 1 0.0733043
0.968124 0.983291 0.0216983
1 0.975341 0.016846
1 0.975341 0.016846
0.0131075 0.0211185 0.262074
0.0312505 0.0154269 0.244099
0.208118 0 0.199039
0.594995 0 0.118624
0.979919 0 0.0360723
1 0 0.000961318
1 0 0.000366217
1 0 0.00030518
1 0 0.000244144
0.0133669 0.0207675 0.224369
0.0213931 0.0177615 0.216815
0.180041 0 0.17821
0.55021 0 0.100954
0.974517 0 0.0236667
1 0 0.00105287
1 0 0.000137331
1 0 7.62951e-05
1 0 1.5259e-05
0 0.148653 0.213458
0 0.136782 0.20058
0.122316 0.0881208 0.161425
0.45626 0.0028687 0.0870375
0.895018 0 0.00636301
1 0 0
1 0 0
1 0 0
1 0 0
0 0.459953 0.230564
0 0.438941 0.217899
0.0432898 0.383413 0.183597
0.345357 0.274723 0.114611
0.785794 0.12665 0.0223087
1 0.0346075 0.000289921
1 0.0177615 0
1 0.00949111 0
1 0.0012665 0
0 0.898161 0.275334
0 0.875547 0.261952
0 0.825177 0.231662
0.213413 0.721218 0.170306
0.646326 0.570687 0.0789654
0.98822 0.441154 0.010193
1 0.39144 0.00187686
1 0.369192 0.000488289
1 0.347494 0
0 1 0.30631
0 1 0.297063
0 1 0.276188
0.0909438 1 0.222889
0.509789 0.973205 0.135149
0.893339 0.852888 0.0551308
1 0.794217 0.0226749
1 0.775464 0.0158236
1 0.757351 0.00984207
0 1 0.297337
0 1 0.290272
0 1 0.279072
0.0290379 1 0.236805
0.409827 1 0.15761
0.8168 1 0.0747082
0.999619 0.974807 0.0356146
1 0.970718 0.0309911
1 0.964401 0.0265049
0 1 0.277668
0 1 0.272725
0 1 0.265171
0 1 0.229435
0.333913 1 0.156237
0.76556 1 0.0714275
0.9841 0.980133 0.0242313
1 0.975418 0.0173953
1 0.975341 0.016846
0 1 0.260548
0 1 0.256703
0 1 0.251774
0 1 0.223346
0.258732 1 0.156847
0.698451 1 0.0749218
0.966186 0.983871 0.0220645
1 0.975341 0.016846
1 0.975341 0.016846
0.010544 0.0276188 0.551507
0.0273136 0.0223087 0.530724
0.201892 0 0.483696
0.589593 0 0.404059
0.977325 0 0.316915
1 0 0.269368
1 0 0.257649
1 0 0.245792
1 0 0.233951
0.010956 0.026688 0.507729
0.0178225 0.024445 0.497307
0.174731 0 0.454185
0.541955 0 0.373404
0.971389 0 0.280659
1 0 0.225254
1 0 0.210651
1 0 0.198016
1 0 0.185382
0 0.150729 0.479698
4.57771e-05 0.139376 0.462013
0.116533 0.0921798 0.417746
0.448066 0.00428778 0.338567
0.886717 0 0.241337
1 0 0.173236
1 0 0.152758
1 0 0.13817
1 0 0.124361
0 0.458137 0.479515
0 0.43653 0.460258
0.0391546 0.382605 0.417929
0.337057 0.274998 0.342489
0.777188 0.126986 0.242313
1 0.0323033 0.163394
1 0.0154574 0.134554
1 0.00642405 0.118608
1 0 0.103059
0 0.894987 0.502525
0 0.872221 0.482475
0 0.822568 0.443427
0.205646 0.719707 0.3738
0.637903 0.567773 0.274723
0.983322 0.437125 0.188724
1 0.38584 0.153017
1 0.363424 0.135531
1 0.341543 0.118166
0 1 0.510277
0 1 0.493614
0 1 0.462531
0.0829786 1 0.401328
0.500175 0.976608 0.305379
0.887129 0.850477 0.215564
1 0.78996 0.174517
1 0.770489 0.15938
1 0.752163 0.144564
0 1 0.477134
0 1 0.462455
0 1 0.439811
0.0237736 1 0.388998
0.399222 1 0.302052
0.809384 1 0.21091
1 0.977844 0.162692
1 0.974655 0.150591
1 0.969848 0.14023
0 1 0.430808
0 1 0.418311
0 1 0.401465
0 1 0.355261
0.323049 1 0.275517
0.75642 1 0.183764
0.990799 0.984894 0.129335
1 0.980026 0.116182
1 0.979797 0.10602
0 1 0.387304
0 1 0.376699
0 1 0.364416
0 1 0.328267
0.247974 1 0.254627
0.688167 1 0.161685
0.976364 0.988998 0.100114
1 0.979416 0.086305
1 0.979278 0.0787823
0.00767529 0.0341039 0.837644
0.0233158 0.0292058 0.822065
0.195331 0 0.779721
0.58323 0 0.702449
0.974472 0 0.616526
1 0 0.570275
1 0 0.55967
1 0 0.54905
1 0 0.53843
0.00794995 0.0334478 0.808408
0.0138247 0.0315404 0.798581
0.168902 0.00030518 0.757244
0.533181 0 0.677928
0.966293 0 0.586236
1 0 0.531456
1 0 0.517555
1 0 0.506584
1 0 0.495262
0 0.153903 0.783627
0 0.143389 0.768078
0.110445 0.0971542 0.726146
0.439261 0.00840772 0.649409
0.878187 0 0.552666
1 0 0.483024
1 0 0.461463
1 0 0.447089
1 0 0.432563
0 0.457786 0.788479
0 0.436637 0.769406
0.0343328 0.383948 0.726635
0.328481 0.277424 0.651514
0.768322 0.129046 0.550439
1 0.0302586 0.470024
1 0.0131075 0.439811
1 0.00280766 0.421317
1 0 0.403479
0 0.893614 0.809674
0 0.870802 0.78912
0 0.822156 0.749798
0.197742 0.719738 0.678111
0.628931 0.568276 0.575769
0.978241 0.436683 0.486305
1 0.383902 0.44683
1 0.360876 0.426444
1 0.338415 0.406149
0 1 0.814954
0 1 0.79498
0 1 0.759808
0.0753643 1 0.695293
0.489921 0.98262 0.596567
0.879957 0.850492 0.501137
1 0.788861 0.45359
1 0.769192 0.433341
1 0.750347 0.413428
0 1 0.771954
0 1 0.754238
0 1 0.725567
0.0187686 1 0.668681
0.388006 1 0.576318
0.800931 1 0.479164
1 0.98352 0.423972
1 0.978515 0.404913
1 0.973541 0.387396
0 1 0.71075
0 1 0.69337
0 1 0.669917
0 1 0.616236
0.311604 1 0.528649
0.746365 1 0.429145
0.988067 0.990784 0.366262
1 0.985351 0.345724
1 0.984985 0.32842
0 1 0.649149
0 1 0.631373
0 1 0.610651
0 1 0.56495
0.237263 1 0.483314
0.677821 1 0.381872
0.970748 0.993912 0.309789
1 0.984085 0.287541
1 0.983719 0.271885
0.00643931 0.0374304 0.987427
0.0206912 0.0332189 0.981521
0.190906 0 0.94725
0.577401 0 0.873899
0.972427 0 0.792767
1 0 0.75201
1 0 0.748043
1 0 0.743511
1 0 0.738811
0.00653086 0.0372473 0.980133
0.0111391 0.0358587 0.976822
0.164416 0.00128176 0.945342
0.525567 0 0.872862
0.959167 0 0.786831
1 0 0.73756
1 0 0.729732
1 0 0.724895
1 0 0.71989
0 0.154833 0.98381
0 0.14548 0.976242
0.10518 0.100557 0.945006
0.431327 0.0108797 0.87657
0.870375 0 0.787732
1 0 0.724651
1 0 0.707942
1 0 0.699001
1 0 0.690105
0 0.45597 1
0 0.434531 1
0.0302281 0.383734 0.971878
0.320363 0.278538 0.904372
0.759838 0.130068 0.809766
1 0.0273136 0.73518
1 0.00984207 0.710582
1 0 0.698772
1 0 0.685145
0 0.891478 1
0 0.868849 1
0 0.820905 1
0.190204 0.71928 0.953353
0.619944 0.5682 0.857893
0.973632 0.435813 0.772122
1 0.381323 0.736324
1 0.358923 0.720165
1 0.336538 0.704021
0 1 1
0 1 0.998001
0 1 0.992584
0.0684367 1 0.970901
0.480079 0.985229 0.894987
0.872633 0.851698 0.803326
1 0.788464 0.75877
1 0.76875 0.740215
1 0.74992 0.722423
0 1 0.984039
0 1 0.978332
0 1 0.968917
0.0142519 1 0.942443
0.376867 1 0.881514
0.792569 1 0.788205
0.99884 0.990082 0.735317
1 0.983795 0.718822
1 0.978744 0.703227
0 1 0.964431
0 1 0.958694
0 1 0.95111
0 1 0.918914
0.299825 1 0.845472
0.735515 1 0.746502
0.984146 0.997559 0.681804
1 0.99234 0.660044
1 0.991958 0.642573
0 1 0.944305
0 1 0.938567
0 1 0.927123
0 1 0.88098
0.225788 1 0.799313
0.666682 1 0.697353
0.964233 1 0.622629
1 0.990936 0.596307
1 0.990539 0.577386
0.00634775 0.0378576 0.998779
0.0194247 0.0339361 0.996429
0.188403 0 0.964752
0.572854 0 0.893187
0.971481 0 0.813947
1 0 0.774823
1 0 0.773632
1 0 0.773632
1 0 0.773632
0.00634775 0.0378576 0.998779
0.00968948 0.0368505 0.998184
0.161303 0.00166323 0.969802
0.519921 0 0.903059
0.953628 0 0.822049
1 0 0.776898
1 0 0.773632
1 0 0.773632
1 0 0.773632
0 0.152361 1
0 0.143709 1
0.10161 0.0999313 0.994553
0.424964 0.0110018 0.932815
0.864713 0 0.8495
1 0 0.792828
1 0 0.783902
1 0 0.782513
1 0 0.781094
0 0.450309 1
0 0.429313 1
0.0276799 0.380163 1
0.313771 0.275929 0.989548
0.752834 0.127764 0.904311
1 0.0223087 0.837537
1 0.00553903 0.82089
1 0 0.817594
1 0 0.814527
0 0.885603 1
0 0.863172 1
0 0.816236 1
0.183932 0.71574 1
0.612482 0.565408 0.987121
0.968978 0.431662 0.910811
1 0.376028 0.883223
1 0.353811 0.876143
1 0.331151 0.869047
0 1 1
0 1 1
0 1 1
0.0630198 1 1
0.47126 0.981872 1
0.866758 0.850187 0.976913
1 0.785687 0.942123
1 0.766049 0.933928
1 0.74699 0.924315
0 1 1
0 1 1
0 1 1
0.0103456 1 1
0.366842 1 1
0.785031 1 0.991257
0.996292 0.993347 0.954726
1 0.987106 0.945922
1 0.982238 0.938186
0 1 1
0 1 1
0 1 1
0 1 1
0.289418 1 1
0.725811 1 0.98703
0.980102 0.999939 0.931243
1 0.998306 0.916381
1 0.998047 0.905867
0 1 1
0 1 1
0 1 1
0 1 1
0.215564 1 1
0.656687 1 0.964508
0.958267 1 0.89778
1 0.997375 0.878523
1 0.997086 0.8645
0.00634775 0.0378576 0.998779
0.0183719 0.0342412 0.996612
0.187076 0 0.964996
0.567987 0 0.894087
0.970748 0 0.814694
1 0 0.775036
1 0 0.773632
1 0 0.773632
1 0 0.773632
0.00634775 0.0378576 0.998779
0.0084535 0.0372168 0.998398
0.158175 0.00195315 0.970382
0.514092 0 0.904158
0.948852 0 0.82295
1 0 0.777127
1 0 0.773632
1 0 0.773632
1 0 0.773632
0 0.149691 1
0 0.141039 1
0.0986954 0.0980545 0.99469
0.419547 0.0102541 0.933425
0.859541 0 0.850065
1 0 0.792844
1 0 0.78378
1 0 0.782849
1 0 0.781933
0 0.443381 1
0 0.423194 1
0.0258488 0.374868 1
0.308431 0.271244 0.990143
0.746731 0.123339 0.905913
1 0.0168765 0.839002
1 0.00117494 0.822278
1 0 0.819745
1 0 0.817273
0 0.87834 1
0 0.855955 1
0 0.808743 1
0.179324 0.70898 1
0.60647 0.558953 0.989807
0.96492 0.42446 0.916823
1 0.368261 0.891569
1 0.345617 0.887678
1 0.323201 0.883848
0 1 1
0 1 1
0 1 1
0.0584115 1 1
0.464271 0.976776 1
0.862348 0.845304 0.994812
1 0.779187 0.963256
1 0.759136 0.959823
1 0.740673 0.956939
0 1 1
0 1 1
0 1 1
0.00686656 1 1
0.358846 1 1
0.779416 1 1
0.994629 0.992905 0.999405
1 0.986465 0.997803
1 0.981872 0.997024
0 1 1
0 1 1
0 1 1
0 1 1
0.280735 1 1
0.717876 1 1
0.977722 1 1
1 1 0.999481
1 1 0.99884
0 1 1
0 1 1
0 1 1
0 1 1
0.206638 1 1
0.647944 1 1
0.953887 1 1
1 1 0.997177
1 1 0.996521
