luts/varicam_official/Hangover.cube
TITLE "Generated by Resolve"
LUT_3D_SIZE 5
0.0156252 0.0156252 0.0156252
0.223987 0 0
0.983017 0 0
1 0 0
1 0 0
0 0.15697 0.0397803
0.133944 0.0907149 0.00979629
0.914656 0 0
1 0 0
1 0 0
0 0.920699 0.170993
0 0.845853 0.148104
0.666453 0.588678 0.010544
1 0.417655 0
1 0.373922 0
0 1 0.242008
0 1 0.236789
0.43566 1 0.123674
0.994568 0.96791 0.0167391
1 0.962509 0.0159304
0 1 0.242008
0 1 0.242008
0.282032 1 0.152483
0.970916 0.982467 0.0211643
1 0.975341 0.016846
0.0149081 0.0169528 0.0812543
0.21413 0 0.0307012
0.981552 0 0
1 0 0
1 0 0
0 0.149706 0.0721141
0.126879 0.0874037 0.0340124
0.902525 0 0
1 0 0
1 0 0
0 0.905226 0.175174
0 0.831952 0.146517
0.655177 0.576928 0.0104524
1 0.40145 0
1 0.357717 0
0 1 0.242008
0 1 0.237507
0.420951 1 0.126345
0.993469 0.966537 0.0167544
1 0.960052 0.0156252
0 1 0.242008
0 1 0.242008
0.268238 1 0.155062
0.968124 0.983291 0.0216983
1 0.975341 0.016846
0.010544 0.0276188 0.551507
0.201892 0 0.483696
0.977325 0 0.316915
1 0 0.257649
1 0 0.233951
0 0.150729 0.479698
0.116533 0.0921798 0.417746
0.886717 0 0.241337
1 0 0.152758
1 0 0.124361
0 0.894987 0.502525
0 0.822568 0.443427
0.637903 0.567773 0.274723
1 0.38584 0.153017
1 0.341543 0.118166
0 1 0.477134
0 1 0.439811
0.399222 1 0.302052
1 0.977844 0.162692
1 0.969848 0.14023
0 1 0.387304
0 1 0.364416
0.247974 1 0.254627
0.976364 0.988998 0.100114
1 0.979278 0.0787823
0.00643931 0.0374304 0.987427
0.190906 0 0.94725
0.972427 0 0.792767
1 0 0.748043
1 0 0.738811
0 0.154833 0.98381
0.10518 0.100557 0.945006
0.870375 0 0.787732
1 0 0.707942
1 0 0.690105
0 0.891478 1
0 0.820905 1
0.619944 0.5682 0.857893
1 0.381323 0.736324
1 0.336538 0.704021
0 1 0.984039
0 1 0.968917
0.376867 1 0.881514
0.99884 0.990082 0.735317
1 0.978744 0.703227
0 1 0.944305
0 1 0.927123
0.225788 1 0.799313
0.964233 1 0.622629
1 0.990539 0.577386
0.00634775 0.0378576 0.998779
0.187076 0 0.964996
0.970748 0 0.814694
1 0 0.773632
1 0 0.773632
0 0.149691 1
0.0986954 0.0980545 0.99469
0.859541 0 0.850065
1 0 0.78378
1 0 0.781933
0 0.87834 1
0 0.808743 1
0.60647 0.558953 0.989807
1 0.368261 0.891569
1 0.323201 0.883848
0 1 1
0 1 1
0.358846 1 1
0.994629 0.992905 0.999405
1 0.981872 0.997024
0 1 1
0 1 1
0.206638 1 1
0.953887 1 1
1 1 0.996521
