luts/varicam_official/Hangover.cube
TITLE "Generated by Resolve"
LUT_3D_SIZE 33
0.0156252 0.0156252 0.0156252
0.0156252 0.0156252 0.0156252
0.0156252 0.0156252 0.0156252
0.0159152 0.0155489 0.0155795
0.0377661 0.00898756 0.011429
0.0661173 0.00178531 0.0059968
0.105013 0 0.00157168
0.157305 0 0
0.223987 0 0
0.304433 0 0
0.398184 0 0
0.501991 0 0
0.613443 0 0
0.72755 0 0
0.838514 0 0
0.942473 0 0
0.983017 0 0
0.9944 0 0
1 0 0
1 0 0
1 0 0
1 0 0
1 0 0
1 0 0
1 0 0
1 0 0
1 0 0
1 0 0
1 0 0
1 0 0
1 0 0
1 0 0
1 0 0
0.0156252 0.0156252 0.0156252
0.0156252 0.0156252 0.0156252
0.0156252 0.0156252 0.0156252
0.0156252 0.0156252 0.0156252
0.0354772 0.00967422 0.0118563
0.0630045 0.00256352 0.0065919
0.100877 0 0.00196841
0.151583 0 0
0.216999 0 0
0.296437 0 0
0.389593 0 0
0.493263 0 0
0.605692 0 0
0.720638 0 0
0.834226 0 0
0.938125 0 0
0.982284 0 0
0.993622 0 0
1 0 0
1 0 0
1 0 0
1 0 0
1 0 0
1 0 0
1 0 0
1 0 0
1 0 0
1 0 0
1 0 0
1 0 0
1 0 0
1 0 0
1 0 0
0.0156252 0.0156252 0.0156252
0.0156252 0.0156252 0.0156252
0.0156252 0.0156252 0.0156252
0.0156252 0.0156252 0.0156252
0.0327001 0.0105135 0.0123903
0.0595102 0.00343328 0.00726329
0.0958114 0 0.00247196
0.145068 0 0
0.209003 0 0
0.287648 0 0
0.38056 0 0
0.486809 0 0
0.598901 0 0
0.713222 0 0
0.824704 0 0
0.928985 0 0
0.981216 0 0
0.992508 0 0
1 0 0
1 0 0
1 0 0
1 0 0
1 0 0
1 0 0
1 0 0
1 0 0
1 0 0
1 0 0
1 0 0
1 0 0
1 0 0
1 0 0
1 0 0
0.0156252 0.0156252 0.0156252
0.0156252 0.0156252 0.0156252
0.0156252 0.0156252 0.0156252
0.0156252 0.0156252 0.0156252
0.0295567 0.0114443 0.0129854
0.0556191 0.00440986 0.00801099
0.090547 0 0.00297551
0.138293 0 0
0.202014 0 0
0.280461 0 0
0.372778 0 0
0.476417 0 0
0.587274 0 0
0.700374 0 0
0.811856 0 0
0.916808 0 0
0.979812 0 0
0.991104 0 0
1 0 0
1 0 0
1 0 0
1 0 0
1 0 0
1 0 0
1 0 0
1 0 0
1 0 0
1 0 0
1 0 0
1 0 0
1 0 0
1 0 0
1 0 0
0.0148775 0.0202029 0.0163882
0.0149996 0.0194705 0.0162661
0.0151522 0.0185397 0.0161135
0.0153048 0.0176089 0.0159609
0.0258335 0.0131685 0.0137789
0.0514687 0.00544747 0.00880446
0.085481 0 0.0034638
0.131518 0 0
0.192355 0 0
0.268925 0 0
0.359594 0 0
0.461494 0 0
0.570809 0 0
0.683574 0 0
0.795193 0 0
0.901579 0 0
0.978103 0 0
0.989395 0 0
1 0 0
1 0 0
1 0 0
1 0 0
1 0 0
1 0 0
1 0 0
1 0 0
1 0 0
1 0 0
1 0 0
1 0 0
1 0 0
1 0 0
1 0 0
0.0114748 0.0407874 0.019791
0.0115663 0.0402686 0.0196994
0.0116121 0.0399634 0.0196536
0.0117494 0.0391241 0.0195163
0.0193942 0.0357061 0.0179446
0.0435645 0.0275731 0.0133364
0.0750286 0.0179294 0.00730907
0.118196 0.00793469 0.000198367
0.177493 0.000854505 1.5259e-05
0.251438 0 0
0.338994 0 0
0.43827 0 0
0.546242 0 0
0.658183 0 0
0.770748 0 0
0.879286 0 0
0.97409 0 0
0.986206 0 0
0.998245 0 0
1 0 0
1 0 0
1 0 0
1 0 0
1 0 0
1 0 0
1 0 0
1 0 0
1 0 0
1 0 0
1 0 0
1 0 0
1 0 0
1 0 0
0.00674449 0.0700999 0.0248875
0.00688182 0.0692454 0.0247349
0.00706493 0.0681163 0.0245365
0.00729381 0.0666972 0.0242924
0.0118105 0.0634623 0.0231632
0.0349126 0.0550088 0.0186313
0.0647288 0.0446479 0.0128176
0.107561 0.0307469 0.00460822
0.164111 0.0163119 0.000793469
0.235142 0.00483711 0
0.320333 0.000442512 0
0.417365 0 0
0.523674 0 0
0.635294 0 0
0.748028 0 0
0.857939 0 0
0.958022 0 0
0.981918 0 0
0.995514 0 0
1 0 0
1 0 0
1 0 0
1 0 0
1 0 0
1 0 0
1 0 0
1 0 0
1 0 0
1 0 0
1 0 0
1 0 0
1 0 0
1 0 0
0.00236515 0.108095 0.0314183
0.00251774 0.106661 0.0311742
0.00270085 0.104799 0.0308537
0.00291447 0.102739 0.0305028
0.00375372 0.0996872 0.0299077
0.025452 0.090074 0.0251469
0.0548257 0.0792554 0.0194095
0.0957046 0.0650645 0.0114595
0.149676 0.0471199 0.00383001
0.218509 0.0247807 0.000289921
0.30106 0.00755322 0
0.396277 0.00195315 0
0.501076 0 0
0.612467 0 0
0.725734 0 0
0.835355 0 0
0.937057 0 0
0.976623 0 0
0.992233 0 0
1 0 0
1 0 0
1 0 0
1 0 0
1 0 0
1 0 0
1 0 0
1 0 0
1 0 0
1 0 0
1 0 0
1 0 0
1 0 0
1 0 0
0 0.15697 0.0397803
0 0.154696 0.0393988
0 0.152132 0.0389563
0 0.149004 0.0384222
0 0.145312 0.0377966
0.0158389 0.135149 0.0333257
0.0433356 0.123522 0.0275883
0.0820935 0.109026 0.0199435
0.133944 0.0907149 0.00979629
0.199939 0.0692607 0.00196841
0.28014 0.0440375 0
0.373388 0.0188754 0
0.477012 0 0
0.587839 0 0
0.700877 0 0
0.811231 0 0
0.914656 0 0
0.969467 0 0
0.987869 0 0
1 0 0
1 0 0
1 0 0
1 0 0
1 0 0
1 0 0
1 0 0
1 0 0
1 0 0
1 0 0
1 0 0
1 0 0
1 0 0
1 0 0
0 0.218006 0.0502632
0 0.215076 0.0497444
0 0.211444 0.0491188
0 0.207431 0.0484321
0 0.203021 0.0476692
0.0069276 0.193606 0.0438087
0.0295415 0.182269 0.0382544
0.0662852 0.168139 0.0309606
0.115663 0.15053 0.0212711
0.178897 0.128893 0.00975052
0.257252 0.102922 0
0.34844 0.073228 0
0.451881 0.043122 0
0.561852 0.0204623 0
0.67425 0.00488289 0
0.785336 0 0
0.890471 0 0
0.95996 0 0
0.982055 0 0
1 0 0
1 0 0
1 0 0
1 0 0
1 0 0
1 0 0
1 0 0
1 0 0
1 0 0
1 0 0
1 0 0
1 0 0
1 0 0
1 0 0
0 0.292332 0.0630961
0 0.289418 0.0625925
0 0.285771 0.0619669
0 0.281773 0.0612802
0 0.277394 0.0605173
0.00138857 0.267399 0.0570382
0.0155489 0.255055 0.0514382
0.0481727 0.240604 0.0443732
0.0950484 0.222843 0.0350195
0.156085 0.201053 0.0230259
0.232517 0.174517 0.00836194
0.323308 0.143832 0.00105287
0.424994 0.110323 0
0.533928 0.0746777 0
0.646204 0.0417945 0
0.758053 0.0194858 0
0.864347 0.00917067 0
0.94757 0.00227359 0
0.974243 0 0
1 0 0
1 0 0
1 0 0
1 0 0
1 0 0
1 0 0
1 0 0
1 0 0
1 0 0
1 0 0
1 0 0
1 0 0
1 0 0
1 0 0
0 0.381323 0.0782635
0 0.377829 0.0776684
0 0.373449 0.0769207
0 0.368643 0.076112
0 0.362966 0.0751354
0 0.353262 0.072282
0.00529488 0.339864 0.0666819
0.0281834 0.324742 0.0597086
0.0726177 0.306538 0.0506447
0.132357 0.284321 0.0388495
0.207675 0.25742 0.0241093
0.296208 0.226627 0.00865187
0.395666 0.193057 0.00129702
0.503609 0.156573 0
0.61622 0.119142 0
0.728298 0.0818341 0
0.83624 0.0456703 0
0.931945 0.0129702 0
0.963867 0.000457771 0
0.99527 0 0
1 0 0
1 0 0
1 0 0
1 0 0
1 0 0
1 0 0
1 0 0
1 0 0
1 0 0
1 0 0
1 0 0
1 0 0
1 0 0
0 0.480079 0.0951705
0 0.475624 0.0944076
0 0.470665 0.0935531
0 0.465217 0.0926223
0 0.459281 0.0915999
0 0.449256 0.0892042
0.000915541 0.435355 0.0837568
0.00848402 0.420127 0.0769513
0.0499733 0.401587 0.0679179
0.108095 0.378668 0.0563668
0.180713 0.352026 0.0419471
0.26685 0.32137 0.0250706
0.364996 0.28719 0.00862135
0.471748 0.251423 0
0.583688 0.213672 0
0.696757 0.176043 0
0.806256 0.138994 0
0.906569 0.105318 0
0.950439 0.0782483 0
0.988281 0.0588083 0
1 0.045304 0
1 0.0366674 0
1 0.0319524 0
1 0.0293889 0
1 0.0273594 0
1 0.0255131 0
1 0.0234684 0
1 0.0214389 0
1 0.0193942 0
1 0.0175631 0
1 0.0155184 0
1 0.0136721 0
1 0.0116426 0
0 0.586313 0.113466
0 0.581552 0.112642
0 0.576257 0.111727
0 0.570428 0.110719
0 0.563546 0.109529
0 0.555215 0.107912
0 0.539956 0.102358
0 0.524376 0.0955367
0.0290684 0.505913 0.0867628
0.0822156 0.483864 0.0756542
0.152209 0.45745 0.0617075
0.236042 0.42742 0.0452277
0.331945 0.393912 0.0269932
0.437613 0.357519 0.00978103
0.549142 0.319829 0
0.662974 0.280964 0
0.772961 0.243671 0
0.874586 0.208438 0
0.933883 0.177203 0
0.976806 0.150744 0
0.998199 0.129671 0
1 0.11371 0
1 0.103746 0
1 0.0978103 0
1 0.0928511 0
1 0.0883955 0
1 0.0834516 0
1 0.0784924 0
1 0.0735485 0
1 0.0685893 0
1 0.0641337 0
1 0.0591897 0
1 0.0542458 0
0 0.697459 0.132647
0 0.692607 0.131807
0 0.687205 0.130892
0 0.68127 0.12987
0 0.67425 0.128664
0 0.666789 0.127382
0 0.651698 0.121981
0 0.63592 0.11545
0.0124056 0.618158 0.107118
0.0549325 0.595804 0.0961776
0.122271 0.570321 0.0827955
0.2038 0.540169 0.0666361
0.29778 0.506828 0.0482185
0.402304 0.47039 0.0281682
0.513741 0.43183 0.00950637
0.627512 0.393133 0.00123598
0.738262 0.354788 0
0.841428 0.319249 0
0.914244 0.286427 0
0.962203 0.258762 0
0.993164 0.235752 0
1 0.218906 0
1 0.20763 0
1 0.201236 0
1 0.195941 0
1 0.190646 0
1 0.185351 0
1 0.180056 0
1 0.175036 0
1 0.170092 0
1 0.165133 0
1 0.160678 0
1 0.155734 0
0 0.810803 0.152071
0 0.805982 0.151247
0 0.800595 0.150317
0 0.794644 0.149294
0 0.787625 0.148104
0 0.780072 0.146807
0 0.765911 0.142077
0 0.750332 0.135744
0.00285344 0.732464 0.127718
0.0293736 0.710842 0.117281
0.0918746 0.686 0.104311
0.171008 0.656428 0.0886702
0.263005 0.62356 0.0705882
0.367132 0.586648 0.0502327
0.477867 0.54818 0.0287022
0.591363 0.509468 0.0104372
0.702739 0.470832 0.00170901
0.807599 0.434211 0
0.891234 0.401312 0
0.946578 0.371954 0
0.984329 0.348302 0
1 0.329732 0
1 0.317723 0
1 0.310994 0
1 0.305531 0
1 0.300237 0
1 0.294942 0
1 0.289647 0
1 0.284352 0
1 0.279057 0
1 0.273762 0
1 0.268467 0
1 0.263172 0
0 0.920699 0.170993
0 0.916014 0.170184
0 0.910811 0.169284
0 0.905074 0.168307
0 0.898833 0.167224
0 0.891539 0.165972
0 0.878325 0.161929
0 0.862821 0.155703
0 0.845853 0.148104
0.0110628 0.825711 0.138308
0.0612039 0.801465 0.125841
0.138338 0.772671 0.110628
0.229938 0.73959 0.0926375
0.332326 0.703838 0.0726635
0.441825 0.666041 0.0513619
0.55494 0.627131 0.0294804
0.666453 0.588678 0.010544
0.772946 0.55169 0.000335698
0.865568 0.51751 0
0.930617 0.487938 0
0.972961 0.462715 0
0.998169 0.44416 0
1 0.431113 0
1 0.423438 0
1 0.417655 0
1 0.412253 0
1 0.406317 0
1 0.400916 0
1 0.395514 0
1 0.390112 0
1 0.384726 0
1 0.379324 0
1 0.373922 0
0 0.962081 0.188632
0 0.961074 0.1879
0 0.959838 0.187015
0 0.958618 0.186114
0 0.957275 0.185138
0 0.955718 0.184009
0 0.951629 0.180926
0 0.943526 0.174929
0 0.933562 0.167803
0.00227359 0.919997 0.158618
0.0336309 0.901701 0.146548
0.108141 0.878416 0.131655
0.197574 0.850141 0.114046
0.297932 0.817639 0.0945907
0.406271 0.780713 0.0735485
0.518563 0.742061 0.0517128
0.631174 0.703273 0.030045
0.739178 0.665873 0.0112154
0.836988 0.631251 0
0.911894 0.600855 0
0.957504 0.575525 0
0.990616 0.555779 0
0.999359 0.542443 0
1 0.533562 0
1 0.527749 0
1 0.522545 0
1 0.516808 0
1 0.511604 0
1 0.506386 0
1 0.501183 0
1 0.495979 0
1 0.490761 0
1 0.485557 0
0 0.985733 0.204456
0 0.984726 0.203815
0 0.98352 0.203052
0 0.9823 0.202289
0 0.980972 0.20145
0 0.979416 0.200473
0 0.976944 0.198352
0 0.972107 0.192782
0 0.966293 0.186252
0 0.958312 0.177264
0.0153353 0.94754 0.165591
0.0791333 0.933944 0.151202
0.166125 0.917037 0.134218
0.264652 0.896819 0.114992
0.371633 0.872786 0.0942245
0.484092 0.841535 0.0724193
0.59675 0.803616 0.0507057
0.706294 0.766613 0.0296483
0.806958 0.732372 0.0115511
0.884764 0.702495 0.00154116
0.940368 0.677134 0
0.978698 0.657298 0
0.996429 0.643687 0
1 0.634836 0
1 0.629175 0
1 0.624781 0
1 0.620386 0
1 0.615549 0
1 0.611139 0
1 0.606744 0
1 0.60235 0
1 0.597513 0
1 0.593118 0
0 1 0.217975
0 1 0.217487
0 1 0.216907
0 1 0.216312
0 1 0.215671
0 1 0.214923
0 1 0.213977
0 0.999374 0.208576
0 0.997314 0.202121
0 0.99472 0.193545
0.00335698 0.991119 0.182345
0.0525063 0.984085 0.168551
0.13669 0.971374 0.152102
0.233051 0.954314 0.133394
0.338781 0.935439 0.112993
0.450843 0.914031 0.0914473
0.564462 0.886976 0.0697185
0.674281 0.858671 0.0485237
0.775616 0.825071 0.0289311
0.857267 0.794934 0.012192
0.92134 0.769146 0.00321965
0.965621 0.748806 0.000503548
0.990692 0.734142 0
1 0.725322 0
1 0.719982 0
1 0.715633 0
1 0.711696 0
1 0.707744 0
1 0.703395 0
1 0.699443 0
1 0.69514 0
1 0.690303 0
1 0.685908 0
0 1 0.228702
0 1 0.228382
0 1 0.22797
0 1 0.227573
0 1 0.227146
0 1 0.226459
0 1 0.225605
0 1 0.220859
0 1 0.214878
0 1 0.206836
0.000381476 1 0.196353
0.0321813 0.99913 0.183261
0.109667 0.995666 0.167529
0.203815 0.988525 0.149386
0.30811 0.97908 0.129381
0.419913 0.966079 0.10808
0.533333 0.947463 0.0864424
0.643519 0.928389 0.0653086
0.746258 0.903243 0.0456245
0.831907 0.876341 0.0280766
0.901411 0.851652 0.0133974
0.953124 0.831235 0.00386053
0.983261 0.816526 0.000808728
0.999771 0.807263 0.000228885
1 0.802823 7.62951e-05
1 0.799756 0
1 0.795407 0
1 0.79147 0
1 0.787121 0
1 0.783169 0
1 0.77882 0
1 0.774884 0
1 0.770932 0
0 1 0.236454
0 1 0.236164
0 1 0.235813
0 1 0.235401
0 1 0.234974
0 1 0.23447
0 1 0.233951
0 1 0.230228
0 1 0.224628
0 1 0.217273
0 1 0.207538
0.0173495 1 0.195163
0.0853437 1 0.180056
0.177386 1 0.16257
0.280873 1 0.142779
0.391699 0.997223 0.121935
0.504677 0.986068 0.10045
0.615366 0.971725 0.0794537
0.719478 0.955764 0.0597238
0.809033 0.938338 0.0418097
0.881331 0.919142 0.026627
0.940124 0.89897 0.014847
0.974716 0.883421 0.0068513
0.996994 0.873411 0.00270085
0.999725 0.868711 0.00180056
1 0.865187 0.00163272
1 0.862104 0.00155642
1 0.858732 0.00146487
1 0.855344 0.00138857
1 0.852277 0.00131228
1 0.848905 0.00122072
1 0.845823 0.00114443
1 0.842756 0.00106813
0 1 0.240375
0 1 0.240208
0 1 0.240024
0 1 0.239811
0 1 0.239597
0 1 0.239353
0 1 0.239109
0 1 0.236545
0 1 0.231403
0 1 0.224704
0 1 0.215686
0.00628672 1 0.204044
0.0638437 1 0.189609
0.154955 1 0.172457
0.257115 1 0.153155
0.365927 1 0.132753
0.478325 1 0.111589
0.589563 0.999451 0.0906386
0.695705 0.991928 0.0705882
0.788846 0.97586 0.0523079
0.863005 0.961028 0.0364996
0.927214 0.946273 0.0239719
0.966308 0.930983 0.0154574
0.989914 0.921508 0.0106355
0.998474 0.917082 0.0087892
1 0.914641 0.00819409
1 0.912337 0.0077821
1 0.910018 0.00738537
1 0.907698 0.00698863
1 0.905577 0.00662242
1 0.903258 0.00622568
1 0.901152 0.00587472
1 0.898833 0.00546273
0 1 0.241718
0 1 0.241688
0 1 0.241642
0 1 0.241596
0 1 0.24155
0 1 0.241505
0 1 0.241443
0 1 0.239902
0 1 0.235264
0 1 0.229114
0 1 0.220813
0 1 0.209812
0.0511788 1 0.195651
0.136172 1 0.179049
0.235767 1 0.16051
0.343801 1 0.140185
0.455863 1 0.119036
0.567742 0.999954 0.0979171
0.674968 0.999161 0.0777752
0.772335 0.995285 0.0592355
0.848005 0.987976 0.043183
0.913039 0.976471 0.0306706
0.957107 0.962783 0.0216831
0.983764 0.953475 0.0163729
0.996536 0.949157 0.0141909
1 0.947356 0.013611
1 0.94609 0.0134127
1 0.944839 0.0132143
1 0.943572 0.0130159
1 0.942428 0.0128328
1 0.941176 0.0126345
1 0.940032 0.0124514
1 0.938766 0.012253
0 1 0.242008
0 1 0.242008
0 1 0.242008
0 1 0.242008
0 1 0.242008
0 1 0.242008
0 1 0.242008
0 1 0.241306
0 1 0.236789
0 1 0.23125
0 1 0.223133
0 1 0.212345
0.0414282 1 0.198871
0.119814 1 0.182773
0.217288 1 0.164523
0.323964 1 0.144533
0.43566 1 0.123674
0.547967 1 0.102724
0.657023 1 0.0823682
0.756588 1 0.0637675
0.833585 0.998322 0.0476387
0.900496 0.993164 0.0346227
0.948867 0.982025 0.0251469
0.978943 0.972488 0.0192721
0.994568 0.96791 0.0167391
1 0.966522 0.0162203
1 0.965927 0.0161746
1 0.965347 0.0161288
1 0.964752 0.0160983
1 0.964218 0.0160525
1 0.963638 0.0160067
1 0.963043 0.0159762
1 0.962509 0.0159304
0 1 0.242008
0 1 0.242008
0 1 0.242008
0 1 0.242008
0 1 0.242008
0 1 0.242008
0 1 0.242008
0 1 0.242008
0 1 0.237675
0 1 0.232242
0 1 0.224552
0 1 0.214298
0.032166 1 0.201343
0.104128 1 0.185779
0.199512 1 0.167971
0.304845 1 0.148226
0.416251 1 0.127443
0.529656 1 0.106386
0.638666 1 0.0860609
0.739773 1 0.067216
0.820798 1 0.0506142
0.889174 0.99884 0.0370642
0.941695 0.991135 0.0269017
0.975052 0.981231 0.0203861
0.992966 0.976364 0.0173648
1 0.975341 0.016846
1 0.975341 0.016846
1 0.975341 0.016846
1 0.975341 0.016846
1 0.975341 0.016846
1 0.975174 0.016846
1 0.97464 0.0168002
1 0.97406 0.0167544
0 1 0.242008
0 1 0.242008
0 1 0.242008
0 1 0.242008
0 1 0.242008
0 1 0.242008
0 1 0.242008
0 1 0.242008
0 1 0.238437
0 1 0.233188
0 1 0.225971
0 1 0.216236
0.0227054 1 0.203815
0.0881361 1 0.188754
0.181872 1 0.171283
0.285908 1 0.151751
0.397101 1 0.130999
0.510445 1 0.109957
0.620096 1 0.0895247
0.722805 1 0.0703746
0.808011 1 0.0533303
0.878202 0.99913 0.0391394
0.934554 0.993255 0.0283055
0.971389 0.98233 0.021088
0.99147 0.976577 0.0174716
1 0.975341 0.016846
1 0.975341 0.016846
1 0.975341 0.016846
1 0.975341 0.016846
1 0.975341 0.016846
1 0.975341 0.016846
1 0.975341 0.016846
1 0.975341 0.016846
0 1 0.242008
0 1 0.242008
0 1 0.242008
0 1 0.242008
0 1 0.242008
0 1 0.242008
0 1 0.242008
0 1 0.242008
0 1 0.239216
