luts/varicam_official/HiCon.cube
TITLE "Generated by Resolve"
LUT_3D_SIZE 5
0.0156252 0.0156252 0.0156252
0.0375219 0.00910964 0.0114595
0.429892 0 0
1 0 0
1 0 0
0.0115663 0.0402838 0.0197147
0.0334478 0.0339055 0.0157321
0.426017 1.5259e-05 0
1 0 0
1 0 0
0 0.485512 0.0961166
0.00015259 0.47895 0.092134
0.354208 0.362844 0.020737
1 0.132128 0
1 0.132128 0
0 1 0.242008
0 1 0.237858
0.217197 1 0.16463
1 0.975341 0.016846
1 0.975341 0.016846
0 1 0.242008
0 1 0.237858
0.217197 1 0.16463
1 0.975341 0.016846
1 0.975341 0.016846
0.0153964 0.0158846 0.0348974
0.0372931 0.00953689 0.0308995
0.429786 0 0.000106813
1 0 0
1 0 0
0.0113375 0.0407416 0.0391699
0.0332189 0.034226 0.03505
0.425834 1.5259e-05 0.00015259
1 0 0
1 0 0
0 0.485847 0.115572
0.000137331 0.479393 0.111452
0.354055 0.363272 0.0385901
1 0.13257 0
1 0.13257 0
0 1 0.261463
0 1 0.257328
0.217151 1 0.184039
1 0.977951 0.0361181
1 0.977951 0.0361181
0 1 0.261463
0 1 0.257328
0.217151 1 0.184039
1 0.977951 0.0361181
1 0.977951 0.0361181
0.0120699 0.0238651 0.385855
0.0340276 0.0174105 0.381765
0.426444 0 0.308522
1 0 0.160693
1 0 0.160693
0.00808728 0.048661 0.390143
0.029984 0.0421759 0.386053
0.422492 4.57771e-05 0.312779
1 0 0.164981
1 0 0.164981
0 0.493797 0.46656
0.000106813 0.487327 0.46244
0.350729 0.371191 0.389151
1 0.140017 0.241413
1 0.140017 0.241413
0 1 0.612314
0 1 0.608194
0.213809 1 0.534966
1 0.986267 0.387152
1 0.986267 0.387152
0 1 0.612314
0 1 0.608194
0.213809 1 0.534966
1 0.986267 0.387152
1 0.986267 0.387152
0.00634775 0.0378576 0.998779
0.0282292 0.031281 0.994827
0.420615 0 0.921553
1 0 0.773632
1 0 0.773632
0.00247196 0.0625162 0.999832
0.0242008 0.0561074 0.998276
0.416739 0.000122072 0.925719
1 0 0.77792
1 0 0.77792
0 0.507729 1
4.57771e-05 0.501244 1
0.344991 0.385061 0.994018
1 0.153079 0.854337
1 0.153079 0.854337
0 1 1
0 1 1
0.208057 1 1
1 1 1
1 1 1
0 1 1
0 1 1
0.208057 1 1
1 1 1
1 1 1
0.00634775 0.0378576 0.998779
0.0282292 0.031281 0.994827
0.420615 0 0.921553
1 0 0.773632
1 0 0.773632
0.00247196 0.0625162 0.999832
0.0242008 0.0561074 0.998276
0.416739 0.000122072 0.925719
1 0 0.77792
1 0 0.77792
0 0.507729 1
4.57771e-05 0.501244 1
0.344991 0.385061 0.994018
1 0.153079 0.854337
1 0.153079 0.854337
0 1 1
0 1 1
0.208057 1 1
1 1 1
1 1 1
0 1 1
0 1 1
0.208057 1 1
1 1 1
1 1 1
