luts/varicam_official/HiCon.cube
TITLE "Generated by Resolve"
LUT_3D_SIZE 33
0.0156252 0.0156252 0.0156252
0.0156252 0.0156252 0.0156252
0.0156252 0.0156252 0.0156252
0.0157473 0.0155795 0.0155947
0.0165408 0.0153506 0.0154574
0.0190585 0.0146029 0.0149844
0.0232853 0.0133211 0.0141756
0.0293126 0.0115206 0.0130312
0.0375219 0.00910964 0.0114595
0.0495766 0.0059205 0.00917067
0.0664225 0.00241093 0.00621042
0.0891737 0 0.00309758
0.121736 0 0.000457771
0.168612 0 0
0.234592 0 0
0.320882 0 0
0.429892 0 0
0.560555 0 0
0.707622 0 0
0.859098 0 0
0.979812 0 0
0.99704 0 0
0.999786 0 0
1 0 0
1 0 0
1 0 0
1 0 0
1 0 0
1 0 0
1 0 0
1 0 0
1 0 0
1 0 0
0.0156252 0.0156252 0.0156252
0.0156252 0.0156252 0.0156252
0.0156252 0.0156252 0.0156252
0.0157473 0.0155795 0.0155947
0.0165408 0.0153506 0.0154574
0.0190585 0.0146029 0.0149844
0.0232853 0.0133211 0.0141756
0.0293126 0.0115206 0.0130312
0.0375219 0.00910964 0.0114595
0.0495766 0.0059205 0.00917067
0.0664225 0.00241093 0.00621042
0.0891737 0 0.00309758
0.121736 0 0.000457771
0.168612 0 0
0.234592 0 0
0.320882 0 0
0.429892 0 0
0.560555 0 0
0.707622 0 0
0.859098 0 0
0.979812 0 0
0.99704 0 0
0.999786 0 0
1 0 0
1 0 0
1 0 0
1 0 0
1 0 0
1 0 0
1 0 0
1 0 0
1 0 0
1 0 0
0.0156252 0.0156252 0.0156252
0.0156252 0.0156252 0.0156252
0.0156252 0.0156252 0.0156252
0.0157473 0.0155795 0.0155947
0.0165408 0.0153506 0.0154574
0.0190585 0.0146029 0.0149844
0.0232853 0.0133211 0.0141756
0.0293126 0.0115206 0.0130312
0.0375219 0.00910964 0.0114595
0.0495766 0.0059205 0.00917067
0.0664225 0.00241093 0.00621042
0.0891737 0 0.00309758
0.121736 0 0.000457771
0.168612 0 0
0.234592 0 0
0.320882 0 0
0.429892 0 0
0.560555 0 0
0.707622 0 0
0.859098 0 0
0.979812 0 0
0.99704 0 0
0.999786 0 0
1 0 0
1 0 0
1 0 0
1 0 0
1 0 0
1 0 0
1 0 0
1 0 0
1 0 0
1 0 0
0.0155947 0.0157778 0.0156558
0.0155947 0.0157778 0.0156558
0.0155947 0.0157778 0.0156558
0.0157321 0.0157473 0.0156252
0.0165103 0.0155184 0.0154879
0.019028 0.0147555 0.0149996
0.0232547 0.013489 0.0141909
0.0292973 0.0116732 0.0130465
0.0374914 0.00927749 0.01149
0.0495613 0.00607309 0.00918593
0.066392 0.00254826 0.00624094
0.0891585 0.000122072 0.0031281
0.121706 6.10361e-05 0.00047303
0.168582 1.5259e-05 0
0.234562 0 0
0.320867 0 0
0.429877 0 0
0.560525 0 0
0.707591 0 0
0.859083 0 0
0.979797 0 0
0.99704 0 0
0.999786 0 0
1 0 0
1 0 0
1 0 0
1 0 0
1 0 0
1 0 0
1 0 0
1 0 0
1 0 0
1 0 0
0.0154421 0.0167239 0.0158083
0.0154421 0.0167239 0.0158083
0.0154421 0.0167239 0.0158083
0.0155795 0.0166934 0.0157778
0.0163577 0.0164492 0.0156405
0.0188754 0.0156863 0.0151522
0.0231022 0.014435 0.0143587
0.0291447 0.0126192 0.0132143
0.0373388 0.0102235 0.0116579
0.0493935 0.00700389 0.00935378
0.0662394 0.00341802 0.00639353
0.0890059 0.000839246 0.00323491
0.121553 0.00047303 0.000488289
0.168429 0.000122072 0
0.234409 1.5259e-05 0
0.320714 0 0
0.429725 0 0
0.560388 0 0
0.707439 0 0
0.85893 0 0
0.97966 0 0
0.997024 0 0
0.999786 0 0
1 0 0
1 0 0
1 0 0
1 0 0
1 0 0
1 0 0
1 0 0
1 0 0
1 0 0
1 0 0
0.0149844 0.0194705 0.0162661
0.0149844 0.0194705 0.0162661
0.0149844 0.0194705 0.0162661
0.0151217 0.0194247 0.0162356
0.0158999 0.0191958 0.0160983
0.0184176 0.0184482 0.01561
0.0226444 0.0171817 0.0148165
0.028687 0.0153658 0.0136721
0.0368811 0.0129702 0.0121309
0.0489509 0.00972 0.00984207
0.0657816 0.00598154 0.00683604
0.0885481 0.00294499 0.00357061
0.121126 0.00166323 0.000564584
0.167987 0.000457771 1.5259e-05
0.233967 6.10361e-05 0
0.320272 0 0
0.429297 0 0
0.55996 0 0
0.707012 0 0
0.858488 0 0
0.979294 0 0
0.996963 0 0
0.999786 0 0
1 0 0
1 0 0
1 0 0
1 0 0
1 0 0
1 0 0
1 0 0
1 0 0
1 0 0
1 0 0
0.0142061 0.0242466 0.0170596
0.0142061 0.0242466 0.0170596
0.0142061 0.0242466 0.0170596
0.0143435 0.0242008 0.0170291
0.0151217 0.0239719 0.0168917
0.0176242 0.0232395 0.0164187
0.0218662 0.021973 0.0156252
0.0278935 0.0201877 0.0144961
0.0361028 0.017792 0.0129549
0.0481575 0.0144656 0.0106661
0.0650034 0.0104372 0.00762951
0.0877699 0.00662242 0.0041352
0.120363 0.00373846 0.000686656
0.167208 0.00103761 3.0518e-05
0.233173 0.000122072 0
0.319509 0 0
0.42855 0 0
0.559213 0 0
0.706249 0 0
0.85774 0 0
0.978653 0 0
0.996872 0 0
0.999786 0 0
1 0 0
1 0 0
1 0 0
1 0 0
1 0 0
1 0 0
1 0 0
1 0 0
1 0 0
1 0 0
0.0130922 0.0310063 0.0181735
0.0130922 0.0310063 0.0181735
0.0130922 0.0310063 0.0181735
0.0132296 0.0309758 0.018143
0.0140078 0.0307469 0.0180056
0.0165103 0.0300145 0.0175326
0.020737 0.0287633 0.0167544
0.0267796 0.026978 0.0156405
0.0349737 0.0245823 0.0141299
0.0470436 0.0211643 0.0118563
0.0638895 0.0167544 0.00874342
0.0866865 0.0118257 0.00494392
0.11931 0.00668345 0.000854505
0.16611 0.0018616 4.57771e-05
0.232059 0.000228885 0
0.318425 0 0
0.427482 0 0
0.558145 0 0
0.70518 0 0
0.856657 0 0
0.977752 0 0
0.99675 0 0
0.999771 0 0
1 0 0
1 0 0
1 0 0
1 0 0
1 0 0
1 0 0
1 0 0
1 0 0
1 0 0
1 0 0
0.0115663 0.0402838 0.0197147
0.0115663 0.0402838 0.0197147
0.0115663 0.0402838 0.0197147
0.0117037 0.0402533 0.0196841
0.0124819 0.0400244 0.0195468
0.0149844 0.039292 0.019089
0.0192111 0.038056 0.0183261
0.0252537 0.0363012 0.0172274
0.0334478 0.0339055 0.0157321
0.0455177 0.0303655 0.0134585
0.0623636 0.0255131 0.0102846
0.0851759 0.0193637 0.00614939
0.11783 0.0116579 0.00131228
0.164599 0.00419623 0.00015259
0.230549 0.000976577 1.5259e-05
0.316945 0.00015259 0
0.426017 1.5259e-05 0
0.55668 0 0
0.7037 0 0
0.855192 0 0
0.976516 0 0
0.996567 0 0
0.999756 0 0
1 0 0
1 0 0
1 0 0
1 0 0
1 0 0
1 0 0
1 0 0
1 0 0
1 0 0
1 0 0
0.00936904 0.0538796 0.0220493
0.00936904 0.0538796 0.0220493
0.00936904 0.0538796 0.0220493
0.00949111 0.0538491 0.022034
0.0102693 0.0536202 0.0218814
0.0127871 0.0528725 0.0214237
0.0170138 0.0516365 0.0206455
0.0230564 0.0498665 0.0195468
0.0312505 0.0474556 0.0180362
0.0433051 0.0438697 0.0157778
0.0601663 0.0388495 0.012604
0.0829938 0.032105 0.00831617
0.115648 0.0229648 0.00300603
0.162417 0.0128481 0.000656138
0.228336 0.00469978 7.62951e-05
0.314748 0.00105287 0
0.42385 7.62951e-05 0
0.554513 0 0
0.701534 0 0
0.853025 0 0
0.974716 0 0
0.996292 0 0
0.999741 0 0
1 0 0
1 0 0
1 0 0
1 0 0
1 0 0
1 0 0
1 0 0
1 0 0
1 0 0
1 0 0
0.0065156 0.0729992 0.0253758
0.0065156 0.0729992 0.0253758
0.0065156 0.0729992 0.0253758
0.00665293 0.0729534 0.0253605
0.00741588 0.0727245 0.0252079
0.0099031 0.0719615 0.0247349
0.0140993 0.0707103 0.0239414
0.0200809 0.068925 0.0228122
0.0281987 0.0664836 0.0212711
0.0402228 0.0629129 0.019028
0.057084 0.0579232 0.0158999
0.0799115 0.0512093 0.0116426
0.112566 0.0417792 0.00608835
0.159335 0.0293584 0.00180056
0.225269 0.0142519 0.000289921
0.311681 0.00523384 1.5259e-05
0.420768 0.00122072 0
0.551431 0.000106813 0
0.698451 0 0
0.849989 0 0
0.972213 0 0
0.995941 0 0
0.99971 0 0
1 0 0
1 0 0
1 0 0
1 0 0
1 0 0
1 0 0
1 0 0
1 0 0
1 0 0
1 0 0
0.00331121 0.0989395 0.0298619
0.00331121 0.0989395 0.0298619
0.00331121 0.0989395 0.0298619
0.00343328 0.098909 0.0298314
0.00416571 0.0986648 0.0296788
0.00656138 0.0979171 0.0292058
0.0105745 0.0966506 0.028397
0.0163119 0.0948348 0.0272526
0.024155 0.0923781 0.0256962
0.0360266 0.0888228 0.0234531
0.0528878 0.0838636 0.0203555
0.0757153 0.0771344 0.0161135
0.108385 0.0674907 0.0102998
0.155138 0.0536355 0.00381476
0.221118 0.0341192 0.000839246
0.307515 0.0177462 0.000106813
0.416587 0.00553903 0
0.547234 0.000534066 0
0.694255 0 0
0.845853 0 0
0.968826 0 0
0.995453 0 0
0.99968 0 0
1 0 0
1 0 0
1 0 0
1 0 0
1 0 0
1 0 0
1 0 0
1 0 0
1 0 0
1 0 0
0.000228885 0.135515 0.0361181
0.000228885 0.135515 0.0361181
0.000228885 0.135515 0.0361181
0.000335698 0.135485 0.0360876
0.000976577 0.135241 0.035935
0.00308232 0.134493 0.0354772
0.00660716 0.133227 0.0346685
0.0116274 0.131411 0.0335088
0.0186465 0.128969 0.0319677
0.0301061 0.125399 0.0297246
0.046952 0.120424 0.0266117
0.0697795 0.113664 0.022385
0.102464 0.103944 0.0162966
0.149218 0.0901656 0.00769055
0.215274 0.0705882 0.0021973
0.30164 0.0456397 0.000350958
0.410666 0.0192874 0
0.541314 0.00502022 0
0.688319 0.00114443 0
0.840024 0 0
0.964034 0 0
0.994766 0 0
0.999634 0 0
1 0 0
1 0 0
1 0 0
1 0 0
1 0 0
1 0 0
1 0 0
1 0 0
1 0 0
1 0 0
0 0.188891 0.0452583
0 0.188891 0.0452583
0 0.188891 0.0452583
6.10361e-05 0.188861 0.0452277
0.000442512 0.188617 0.0450752
0.00167849 0.187869 0.0446021
0.00375372 0.186603 0.0437934
0.00671397 0.184787 0.042649
0.0112764 0.18233 0.0411078
0.0215152 0.178775 0.0388647
0.0383612 0.1738 0.0357519
0.0611887 0.167025 0.0315099
0.0938582 0.157321 0.0254215
0.140612 0.143557 0.0166476
0.206668 0.123964 0.00598154
0.29305 0.0983749 0.00109865
0.402075 0.067277 0
0.532708 0.0348974 0
0.679728 0.0104219 0
0.831556 0 0
0.957061 0 0
0.993744 0 0
0.999557 0 0
1 0 0
1 0 0
1 0 0
1 0 0
1 0 0
1 0 0
1 0 0
1 0 0
1 0 0
1 0 0
0 0.264164 0.0582284
0 0.264164 0.0582284
0 0.264164 0.0582284
1.5259e-05 0.264118 0.0582132
0.000137331 0.26389 0.0580606
0.000488289 0.263142 0.0575875
0.00109865 0.26186 0.0567788
0.00196841 0.26006 0.0556344
0.00393683 0.257603 0.054078
0.0120241 0.254032 0.0518502
0.0273442 0.249058 0.0487373
0.0491035 0.242298 0.0445106
0.0816815 0.232578 0.0383917
0.128405 0.218814 0.0296178
0.194476 0.199237 0.0175631
0.280842 0.173648 0.00619516
0.389883 0.141543 0.00109865
0.520531 0.103914 0
0.667567 0.0655222 0
0.819623 0.0315099 0
0.947295 0.00665293 0
0.992294 0 0
0.999466 0 0
1 0 0
1 0 0
1 0 0
1 0 0
1 0 0
1 0 0
1 0 0
1 0 0
1 0 0
1 0 0
0 0.362036 0.0749676
0 0.362036 0.0749676
0 0.362036 0.0749676
0 0.36199 0.0749523
1.5259e-05 0.361761 0.0747997
7.62951e-05 0.361013 0.0743267
0.000183108 0.359731 0.0735637
0.000320439 0.357931 0.0724498
0.00102235 0.355474 0.0709392
0.00540169 0.351904 0.0686809
0.0153048 0.346944 0.0655222
0.0333104 0.340215 0.0612345
0.0658732 0.330571 0.0551308
0.112688 0.316732 0.0464637
0.178698 0.2972 0.0341344
0.265034 0.271656 0.0191653
0.374044 0.239429 0.00613413
0.504768 0.200824 0.000564584
0.651835 0.158038 0
0.804044 0.114611 0
0.934508 0.0757153 0
0.990417 0.0501259 0
0.999329 0.0368963 0
1 0.0333562 0
1 0.0327916 0
1 0.0327916 0
1 0.0327916 0
1 0.0327916 0
1 0.0327916 0
1 0.0327916 0
1 0.0327916 0
1 0.0327916 0
1 0.0327916 0
0 0.485512 0.0961166
0 0.485512 0.0961166
0 0.485512 0.0961166
0 0.485481 0.0961013
0 0.485237 0.0959487
0 0.484489 0.095491
0 0.483207 0.094728
0 0.481407 0.0936294
0.00015259 0.47895 0.092134
0.00134279 0.47538 0.0898756
0.00567636 0.47042 0.0866865
0.0182193 0.463676 0.0823835
0.0467536 0.454002 0.0762798
0.0928206 0.440192 0.0676585
0.15877 0.42063 0.0552987
0.245136 0.395056 0.0392615
0.354208 0.362844 0.020737
0.484901 0.324208 0.00628672
0.631937 0.28069 0.000137331
0.784436 0.235203 0
0.917739 0.192172 0
0.984695 0.158068 0
0.998932 0.138216 0
1 0.132982 0
1 0.132128 0
1 0.132128 0
1 0.132128 0
1 0.132128 0
1 0.132128 0
1 0.132128 0
1 0.132128 0
1 0.132128 0
1 0.132128 0
0 0.632609 0.121431
0 0.632609 0.121431
0 0.632609 0.121431
0 0.632578 0.121401
0 0.632349 0.121263
0 0.631586 0.12079
0 0.63032 0.120012
0 0.628504 0.118898
0 0.626062 0.117372
0 0.622492 0.115129
0.00134279 0.617517 0.111971
0.00766003 0.610788 0.107698
0.0259098 0.601114 0.101595
0.0694133 0.587289 0.0929122
0.135088 0.567742 0.0805676
0.221439 0.542184 0.0644236
0.330495 0.509941 0.0440986
0.461158 0.471305 0.0226596
0.608194 0.427802 0.0071107
0.761074 0.382284 0.000869764
0.897261 0.338888 0
0.974655 0.303227 0
0.99823 0.282109 0
1 0.276509 0
1 0.275593 0
1 0.275593 0
1 0.275593 0
1 0.275593 0
1 0.275593 0
1 0.275593 0
1 0.275593 0
1 0.275593 0
1 0.275593 0
0 0.796506 0.149645
0 0.796506 0.149645
0 0.796506 0.149645
0 0.796475 0.14963
0 0.796246 0.149477
0 0.795483 0.149004
0 0.794232 0.148196
0 0.792416 0.147051
0 0.78996 0.145495
0 0.786389 0.143236
0.000350958 0.78143 0.140108
0.00204471 0.774716 0.135866
0.0099031 0.765087 0.129793
0.045716 0.751217 0.12105
0.109026 0.731685 0.108751
0.195026 0.706157 0.0925917
0.304051 0.673884 0.072221
0.434699 0.635218 0.0480812
0.581735 0.591714 0.0243839
0.734981 0.546212 0.00720226
0.874067 0.502876 0
0.961883 0.467155 0
0.996887 0.446067 0
0.999908 0.440406 0
1 0.43949 0
1 0.43949 0
1 0.43949 0
1 0.43949 0
1 0.43949 0
1 0.43949 0
1 0.43949 0
1 0.43949 0
1 0.43949 0
0 0.931899 0.178637
0 0.931899 0.178637
0 0.931899 0.178637
0 0.931868 0.178607
0 0.93167 0.178454
0 0.93106 0.177981
0 0.930037 0.177172
0 0.928573 0.176028
0 0.926574 0.174472
0 0.92369 0.172198
0 0.919661 0.169039
0 0.914229 0.164813
0.00271611 0.906416 0.15877
0.0246586 0.89514 0.150027
0.0825666 0.879026 0.137728
0.167819 0.857389 0.121569
0.27686 0.829709 0.101213
0.407507 0.795758 0.0767987
0.554528 0.755718 0.0495918
0.707988 0.711818 0.0234226
0.849546 0.66894 0.0049897
0.947616 0.633204 0.000564584
0.993561 0.612131 4.57771e-05
0.999451 0.606485 0
1 0.60557 0
1 0.60557 0
1 0.60557 0
1 0.60557 0
1 0.60557 0
1 0.60557 0
1 0.60557 0
1 0.60557 0
1 0.60557 0
0 0.98407 0.205722
0 0.98407 0.205722
0 0.98407 0.205722
0 0.984054 0.205692
0 0.983993 0.205539
0 0.98378 0.205066
0 0.983429 0.204257
0 0.982925 0.203113
0 0.982223 0.201556
0 0.981216 0.199313
0 0.979828 0.196216
0 0.977951 0.191974
0.000869764 0.97525 0.18587
0.00791943 0.971298 0.177111
0.0586709 0.964965 0.164813
0.142443 0.955108 0.148699
0.251347 0.941756 0.128313
0.382055 0.922652 0.103914
0.529091 0.894148 0.0765087
0.682551 0.857084 0.0478523
0.825772 0.818326 0.0215763
0.932082 0.783749 0.00486763
0.987091 0.762692 0.00115969
0.998383 0.757061 0.000427253
1 0.756161 0.000335698
1 0.756161 0.000335698
1 0.756161 0.000335698
1 0.756161 0.000335698
1 0.756161 0.000335698
1 0.756161 0.000335698
1 0.756161 0.000335698
1 0.756161 0.000335698
1 0.756161 0.000335698
0 1 0.227802
0 1 0.227802
0 1 0.227802
0 1 0.227787
0 1 0.227619
0 1 0.227161
0 1 0.226352
0 1 0.225208
0 1 0.223651
0 1 0.221424
0 1 0.218311
0 1 0.214069
0 1 0.207965
0 1 0.199207
0.0423896 1 0.186908
0.122423 1 0.17084
0.230472 1 0.150439
0.361227 0.996155 0.126101
0.508309 0.982773 0.0987106
0.661753 0.961059 0.0699626
0.805951 0.93785 0.0425727
0.917296 0.910033 0.0199741
0.979934 0.889082 0.0068513
0.997177 0.883436 0.00323491
1 0.882521 0.00263981
1 0.882521 0.00263981
1 0.882521 0.00263981
1 0.882521 0.00263981
1 0.882521 0.00263981
1 0.882521 0.00263981
1 0.882521 0.00263981
1 0.882521 0.00263981
1 0.882521 0.00263981
0 1 0.239261
0 1 0.239261
0 1 0.239261
0 1 0.239231
0 1 0.239094
0 1 0.238636
0 1 0.237858
0 1 0.236759
0 1 0.235248
0 1 0.23299
0 1 0.229816
0 1 0.225528
0 1 0.219425
0 1 0.210788
0.0361639 1 0.198428
0.112612 1 0.1823
0.219821 1 0.16199
0.350484 0.999725 0.137636
0.49749 0.998749 0.11017
0.65098 0.996094 0.0814374
0.795087 0.989609 0.054078
0.906752 0.975586 0.0316014
0.974166 0.957137 0.0183108
0.996185 0.951705 0.0146944
1 0.95079 0.0140993
1 0.95079 0.0140993
1 0.95079 0.0140993
1 0.95079 0.0140993
1 0.95079 0.0140993
1 0.95079 0.0140993
1 0.95079 0.0140993
1 0.95079 0.0140993
1 0.95079 0.0140993
0 1 0.241657
0 1 0.241657
0 1 0.241657
0 1 0.241642
0 1 0.241489
0 1 0.241001
0 1 0.240223
0 1 0.239078
0 1 0.237537
0 1 0.235294
0 1 0.232166
0 1 0.227924
0 1 0.221805
0 1 0.213077
0.0349432 1 0.200763
0.110567 1 0.18468
0.217533 1 0.164294
0.348272 1 0.139879
0.495338 0.999985 0.112474
0.648783 0.999771 0.0838331
0.792981 0.998611 0.0564431
0.904662 0.994476 0.0338445
0.973114 0.977996 0.0205081
0.996002 0.972686 0.0170596
1 0.971771 0.016495
1 0.971771 0.016495
1 0.971771 0.016495
1 0.971771 0.016495
1 0.971771 0.016495
1 0.971771 0.016495
1 0.971771 0.016495
1 0.971771 0.016495
1 0.971771 0.016495
0 1 0.242008
0 1 0.242008
0 1 0.242008
0 1 0.241978
0 1 0.241825
0 1 0.241352
0 1 0.240543
0 1 0.239399
0 1 0.237858
0 1 0.235615
0 1 0.232502
0 1 0.22826
0 1 0.222156
0 1 0.213397
0.0347753 1 0.201099
0.110277 1 0.185016
0.217197 1 0.16463
0.347967 1 0.140185
0.495033 1 0.112795
0.648478 1 0.0841688
0.792691 0.999756 0.0567788
0.904387 0.997604 0.034165
0.972976 0.981521 0.0208133
0.995987 0.976257 0.0173953
1 0.975341 0.016846
1 0.975341 0.016846
1 0.975341 0.016846
1 0.975341 0.016846
1 0.975341 0.016846
1 0.975341 0.016846
1 0.975341 0.016846
1 0.975341 0.016846
1 0.975341 0.016846
0 1 0.242008
0 1 0.242008
0 1 0.242008
0 1 0.241978
0 1 0.241825
0 1 0.241352
0 1 0.240543
0 1 0.239399
0 1 0.237858
0 1 0.235615
0 1 0.232502
0 1 0.22826
0 1 0.222156
0 1 0.213397
0.0347753 1 0.201099
0.110277 1 0.185016
0.217197 1 0.16463
0.347967 1 0.140185
0.495033 1 0.112795
0.648478 1 0.0841688
0.792691 0.999756 0.0567788
0.904387 0.997604 0.034165
0.972976 0.981521 0.0208133
0.995987 0.976257 0.0173953
1 0.975341 0.016846
1 0.975341 0.016846
1 0.975341 0.016846
1 0.975341 0.016846
1 0.975341 0.016846
1 0.975341 0.016846
1 0.975341 0.016846
1 0.975341 0.016846
1 0.975341 0.016846
0 1 0.242008
0 1 0.242008
0 1 0.242008
0 1 0.241978
0 1 0.241825
0 1 0.241352
0 1 0.240543
0 1 0.239399
0 1 0.237858
0 1 0.235615
0 1 0.232502
0 1 0.22826
0 1 0.222156
0 1 0.213397
0.0347753 1 0.201099
0.110277 1 0.185016
0.217197 1 0.16463
0.347967 1 0.140185
0.495033 1 0.112795
0.648478 1 0.0841688
0.792691 0.999756 0.0567788
0.904387 0.997604 0.034165
0.972976 0.981521 0.0208133
0.995987 0.976257 0.0173953
1 0.975341 0.016846
1 0.975341 0.016846
1 0.975341 0.016846
1 0.975341 0.016846
1 0.975341 0.016846
1 0.975341 0.016846
1 0.975341 0.016846
1 0.975341 0.016846
1 0.975341 0.016846
0 1 0.242008
0 1 0.242008
0 1 0.242008
0 1 0.241978
0 1 0.241825
0 1 0.241352
0 1 0.240543
0 1 0.239399
0 1 0.237858
