luts/varicam_official/HiCon.cube
TITLE "Generated by Resolve"
LUT_3D_SIZE 9
0.0156252 0.0156252 0.0156252
0.0165408 0.0153506 0.0154574
0.0375219 0.00910964 0.0114595
0.121736 0 0.000457771
0.429892 0 0
0.979812 0 0
1 0 0
1 0 0
1 0 0
0.0154421 0.0167239 0.0158083
0.0163577 0.0164492 0.0156405
0.0373388 0.0102235 0.0116579
0.121553 0.00047303 0.000488289
0.429725 0 0
0.97966 0 0
1 0 0
1 0 0
1 0 0
0.0115663 0.0402838 0.0197147
0.0124819 0.0400244 0.0195468
0.0334478 0.0339055 0.0157321
0.11783 0.0116579 0.00131228
0.426017 1.5259e-05 0
0.976516 0 0
1 0 0
1 0 0
1 0 0
0.000228885 0.135515 0.0361181
0.000976577 0.135241 0.035935
0.0186465 0.128969 0.0319677
0.102464 0.103944 0.0162966
0.410666 0.0192874 0
0.964034 0 0
1 0 0
1 0 0
1 0 0
0 0.485512 0.0961166
0 0.485237 0.0959487
0.00015259 0.47895 0.092134
0.0467536 0.454002 0.0762798
0.354208 0.362844 0.020737
0.917739 0.192172 0
1 0.132128 0
1 0.132128 0
1 0.132128 0
0 0.98407 0.205722
0 0.983993 0.205539
0 0.982223 0.201556
0.000869764 0.97525 0.18587
0.251347 0.941756 0.128313
0.825772 0.818326 0.0215763
1 0.756161 0.000335698
1 0.756161 0.000335698
1 0.756161 0.000335698
0 1 0.242008
0 1 0.241825
0 1 0.237858
0 1 0.222156
0.217197 1 0.16463
0.792691 0.999756 0.0567788
1 0.975341 0.016846
1 0.975341 0.016846
1 0.975341 0.016846
0 1 0.242008
0 1 0.241825
0 1 0.237858
0 1 0.222156
0.217197 1 0.16463
0.792691 0.999756 0.0567788
1 0.975341 0.016846
1 0.975341 0.016846
1 0.975341 0.016846
0 1 0.242008
0 1 0.241825
0 1 0.237858
0 1 0.222156
0.217197 1 0.16463
0.792691 0.999756 0.0567788
1 0.975341 0.016846
1 0.975341 0.016846
1 0.975341 0.016846
0.0156252 0.0156405 0.0165255
0.0165255 0.0153658 0.0163424
0.0375067 0.00914015 0.0123751
0.121721 0 0.00115969
0.429892 0 0
0.979797 0 0
1 0 0
1 0 0
1 0 0
0.0154269 0.0167391 0.0167086
0.0163424 0.0164645 0.0165408
0.0373236 0.0102388 0.0125582
0.121538 0.00047303 0.0011902
0.429725 0 0
0.979644 0 0
1 0 0
1 0 0
1 0 0
0.0115511 0.0402991 0.0206302
0.0124666 0.0400397 0.0204623
0.0334325 0.0339208 0.0166323
0.11783 0.0116732 0.00216678
0.426017 1.5259e-05 0
0.976501 0 0
1 0 0
1 0 0
1 0 0
0.000213626 0.135546 0.0370184
0.000976577 0.135271 0.0368658
0.0186465 0.128985 0.0328679
0.102449 0.103975 0.0172122
0.410666 0.0193027 4.57771e-05
0.964034 0 0
1 0 0
1 0 0
1 0 0
0 0.485527 0.0970169
0 0.485252 0.0968643
0.00015259 0.478981 0.0930495
0.0467384 0.454017 0.0771954
0.354192 0.36286 0.021561
0.917754 0.192187 0
1 0.132158 0
1 0.132158 0
1 0.132158 0
0 0.984085 0.206622
0 0.984009 0.206439
0 0.982238 0.202472
0.000869764 0.97525 0.186786
0.251331 0.942107 0.129229
0.825864 0.818631 0.0224308
1 0.75642 0.000595102
1 0.75642 0.000595102
1 0.75642 0.000595102
0 1 0.242908
0 1 0.242741
0 1 0.238758
0 1 0.223072
0.217197 1 0.16553
0.792737 0.999771 0.0576791
1 0.975464 0.0177462
1 0.975464 0.0177462
1 0.975464 0.0177462
0 1 0.242908
0 1 0.242741
0 1 0.238758
0 1 0.223072
0.217197 1 0.16553
0.792737 0.999771 0.0576791
1 0.975464 0.0177462
1 0.975464 0.0177462
1 0.975464 0.0177462
0 1 0.242908
0 1 0.242741
0 1 0.238758
0 1 0.223072
0.217197 1 0.16553
0.792737 0.999771 0.0576791
1 0.975464 0.0177462
1 0.975464 0.0177462
1 0.975464 0.0177462
0.0153964 0.0158846 0.0348974
0.0162966 0.0156405 0.0347295
0.0372931 0.00953689 0.0308995
0.121492 0 0.0156405
0.429786 0 0.000106813
0.979629 0 0
1 0 0
1 0 0
1 0 0
0.0152132 0.0169985 0.0350805
0.0161288 0.0167391 0.0349126
0.0370947 0.0106355 0.0310826
0.121324 0.000488289 0.0158083
0.429603 0 0.000106813
0.979492 0 0
1 0 0
1 0 0
1 0 0
0.0113375 0.0407416 0.0391699
0.0122377 0.0404669 0.0390021
0.0332189 0.034226 0.03505
0.117601 0.0120241 0.019501
0.425834 1.5259e-05 0.00015259
0.976333 0 0
1 0 0
1 0 0
1 0 0
0.000213626 0.135958 0.0555734
0.000961318 0.135698 0.0554055
0.018616 0.129427 0.0514382
0.102251 0.104417 0.0357366
0.410437 0.0195163 0.00137331
0.964019 0 0
1 0 0
1 0 0
1 0 0
0 0.485847 0.115572
0 0.485573 0.115404
0.000137331 0.479393 0.111452
0.0465248 0.454459 0.0957351
0.354055 0.363272 0.0385901
0.918074 0.192615 0
1 0.13257 0
1 0.13257 0
1 0.13257 0
0 0.984207 0.225132
0 0.984131 0.224964
0 0.982361 0.221027
0.000854505 0.975296 0.205341
0.251209 0.948669 0.147784
0.827695 0.824369 0.0399634
1 0.761273 0.00672923
1 0.761273 0.00672923
1 0.761273 0.00672923
0 1 0.261463
0 1 0.261295
0 1 0.257328
0 1 0.241627
0.217151 1 0.184039
0.793774 0.999969 0.0760967
1 0.977951 0.0361181
1 0.977951 0.0361181
1 0.977951 0.0361181
0 1 0.261463
0 1 0.261295
0 1 0.257328
0 1 0.241627
0.217151 1 0.184039
0.793774 0.999969 0.0760967
1 0.977951 0.0361181
1 0.977951 0.0361181
1 0.977951 0.0361181
0 1 0.261463
0 1 0.261295
0 1 0.257328
0 1 0.241627
0.217151 1 0.184039
0.793774 0.999969 0.0760967
1 0.977951 0.0361181
1 0.977951 0.0361181
1 0.977951 0.0361181
0.0145724 0.0175631 0.109972
0.0154879 0.0172885 0.109789
0.0364691 0.0111849 0.105806
0.120882 6.10361e-05 0.0901198
0.429099 0 0.0325933
0.978958 0 0
1 0 0
1 0 0
1 0 0
0.0143893 0.0186618 0.110155
0.0153048 0.0184024 0.109987
0.0363012 0.0122683 0.106004
0.120699 0.00062562 0.0903029
0.428916 0 0.0327764
0.978821 0 0
1 0 0
1 0 0
1 0 0
0.0105287 0.0424048 0.114244
0.0114443 0.0421302 0.114076
0.032578 0.0360266 0.110109
0.116838 0.0133669 0.0944076
0.425025 3.0518e-05 0.0368811
0.975845 0 0
1 0 0
1 0 0
1 0 0
0.000183108 0.137652 0.130449
0.000915541 0.137377 0.130282
0.0179599 0.13109 0.126497
0.101457 0.106081 0.110643
0.409751 0.0202945 0.0532082
0.963378 0 9.15541e-05
1 0 0
1 0 0
1 0 0
0 0.487526 0.190677
0 0.487251 0.190494
0.000137331 0.481071 0.186511
0.0458534 0.456138 0.170825
0.353338 0.364981 0.113283
0.917662 0.194278 0.0128481
1 0.134142 0.00199893
1 0.134142 0.00199893
1 0.134142 0.00199893
0 0.984665 0.300084
0 0.984588 0.299916
0 0.982818 0.29604
0.000808728 0.97583 0.280354
0.250416 0.950149 0.222766
0.82739 0.826932 0.11487
1 0.763607 0.0749218
1 0.763607 0.0749218
1 0.763607 0.0749218
0 1 0.336339
0 1 0.336172
0 1 0.332372
0 1 0.316518
0.216388 1 0.259098
0.793347 1 0.151186
1 0.979919 0.111192
1 0.979919 0.111192
1 0.979919 0.111192
0 1 0.336339
0 1 0.336172
0 1 0.332372
0 1 0.316518
0.216388 1 0.259098
0.793347 1 0.151186
1 0.979919 0.111192
1 0.979919 0.111192
1 0.979919 0.111192
0 1 0.336339
0 1 0.336172
0 1 0.332372
0 1 0.316518
0.216388 1 0.259098
0.793347 1 0.151186
1 0.979919 0.111192
1 0.979919 0.111192
1 0.979919 0.111192
0.0120699 0.0238651 0.385855
0.0129854 0.0236057 0.385687
0.0340276 0.0174105 0.381765
0.118242 0.000686656 0.366018
0.426444 0 0.308522
0.976928 0 0.200656
1 0 0.160693
1 0 0.160693
1 0 0.160693
0.011902 0.0249638 0.386038
0.0128023 0.0247044 0.38587
0.0338445 0.0185092 0.381964
0.118074 0.00146487 0.366201
0.426276 0 0.308721
0.976791 0 0.200839
1 0 0.160891
1 0 0.160891
1 0 0.160891
0.00808728 0.048661 0.390143
0.00898756 0.0483864 0.389975
0.029984 0.0421759 0.386053
0.114305 0.0184482 0.370306
0.422492 4.57771e-05 0.312779
0.973709 0 0.204837
1 0 0.164981
1 0 0.164981
1 0 0.164981
7.62951e-05 0.143862 0.406424
0.000717174 0.143603 0.406256
0.0156863 0.137316 0.402396
0.0989242 0.112398 0.386587
0.407156 0.0234226 0.329137
0.961212 0 0.221164
1 0 0.181277
1 0 0.181277
1 0 0.181277
0 0.493797 0.46656
0 0.493538 0.466392
0.000106813 0.487327 0.46244
0.0434577 0.462379 0.446723
0.350729 0.371191 0.389151
0.915526 0.200412 0.281239
1 0.140017 0.241413
1 0.140017 0.241413
1 0.140017 0.241413
0 0.986389 0.576043
0 0.986313 0.575875
0 0.984558 0.571969
0.000671397 0.977569 0.556222
0.247868 0.951904 0.498711
0.824735 0.833112 0.390814
1 0.769833 0.350866
1 0.769833 0.350866
1 0.769833 0.350866
0 1 0.612314
0 1 0.612131
0 1 0.608194
0 1 0.592477
0.213809 1 0.534966
0.790722 1 0.427054
1 0.986267 0.387152
1 0.986267 0.387152
1 0.986267 0.387152
0 1 0.612314
0 1 0.612131
0 1 0.608194
0 1 0.592477
0.213809 1 0.534966
0.790722 1 0.427054
1 0.986267 0.387152
1 0.986267 0.387152
1 0.986267 0.387152
0 1 0.612314
0 1 0.612131
0 1 0.608194
0 1 0.592477
0.213809 1 0.534966
0.790722 1 0.427054
1 0.986267 0.387152
1 0.986267 0.387152
1 0.986267 0.387152
0.00743114 0.0347448 0.866087
0.00834669 0.0344701 0.865904
0.0294804 0.0281987 0.861952
0.113725 0.00462348 0.846265
0.421927 0 0.788663
0.973327 0 0.680751
1 0 0.64094
1 0 0.64094
1 0 0.64094
0.00724804 0.0358434 0.866285
0.00817884 0.0355688 0.866102
0.0293126 0.0292973 0.862135
0.113558 0.00567636 0.846448
0.421759 0 0.788861
0.97319 0 0.680934
1 0 0.641123
1 0 0.641123
1 0 0.641123
0.00366217 0.0595865 0.870344
0.00456245 0.0593118 0.870176
0.0254978 0.0530404 0.866224
0.109697 0.028336 0.850523
0.417975 0.000106813 0.792935
0.970062 0 0.684993
1 0 0.64509
1 0 0.64509
1 0 0.64509
0 0.15465 0.886549
0.000457771 0.154391 0.886381
0.0118105 0.148241 0.882475
0.0944686 0.123262 0.866743
0.40267 0.0332341 0.809262
0.957565 0 0.701381
1 0 0.661433
1 0 0.661433
1 0 0.661433
0 0.504692 0.941375
0 0.504417 0.941222
6.10361e-05 0.498161 0.937911
0.0392615 0.473259 0.924254
0.346227 0.382086 0.869276
0.911864 0.21117 0.76141
1 0.15024 0.721492
1 0.15024 0.721492
1 0.15024 0.721492
0 0.989395 0.994278
0 0.989334 0.994232
0 0.987625 0.993255
0.00047303 0.980591 0.988785
0.243366 0.954955 0.962829
0.820218 0.843992 0.869444
1 0.780774 0.829648
1 0.780774 0.829648
1 0.780774 0.829648
0 1 0.990814
0 1 0.990799
0 1 0.990234
0 1 0.988052
0.209232 1 0.980133
0.786191 1 0.904311
1 0.997147 0.865507
1 0.997147 0.865507
1 0.997147 0.865507
0 1 0.990814
0 1 0.990799
0 1 0.990234
0 1 0.988052
0.209232 1 0.980133
0.786191 1 0.904311
1 0.997147 0.865507
1 0.997147 0.865507
1 0.997147 0.865507
0 1 0.990814
0 1 0.990799
0 1 0.990234
0 1 0.988052
0.209232 1 0.980133
0.786191 1 0.904311
1 0.997147 0.865507
1 0.997147 0.865507
1 0.997147 0.865507
0.00634775 0.0378576 0.998779
0.00726329 0.037583 0.998611
0.0282292 0.031281 0.994827
0.112459 0.00730907 0.978943
0.420615 0 0.921553
0.972274 0 0.813611
1 0 0.773632
1 0 0.773632
1 0 0.773632
0.00616464 0.038941 0.998825
0.00708019 0.0386816 0.998672
0.0280613 0.0323949 0.994995
0.112276 0.00836194 0.979126
0.420447 0 0.921736
0.972137 0 0.813809
1 0 0.773816
1 0 0.773816
1 0 0.773816
0.00247196 0.0625162 0.999832
0.00337224 0.0622416 0.999771
0.0242008 0.0561074 0.998276
0.108553 0.0312505 0.98323
0.416739 0.000122072 0.925719
0.968994 0 0.817853
1 0 0.77792
1 0 0.77792
1 0 0.77792
0 0.157733 1
0.000411994 0.157473 1
0.0106966 0.151186 1
0.0931868 0.126345 0.997955
0.401389 0.0361028 0.942061
0.956512 0 0.834104
1 0 0.794339
1 0 0.794339
1 0 0.794339
0 0.507729 1
0 0.507469 1
4.57771e-05 0.501244 1
0.0380713 0.476219 1
0.344991 0.385061 0.994018
0.910796 0.21413 0.89427
1 0.153079 0.854337
1 0.153079 0.854337
1 0.153079 0.854337
0 0.99025 1
0 0.990173 1
0 0.988403 1
0.000411994 0.981445 1
0.242115 0.95581 1
0.818921 0.847013 0.995895
1 0.783688 0.963561
1 0.783688 0.963561
1 0.783688 0.963561
0 1 1
0 1 1
0 1 1
0 1 1
0.208057 1 1
0.784894 1 1
1 1 1
1 1 1
1 1 1
0 1 1
0 1 1
0 1 1
0 1 1
0.208057 1 1
0.784894 1 1
1 1 1
1 1 1
1 1 1
0 1 1
0 1 1
0 1 1
0 1 1
0.208057 1 1
0.784894 1 1
1 1 1
1 1 1
1 1 1
0.00634775 0.0378576 0.998779
0.00726329 0.037583 0.998611
0.0282292 0.031281 0.994827
0.112459 0.00730907 0.978943
0.420615 0 0.921553
0.972274 0 0.813611
1 0 0.773632
1 0 0.773632
1 0 0.773632
0.00616464 0.038941 0.998825
0.00708019 0.0386816 0.998672
0.0280613 0.0323949 0.994995
0.112276 0.00836194 0.979126
0.420447 0 0.921736
0.972137 0 0.813809
1 0 0.773816
1 0 0.773816
1 0 0.773816
0.00247196 0.0625162 0.999832
0.00337224 0.0622416 0.999771
0.0242008 0.0561074 0.998276
0.108553 0.0312505 0.98323
0.416739 0.000122072 0.925719
0.968994 0 0.817853
1 0 0.77792
1 0 0.77792
1 0 0.77792
0 0.157733 1
0.000411994 0.157473 1
0.0106966 0.151186 1
0.0931868 0.126345 0.997955
0.401389 0.0361028 0.942061
0.956512 0 0.834104
1 0 0.794339
1 0 0.794339
1 0 0.794339
0 0.507729 1
0 0.507469 1
4.57771e-05 0.501244 1
0.0380713 0.476219 1
0.344991 0.385061 0.994018
0.910796 0.21413 0.89427
1 0.153079 0.854337
1 0.153079 0.854337
1 0.153079 0.854337
0 0.99025 1
0 0.990173 1
0 0.988403 1
0.000411994 0.981445 1
0.242115 0.95581 1
0.818921 0.847013 0.995895
1 0.783688 0.963561
1 0.783688 0.963561
1 0.783688 0.963561
0 1 1
0 1 1
0 1 1
0 1 1
0.208057 1 1
0.784894 1 1
1 1 1
1 1 1
1 1 1
0 1 1
0 1 1
0 1 1
0 1 1
0.208057 1 1
0.784894 1 1
1 1 1
1 1 1
1 1 1
0 1 1
0 1 1
0 1 1
0 1 1
0.208057 1 1
0.784894 1 1
1 1 1
1 1 1
1 1 1
0.00634775 0.0378576 0.998779
0.00726329 0.037583 0.998611
0.0282292 0.031281 0.994827
0.112459 0.00730907 0.978943
0.420615 0 0.921553
0.972274 0 0.813611
1 0 0.773632
1 0 0.773632
1 0 0.773632
0.00616464 0.038941 0.998825
0.00708019 0.0386816 0.998672
0.0280613 0.0323949 0.994995
0.112276 0.00836194 0.979126
0.420447 0 0.921736
0.972137 0 0.813809
1 0 0.773816
1 0 0.773816
1 0 0.773816
0.00247196 0.0625162 0.999832
0.00337224 0.0622416 0.999771
0.0242008 0.0561074 0.998276
0.108553 0.0312505 0.98323
0.416739 0.000122072 0.925719
0.968994 0 0.817853
1 0 0.77792
1 0 0.77792
1 0 0.77792
0 0.157733 1
0.000411994 0.157473 1
0.0106966 0.151186 1
0.0931868 0.126345 0.997955
0.401389 0.0361028 0.942061
0.956512 0 0.834104
1 0 0.794339
1 0 0.794339
1 0 0.794339
0 0.507729 1
0 0.507469 1
4.57771e-05 0.501244 1
0.0380713 0.476219 1
0.344991 0.385061 0.994018
0.910796 0.21413 0.89427
1 0.153079 0.854337
1 0.153079 0.854337
1 0.153079 0.854337
0 0.99025 1
0 0.990173 1
0 0.988403 1
0.000411994 0.981445 1
0.242115 0.95581 1
0.818921 0.847013 0.995895
1 0.783688 0.963561
1 0.783688 0.963561
1 0.783688 0.963561
0 1 1
0 1 1
0 1 1
0 1 1
0.208057 1 1
0.784894 1 1
1 1 1
1 1 1
1 1 1
0 1 1
0 1 1
0 1 1
0 1 1
0.208057 1 1
0.784894 1 1
1 1 1
1 1 1
1 1 1
0 1 1
0 1 1
0 1 1
0 1 1
0.208057 1 1
0.784894 1 1
1 1 1
1 1 1
1 1 1
