luts/varicam_official/LoCon Cool 33 E-E.cube
TITLE "Generated by Resolve"
LUT_3D_SIZE 33
0.0156252 0.0156252 0.0156252
0.0156252 0.0156252 0.0156252
0.020264 0.0142367 0.0147555
0.0277562 0.0119936 0.0133211
0.0386969 0.00872816 0.0112459
0.0529183 0.00508125 0.00852979
0.0690318 0.00205997 0.00582895
0.0868086 1.5259e-05 0.00334173
0.108171 0 0.0012665
0.133791 0 0.000213626
0.163256 0 0
0.195605 0 0
0.232029 0 0
0.271992 0 0
0.315785 0 0
0.362341 0 0
0.411414 0 0
0.463722 0 0
0.517693 0 0
0.573022 0 0
0.629084 0 0
0.685832 0 0
0.742306 0 0
0.797482 0 0
0.851637 0 0
0.902937 0 0
0.949279 0 0
0.978271 0 0
0.983886 0 0
0.989502 0 0
0.995117 0 0
0.999374 0 0
0.999939 0 0
0.0156252 0.0156252 0.0156252
0.0156252 0.0156252 0.0156252
0.0201114 0.0142824 0.0147707
0.0275425 0.0120546 0.0133669
0.0384833 0.00877394 0.0112917
0.052781 0.00512703 0.00856031
0.0687266 0.002121 0.00587472
0.0863661 0 0.00337224
0.107851 0 0.00129702
0.133532 0 0.000274662
0.162829 0 0
0.194873 0 0
0.231754 0 0
0.27187 0 0
0.315236 0 0
0.361669 0 0
0.411246 0 0
0.463493 0 0
0.517403 0 0
0.572686 0 0
0.628779 0 0
0.685496 0 0
0.742 0 0
0.797436 0 0
0.851499 0 0
0.903197 0 0
0.950423 0 0
0.978317 0 0
0.983917 0 0
0.989532 0 0
0.995148 0 0
0.999191 0 0
0.999969 0 0
0.0148623 0.0202487 0.0163882
0.0148775 0.0201877 0.0163882
0.0192416 0.0188449 0.0155489
0.0265507 0.0166323 0.0141756
0.0374609 0.0133211 0.0121157
0.0517281 0.00949111 0.00936904
0.0677043 0.00608835 0.00662242
0.0852979 0.00337224 0.00396735
0.106844 0.00236515 0.00158694
0.132677 0.00146487 0.000381476
0.161715 0.000701915 1.5259e-05
0.193484 0.000122072 0
0.230533 0 0
0.270741 0 0
0.314076 0 0
0.360159 0 0
0.410163 0 0
0.462486 0 0
0.516243 0 0
0.571725 0 0
0.627894 0 0
0.684672 0 0
0.740948 0 0
0.79649 0 0
0.850904 0 0
0.902602 0 0
0.950957 0 0
0.977966 0 0
0.983673 0 0
0.98938 0 0
0.995056 0 0
0.999008 0 0
1 0 0
0.01355 0.0281987 0.0177005
0.0135653 0.0281071 0.0176852
0.0177615 0.0268559 0.016907
0.024979 0.0247044 0.0155642
0.0358587 0.0214084 0.0135348
0.0501869 0.0173342 0.0107881
0.0660868 0.0134279 0.00794995
0.0836042 0.00978103 0.005066
0.105196 0.00688182 0.00209049
0.131044 0.00430304 0.000595102
0.159884 0.00207523 4.57771e-05
0.191516 0.00030518 0
0.228473 0 0
0.268925 0 0
0.311925 0 0
0.358144 0 0
0.408194 0 0
0.460487 0 0
0.514214 0 0
0.569818 0 0
0.626291 0 0
0.682658 0 0
0.739315 0 0
0.794858 0 0
0.849195 0 0
0.900938 0 0
0.950439 0 0
0.97673 0 0
0.982864 0 0
0.98883 0 0
0.994797 0 0
0.99881 0 0
1 0 0
0.0116121 0.0399634 0.0196384
0.0116274 0.0398718 0.0196384
0.0155947 0.0386969 0.0189059
0.0227359 0.0365911 0.0176089
0.0336309 0.0333562 0.0156405
0.0479591 0.0290379 0.0129091
0.0637064 0.0244907 0.00994888
0.0811933 0.019501 0.00669871
0.102831 0.0138705 0.00288396
0.12874 0.00880446 0.000915541
0.157458 0.00440986 0.000122072
0.188602 0.000839246 1.5259e-05
0.22594 0.000213626 0
0.266224 9.15541e-05 0
0.309468 3.0518e-05 0
0.355581 0 0
0.40531 0 0
0.457786 0 0
0.511604 0 0
0.567102 0 0
0.623514 0 0
0.680049 0 0
0.736736 0 0
0.792386 0 0
0.846265 0 0
0.898466 0 0
0.948623 0 0
0.974502 0 0
0.981491 0 0
0.987915 0 0
0.994354 0 0
0.998581 0 0
1 0 0
0.0091249 0.0553292 0.0223087
0.00914015 0.0552987 0.0223087
0.0128481 0.0542763 0.0216373
0.0198978 0.0521096 0.020325
0.0308843 0.0488746 0.0182956
0.0451362 0.04448 0.0155947
0.0607919 0.039826 0.012665
0.0782483 0.034638 0.0093843
0.0999008 0.028397 0.00538643
0.125673 0.0221103 0.00280766
0.154116 0.0158999 0.00111391
0.185138 0.00994888 0.000122072
0.222553 0.00564584 0
0.263035 0.00248722 0
0.305989 0.000534066 0
0.352087 0.00015259 0
0.402029 1.5259e-05 0
0.454459 0 0
0.507897 0 0
0.563714 0 0
0.619837 0 0
0.676646 0 0
0.73341 0 0
0.789014 0 0
0.842954 0 0
0.895537 0 0
0.945815 0 0
0.971252 0 0
0.979858 0 0
0.986847 0 0
0.993774 0 0
0.998291 0 0
1 0 0
0.00660716 0.0723583 0.0252689
0.0065919 0.0723735 0.0252689
0.0100557 0.0712902 0.0246128
0.0170138 0.0691691 0.0232853
0.0279088 0.0658732 0.0212253
0.0419623 0.0615091 0.0185702
0.0575723 0.0567941 0.0156558
0.0749828 0.0514839 0.0123903
0.0966506 0.0449836 0.00831617
0.122316 0.0377813 0.00511177
0.150683 0.0302129 0.00247196
0.18146 0.0222019 0.000350958
0.219104 0.013901 9.15541e-05
0.259541 0.00737011 3.0518e-05
0.302266 0.00292973 0
0.348379 0.00154116 0
0.398367 0.000762951 0
0.450752 0.00030518 0
0.504448 1.5259e-05 0
0.560052 0 0
0.61648 0 0
0.673228 0 0
0.729885 0 0
0.78526 0 0
0.839567 0 0
0.892241 0 0
0.942397 0 0
0.967819 0 0
0.978042 0 0
0.985626 0 0
0.993133 0 0
0.998001 0 0
1 0 0
0.00407416 0.0914015 0.0285649
0.00407416 0.0913558 0.0285496
0.00723278 0.0903334 0.027924
0.013962 0.0882277 0.0266117
0.0246128 0.0849012 0.024506
0.0385443 0.0807202 0.021912
0.0539101 0.0759442 0.0190433
0.0712902 0.0706951 0.0158083
0.092958 0.0641794 0.0117189
0.118547 0.0564584 0.00790417
0.146731 0.0480201 0.00428778
0.177295 0.0386511 0.000915541
0.21503 0.0273289 0.000381476
0.255406 0.0177615 0.00015259
0.297978 0.0104677 0
0.344366 0.00660716 0
0.394339 0.00383001 0
0.446601 0.00166323 0
0.500298 7.62951e-05 0
0.555962 0 0
0.61239 0 0
0.669093 0 0
0.725704 0 0
0.781415 0 0
0.835462 0 0
0.888121 0 0
0.938308 0 0
0.964065 0 0
0.975952 0 0
0.984192 0 0
0.992401 0 0
0.997681 0 0
1 0 0
0.00169375 0.114809 0.032578
0.00169375 0.114763 0.0325628
0.0043946 0.11397 0.0320134
0.0106966 0.111864 0.0307012
0.020798 0.108507 0.0285954
0.0345006 0.10425 0.0259861
0.0496071 0.0996719 0.0231632
0.0667582 0.0944381 0.0199741
0.0885176 0.087953 0.0158846
0.114092 0.0802319 0.01149
0.142168 0.0717174 0.0069276
0.172381 0.062501 0.00230411
0.210605 0.0510109 0.00115969
0.250736 0.0401617 0.000442512
0.293446 0.0296788 0
0.339529 0.0202182 0
0.389761 0.0121767 0
0.44181 0.00541695 0
0.49482 0.000137331 0
0.55079 0 0
0.607217 0 0
0.663996 0 0
0.720897 0 0
0.776455 0 0
0.830716 0 0
0.883406 0 0
0.933852 0 0
0.959884 0 0
0.973266 0 0
0.982376 0 0
0.99147 0 0
0.997284 0 0
1 0 0
0.000503548 0.142748 0.0373541
0.000503548 0.142824 0.0373693
0.00262455 0.142138 0.0368658
0.00796521 0.140002 0.0355535
0.0166629 0.136675 0.033463
0.0297246 0.132357 0.0308537
0.0446021 0.127825 0.0280461
0.0617075 0.122713 0.0248722
0.0835279 0.115923 0.0207523
0.108919 0.108324 0.0161135
0.136767 0.0999008 0.0110933
0.166766 0.0908064 0.00576791
0.205066 0.0793927 0.00317388
0.245365 0.0675059 0.00122072
0.287724 0.0553597 0
0.33402 0.0428168 0
0.383917 0.0313268 0
0.436088 0.0208133 0
0.48896 0.0116121 0
0.545235 0.00822461 0
0.60174 0.00518807 0
0.658412 0.00257877 0
0.715267 0.000335698 0
0.770901 0 0
0.825238 0 0
0.878096 0 0
0.928283 0 0
0.955077 0 0
0.970199 0 0
0.980362 0 0
0.990402 0 0
0.996857 0 0
1 0 0
0 0.173541 0.0426337
0 0.173663 0.042649
0.00146487 0.173037 0.0422065
0.00553903 0.170855 0.0408789
0.0124208 0.167483 0.0387732
0.0245823 0.163302 0.0362097
0.0390784 0.158602 0.033402
0.0562448 0.153445 0.0302129
0.0780346 0.146777 0.0261082
0.103334 0.139025 0.0213321
0.131029 0.13077 0.0161288
0.160937 0.121721 0.0104982
0.199176 0.11014 0.00588998
0.239307 0.0981003 0.00231937
0.281636 0.0852216 0
0.327901 0.0713054 0
0.377951 0.0575113 0
0.429679 0.0442054 0
0.482612 0.0315862 0
0.538888 0.0225681 0
0.595346 0.0145266 0
0.652003 0.00732433 0
0.70927 0.000991836 0
0.764858 7.62951e-05 0
0.81915 0 0
0.871992 0 0
0.922347 0 0
0.949935 0 0
0.966674 0 0
0.977951 0 0
0.989105 0 0
0.996353 0 0
1 0 0
0 0.206516 0.0482795
0 0.206546 0.0482795
0.000793469 0.205982 0.0478828
0.00337224 0.20412 0.0466316
0.00819409 0.200671 0.04448
0.0193179 0.196338 0.0419165
0.0332799 0.191882 0.0391699
0.0501717 0.186908 0.0360418
0.0719158 0.180453 0.0319829
0.0972763 0.172702 0.0271916
0.124941 0.164477 0.0220035
0.154986 0.155337 0.0163424
0.192859 0.143908 0.00956741
0.232792 0.132082 0.00419623
0.275105 0.119341 0.000549325
0.321386 0.105455 0.000213626
0.371221 0.090547 6.10361e-05
0.422827 0.0753033 0
0.476158 0.0598611 0
0.532204 0.044419 0
0.588617 0.0305791 0
0.645365 0.0180362 0
0.702754 0.00674449 0
0.757885 0.00448615 0
0.812161 0.00337224 0
0.86511 0.00242618 0
0.915877 0.00144961 0
0.944396 0.000823987 0
0.962722 0.000350958 0
0.975219 0 0
0.98761 0 0
0.995758 0 0
1 0 0
0 0.248173 0.0554665
0 0.248264 0.0554818
0.000396735 0.247898 0.0551766
0.00180056 0.245808 0.0538796
0.00482185 0.242557 0.0517586
0.0141299 0.2383 0.0492256
0.0267796 0.233829 0.0464942
0.0429999 0.228748 0.0433356
0.0647135 0.222217 0.0392615
0.0896773 0.214542 0.0345464
0.117189 0.206271 0.0293584
0.147601 0.196857 0.0236057
0.18529 0.185611 0.0166781
0.225025 0.173541 0.0104067
0.267079 0.161028 0.00517281
0.313359 0.147051 0.00184634
0.363333 0.131853 0.000518807
0.415122 0.116197 0
0.467903 0.100435 0
0.523964 0.0838483 0
0.580392 0.0681163 0
0.637461 0.0529641 0
0.694606 0.0385443 0
0.750286 0.0302281 0
0.80473 0.0228733 0
0.85771 0.0160067 0
0.908248 0.00956741 0
0.937942 0.00529488 0
0.958053 0.00218204 0
0.972045 0 0
0.98584 0 0
0.995102 0 0
1 0 0
0 0.291905 0.0629892
0 0.292256 0.0630503
0.000137331 0.292012 0.0628061
0.000656138 0.290043 0.0615396
0.00231937 0.286473 0.0593881
0.00965896 0.282338 0.0568856
0.0204929 0.277913 0.0541543
0.0353246 0.272831 0.0510109
0.0569467 0.266285 0.0469368
0.0818799 0.258671 0.0422217
0.109361 0.250324 0.0370489
0.139925 0.240879 0.031281
0.177066 0.229786 0.0243687
0.216831 0.217655 0.0174563
0.258885 0.205051 0.0109102
0.305211 0.190845 0.00492866
0.354986 0.175677 0.00209049
0.406653 0.160021 0.000564584
0.459449 0.14432 0
0.515541 0.127428 0
0.57229 0.110674 0
0.629084 0.0941329 0
0.68658 0.0775158 0
0.741817 0.0638285 0
0.796551 0.0504921 0
0.849607 0.037644 0
0.900114 0.02533 0
0.931243 0.0167391 0
0.952987 0.0100404 0
0.96849 0.00505074 0
0.983917 0.00427253 0
0.994415 0.00355535 0
1 0.00297551 0
0 0.338552 0.070985
0 0.33875 0.0710155
0 0.338582 0.0708476
0 0.336553 0.0695659
0.000762951 0.333165 0.0674754
0.00601205 0.329183 0.0650034
0.0143435 0.324849 0.0623026
0.0274662 0.319738 0.0591135
0.0488594 0.313176 0.0550393
0.07364 0.305547 0.0503548
0.101106 0.297215 0.0452125
0.131594 0.287877 0.0394903
0.168582 0.276844 0.0325628
0.20795 0.26479 0.0253147
0.250187 0.252064 0.0178378
0.296513 0.237797 0.010071
0.34609 0.223026 0.00544747
0.39762 0.207462 0.00210575
0.450782 0.191394 0
0.506905 0.174365 0
0.563363 0.15729 0
0.620157 0.140078 0
0.677577 0.122805 0
0.733074 0.106004 0
0.787579 0.0894942 0
0.840772 0.0731212 0
0.891569 0.0576638 0
0.92401 0.0460517 0
0.947356 0.0363928 0
0.96463 0.0285344 0
0.981765 0.0253452 0
0.993667 0.0224918 0
1 0.0197757 0
0 0.388693 0.07953
0 0.389151 0.0795911
0 0.388861 0.0794537
0 0.386877 0.0782177
0.000503548 0.383642 0.076173
0.00349432 0.379736 0.0737469
0.00863661 0.375387 0.0710002
0.0193179 0.370199 0.0677501
0.0402075 0.363531 0.0636759
0.064622 0.356176 0.0591135
0.0919814 0.347982 0.0540322
0.122774 0.338781 0.0483406
0.15964 0.32755 0.0413672
0.198657 0.31574 0.0340581
0.240742 0.30277 0.0262303
0.286961 0.289052 0.0179141
0.336675 0.274022 0.0110475
0.388022 0.258793 0.00495918
0.440955 0.242771 0.000183108
0.497169 0.225498 0.000106813
0.553628 0.208377 4.57771e-05
0.610681 0.19115 0
0.667704 0.174212 0
0.723445 0.157351 0
0.778119 0.140826 0
0.831525 0.12462 0
0.88188 0.109163 0
0.915923 0.095964 0
0.941238 0.0838941 0
0.960342 0.0728466 0
0.979187 0.0654612 0
0.992752 0.0587778 0
0.999893 0.0528878 0
0 0.443427 0.0888838
0 0.443946 0.0889754
0 0.443961 0.0889296
0 0.442084 0.0877241
0.00030518 0.438865 0.0856947
0.00195315 0.434745 0.0832532
0.00491341 0.43064 0.0805371
0.0134737 0.425498 0.0772869
0.0322728 0.419043 0.0732738
0.0555123 0.411658 0.0687114
0.0824292 0.403342 0.0636149
0.113115 0.394034 0.0579385
0.149737 0.382818 0.0509957
0.188617 0.371145 0.0436713
0.230762 0.358236 0.0357366
0.277043 0.344457 0.0271916
0.326497 0.329229 0.0191348
0.377813 0.313832 0.011368
0.430991 0.297719 0.00460822
0.487083 0.280644 0.00233463
0.543435 0.263844 0.000808728
0.600504 0.246448 0
0.657893 0.228809 0
0.713466 0.211948 0
0.768154 0.195346 0
0.821378 0.179202 0
0.872114 0.16379 0
0.907546 0.149813 0
0.934585 0.1364 0
0.955566 0.123827 0
0.975814 0.114 0
0.990845 0.105058 0
0.998947 0.0972152 0
0 0.500298 0.0986496
0 0.500404 0.0986648
0 0.500893 0.0987259
0 0.499031 0.0975204
0.000137331 0.495521 0.0954604
0.00077821 0.491737 0.0930953
0.00198367 0.48719 0.0902876
0.00862135 0.482231 0.087068
0.0247044 0.475929 0.0831159
0.0461738 0.468589 0.0785992
0.072343 0.460304 0.073518
0.103273 0.450935 0.0677958
0.139467 0.439628 0.060914
0.178317 0.427939 0.0535592
0.220081 0.415442 0.045716
0.266728 0.401236 0.0369726
0.316075 0.386374 0.0281987
0.367422 0.370611 0.0192111
0.420584 0.354345 0.0108492
0.476448 0.337713 0.00564584
0.532784 0.320653 0.0019379
0.589822 0.303319 0
0.647089 0.286107 0
0.702861 0.269184 0
0.757763 0.252415 0
0.811292 0.236042 0
0.861631 0.220752 0
0.898665 0.2065 0
0.927535 0.192813 0
0.950362 0.180026 0
0.971603 0.169558 0
0.987884 0.15996 0
0.997192 0.151553 0
0 0.558373 0.108629
0 0.558648 0.108675
0 0.559167 0.108766
0 0.557305 0.107561
0 0.553918 0.105516
0 0.550378 0.103212
0 0.545724 0.100404
0.00488289 0.540642 0.0971695
0.0178225 0.534401 0.0932784
0.0368048 0.527214 0.0888075
0.062089 0.51902 0.0837262
0.09308 0.509712 0.0779736
0.12903 0.498573 0.0711528
0.167498 0.486641 0.0638437
0.209415 0.474113 0.0559701
0.255772 0.460304 0.0473335
0.305348 0.445243 0.0380407
0.356313 0.429923 0.0285344
0.409445 0.413565 0.019089
0.465461 0.396841 0.0111543
0.521752 0.379797 0.00515755
0.578759 0.362539 0.0015259
0.636057 0.345205 0.000457771
0.69192 0.328573 0.000106813
0.746975 0.311635 0
0.800519 0.295155 0
0.850736 0.279896 0
0.889433 0.265568 0
0.920165 0.251942 0
0.9449 0.239277 0
0.966705 0.228794 0
0.984253 0.218921 0
0.994766 0.210483 0
0 0.619532 0.119219
0 0.62002 0.119295
0 0.620279 0.119341
0 0.618357 0.11809
0 0.615366 0.116121
0 0.611551 0.113771
0 0.607217 0.11107
0.0034638 0.601846 0.107805
0.0122683 0.595666 0.103944
0.0276036 0.58854 0.0994888
0.0513466 0.580346 0.0943923
0.0823682 0.570993 0.0885939
0.117891 0.560006 0.0818799
0.156451 0.548409 0.0746471
0.198489 0.535866 0.0667582
0.244846 0.521737 0.0580148
0.293706 0.507195 0.0488746
0.34493 0.491951 0.0393378
0.398276 0.47567 0.0295872
0.454215 0.458625 0.0202182
0.510491 0.441474 0.0121157
0.567544 0.42417 0.00585946
0.624781 0.407126 0.00177005
0.680507 0.390204 0.000411994
0.735592 0.37319 0
0.789166 0.35668 0
0.839689 0.341344 0
0.879957 0.327291 0
0.91252 0.313634 0
0.938918 0.301015 0
0.96141 0.290257 0
0.979797 0.280293 0
0.99173 0.271763 0
0 0.681437 0.12987
0 0.681956 0.129961
0 0.681819 0.129946
0 0.679911 0.128695
0 0.677012 0.126757
0 0.673548 0.124483
0 0.668864 0.121721
0.00221256 0.663813 0.118547
0.00761425 0.65771 0.114733
0.0190585 0.65069 0.110323
0.0412451 0.642451 0.10518
0.0718547 0.633051 0.0993362
0.107027 0.62211 0.092668
0.145068 0.610681 0.0855573
0.186969 0.598184 0.0776989
0.233509 0.584283 0.0689403
0.282429 0.569406 0.0597391
0.333593 0.554177 0.0501869
0.386786 0.537926 0.0402686
0.442298 0.520974 0.0301366
0.498833 0.503731 0.0205692
0.55581 0.486748 0.0122835
0.613138 0.469368 0.00560006
0.669184 0.452338 0.00233463
0.724346 0.435752 0.000686656
0.77792 0.419287 0
0.828519 0.403723 0
0.870329 0.389303 0
0.904677 0.375662 0
0.932769 0.363088 0
0.955764 0.35256 0
0.975113 0.342367 0
0.988357 0.333883 0
0 0.743267 0.140505
0 0.743709 0.140566
0 0.744015 0.140627
0 0.742184 0.139391
0 0.739361 0.137499
0 0.735958 0.135241
0 0.731212 0.132479
0.00109865 0.726162 0.129305
0.00370794 0.720134 0.125551
0.0113069 0.713176 0.121187
0.0316777 0.704952 0.11603
0.0614328 0.695552 0.110185
0.0958572 0.684703 0.103578
0.133898 0.673243 0.0964523
0.17583 0.660716 0.0886244
0.22208 0.646906 0.079942
0.271015 0.632013 0.0707256
0.322194 0.616663 0.0611276
0.375418 0.600641 0.051133
0.430838 0.583597 0.0406806
0.487266 0.566751 0.030457
0.544305 0.549432 0.0208133
0.601511 0.532403 0.012253
0.657557 0.515389 0.0065156
0.713176 0.498299 0.00234989
0.766445 0.482231 6.10361e-05
0.817151 0.466667 0
0.860349 0.452216 0
0.896422 0.438605 0
0.92639 0.426017 0
0.950164 0.415106 0
0.970214 0.405158 0
0.984909 0.396628 0
0 0.805585 0.151171
0 0.805829 0.151217
0 0.806027 0.151247
0 0.804593 0.150103
0 0.801816 0.148257
0 0.798367 0.145998
0 0.793637 0.143236
0.000198367 0.788586 0.140063
0.000762951 0.782528 0.136324
0.00502022 0.775586 0.132006
0.0233463 0.767681 0.126925
0.0515145 0.758267 0.121065
0.0848249 0.747509 0.114488
0.122759 0.736004 0.107378
0.164858 0.723095 0.0994736
0.210986 0.709316 0.0908522
0.259525 0.694759 0.0817426
0.310506 0.679347 0.0721447
0.364187 0.662837 0.0619974
0.419379 0.646387 0.0516518
0.475853 0.629267 0.0411231
0.532784 0.612299 0.0307927
0.58999 0.594919 0.0208591
0.64596 0.578149 0.0127718
0.70164 0.560983 0.00581369
0.755001 0.544579 0.00154116
0.805676 0.529442 0.000656138
0.850233 0.514931 0.000167849
0.887953 0.50132 0
0.919554 0.488731 0
0.944366 0.477958 0
0.965194 0.467674 0
0.981247 0.45922 0
0 0.865888 0.161547
0 0.866361 0.161639
0 0.866911 0.16173
0 0.865217 0.160555
0 0.86244 0.158724
0 0.858793 0.156451
0 0.854597 0.153735
3.0518e-05 0.849409 0.150515
0.000228885 0.843763 0.146883
0.00262455 0.836988 0.142687
0.0183108 0.82855 0.137499
0.0431678 0.818967 0.131609
0.0741741 0.808606 0.125154
0.111727 0.797238 0.118059
0.153643 0.784726 0.110231
0.199542 0.771008 0.101625
0.248157 0.756176 0.0924697
0.29929 0.740795 0.0828717
0.352483 0.72462 0.0728618
0.407828 0.708141 0.062501
0.464271 0.691051 0.0518959
0.520897 0.674205 0.0413214
0.578408 0.656703 0.0307164
0.63476 0.639567 0.0211032
0.690181 0.62266 0.012314
0.743633 0.606744 0.00593576
0.794232 0.591333 0.00262455
0.840116 0.576715 0.00062562
0.879438 0.563333 0
0.912306 0.550744 0
0.93846 0.5393 0
0.960006 0.529244 0
0.97734 0.520943 0
0 0.916838 0.17174
0 0.917388 0.171832
0 0.917922 0.171893
0 0.916442 0.170733
0 0.914015 0.168963
0 0.910826 0.166735
0 0.907042 0.164004
0 0.902571 0.16083
9.15541e-05 0.897078 0.157153
0.00140383 0.891127 0.153094
0.0142214 0.883284 0.147936
0.0353246 0.874372 0.142077
0.0635996 0.864683 0.135683
0.100877 0.853819 0.128573
0.143114 0.841749 0.120653
0.188815 0.828687 0.112062
0.236988 0.81471 0.102998
0.288212 0.799878 0.093431
0.341558 0.784115 0.0834363
0.396765 0.768078 0.0731212
0.452857 0.751492 0.0625925
0.509865 0.73431 0.0518502
0.566964 0.717342 0.0411994
0.623453 0.700175 0.0308385
0.678737 0.683757 0.0209659
0.732296 0.667582 0.0125124
0.783185 0.652186 0.00596628
0.829892 0.637675 0.00140383
0.870375 0.624018 3.0518e-05
0.904509 0.611551 0
0.932219 0.600504 0
0.954681 0.590341 0
0.973175 0.582071 0
0 0.952468 0.181659
0 0.95256 0.18172
0 0.95256 0.18172
0 0.95111 0.180621
0 0.948852 0.178897
0 0.945937 0.176684
0 0.942412 0.173953
0 0.938155 0.170718
4.57771e-05 0.93344 0.167132
0.000595102 0.927977 0.163043
0.0105898 0.921218 0.157946
0.0281529 0.91339 0.152056
0.0532845 0.905013 0.145739
0.0905928 0.895476 0.138582
0.132586 0.885039 0.130709
0.178347 0.873686 0.122118
0.226078 0.861784 0.113161
0.277317 0.848875 0.103578
0.330892 0.835248 0.0935531
0.385733 0.820874 0.0832532
0.442115 0.805859 0.0726635
0.499062 0.789654 0.0619974
0.556207 0.772351 0.0512398
0.612787 0.755367 0.0406653
0.668116 0.738613 0.0303044
0.721584 0.722728 0.0208896
0.772534 0.707301 0.0126345
0.819898 0.692454 0.00604257
0.8607 0.679072 0.00262455
0.895598 0.666575 0.000869764
0.924987 0.655055 0
0.949187 0.6448 0
0.968536 0.636835 0
0 0.965362 0.191028
0 0.965499 0.191104
0 0.965545 0.191135
0 0.964553 0.190066
0 0.962936 0.188342
0 0.960815 0.18613
0 0.958236 0.183413
0 0.955169 0.180209
0 0.951797 0.176654
1.5259e-05 0.948013 0.172641
0.00737011 0.942901 0.167407
0.0213474 0.937133 0.161532
0.0434424 0.931014 0.15523
0.0805219 0.924041 0.148104
0.122652 0.916243 0.14023
0.167987 0.907759 0.131762
0.215946 0.898695 0.122789
0.267201 0.888762 0.113161
0.320394 0.878126 0.103166
0.375357 0.866712 0.0928511
0.431769 0.854154 0.0822461
0.488716 0.83917 0.0716106
0.545846 0.822492 0.0609293
0.60238 0.805585 0.0503243
0.657954 0.78938 0.0399481
0.711437 0.773449 0.0301671
0.762356 0.758297 0.0211643
0.810147 0.743542 0.0130465
0.850919 0.729961 0.00700389
0.886229 0.717723 0.0028687
0.917205 0.706127 0.000579843
0.943587 0.695857 0.000274662
0.963638 0.687922 0.000122072
0 0.978256 0.199588
0 0.978408 0.199695
0 0.978393 0.19968
0 0.977829 0.198657
0 0.976867 0.197009
0 0.975601 0.194858
0 0.974014 0.192172
0 0.972137 0.189044
0 0.969924 0.185443
