luts/varicam_official/LoCon_Neu.cube
TITLE "Generated by Resolve"
LUT_3D_SIZE 9
0.0162356 0.0182956 0.0182956
0.0674754 0.00471504 0.00856031
0.17673 0.000274662 0.00062562
0.356695 0 0
0.590234 0 0
0.835889 0 0
0.984192 0 0
1 0 0
1 0 0
0.00727855 0.0746777 0.0272526
0.0560922 0.0589609 0.0176394
0.163119 0.0279088 0.00248722
0.341222 0.00180056 0
0.573938 0 0
0.820066 0 0
0.977966 0 0
1 0 0
1 0 0
0.000396735 0.190127 0.0462348
0.0352178 0.173693 0.0367437
0.140246 0.140536 0.0165103
0.31696 0.086305 1.5259e-05
0.548394 0.0267033 0
0.794369 0 0
0.964721 0 0
1 0 0
1 0 0
0 0.379919 0.0780041
0.00943008 0.3635 0.0691386
0.105913 0.32961 0.0493477
0.280568 0.274647 0.0169528
0.510781 0.203342 0
0.75729 0.127626 0
0.941787 0.0645457 0
1 0.0364233 0
1 0.0268406 0
0 0.62623 0.120363
0 0.609155 0.111604
0.0625772 0.575341 0.0920424
0.235218 0.520562 0.0592203
0.464225 0.448844 0.0177462
0.710781 0.372351 0
0.909895 0.304417 0
0.993317 0.258198 0
1 0.238392 0
0 0.886748 0.165286
0 0.870619 0.156802
0.0249027 0.837949 0.137789
0.186587 0.784146 0.105455
0.414313 0.712963 0.0623026
0.661402 0.636271 0.0173495
0.872709 0.56846 0
0.979385 0.521019 0
0.999969 0.500465 0
0 0.985855 0.204532
0 0.981933 0.196674
0.00535592 0.972808 0.177996
0.143313 0.951659 0.146197
0.369345 0.915343 0.103578
0.616388 0.858244 0.0571145
0.83183 0.794018 0.0159762
0.959731 0.747204 0.000656138
0.999329 0.726909 0
0 1 0.230915
0 1 0.223636
0 1 0.205646
0.11136 1 0.174624
0.336202 0.998764 0.132403
0.582773 0.978149 0.0862135
0.800275 0.946227 0.0447852
0.940215 0.909178 0.0162661
0.995895 0.889418 0.00457771
0 1 0.241337
0 1 0.23473
0 1 0.217273
0.0949569 1 0.186786
0.318105 1 0.145174
0.56463 0.999985 0.0990158
0.783307 0.997574 0.0576181
0.927428 0.981399 0.0288548
0.991272 0.962768 0.016556
0.0157015 0.0191196 0.06392
0.066453 0.00508125 0.0534218
0.175372 0.000274662 0.0320897
0.35465 0 0.00547799
0.588174 0 0.000183108
0.833692 0 0
0.983749 0 0
1 0 0
1 0 0
0.0068513 0.0751202 0.0712139
0.0551919 0.0594186 0.0608988
0.16173 0.028336 0.0399176
0.339834 0.00180056 0.00875868
0.572076 0 4.57771e-05
0.818158 0 0
0.977508 0 0
1 0 0
1 0 0
0.000366217 0.189792 0.0886397
0.0344854 0.173648 0.0785077
0.138964 0.140841 0.0579232
0.31519 0.0867323 0.0244602
0.546319 0.0270695 0.00105287
0.792645 0 0
0.964294 0 0
1 0 0
1 0 0
0 0.379156 0.11931
0.00910964 0.362982 0.109651
0.104814 0.329213 0.0890974
0.27892 0.274403 0.0554513
0.509209 0.203586 0.0147402
0.755459 0.127382 0
0.941115 0.0639353 0
1 0.0361181 0
1 0.0264744 0
0 0.625071 0.159869
0 0.608423 0.150454
0.0615702 0.574502 0.130129
0.233661 0.519875 0.0966812
0.46244 0.448188 0.0526131
0.708934 0.371756 0.0120241
0.909056 0.303899 0
1 0.257282 0
1 0.237232 0
0 0.885679 0.203082
0 0.870008 0.19411
0.0242924 0.837079 0.174228
0.185275 0.783368 0.141207
0.412863 0.7122 0.0973526
0.659678 0.635615 0.0499886
0.871565 0.56762 0.012726
0.998245 0.519982 0.00138857
1 0.499504 1.5259e-05
0 0.985687 0.240955
0 0.981674 0.232395
0.00515755 0.972366 0.213077
0.141756 0.956115 0.180606
0.367758 0.93048 0.137255
0.614527 0.865446 0.0899214
0.830472 0.797406 0.047715
0.977493 0.750088 0.0193942
0.999985 0.729 0.0104067
0 1 0.265965
0 1 0.257969
0 1 0.239246
0.109758 1 0.207523
0.334249 1 0.164523
0.581079 0.999466 0.117556
0.798993 0.965728 0.075288
0.953292 0.922347 0.0458839
0.999512 0.90222 0.0331731
0 1 0.274968
0 1 0.267521
0 1 0.249302
0.0932784 1 0.21825
0.315999 1 0.175723
0.562707 1 0.128847
0.781735 0.999802 0.0865187
0.938552 0.991363 0.0568551
0.998978 0.972869 0.0436103
0.0146944 0.0212253 0.161089
0.0650645 0.00682078 0.149599
0.173419 0.000320439 0.127398
0.352285 0 0.0920424
0.585412 0 0.0471962
0.831083 0 0.00579843
0.982956 0 0
1 0 0
1 0 0
0.00595102 0.0767376 0.166094
0.0540017 0.0610819 0.154894
0.159945 0.0297093 0.133028
0.337453 0.002121 0.0980392
0.569406 0 0.0530709
0.815595 0 0.0115969
0.976883 0 0
1 0 0
1 0 0
0.00030518 0.190799 0.181506
0.0332189 0.175082 0.171069
0.137407 0.142123 0.149737
0.312886 0.0880446 0.115068
0.544259 0.0281529 0.0700999
0.790158 0 0.0265965
0.963378 0 0.00181582
1 0 0
1 0 0
0 0.380041 0.211063
0.00848402 0.363439 0.200519
0.103243 0.329839 0.179217
0.27689 0.275547 0.144732
0.506706 0.204471 0.0999466
0.753368 0.128099 0.0523842
0.940154 0.0641031 0.0180514
1 0.0362554 0.00292973
1 0.0265812 0
0 0.625162 0.249958
0 0.608576 0.239796
0.0600443 0.575082 0.218799
0.231647 0.520272 0.184604
0.46006 0.449195 0.139925
0.706691 0.372519 0.0916304
0.907851 0.30428 0.0495155
1 0.257389 0.0251926
1 0.237186 0.0174258
0 0.885893 0.291814
0 0.870451 0.281987
0.0233158 0.837827 0.261479
0.183307 0.783841 0.227558
0.410636 0.713039 0.183017
0.657343 0.6365 0.134951
0.869856 0.568002 0.0918593
0.998291 0.520439 0.0620279
1 0.49984 0.0492256
0 0.985763 0.328069
0 0.981735 0.318746
0.00480659 0.972442 0.298772
0.13991 0.955795 0.265385
0.365286 0.930434 0.221256
0.612177 0.866255 0.173053
0.828901 0.798093 0.130037
0.976715 0.750561 0.0998856
1 0.72929 0.0865492
0 1 0.351736
0 1 0.342794
0 1 0.323278
0.107912 1 0.290715
0.331991 1 0.247028
0.578668 0.999939 0.199008
0.797086 0.967117 0.155932
0.951949 0.923644 0.12575
0.999481 0.903075 0.11194
0 1 0.358877
0 1 0.350622
0 1 0.331609
0.090959 1 0.299702
0.313451 1 0.256565
0.560601 1 0.208804
0.779904 0.999832 0.165606
0.93698 0.992721 0.13518
0.998871 0.974426 0.121065
0.0131685 0.0247044 0.320592
0.0630655 0.0101472 0.308385
0.170901 0.000381476 0.285695
0.349355 0 0.249485
0.582116 0 0.203326
0.828107 0 0.155001
0.981811 0 0.113512
1 0 0.0857557
1 0 0.0746929
0.00476081 0.0796368 0.324453
0.0521096 0.0641947 0.312749
0.157565 0.0322881 0.290257
0.334554 0.00274662 0.254704
0.566537 0 0.208682
0.812436 0 0.159976
0.975692 0 0.118151
1 0 0.0897231
1 0 0.0781872
0.000228885 0.19324 0.339162
0.031342 0.177768 0.327718
0.135302 0.144884 0.305333
0.310491 0.090837 0.270024
0.54107 0.0301823 0.22414
0.787198 0 0.175463
0.962081 0 0.132708
1 0 0.103746
1 0 0.0915541
0 0.381903 0.36643
0.00759899 0.365454 0.355352
0.101045 0.33193 0.333257
0.274159 0.277821 0.297917
0.503975 0.206668 0.252186
0.750423 0.130419 0.203189
0.93875 0.0656901 0.15996
1 0.0370031 0.130388
1 0.0274205 0.117479
0 0.62678 0.403677
0 0.610513 0.392721
0.0579232 0.576791 0.370809
0.229038 0.522179 0.335668
0.45713 0.451087 0.290135
0.704112 0.37435 0.241077
0.90634 0.305943 0.197223
1 0.259174 0.167041
1 0.238895 0.153628
0 0.887663 0.443381
0 0.872084 0.432715
0.0220798 0.839597 0.411551
0.180682 0.786084 0.376837
0.407691 0.714992 0.331228
0.654429 0.638361 0.282383
0.867735 0.569711 0.238376
0.998016 0.521843 0.207294
1 0.501122 0.193515
0 0.986252 0.477928
0 0.982238 0.467597
0.00427253 0.972824 0.446525
0.137346 0.955886 0.412573
0.362356 0.931136 0.367681
0.609216 0.868666 0.318639
0.82649 0.800275 0.274647
0.975189 0.752361 0.243503
1 0.730846 0.229068
0 1 0.499443
0 1 0.48986
0 1 0.469398
0.105409 1 0.436194
0.328908 1 0.391608
0.575647 1 0.342947
0.794476 0.969665 0.298878
0.949783 0.926406 0.267781
0.999374 0.905364 0.253025
0 1 0.504829
0 1 0.495979
0 1 0.476188
0.0881208 1 0.443626
0.310903 1 0.399771
0.557504 1 0.351019
0.777203 0.999908 0.307057
0.934768 0.994415 0.2757
0.998718 0.977447 0.260594
0.0112917 0.029221 0.524468
0.0606699 0.0144503 0.512032
0.167941 0.000579843 0.489113
0.345785 0 0.452903
0.5785 0 0.406378
0.824659 0 0.35761
0.980545 0 0.315312
1 0 0.287037
1 0 0.275425
0.0028687 0.08365 0.527581
0.0496529 0.0683146 0.515541
0.154635 0.0361181 0.492714
0.331289 0.00361639 0.456733
0.562875 0 0.41033
0.80885 0 0.361212
0.974136 0 0.3187
1 0 0.289723
1 0 0.277501
0.000167849 0.196887 0.540993
0.02916 0.181369 0.529198
0.132555 0.148714 0.506569
0.307347 0.0948959 0.470741
0.537423 0.0329442 0.424445
0.783658 0.000122072 0.375189
0.960403 0 0.33196
1 0 0.302556
1 0 0.289647
0 0.384771 0.567147
0.00654612 0.368475 0.555581
0.0987259 0.335363 0.533043
0.271183 0.281041 0.497398
0.500679 0.210071 0.451286
0.747036 0.133791 0.40174
0.936965 0.0679026 0.358007
1 0.0380865 0.327626
1 0.0286717 0.314199
0 0.629252 0.603021
0 0.613184 0.591775
0.0554055 0.579629 0.569589
0.225986 0.525185 0.534066
0.453941 0.454414 0.487846
0.700771 0.377386 0.438636
0.904219 0.308782 0.394202
1 0.26215 0.363317
1 0.241367 0.349538
0 0.890425 0.641917
0 0.874861 0.630701
0.0207675 0.84239 0.609079
0.177676 0.789014 0.574166
0.404227 0.717983 0.528237
0.651408 0.641291 0.478508
0.865507 0.572869 0.434394
0.997681 0.524529 0.402762
1 0.503639 0.388159
0 0.987137 0.67538
0 0.983246 0.66482
0.00373846 0.973632 0.643473
0.134234 0.956664 0.609171
0.358984 0.932128 0.563699
0.605951 0.871977 0.514275
0.823575 0.803433 0.469825
0.973373 0.755322 0.438148
1 0.733974 0.423224
0 1 0.696422
0 1 0.68632
0 1 0.665537
0.102205 1 0.631891
0.325567 1 0.587182
0.572183 1 0.537774
0.791424 0.973205 0.493202
0.947173 0.929961 0.461555
0.999252 0.90869 0.446067
0 1 0.701045
0 1 0.691798
0 1 0.671656
0.0850996 1 0.638468
0.307271 1 0.594217
0.553857 1 0.545159
0.773983 0.999985 0.500359
0.932082 0.995758 0.468254
0.99855 0.981582 0.452735
0.00923171 0.0337987 0.730983
0.0581826 0.0189517 0.718853
0.164904 0.000976577 0.696178
0.342428 0 0.660029
0.575219 0 0.613703
0.821012 0 0.565057
0.979019 0 0.523049
1 0 0.494789
1 0 0.483391
0.0018616 0.0877241 0.734203
0.0472419 0.0726177 0.722377
0.151705 0.0404212 0.699794
0.327916 0.00456245 0.664103
0.559167 0 0.617868
0.805432 0 0.569009
0.972564 0 0.526589
1 0 0.497642
1 0 0.485557
0.000122072 0.200641 0.747723
0.0269169 0.185153 0.736187
0.129778 0.152575 0.713802
0.303975 0.0990768 0.678233
0.533791 0.0361181 0.63238
0.780316 0.00123598 0.583307
0.958877 0 0.540108
1 0 0.510765
1 0 0.498009
0 0.387854 0.774136
0.00543221 0.371939 0.762982
0.0961318 0.338674 0.740703
0.26833 0.28455 0.705196
0.497124 0.213657 0.659495
0.743603 0.137697 0.610208
0.934997 0.070634 0.566537
1 0.0392004 0.536324
1 0.0301976 0.523064
0 0.632334 0.810498
0 0.615946 0.799268
0.0529335 0.582528 0.777554
0.223117 0.528542 0.74255
0.450492 0.457679 0.696681
0.697368 0.380636 0.647334
0.902007 0.312184 0.603418
1 0.265141 0.572534
1 0.244205 0.558694
0 0.893446 0.850019
0 0.878004 0.839292
0.0194858 0.845731 0.817945
0.174853 0.792065 0.783078
0.401068 0.721202 0.737652
0.647868 0.645029 0.688273
0.862837 0.576013 0.643977
0.997055 0.527825 0.612543
1 0.506462 0.597955
0 0.98819 0.884184
0 0.984283 0.873899
0.00318914 0.974624 0.852857
0.131029 0.957427 0.819104
0.355322 0.932708 0.773739
0.602823 0.875441 0.724147
0.820935 0.806867 0.679591
0.97142 0.758968 0.64802
1 0.737148 0.633036
0 1 0.905943
0 1 0.896147
0 1 0.875456
0.0988937 1 0.841779
0.321843 1 0.797436
0.568627 1 0.748089
0.788144 0.976608 0.703365
0.944671 0.933898 0.671687
0.9991 0.912398 0.656153
0 1 0.910811
0 1 0.901701
0 1 0.881788
0.081651 1 0.848798
0.303441 1 0.804334
0.550057 1 0.75555
0.770703 1 0.710887
0.929366 0.997116 0.678599
0.997879 0.986068 0.663005
0.00759899 0.0373236 0.894423
0.0561074 0.0226596 0.883268
0.162371 0.00213626 0.861418
0.33959 0 0.826413
0.571756 0 0.781018
0.817624 0 0.73312
0.977737 0 0.692012
1 0 0.664439
1 0 0.653696
0.00138857 0.0909285 0.899474
0.0452735 0.0759442 0.88867
0.14931 0.0438392 0.867048
0.324956 0.00529488 0.832273
0.556161 0 0.786923
0.802167 0 0.738994
0.971298 0 0.697154
1 0 0.669154
1 0 0.657771
7.62951e-05 0.203357 0.914733
0.024918 0.187976 0.90428
0.127413 0.155779 0.882887
0.30103 0.102312 0.848264
0.530617 0.0386206 0.803388
0.777386 0.00221256 0.755077
0.957321 0 0.712795
1 0 0.684092
1 0 0.672053
0 0.390021 0.942779
0.00460822 0.374289 0.932906
0.0937057 0.341283 0.911788
0.265446 0.287312 0.877272
0.493782 0.216693 0.832197
0.74049 0.140505 0.783993
0.933364 0.0732738 0.741115
1 0.0400549 0.711528
1 0.0311284 0.699138
0 0.634195 0.975219
0 0.61796 0.967102
0.0506752 0.58471 0.949081
0.220264 0.531212 0.916411
0.447333 0.460182 0.871672
0.694591 0.382986 0.823178
0.899977 0.315038 0.779965
1 0.267353 0.749935
1 0.246281 0.736355
0 0.895369 0.996231
0 0.880583 0.995346
0.0184787 0.847974 0.986557
0.172366 0.794476 0.958541
0.39791 0.723812 0.914473
0.644678 0.647593 0.865934
0.860304 0.578485 0.822095
0.996307 0.530068 0.790936
1 0.508873 0.777142
0 0.989013 0.999268
0 0.985199 0.998703
0.00277714 0.975357 0.996399
0.128069 0.958022 0.988769
0.352377 0.932845 0.951904
0.59968 0.878416 0.902983
0.818189 0.809766 0.859037
0.969512 0.761639 0.828016
0.999985 0.73959 0.813474
0 1 0.996506
0 1 0.994888
0 1 0.98793
0.0958877 1 0.974121
0.318349 1 0.953246
0.565255 1 0.918944
0.785458 0.979339 0.877333
0.942275 0.937224 0.846204
0.998932 0.915557 0.831342
0 1 0.994705
0 1 0.993194
0 1 0.990326
0.0786603 1 0.985473
0.299992 1 0.975906
0.546777 1 0.935012
0.76759 1 0.89099
0.926863 0.998062 0.859068
0.996597 0.98996 0.843656
0.00688182 0.0391089 0.982651
0.0548257 0.0247501 0.972961
0.160525 0.00280766 0.952499
0.337163 0 0.918761
0.569146 0 0.874739
0.814954 0 0.828061
0.976913 0 0.787961
1 0 0.761608
1 0 0.751904
0.00109865 0.0924544 0.98883
0.0438849 0.0775616 0.98088
0.147784 0.0455329 0.960754
0.323064 0.00576791 0.927184
0.553491 0 0.88336
0.799527 0 0.836576
0.970336 0 0.795941
1 0 0.768948
1 0 0.75874
6.10361e-05 0.204379 0.997971
0.023682 0.189364 0.994675
0.125658 0.157214 0.978851
0.298817 0.103838 0.946105
0.528542 0.0397345 0.902266
0.774777 0.00285344 0.855406
0.956298 0 0.814191
1 0 0.786435
1 0 0.775677
0 0.390845 0.999908
0.00415045 0.374975 0.999786
0.0921187 0.342214 0.997772
0.263218 0.288441 0.977127
0.491295 0.217884 0.934051
0.738247 0.141604 0.886809
0.932342 0.0743114 0.845212
1 0.0403601 0.816846
1 0.0313878 0.805371
0 0.634379 1
0 0.618402 1
0.0489357 0.585855 1
0.218097 0.532113 0.999176
0.444816 0.461082 0.97586
0.692027 0.384298 0.928801
0.898482 0.315847 0.886519
1 0.267948 0.856977
1 0.246723 0.844373
0 0.895918 1
0 0.881117 1
0.0177157 0.848661 1
0.170184 0.795316 1
0.395239 0.725567 0.99881
0.642145 0.648615 0.97232
0.858854 0.579293 0.929595
0.995743 0.531243 0.899794
1 0.509422 0.886748
0 0.989471 1
0 0.985534 1
0.00250248 0.975723 1
0.126055 0.958099 1
0.350179 0.932494 1
0.59707 0.879713 0.995773
0.816083 0.811276 0.968551
0.968063 0.762753 0.938552
0.999969 0.740566 0.925093
0 1 1
0 1 1
0 1 1
0.0935378 1 1
0.316045 1 0.999298
0.562799 0.999802 0.994095
0.783215 0.980728 0.978012
0.940459 0.938918 0.957427
0.998795 0.917235 0.943999
0 1 1
0 1 1
0 1 1
0.076112 1 1
0.297124 1 1
0.543893 1 0.999985
0.765316 1 0.993225
0.924956 0.998337 0.975906
0.995682 0.992111 0.962356
0.00669871 0.0395209 0.998749
0.0541238 0.0251621 0.990143
0.15938 0.00289921 0.970352
0.335485 0 0.937499
0.567208 0 0.894347
0.812924 0 0.848356
0.976486 0 0.808881
1 0 0.783093
1 0 0.774044
0.00103761 0.0921645 0.999985
0.0434119 0.0774243 0.997909
0.1467 0.0457008 0.980011
0.321431 0.00601205 0.947204
0.551553 0 0.904143
0.79762 0 0.858061
0.969879 0 0.81799
1 0 0.791577
1 0 0.781857
4.57771e-05 0.203876 1
0.0230564 0.189075 1
0.124804 0.156893 0.996551
0.297536 0.103624 0.967132
0.526619 0.0397345 0.92401
0.772885 0.00299077 0.877775
0.955856 0 0.83714
1 0 0.810056
1 0 0.799802
0 0.389654 1
0.0040589 0.373983 1
0.0912032 0.341253 1
0.261677 0.287922 0.994736
0.490013 0.217151 0.956542
0.736507 0.141009 0.910002
0.93164 0.0740368 0.869001
1 0.0396124 0.841199
1 0.0307927 0.83006
0 0.632883 1
0 0.61738 1
0.0481117 0.584588 1
0.21677 0.531014 1
0.443198 0.460136 0.993454
0.690303 0.383368 0.952499
0.897734 0.314931 0.910948
1 0.266789 0.882399
1 0.24593 0.870787
0 0.894804 1
0 0.879789 1
0.0172885 0.847517 1
0.168719 0.794705 1
0.393454 0.724651 1
0.640589 0.647684 0.993927
0.857725 0.578317 0.95671
0.995468 0.530282 0.927871
1 0.508186 0.915709
0 0.989364 1
0 0.985412 1
0.00241093 0.975616 1
0.124544 0.957534 1
0.348348 0.931517 1
0.595117 0.879744 1
0.814771 0.810742 0.995605
0.967193 0.762005 0.969238
0.999969 0.73991 0.95668
0 1 1
0 1 1
0 1 1
0.092256 1 1
0.314031 1 1
0.560861 0.999512 1
0.781613 0.98085 0.999756
0.93933 0.939086 0.994141
0.998718 0.917006 0.982879
0 1 1
0 1 1
0 1 1
0.0743267 1 1
0.295399 1 1
0.542046 1 1
0.763699 1 1
0.923735 0.998398 0.999969
0.995361 0.992554 0.998215
