luts/varicam_official/LoCon_Warm.cube
TITLE "Generated by Resolve"
LUT_3D_SIZE 9
0.0157626 0.0155795 0.01561
0.0645457 0.00288396 0.00657664
0.183078 0 0
0.37995 0 0
0.63032 0 0
0.884672 0 0
0.990463 0 0
1 0 0
1 0 0
0.00840772 0.0599222 0.0231022
0.051133 0.0439765 0.0146639
0.164141 0.0129854 0.000808728
0.355413 0.00015259 0
0.602792 0 0
0.858045 0 0
0.986023 0 0
1 0 0
1 0 0
0 0.161273 0.040528
0.0295415 0.143557 0.0325017
0.136446 0.106401 0.0117952
0.322469 0.0461891 0
0.567376 0.00331121 0
0.823789 0 0
0.975891 0 0
1 0 0
1 0 0
0 0.331243 0.0697337
0.00639353 0.312032 0.06215
0.0992599 0.27335 0.0419318
0.279301 0.212131 0.00914015
0.521523 0.132906 0
0.779217 0.053193 0
0.956497 0.00383001 0
1 0 0
1 0 0
0 0.560327 0.10898
0.00015259 0.539742 0.101793
0.0547494 0.500648 0.0821241
0.227451 0.439597 0.0482643
0.466133 0.359823 0.00775158
0.725048 0.274586 0
0.925795 0.199313 0
0.998062 0.148104 0
1 0.125139 0
0 0.813626 0.152575
0 0.794614 0.14612
0.0155947 0.756634 0.127306
0.172564 0.697017 0.0944839
0.406851 0.617807 0.0491951
0.665782 0.531792 0.00701915
0.885786 0.454566 0
0.986603 0.400595 0
1 0.374914 0
0 0.968261 0.192981
0 0.96231 0.187762
0.00292973 0.943282 0.170016
0.119371 0.907149 0.138323
0.349874 0.852338 0.0939651
0.608011 0.775265 0.0445563
0.837049 0.699001 0.00601205
0.966354 0.644373 0
0.999741 0.617838 0
0 1 0.223255
0 1 0.219226
0 1 0.203098
0.0754559 0.996826 0.173007
0.301259 0.976532 0.129809
0.558892 0.940627 0.0809949
0.79205 0.886931 0.0360876
0.941726 0.835065 0.00654612
0.997299 0.808698 0.000701915
0 1 0.238941
0 1 0.236286
0 1 0.221592
0.0491493 1 0.193469
0.265873 1 0.15172
0.52314 0.998581 0.103319
0.760967 0.982101 0.058381
0.920256 0.95259 0.0260319
0.990723 0.928496 0.0116121
0.0153506 0.016144 0.0456397
0.063508 0.00328069 0.0344244
0.18143 0 0.0124666
0.377722 0 0.000411994
0.62829 0 0
0.882521 0 0
0.990219 0 0
1 0 0
1 0 0
0.00822461 0.0598154 0.0484321
0.0503395 0.0440375 0.0377661
0.162646 0.0128481 0.0155032
0.35314 0.000167849 0.000488289
0.6 0 0
0.855467 0 0
0.985748 0 0
1 0 0
1 0 0
0 0.160189 0.0610971
0.029099 0.143023 0.0510262
0.135286 0.105669 0.0285954
0.320577 0.0457771 0.00274662
0.564736 0.00256352 0
0.821469 0 0
0.97557 0 0
1 0 0
1 0 0
0 0.329534 0.0863813
0.00630198 0.310109 0.0770886
0.0983444 0.271992 0.0553902
0.277775 0.210666 0.0199435
0.51928 0.13164 7.62951e-05
0.777386 0.052781 0
0.956024 0.00390631 0
1 0 0
1 0 0
0 0.557809 0.122698
0.000137331 0.537636 0.113695
0.0540475 0.498833 0.0924544
0.226001 0.437659 0.0571908
0.464454 0.358068 0.01355
0.723293 0.272831 0
0.925124 0.197436 0
0.998398 0.145953 0
1 0.12285 0
0 0.811582 0.163287
0 0.792416 0.155016
0.0149691 0.754726 0.134661
0.171069 0.695033 0.100343
0.405005 0.615839 0.0536202
0.663752 0.529839 0.00909438
0.884504 0.452476 0
0.986664 0.398123 0
1 0.372229 0
0 0.967819 0.200671
0 0.961898 0.193652
0.00254826 0.942672 0.174395
0.117784 0.906416 0.141314
0.347768 0.851194 0.0961318
0.605905 0.774075 0.0462806
0.835752 0.697597 0.00697337
0.966812 0.642329 9.15541e-05
0.999695 0.615793 0
0 1 0.228168
0 1 0.222904
0 1 0.20621
0.073579 0.997314 0.175814
0.299138 0.978759 0.132219
0.55671 0.942031 0.0829786
0.790539 0.886778 0.0376287
0.942016 0.83415 0.00755322
0.997299 0.807416 0.00112917
0 1 0.243244
0 1 0.239811
0 1 0.224582
0.0480049 1 0.195972
0.263676 1 0.15378
0.520882 0.998428 0.104952
0.759503 0.982376 0.0594949
0.919829 0.952377 0.0265812
0.990707 0.92784 0.0117037
0.0144503 0.0179751 0.125185
0.0619516 0.00460822 0.111681
0.179126 0 0.0857252
0.374777 0 0.0463264
0.624903 0 0.0104219
0.87924 0 3.0518e-05
0.989578 0 0
1 0 0
1 0 0
0.00759899 0.0606546 0.123522
0.0490425 0.045182 0.110994
0.160479 0.0133364 0.0857252
0.35021 0.000259403 0.0465095
0.596689 0 0.00929274
0.852369 0 0.000518807
0.985183 0 0
1 0 0
1 0 0
0 0.160281 0.132082
0.027985 0.143023 0.119997
0.13341 0.105989 0.0955978
0.317708 0.0462348 0.0565652
0.561776 0.00181582 0.0132296
0.818631 0 0
0.974807 0 0
1 0 0
1 0 0
0 0.328557 0.152468
0.00604257 0.309285 0.140841
0.0966812 0.271412 0.117815
0.275334 0.210315 0.0802014
0.516442 0.13135 0.0316014
0.774762 0.0531167 0.00254826
0.955062 0.00433356 0
1 0 0
1 0 0
0 0.556283 0.185046
0.000122072 0.535912 0.174319
0.0528115 0.49752 0.151888
0.224094 0.436561 0.115328
0.461601 0.35729 0.0668193
0.720653 0.271977 0.0193942
0.92401 0.196414 0.00137331
1 0.144564 0
1 0.121263 0
0 0.809979 0.222507
0 0.79089 0.212863
0.0141756 0.753475 0.191104
0.168887 0.693797 0.155505
0.402258 0.614939 0.107836
0.661097 0.528832 0.0553597
0.882597 0.451331 0.0137484
1 0.396536 0.00164797
1 0.37023 0.000411994
0 0.96791 0.257343
0 0.962066 0.248676
0.002121 0.942779 0.227909
0.115572 0.906157 0.193576
0.345418 0.850568 0.146487
0.603143 0.77348 0.0944381
0.833631 0.696681 0.0470283
0.985016 0.641215 0.0149233
1 0.61416 0.00454719
0 1 0.282094
0 1 0.274693
0 1 0.255344
0.0712596 1 0.222812
0.296193 0.999451 0.177523
0.553994 0.964782 0.126253
0.788586 0.899214 0.0792706
0.954665 0.843641 0.0453498
0.999832 0.816297 0.0294499
0 1 0.292592
0 1 0.287037
0 1 0.270039
0.0465705 1 0.239765
0.26096 1 0.195972
0.517876 1 0.145418
0.757382 0.995544 0.0982071
0.929213 0.965789 0.063447
0.998062 0.94049 0.0466468
0.0130617 0.0212558 0.267491
0.0599527 0.00770581 0.25095
0.176318 0 0.222461
0.371267 0 0.179995
0.620447 0 0.127794
0.875105 0 0.0754711
0.9888 0 0.0377356
1 0 0.0169375
1 0 0.0111391
0.00657664 0.0628977 0.2598
0.0470283 0.0475776 0.244694
0.157519 0.0144045 0.217197
0.346441 0.000411994 0.175494
0.593072 0 0.123583
0.848615 0 0.0703899
0.984283 0 0.0344091
1 0 0.0139925
1 0 0.00714122
0 0.161471 0.263844
0.0262608 0.144411 0.249088
0.130907 0.107591 0.2224
0.314153 0.0480964 0.181415
0.557916 0.000946059 0.129473
0.814664 0 0.0755627
0.973724 0 0.0353246
1 0 0.0158999
1 0 0.00982681
0 0.328649 0.279896
0.00567636 0.309773 0.265385
0.094377 0.271794 0.239368
0.272129 0.210971 0.199039
0.512657 0.132586 0.147677
0.771069 0.05449 0.0935683
0.953704 0.00511177 0.0469978
1 0 0.0236362
1 0 0.0170748
0 0.555535 0.306142
0.000106813 0.535805 0.292653
0.0512551 0.497185 0.267689
0.221195 0.436774 0.228977
0.457877 0.357794 0.178271
0.717052 0.272129 0.123796
0.922332 0.196826 0.0759442
1 0.144259 0.0442512
1 0.120516 0.0309911
0 0.809201 0.338842
0 0.790692 0.326513
0.0132143 0.753094 0.30248
0.166094 0.693538 0.26479
0.399191 0.614649 0.21503
0.657893 0.528588 0.16051
0.880385 0.450813 0.111498
0.999603 0.395666 0.076585
1 0.369253 0.0604868
0 0.968673 0.369299
0 0.962982 0.35819
0.00161746 0.943664 0.33521
0.112795 0.906676 0.298955
0.341878 0.850599 0.249897
0.599985 0.773831 0.195727
0.830884 0.696666 0.146136
0.983642 0.640879 0.110231
1 0.613382 0.0921035
0 1 0.389578
0 1 0.37966
0 1 0.358236
0.0686809 1 0.323461
0.292592 0.999008 0.275547
0.550378 0.965148 0.221729
0.786099 0.89958 0.172335
0.952972 0.843839 0.136217
0.999802 0.816144 0.118181
0 1 0.395865
0 1 0.387259
0 1 0.367178
0.0442969 1 0.334417
0.257679 1 0.288731
0.514305 1 0.236255
0.754696 0.995544 0.18706
0.927108 0.967117 0.150561
0.997879 0.941329 0.131823
0.0113985 0.0256046 0.462562
0.0571298 0.0121767 0.444953
0.172595 0 0.414939
0.366415 0 0.370825
0.615763 0 0.317037
0.870298 0 0.262196
0.987823 0 0.217044
1 0 0.188266
1 0 0.177127
0.00488289 0.0662547 0.451133
0.0444953 0.0511635 0.433906
0.154208 0.0165103 0.405188
0.342336 0.000579843 0.36199
0.587945 0 0.30837
0.843763 0 0.253346
0.983063 0 0.206729
1 0 0.176364
1 0 0.163348
0 0.16379 0.451423
0.0238956 0.147082 0.435019
0.127794 0.110399 0.406577
0.310185 0.0508888 0.364431
0.553307 0.000701915 0.310979
0.8103 0 0.255451
0.972229 0 0.207584
1 0 0.175463
1 0 0.160845
0 0.330159 0.464134
0.00511177 0.311086 0.448035
0.0915541 0.273457 0.420386
0.26833 0.212955 0.378866
0.508171 0.135225 0.325628
0.766751 0.0569009 0.26949
0.952041 0.00622568 0.220249
1 0 0.186481
1 0 0.170397
0 0.556252 0.487511
7.62951e-05 0.536492 0.471992
0.0487678 0.498314 0.444846
0.217472 0.438331 0.40415
0.453742 0.359289 0.351812
0.712963 0.273838 0.295171
0.920302 0.197818 0.24509
1 0.14519 0.209308
1 0.121569 0.192035
0 0.809964 0.516075
0 0.791272 0.501442
0.0120851 0.754009 0.475624
0.162722 0.694697 0.435843
0.394766 0.615961 0.38407
0.653468 0.529931 0.327962
0.877104 0.452049 0.276829
0.998978 0.39649 0.24007
1 0.369528 0.221256
0 0.970428 0.542687
0 0.96492 0.529427
0.00109865 0.945647 0.504601
0.109026 0.908431 0.466346
0.337407 0.852003 0.415625
0.59559 0.775387 0.359594
0.827314 0.69807 0.308125
0.981918 0.641627 0.270207
1 0.613733 0.250202
0 1 0.559899
0 1 0.547677
0 1 0.524559
0.0653849 1 0.488014
0.288441 0.998123 0.438239
0.546136 0.966339 0.382773
0.782483 0.901427 0.330831
0.950637 0.845441 0.292271
0.999771 0.817151 0.271519
0 1 0.562539
0 1 0.55169
0 1 0.530022
0.041825 1 0.495003
0.253437 1 0.446723
0.509636 1 0.392111
0.750683 0.995804 0.340688
0.924498 0.969604 0.301854
0.997635 0.943862 0.280995
0.00935378 0.030457 0.674632
0.0540627 0.0170596 0.657252
0.168673 0 0.628183
0.361898 0 0.584237
0.610162 0 0.530495
0.864851 0 0.475837
0.986557 0 0.430106
1 0 0.401282
1 0 0.389517
0.00325017 0.0700694 0.663844
0.0417182 0.0552682 0.646799
0.150332 0.0205692 0.617929
0.337423 0.000732433 0.575036
0.582712 0 0.521355
0.838544 0 0.466056
0.981598 0 0.418814
1 0 0.387915
1 0 0.37438
0 0.166598 0.663615
0.0216678 0.150179 0.647227
0.124254 0.113802 0.618784
0.30547 0.0547494 0.576211
0.548043 0.00209049 0.522972
0.805188 0 0.466865
0.970626 0 0.418784
1 0 0.385718
1 0 0.370748
0 0.331777 0.675776
0.00454719 0.313008 0.659495
0.0886397 0.2757 0.631724
0.263874 0.216007 0.589868
0.503365 0.138476 0.53695
0.761776 0.0597543 0.480079
0.950072 0.00772107 0.430564
1 0 0.395789
1 0 0.379095
0 0.557351 0.698604
4.57771e-05 0.538201 0.68307
0.0462654 0.500069 0.655726
0.213779 0.44033 0.61474
0.449088 0.361501 0.561929
0.70808 0.276127 0.504906
0.917708 0.199893 0.453727
1 0.146944 0.417426
1 0.123079 0.398932
0 0.810987 0.727062
0 0.792432 0.711894
0.0107576 0.755398 0.685298
0.158648 0.696513 0.645335
0.390097 0.617868 0.592905
0.648692 0.531884 0.535897
0.873579 0.453681 0.483879
0.998276 0.397818 0.446006
1 0.370459 0.426261
0 0.972686 0.752636
0 0.967468 0.738262
0.000640879 0.94815 0.713115
0.105058 0.910735 0.674098
0.332967 0.853773 0.62269
0.591119 0.777859 0.56585
0.823636 0.700114 0.513512
0.979751 0.643687 0.474693
1 0.615442 0.453681
0 1 0.768261
0 1 0.755535
0 1 0.731517
0.0617533 0.999817 0.694621
0.283711 0.997162 0.644144
0.541268 0.968292 0.587991
0.778347 0.904219 0.535195
0.947723 0.84773 0.495567
0.999725 0.819257 0.473869
0 1 0.770459
0 1 0.75877
0 1 0.735836
0.0391089 1 0.700877
0.248203 1 0.651911
0.504417 1 0.596185
0.74641 0.996277 0.543328
0.921004 0.972824 0.503334
0.997284 0.947265 0.480705
0.00750744 0.0345312 0.856519
0.0514382 0.0213931 0.841703
0.164782 0.000961318 0.81474
0.35697 0 0.773053
0.604883 0 0.721157
0.859846 0 0.668162
0.985229 0 0.623926
1 0 0.596307
1 0 0.586069
0.00228885 0.0733043 0.85005
0.0392767 0.058854 0.835813
0.146685 0.0243229 0.809033
0.33286 0.000747692 0.767956
0.577386 0 0.716304
0.8336 0 0.662638
0.980148 0 0.616724
1 0 0.586542
1 0 0.573953
0 0.168841 0.853895
0.0194858 0.152773 0.839933
0.120989 0.116762 0.813504
0.301183 0.0581674 0.772564
0.543053 0.0037995 0.720577
0.800504 0 0.665812
0.968902 0 0.618357
1 0 0.586572
1 0 0.572274
0 0.333059 0.869307
0.00399786 0.314519 0.854658
0.0855268 0.277607 0.828626
0.259709 0.218845 0.788434
0.498375 0.141329 0.736492
0.757122 0.0622416 0.681239
0.948013 0.0103304 0.632319
1 0 0.598672
1 0 0.582879
0 0.558221 0.894667
3.0518e-05 0.538811 0.880522
0.0435492 0.501625 0.855177
0.209522 0.442313 0.815686
0.44448 0.363516 0.764141
0.703517 0.278157 0.708446
0.915206 0.201755 0.658351
1 0.148623 0.622873
1 0.124636 0.605142
0 0.811933 0.924269
0 0.793332 0.911849
0.00943008 0.756298 0.887465
0.154742 0.697932 0.849149
0.38555 0.619806 0.797971
0.643961 0.533776 0.741909
0.869963 0.455497 0.690639
0.997375 0.399207 0.65333
1 0.371603 0.634028
0 0.975006 0.954238
0 0.970062 0.941985
0.000350958 0.950881 0.917662
0.100984 0.913069 0.88011
0.327916 0.855756 0.829694
0.586084 0.77995 0.773587
0.819409 0.70248 0.721736
0.977615 0.645243 0.683177
1 0.616709 0.662608
0 1 0.954177
0 1 0.948013
0 1 0.930007
0.0584573 0.999207 0.897841
0.278767 0.996063 0.851774
0.536339 0.970169 0.796201
0.774289 0.906966 0.744533
0.944762 0.85037 0.705013
0.99968 0.821378 0.683696
0 1 0.94696
0 1 0.941405
0 1 0.926024
0.0364233 1 0.899016
0.243275 1 0.858503
0.499229 1 0.805814
0.741451 0.996826 0.753841
0.917327 0.975998 0.714321
0.996689 0.950851 0.692668
0.00662242 0.0370184 0.968307
0.0492256 0.024445 0.957305
0.161822 0.00190738 0.93344
0.352956 0 0.89482
0.600137 0 0.846067
0.855146 0 0.795712
0.984146 0 0.754192
1 0 0.728771
1 0 0.720958
0.00157168 0.0749828 0.968185
0.0372931 0.0607309 0.957809
0.143572 0.0265049 0.934661
0.328664 0.000793469 0.896925
0.572854 0 0.848081
0.829068 0 0.797024
0.97908 0 0.753948
1 0 0.726696
1 0 0.716548
0 0.169802 0.978119
0.0181277 0.153704 0.968277
0.11809 0.11812 0.94551
0.297047 0.0606546 0.908293
0.53814 0.00488289 0.859754
0.795621 1.5259e-05 0.807446
0.967437 0 0.762188
1 0 0.73225
1 0 0.71989
0 0.332662 0.990753
0.00357061 0.314763 0.984604
0.0832227 0.278187 0.966339
0.255787 0.220096 0.929854
0.493599 0.143191 0.880613
0.752392 0.0637064 0.827482
0.946136 0.012665 0.780926
1 0 0.74902
1 0 0.735271
0 0.557351 0.997528
1.5259e-05 0.538659 0.995239
0.0415198 0.501457 0.987823
0.206149 0.442405 0.959899
0.439918 0.364553 0.912825
0.698894 0.278935 0.859373
0.912886 0.202625 0.811612
1 0.148959 0.778271
1 0.124743 0.762768
0 0.811002 0.999786
0 0.793149 0.999374
0.00822461 0.756313 0.996551
0.151034 0.698192 0.986496
0.38146 0.620066 0.951064
0.63975 0.534096 0.898512
0.866636 0.456092 0.849622
0.996414 0.399344 0.814237
1 0.37116 0.79675
0 0.976532 1
0 0.971847 1
0.000167849 0.952743 1
0.0973983 0.914824 0.997635
0.323781 0.856443 0.980194
0.581689 0.781186 0.935286
0.815824 0.703349 0.885603
0.975494 0.646311 0.849088
1 0.617182 0.830106
0 1 1
0 1 1
0 1 0.999466
0.0554513 0.998596 0.997162
0.274235 0.995071 0.987457
0.531472 0.971466 0.956802
0.770626 0.908705 0.910933
0.941939 0.851713 0.874022
0.999496 0.822522 0.854459
0 1 0.999954
0 1 0.99968
0 1 0.998932
0.0339513 1 0.997024
0.238666 1 0.992981
0.494438 1 0.966705
0.736919 0.997345 0.92488
0.913573 0.978363 0.88661
0.995972 0.953872 0.865751
0.00634775 0.0378271 0.998367
0.047837 0.0254826 0.990463
0.159365 0.00230411 0.969314
0.34931 0 0.933715
0.596017 0 0.88748
0.851148 0 0.839643
0.983398 0 0.80029
1 0 0.777081
1 0 0.771435
0.00140383 0.0746777 0.999954
0.0360266 0.0608377 0.996246
0.141131 0.0270542 0.976516
0.325536 0.000793469 0.941527
0.568902 0 0.895598
0.825208 0 0.847242
0.978149 0 0.806546
1 0 0.781521
1 0 0.774075
0 0.168505 1
0.0174868 0.152819 1
0.115816 0.117937 0.99292
0.293858 0.0610819 0.959014
0.534096 0.00531014 0.913375
0.791836 0 0.864393
0.966506 0 0.822492
1 0 0.795193
1 0 0.78529
0 0.330419 1
0.00334173 0.312886 1
0.0813611 0.277119 0.999924
0.252598 0.219638 0.987732
0.489815 0.142931 0.941604
0.748547 0.063447 0.891371
0.944869 0.013611 0.847318
1 0 0.817838
1 0 0.806378
0 0.554467 1
0 0.536492 1
0.0400397 0.49958 1
0.203311 0.441291 0.999344
0.436286 0.363363 0.978882
0.695079 0.278035 0.928954
0.911101 0.201343 0.88365
1 0.147753 0.852613
1 0.123308 0.839582
0 0.808072 1
0 0.790722 1
0.00721752 0.754253 1
0.148501 0.696239 1
0.377691 0.618891 0.998825
0.635981 0.532784 0.972656
0.863996 0.454536 0.927413
0.995453 0.397604 0.895003
1 0.369024 0.880125
0 0.977005 1
0 0.972503 1
1.5259e-05 0.953338 1
0.0943465 0.915145 1
0.320012 0.855543 1
0.577752 0.780529 0.997909
0.812833 0.702571 0.969833
0.974212 0.645136 0.936263
1 0.615793 0.920089
0 1 1
0 1 1
0 0.999725 1
0.0529335 0.997971 1
0.270375 0.99411 1
0.527733 0.971664 0.999985
0.767407 0.908751 0.993271
0.939635 0.851575 0.967514
0.999374 0.821927 0.950484
0 1 1
0 1 1
0 1 1
0.0321355 1 1
0.234592 1 1
0.489921 1 0.999847
0.732891 0.99762 0.996658
0.910323 0.979507 0.983886
0.995438 0.954894 0.967483
