luts/varicam_official/LoCon Cool 33 E-E.cube
TITLE "Generated by Resolve"
LUT_3D_SIZE 5
0.0156252 0.0156252 0.0156252
0.108171 0 0.0012665
0.411414 0 0
0.851637 0 0
0.999939 0 0
0.00169375 0.114809 0.032578
0.0885176 0.087953 0.0158846
0.389761 0.0121767 0
0.830716 0 0
1 0 0
0 0.443427 0.0888838
0.0322728 0.419043 0.0732738
0.326497 0.329229 0.0191348
0.768154 0.195346 0
0.998947 0.0972152 0
0 0.916838 0.17174
9.15541e-05 0.897078 0.157153
0.236988 0.81471 0.102998
0.678737 0.683757 0.0209659
0.973175 0.582071 0
0 1 0.231769
0 1 0.218173
0.167941 1 0.16556
0.610025 0.982635 0.0829175
0.935683 0.924392 0.0193027
0.0145113 0.017792 0.118151
0.104707 0.000274662 0.0997635
0.404761 0 0.042298
0.845151 0 0.000915541
0.999878 0 0
0.0016022 0.114611 0.130144
0.0858778 0.0883345 0.113237
0.384024 0.0131533 0.0561379
0.825101 0 0.00358587
1 0 0
0 0.440635 0.180468
0.0303197 0.416709 0.16492
0.32192 0.327825 0.108644
0.763394 0.194018 0.0247501
1 0.0951247 0.000213626
0 0.915373 0.256718
3.0518e-05 0.896025 0.242618
0.232975 0.813657 0.189075
0.674601 0.682139 0.105928
0.995819 0.579355 0.0420539
0 1 0.312383
0 1 0.300496
0.163622 1 0.248417
0.605234 0.999802 0.165591
0.946365 0.938277 0.100938
0.0115206 0.0253147 0.450523
0.0986496 0.00321965 0.43122
0.39501 0 0.371603
0.835615 0 0.284474
0.999756 0 0.218952
0.000549325 0.119097 0.458015
0.080705 0.0935531 0.441413
0.375845 0.0163272 0.38349
0.816449 0 0.297749
1 0 0.232227
0 0.441428 0.502846
0.0264591 0.418631 0.488609
0.314626 0.330709 0.432425
0.75555 0.197086 0.347265
1 0.0975204 0.281773
0 0.917678 0.574899
0 0.898924 0.562387
0.225589 0.816831 0.508675
0.66659 0.685023 0.424323
0.993591 0.581033 0.3579
0 1 0.625528
0 1 0.614389
0.156268 1 0.562158
0.597055 1 0.478523
0.941054 0.943633 0.412131
0.00753796 0.0344091 0.851698
0.0919203 0.00947585 0.834073
0.384253 0 0.776028
0.824598 0 0.69041
0.999542 0 0.625422
0 0.124865 0.86125
0.0745556 0.100465 0.845472
0.366079 0.0207218 0.789136
0.806531 0 0.704082
1 0 0.638972
0 0.444236 0.908339
0.0220645 0.421698 0.894469
0.305791 0.33521 0.839338
0.746609 0.20177 0.754864
1 0.100771 0.689021
0 0.921324 0.970718
0 0.903334 0.963943
0.217319 0.821759 0.917403
0.65774 0.689372 0.833478
0.990265 0.58468 0.767071
0 1 0.973022
0 1 0.969192
0.147738 1 0.946624
0.587808 1 0.883864
0.93463 0.950668 0.818006
0.00634775 0.0378271 0.998398
0.0871595 0.0137942 0.983169
0.375326 0 0.92929
0.815869 0 0.846952
0.999268 0 0.785
0 0.125032 1
0.0707256 0.10164 0.996506
0.358679 0.0214694 0.944335
0.798535 0 0.862028
0.999817 0 0.79913
0 0.440848 1
0.0193179 0.419333 1
0.299306 0.333608 0.994263
0.739345 0.200931 0.917662
1 0.0987106 0.853346
0 0.919249 1
0 0.901778 1
0.211032 0.820264 1
0.650797 0.687999 0.995148
0.988312 0.5823 0.937209
0 1 1
0 1 1
0.141314 1 1
0.580331 0.999634 1
0.930159 0.95227 0.994949
