luts/varicam_official/LoCon_Warm.cube
TITLE "Generated by Resolve"
LUT_3D_SIZE 33
0.0157626 0.0155795 0.01561
0.0164187 0.0153964 0.0154726
0.0294804 0.0114748 0.0130007
0.0458381 0.00697337 0.00987259
0.0645457 0.00288396 0.00657664
0.0864424 0.00015259 0.00343328
0.112825 0 0.000961318
0.145281 0 1.5259e-05
0.183078 0 0
0.225208 0 0
0.272572 0 0
0.324208 0 0
0.37995 0 0
0.439689 0 0
0.502037 0 0
0.56556 0 0
0.63032 0 0
0.695933 0 0
0.760723 0 0
0.823621 0 0
0.884672 0 0
0.941817 0 0
0.969802 0 0
0.984131 0 0
0.990463 0 0
0.996826 0 0
0.999161 0 0
1 0 0
1 0 0
1 0 0
1 0 0
1 0 0
1 0 0
0.0156252 0.0156252 0.0156252
0.0156558 0.01561 0.0156252
0.0285496 0.0117494 0.0131685
0.0444953 0.00735485 0.010132
0.0629282 0.00320439 0.0068513
0.0840467 0.000122072 0.00364691
0.110262 0 0.00108339
0.142489 0 9.15541e-05
0.179889 0 0
0.221027 0 0
0.267994 0 0
0.319509 0 0
0.375158 0 0
0.434333 0 0
0.49604 0 0
0.559838 0 0
0.624598 0 0
0.690105 0 0
0.754726 0 0
0.818189 0 0
0.879408 0 0
0.936675 0 0
0.967834 0 0
0.983551 0 0
0.989899 0 0
0.996216 0 0
0.998962 0 0
1 0 0
1 0 0
1 0 0
1 0 0
1 0 0
1 0 0
0.0134585 0.0287633 0.017792
0.01355 0.0282292 0.0177157
0.025803 0.024155 0.0153811
0.0412604 0.0193179 0.0124056
0.0592813 0.014313 0.0090486
0.079881 0.00943008 0.00546273
0.10631 0.00607309 0.00192264
0.138262 0.00328069 0.000381476
0.174777 0.00123598 3.0518e-05
0.215457 0 0
0.261433 0 0
0.313283 0 0
0.369055 0 0
0.427436 0 0
0.489204 0 0
0.552651 0 0
0.617716 0 0
0.683146 0 0
0.747784 0 0
0.811337 0 0
0.87274 0 0
0.930282 0 0
0.965362 0 0
0.98233 0 0
0.988937 0 0
0.995483 0 0
0.998749 0 0
1 0 0
1 0 0
1 0 0
1 0 0
1 0 0
1 0 0
0.0110323 0.0436561 0.0203098
0.0111543 0.0428931 0.0201877
0.0226902 0.0388342 0.0179599
0.0376593 0.0337987 0.0150759
0.0553445 0.0281071 0.0116884
0.0753185 0.0221256 0.00793469
0.101991 0.0156863 0.0034638
0.133577 0.0100099 0.0011902
0.169512 0.00526436 0.000274662
0.209598 0.00177005 0
0.25507 0.00062562 0
0.306828 0.000167849 0
0.362417 4.57771e-05 0
0.420249 0 0
0.481712 0 0
0.545235 0 0
0.610437 0 0
0.675761 0 0
0.740459 0 0
0.804013 0 0
0.865522 0 0
0.923598 0 0
0.962448 0 0
0.980636 0 0
0.98764 0 0
0.994598 0 0
0.99852 0 0
1 0 0
1 0 0
1 0 0
1 0 0
1 0 0
1 0 0
0.00840772 0.0599222 0.0231022
0.00854505 0.0590372 0.0229496
0.0193637 0.0549935 0.0208286
0.0338293 0.0499123 0.0180209
0.051133 0.0439765 0.0146639
0.0707103 0.0374609 0.0108797
0.0973678 0.0288548 0.00578317
0.128634 0.0206302 0.00260929
0.164141 0.0129854 0.000808728
0.203387 0.00633249 0
0.249027 0.00228885 0
0.300328 0.000656138 0
0.355413 0.00015259 0
0.41265 0 0
0.473808 0 0
0.537804 0 0
0.602792 0 0
0.667979 0 0
0.73283 0 0
0.796506 0 0
0.858045 0 0
0.916472 0 0
0.959045 0 0
0.978454 0 0
0.986023 0 0
0.9935 0 0
0.99826 0 0
1 0 0
1 0 0
1 0 0
1 0 0
1 0 0
1 0 0
0.0055848 0.0780499 0.0262608
0.00570687 0.0769513 0.0260777
0.0157473 0.0728923 0.0240177
0.0298314 0.0678264 0.0212406
0.0467536 0.0621042 0.0179904
0.0659495 0.0556649 0.014313
0.0924392 0.0471962 0.00926223
0.123339 0.0377966 0.00515755
0.158145 0.0278935 0.00204471
0.196658 0.0175784 0
0.24242 0.00700389 0
0.293263 0.00230411 0
0.347799 0.000518807 0
0.405127 0 0
0.465705 0 0
0.529625 0 0
0.594415 0 0
0.659281 0 0
0.724605 0 0
0.788373 0 0
0.849989 0 0
0.908583 0 0
0.955215 0 0
0.975677 0 0
0.983948 0 0
0.992218 0 0
0.997986 0 0
1 0 0
1 0 0
1 0 0
1 0 0
1 0 0
1 0 0
0.00294499 0.10251 0.030457
0.00320439 0.101106 0.0301976
0.011841 0.0973373 0.0283207
0.0250095 0.092195 0.0255894
0.0414435 0.0861982 0.0223087
0.0606241 0.0796521 0.0186465
0.0867323 0.0709392 0.013611
0.117098 0.0611734 0.0087892
0.151339 0.050309 0.0043946
0.189532 0.0385901 0.000854505
0.235172 0.0251316 0.000320439
0.285649 0.016144 7.62951e-05
0.33959 0.00970474 0
0.396536 0.00489815 0
0.45742 0.00144961 0
0.520943 0.000259403 0
0.58587 0 0
0.65066 0 0
0.716228 0 0
0.780041 0 0
0.841703 0 0
0.900435 0 0
0.951263 0 0
0.972412 0 0
0.981598 0 0
0.990616 0 0
0.997696 0 0
1 0 0
1 0 0
1 0 0
1 0 0
1 0 0
1 0 0
0.00103761 0.130358 0.0352331
0.00138857 0.128786 0.0349126
0.00827039 0.125017 0.0331731
0.0199893 0.119753 0.0304723
0.0357519 0.113497 0.0271611
0.0549477 0.106706 0.0234684
0.0806439 0.0978103 0.0184787
0.110521 0.0878767 0.0131075
0.144167 0.0768749 0.00762951
0.181811 0.0645762 0.00259403
0.22771 0.0498512 0.0010071
0.277882 0.0368353 0.000274662
0.331334 0.0250706 0
0.387869 0.0145571 0
0.448463 0.00598154 0
0.512169 0.00234989 0
0.576623 0.000885023 0
0.641459 0.000381476 0
0.707073 9.15541e-05 0
0.770855 1.5259e-05 0
0.832776 0 0
0.892302 0 0
0.946349 0 0
0.968597 0 0
0.978897 0 0
0.988815 0 0
0.997436 0 0
1 0 0
1 0 0
1 0 0
1 0 0
1 0 0
1 0 0
0 0.161273 0.040528
0.00030518 0.159274 0.0401312
0.00517281 0.155535 0.038529
0.0149538 0.150057 0.0358282
0.0295415 0.143557 0.0325017
0.0489967 0.136416 0.0287175
0.073991 0.127398 0.0238193
0.103304 0.117464 0.0181582
0.136446 0.106401 0.0117952
0.173968 0.0939651 0.00540169
0.219593 0.0788281 0.00218204
0.26949 0.0627909 0.000610361
0.322469 0.0461891 0
0.378485 0.0295415 0
0.439414 0.0149081 0
0.502663 0.00735485 0
0.567376 0.00331121 0
0.632395 0.00144961 0
0.697749 0.000350958 0
0.761639 4.57771e-05 0
0.823789 0 0
0.883619 0 0
0.940658 0 0
0.963928 0 0
0.975891 0 0
0.986847 0 0
0.997131 0 0
1 0 0
1 0 0
1 0 0
1 0 0
1 0 0
1 0 0
0 0.196017 0.0464637
0.000244144 0.193866 0.0460365
0.00311284 0.190433 0.0446174
0.00981155 0.185031 0.0419776
0.0226139 0.178759 0.0387121
0.0421912 0.171405 0.0348669
0.0666209 0.162768 0.0301061
0.0953689 0.152712 0.024506
0.128145 0.141726 0.0181888
0.165438 0.129458 0.0113832
0.210636 0.114641 0.00503548
0.260075 0.0984665 0.00148013
0.312642 0.0817426 0
0.368536 0.0644999 0
0.429175 0.0473182 0
0.492363 0.0332189 0
0.556374 0.0213321 0
0.621332 0.0111849 0
0.686748 0.00364691 0
0.750759 0.000869764 0
0.813245 0 0
0.873808 0 0
0.930755 0 0
0.956725 0 0
0.971756 0 0
0.984268 0 0
0.996338 0 0
0.999725 0 0
1 0 0
1 0 0
1 0 0
1 0 0
1 0 0
0 0.237552 0.0536355
0.000167849 0.235248 0.0531624
0.0016022 0.231678 0.0518654
0.00541695 0.226078 0.0492103
0.016144 0.219654 0.0459297
0.0347448 0.212146 0.0420691
0.0583658 0.203433 0.0373693
0.0865492 0.19324 0.0318151
0.119127 0.182071 0.0254673
0.156481 0.169558 0.0183566
0.201068 0.154833 0.0104677
0.249851 0.138811 0.00492866
0.302068 0.121691 0.00151064
0.357488 0.104051 4.57771e-05
0.418402 0.0851301 0
0.48127 0.0670634 0
0.54519 0.0496376 0
0.610132 0.0334173 0
0.675746 0.0199741 0
0.739773 0.0126955 0
0.802472 0.00814832 0
0.863416 0.00526436 0
0.920409 0.00283818 0
0.949126 0.00138857 0
0.967239 0.000488289 0
0.981216 0 0
0.994934 0 0
0.999207 0 0
1 0 0
1 0 0
1 0 0
1 0 0
1 0 0
0 0.283085 0.0614786
6.10361e-05 0.280629 0.0609903
0.000549325 0.277012 0.0598154
0.00202945 0.271351 0.0571756
0.010605 0.264439 0.0538033
0.0272374 0.256733 0.0499275
0.0493782 0.247974 0.0453193
0.0770123 0.237858 0.039826
0.109346 0.22623 0.033463
0.146975 0.213367 0.0261692
0.190661 0.198718 0.0178225
0.23888 0.18262 0.0104372
0.290623 0.165591 0.00447089
0.346166 0.147509 0.000564584
0.406912 0.127749 0.000137331
0.469352 0.107515 3.0518e-05
0.533516 0.0870222 0
0.598505 0.0670024 0
0.664317 0.0487831 0
0.728374 0.035523 0
0.791196 0.0250706 0
0.852125 0.0164492 0
0.909468 0.00903334 0
0.941054 0.00451667 0
0.962264 0.0016022 0
0.977813 0 0
0.993164 0 0
0.998489 0 0
1 0 0
1 0 0
1 0 0
1 0 0
1 0 0
0 0.331243 0.0697337
0 0.328542 0.0691997
3.0518e-05 0.325139 0.0682231
0.000106813 0.319234 0.0655528
0.00639353 0.312032 0.06215
0.0199588 0.304036 0.0582284
0.0400702 0.295277 0.0537118
0.0668345 0.28513 0.0483253
0.0992599 0.27335 0.0419318
0.136995 0.260319 0.0346075
0.179843 0.245548 0.0263218
0.22768 0.229328 0.0176547
0.279301 0.212131 0.00914015
0.334798 0.193851 0.00233463
0.395041 0.174029 0.000579843
0.457374 0.153765 0.000137331
0.521523 0.132906 0
0.58648 0.111879 0
0.65214 0.0910811 0
0.716487 0.071397 0
0.779217 0.053193 0
0.840497 0.0360266 0
0.897932 0.0205539 0
0.932448 0.0106508 0
0.956497 0.00383001 0
0.973846 0 0
0.991012 0 0
0.997696 0 0
1 0 0
1 0 0
1 0 0
1 0 0
1 0 0
0 0.383902 0.078706
0 0.380774 0.0781262
0 0.3776 0.0773175
0 0.371618 0.0746624
0.00399786 0.36437 0.0712749
0.0134585 0.35642 0.0673838
0.029984 0.347951 0.0629435
0.0559701 0.337987 0.0576486
0.0883497 0.326055 0.0512856
0.126055 0.312901 0.044007
0.168109 0.298482 0.0358587
0.215351 0.282383 0.0268864
0.266926 0.265064 0.0175326
0.322591 0.246601 0.00910964
0.382284 0.227008 0.00389105
0.444282 0.206683 0.00108339
0.507988 0.18587 0
0.573281 0.164569 0
0.638819 0.143206 0
0.703304 0.122301 0
0.7664 0.102251 0
0.828016 0.0825666 0
0.885481 0.0644694 0
0.923018 0.05066 0
0.949691 0.0392767 0
0.969207 0.0306859 0
0.988434 0.0262455 0
0.996796 0.0225681 0
1 0.0195621 0
1 0.0169528 0
1 0.0154269 0
1 0.0142977 0
1 0.013489 0
0 0.440269 0.0883497
0 0.436988 0.0877546
0 0.434134 0.087129
0 0.427619 0.0843977
0.0021973 0.420294 0.0810101
0.00828565 0.41265 0.0771954
0.0208133 0.403891 0.072755
0.0454261 0.393896 0.0675059
0.0772259 0.381811 0.0611582
0.114611 0.368566 0.0539101
0.155901 0.35436 0.0458991
0.202609 0.338323 0.0368353
0.254108 0.320943 0.0270848
0.309804 0.302373 0.0175021
0.368994 0.282795 0.00935378
0.430747 0.262348 0.00375372
0.494438 0.241459 0.0010071
0.559762 0.220081 0.000198367
0.625193 0.19855 1.5259e-05
0.689464 0.177554 0
0.753094 0.156893 0
0.814847 0.136492 0
0.872511 0.11754 0
0.913146 0.101045 0
0.942397 0.0860914 0
0.964065 0.0732586 0
0.98526 0.0639506 0
0.995621 0.0561074 0
0.999863 0.0495003 0
1 0.0437629 0
1 0.0401465 0
1 0.0374762 0
1 0.0354925 0
0 0.499596 0.0985275
0 0.496223 0.0979324
0 0.493324 0.0974136
0 0.486564 0.0946212
0.000915541 0.479164 0.091249
0.00440986 0.471473 0.0874647
0.0128023 0.462531 0.0830854
0.0353399 0.452384 0.0778058
0.0659953 0.440146 0.0714427
0.102708 0.426856 0.0642557
0.143313 0.41265 0.0563668
0.189532 0.396612 0.0472877
0.240955 0.379171 0.0373541
0.296544 0.36051 0.027039
0.355261 0.340749 0.016907
0.416907 0.320195 0.0084535
0.480629 0.299138 0.00328069
0.545983 0.277592 0.000717174
0.611399 0.255879 3.0518e-05
0.675776 0.234684 0
0.739361 0.213886 0
0.801053 0.193347 0
0.859113 0.174105 0
0.902846 0.156222 0
0.934554 0.139071 0
0.958373 0.123232 0
0.981323 0.110018 0
0.994003 0.0984665 0
0.999496 0.0885023 0
1 0.0797284 0
1 0.0738689 0
1 0.069398 0
1 0.0660563 0
0 0.560327 0.10898
0 0.556756 0.108354
0 0.553994 0.107881
0 0.54725 0.105119
0.00015259 0.539742 0.101793
0.00177005 0.531884 0.0980392
0.00637827 0.522988 0.0937514
0.0259861 0.512795 0.0884413
0.0547494 0.500648 0.0821241
0.0903487 0.487404 0.0750134
0.130404 0.473075 0.0671855
0.175998 0.457221 0.0582284
0.227451 0.439597 0.0482643
0.283085 0.420783 0.0376593
0.341299 0.401297 0.0267338
0.402533 0.380819 0.016144
0.466133 0.359823 0.00775158
0.531472 0.338293 0.00215152
0.596963 0.316579 1.5259e-05
0.661677 0.295293 0
0.725048 0.274586 0
0.786862 0.254002 0
0.845319 0.234577 0
0.891829 0.21651 0
0.925795 0.199313 0
0.951659 0.183505 0
0.975631 0.170092 0
0.990692 0.158312 0
0.998062 0.148104 0
0.999863 0.139178 0
0.999985 0.133303 0
1 0.128481 0
1 0.125139 0
0 0.623087 0.119829
0 0.619516 0.119203
0 0.616587 0.1187
0 0.609995 0.115999
0 0.602655 0.112749
0.000762951 0.594934 0.109071
0.00320439 0.586145 0.104921
0.0178683 0.575845 0.0995804
0.0436561 0.563668 0.0932631
0.0775311 0.550561 0.0862287
0.11696 0.536461 0.0785229
0.162524 0.520546 0.0696117
0.213779 0.502876 0.0596475
0.268986 0.484108 0.0489815
0.326894 0.464683 0.0378729
0.387747 0.444266 0.0264744
0.451316 0.423163 0.0161898
0.516625 0.401526 0.00801099
0.581994 0.379767 0.00289921
0.647028 0.358312 0.000701915
0.710475 0.337499 0
0.77232 0.316823 0
0.83122 0.297185 0
0.880308 0.278935 0
0.916625 0.261524 0
0.944396 0.245686 0
0.969345 0.231968 0
0.986633 0.219928 0
0.995972 0.209613 0
0.999405 0.200626 0
0.999954 0.194369 0
1 0.189334 0
1 0.18584 0
0 0.686625 0.13077
0 0.68307 0.130159
0 0.679683 0.12958
0 0.673594 0.127016
0 0.666377 0.123842
0.000289921 0.658442 0.120195
0.00143435 0.650187 0.116213
0.0109255 0.639811 0.110857
0.0331884 0.627665 0.104585
0.0647898 0.61474 0.0976272
0.10338 0.600885 0.0900282
0.149035 0.584909 0.0811475
0.200015 0.567269 0.0712139
0.254688 0.548608 0.0606088
0.312215 0.529274 0.0495155
0.372854 0.508858 0.0379034
0.436698 0.487572 0.0264134
0.501579 0.46598 0.0161746
0.566842 0.44416 0.0078584
0.632227 0.422538 0.00241093
0.69601 0.401526 0.000488289
0.757534 0.380896 0.00015259
0.81677 0.361074 0
0.868421 0.342611 0
0.906859 0.325124 0
0.93666 0.309163 0
0.962676 0.295079 0
0.981994 0.282765 0
0.993362 0.272404 0
0.998627 0.263386 0
0.999924 0.256687 0
1 0.251469 0
1 0.247791 0
0 0.750225 0.141695
0 0.747005 0.141131
0 0.743496 0.14049
0 0.737713 0.138109
0 0.730449 0.134981
0 0.722545 0.13138
0.000350958 0.714519 0.127504
0.00534066 0.703975 0.122118
0.0236362 0.692027 0.115938
0.0523995 0.679301 0.109102
0.0898299 0.665537 0.101564
0.135668 0.64947 0.092668
0.186465 0.631861 0.0827802
0.240391 0.613397 0.0723125
0.297353 0.594186 0.0612955
0.358099 0.573739 0.0496071
0.421759 0.552483 0.0373846
0.486412 0.530907 0.0255741
0.551736 0.509041 0.0146792
0.617319 0.487327 0.00561532
0.680995 0.466316 0.00189212
0.742504 0.44567 0.000595102
0.802075 0.425727 0
0.856199 0.40705 0
0.896651 0.389548 0
0.92842 0.373556 0
0.955734 0.359167 0
0.976837 0.346471 0
0.990219 0.336049 0
0.997482 0.327062 0
0.999908 0.320089 0
1 0.314687 0
1 0.310903 0
0 0.813626 0.152575
0 0.810483 0.152026
0 0.807095 0.151369
0 0.801663 0.149187
0 0.794614 0.14612
0 0.786816 0.14258
0.000122072 0.778592 0.138613
0.00140383 0.76846 0.13341
0.0155947 0.756634 0.127306
0.0407721 0.744106 0.120592
0.0765698 0.730388 0.113085
0.122164 0.714458 0.10425
0.172564 0.697017 0.0944839
0.226261 0.678569 0.0840772
0.282597 0.659373 0.073167
0.343542 0.638972 0.0614023
0.406851 0.617807 0.0491951
0.471397 0.596277 0.0370184
0.536599 0.574578 0.0251469
0.602014 0.552758 0.0140841
0.665782 0.531792 0.00701915
0.727855 0.510994 0.00248722
0.787518 0.490883 0
0.843839 0.471641 0
0.885786 0.454566 0
0.919707 0.438544 0
0.948714 0.424125 0
0.971359 0.411124 0
0.986603 0.400595 0
0.995911 0.391501 0
0.999954 0.384436 0
1 0.378698 0
1 0.374914 0
0 0.875822 0.163272
0 0.872663 0.162722
0 0.869368 0.162066
0 0.864225 0.160052
0 0.857328 0.157061
0 0.849577 0.15349
0 0.841413 0.149508
0 0.831128 0.144381
0.0105898 0.819837 0.138476
0.0313878 0.807568 0.131884
0.0632181 0.794003 0.124453
0.108827 0.778042 0.115618
0.158862 0.760769 0.105928
0.21207 0.742535 0.095613
0.26807 0.723522 0.0847791
0.328984 0.703105 0.0730297
0.392126 0.682048 0.060853
0.456458 0.660639 0.0485389
0.521523 0.639017 0.0361791
0.586954 0.617243 0.0240177
0.650919 0.595926 0.0143893
0.71313 0.575448 0.00708019
0.773129 0.555306 0.00207523
0.830304 0.535973 0.000534066
0.874174 0.518929 7.62951e-05
0.910689 0.502754 0
0.941634 0.488197 0
0.965423 0.475029 0
0.982498 0.464118 0
0.99382 0.455329 0
0.999756 0.447715 0
0.999939 0.442237 0
1 0.438483 0
0 0.926192 0.173648
0 0.923842 0.173114
0 0.921355 0.172457
0 0.917006 0.170596
0 0.911162 0.167697
0 0.904265 0.164141
0 0.896834 0.160143
0 0.887465 0.155154
0.00747692 0.877058 0.149371
0.0237125 0.865538 0.14287
0.0507057 0.85275 0.135546
0.0957809 0.837415 0.126726
0.145403 0.82063 0.117052
0.198138 0.803189 0.106844
0.254139 0.784756 0.0960098
0.314672 0.765118 0.0844129
0.377569 0.744549 0.0723278
0.442008 0.723415 0.0599527
0.50695 0.702022 0.0474556
0.572473 0.6804 0.0348821
0.636179 0.659236 0.0236667
0.698558 0.638788 0.0139773
0.759136 0.618631 0.00613413
0.816144 0.599451 0.00172427
0.862181 0.582345 0.000335698
0.901076 0.566201 1.5259e-05
0.934203 0.55111 0
0.95906 0.538094 0
0.977859 0.527199 0
0.991226 0.518349 0
0.999207 0.510552 0
0.999802 0.505058 0
1 0.50103 0
0 0.954528 0.183551
0 0.953613 0.183047
0 0.952483 0.182406
0 0.950042 0.180758
0 0.946105 0.177951
0 0.941085 0.174441
0 0.935454 0.170428
0 0.928298 0.165545
0.00486763 0.920104 0.15993
0.0172122 0.910658 0.15349
0.0402533 0.89984 0.146166
0.0835431 0.88661 0.137407
0.13228 0.872358 0.127947
0.184207 0.857114 0.117891
0.239933 0.840604 0.107118
0.300603 0.822385 0.095491
0.363607 0.803449 0.0834669
0.427558 0.783566 0.0711833
0.492424 0.762997 0.058732
0.557839 0.74165 0.0461585
0.621866 0.720607 0.0340429
0.684047 0.700465 0.0227512
0.744869 0.680476 0.0123751
0.801968 0.661555 0.00422675
0.849638 0.644602 0.00117494
0.890883 0.628519 0.000137331
0.926268 0.613443 0
0.951965 0.600504 0
0.972457 0.589517 0
0.987976 0.580468 0
0.998169 0.572442 0
0.999527 0.566842 0
0.999954 0.562737 0
0 0.968261 0.192981
0 0.96759 0.192538
0 0.966766 0.191928
0 0.965164 0.190494
0 0.96231 0.187762
0 0.958694 0.184314
0 0.954498 0.180331
0 0.949386 0.17557
0.00292973 0.943282 0.170016
0.0118257 0.936156 0.163607
0.031342 0.927703 0.156176
0.0713207 0.918044 0.147692
0.119371 0.907149 0.138323
0.171328 0.895277 0.128298
0.226734 0.882383 0.117632
0.287465 0.868009 0.105959
0.349874 0.852338 0.0939651
0.413581 0.835859 0.0817884
0.478447 0.817563 0.0693523
0.543923 0.796216 0.0568093
0.608011 0.775265 0.0445563
0.670832 0.754711 0.0326848
0.731487 0.735088 0.0215915
0.7888 0.716243 0.0118563
0.837049 0.699001 0.00601205
0.879637 0.683116 0.0021973
0.916869 0.667994 0
0.944579 0.655238 0
0.966354 0.644373 0
0.983352 0.635309 0
0.995392 0.627314 0
0.998611 0.621759 0
0.999741 0.617838 0
0 0.981353 0.201709
0 0.980697 0.201282
0 0.979919 0.200702
0 0.978775 0.199481
0 0.976745 0.196735
0 0.974304 0.193378
0 0.971344 0.189441
0 0.967971 0.184878
0.00143435 0.963821 0.179416
0.00732433 0.958755 0.172961
0.0231785 0.952926 0.165637
0.0596933 0.945968 0.157321
0.107057 0.937743 0.148089
0.158801 0.928359 0.13814
0.214481 0.917906 0.127428
0.274464 0.906569 0.115908
0.336583 0.893919 0.103975
0.40058 0.880064 0.091722
0.465354 0.86453 0.0793622
0.530861 0.84477 0.066865
0.594659 0.825269 0.0547036
0.65771 0.805798 0.0426947
0.718868 0.786816 0.0311894
0.77583 0.768154 0.020737
0.824933 0.750759 0.0123751
0.868589 0.734768 0.00578317
0.906996 0.719692 0.00122072
0.93695 0.707103 0.000595102
0.959976 0.696345 0.000259403
0.978347 0.686976 7.62951e-05
0.992004 0.679255 0
0.997391 0.673793 0
0.99939 0.669993 0
0 0.992935 0.209689
0 0.992416 0.209293
0 0.991852 0.208743
0 0.99118 0.207752
0 0.990066 0.20499
0 0.988754 0.201678
0 0.987152 0.197818
0 0.985382 0.193408
0.000442512 0.983139 0.188083
0.00360113 0.980392 0.18172
0.0163119 0.976928 0.174395
0.0489052 0.972213 0.166247
0.095613 0.965911 0.157168
0.146868 0.957946 0.147311
0.202502 0.948699 0.136629
0.262196 0.938796 0.1252
0.324163 0.9281 0.113359
0.387778 0.916625 0.101213
0.452598 0.903563 0.0888533
0.517937 0.887526 0.0764782
0.582055 0.870909 0.064271
0.645319 0.854002 0.0521859
0.706432 0.836637 0.0405127
0.763622 0.818219 0.0295872
0.813077 0.800977 0.0197604
0.857649 0.784924 0.0110475
0.897169 0.769848 0.00422675
0.929503 0.757046 0.00201419
0.953765 0.746593 0.000885023
0.973342 0.737209 0.000259403
0.988357 0.729397 0
0.995895 0.723857 0
0.998932 0.720302 0
0 0.998993 0.216861
0 0.998825 0.21648
0 0.998703 0.216083
0 0.998535 0.215305
0 0.998276 0.212543
0 0.998001 0.209293
0 0.99762 0.20557
0 0.997238 0.201297
9.15541e-05 0.996689 0.196109
