luts/varicam_official/LoCon_Warm.cube
TITLE "Generated by Resolve"
LUT_3D_SIZE 5
0.0157626 0.0155795 0.01561
0.183078 0 0
0.63032 0 0
0.990463 0 0
1 0 0
0 0.161273 0.040528
0.136446 0.106401 0.0117952
0.567376 0.00331121 0
0.975891 0 0
1 0 0
0 0.560327 0.10898
0.0547494 0.500648 0.0821241
0.466133 0.359823 0.00775158
0.925795 0.199313 0
1 0.125139 0
0 0.968261 0.192981
0.00292973 0.943282 0.170016
0.349874 0.852338 0.0939651
0.837049 0.699001 0.00601205
0.999741 0.617838 0
0 1 0.238941
0 1 0.221592
0.265873 1 0.15172
0.760967 0.982101 0.058381
0.990723 0.928496 0.0116121
0.0144503 0.0179751 0.125185
0.179126 0 0.0857252
0.624903 0 0.0104219
0.989578 0 0
1 0 0
0 0.160281 0.132082
0.13341 0.105989 0.0955978
0.561776 0.00181582 0.0132296
0.974807 0 0
1 0 0
0 0.556283 0.185046
0.0528115 0.49752 0.151888
0.461601 0.35729 0.0668193
0.92401 0.196414 0.00137331
1 0.121263 0
0 0.96791 0.257343
0.002121 0.942779 0.227909
0.345418 0.850568 0.146487
0.833631 0.696681 0.0470283
1 0.61416 0.00454719
0 1 0.292592
0 1 0.270039
0.26096 1 0.195972
0.757382 0.995544 0.0982071
0.998062 0.94049 0.0466468
0.0113985 0.0256046 0.462562
0.172595 0 0.414939
0.615763 0 0.317037
0.987823 0 0.217044
1 0 0.177127
0 0.16379 0.451423
0.127794 0.110399 0.406577
0.553307 0.000701915 0.310979
0.972229 0 0.207584
1 0 0.160845
0 0.556252 0.487511
0.0487678 0.498314 0.444846
0.453742 0.359289 0.351812
0.920302 0.197818 0.24509
1 0.121569 0.192035
0 0.970428 0.542687
0.00109865 0.945647 0.504601
0.337407 0.852003 0.415625
0.827314 0.69807 0.308125
1 0.613733 0.250202
0 1 0.562539
0 1 0.530022
0.253437 1 0.446723
0.750683 0.995804 0.340688
0.997635 0.943862 0.280995
0.00750744 0.0345312 0.856519
0.164782 0.000961318 0.81474
0.604883 0 0.721157
0.985229 0 0.623926
1 0 0.586069
0 0.168841 0.853895
0.120989 0.116762 0.813504
0.543053 0.0037995 0.720577
0.968902 0 0.618357
1 0 0.572274
0 0.558221 0.894667
0.0435492 0.501625 0.855177
0.44448 0.363516 0.764141
0.915206 0.201755 0.658351
1 0.124636 0.605142
0 0.975006 0.954238
0.000350958 0.950881 0.917662
0.327916 0.855756 0.829694
0.819409 0.70248 0.721736
1 0.616709 0.662608
0 1 0.94696
0 1 0.926024
0.243275 1 0.858503
0.741451 0.996826 0.753841
0.996689 0.950851 0.692668
0.00634775 0.0378271 0.998367
0.159365 0.00230411 0.969314
0.596017 0 0.88748
0.983398 0 0.80029
1 0 0.771435
0 0.168505 1
0.115816 0.117937 0.99292
0.534096 0.00531014 0.913375
0.966506 0 0.822492
1 0 0.78529
0 0.554467 1
0.0400397 0.49958 1
0.436286 0.363363 0.978882
0.911101 0.201343 0.88365
1 0.123308 0.839582
0 0.977005 1
1.5259e-05 0.953338 1
0.320012 0.855543 1
0.812833 0.702571 0.969833
1 0.615793 0.920089
0 1 1
0 1 1
0.234592 1 1
0.732891 0.99762 0.996658
0.995438 0.954894 0.967483
