luts/varicam_official/LoCon_Neu.cube
TITLE "Generated by Resolve"
LUT_3D_SIZE 33
0.0162356 0.0182956 0.0182956
0.022446 0.0163729 0.0170443
0.0344244 0.0127565 0.0147097
0.0496529 0.00856031 0.0117494
0.0674754 0.00471504 0.00856031
0.0878614 0.00204471 0.00546273
0.112001 0.00132753 0.00263981
0.142779 0.000732433 0.00134279
0.17673 0.000274662 0.00062562
0.214801 0 0.000213626
0.25774 0 6.10361e-05
0.305852 0 1.5259e-05
0.356695 0 0
0.411322 0 0
0.469505 0 0
0.528588 0 0
0.590234 0 0
0.652125 0 0
0.714366 0 0
0.775708 0 0
0.835889 0 0
0.892546 0 0
0.945937 0 0
0.977981 0 0
0.984192 0 0
0.990341 0 0
0.996506 0 0
0.999374 0 0
1 0 0
1 0 0
1 0 0
1 0 0
1 0 0
0.0149996 0.0258793 0.0194095
0.0208133 0.0239414 0.0182193
0.0328222 0.0202335 0.0158846
0.0480201 0.0157931 0.0129091
0.0656901 0.0113985 0.00965896
0.0859083 0.00758373 0.00631724
0.110277 0.00492866 0.00296025
0.140734 0.00274662 0.00146487
0.174563 0.000991836 0.000671397
0.212314 0 0.000274662
0.255528 0 9.15541e-05
0.303151 0 1.5259e-05
0.353857 0 0
0.408453 0 0
0.466621 0 0
0.525643 0 0
0.587472 0 0
0.649256 0 0
0.711452 0 0
0.772885 0 0
0.833295 0 0
0.89015 0 0
0.944472 0 0
0.97702 0 0
0.98349 0 0
0.989883 0 0
0.996185 0 0
0.999222 0 0
1 0 0
1 0 0
1 0 0
1 0 0
1 0 0
0.0128634 0.03888 0.0213931
0.0181582 0.037171 0.0203403
0.0303044 0.0334783 0.0180362
0.0454414 0.0288701 0.0150912
0.0630503 0.0236057 0.0116884
0.0829786 0.0180209 0.00796521
0.107408 0.0118715 0.00364691
0.137758 0.00672923 0.00177005
0.171328 0.00242618 0.000823987
0.208881 0 0.000366217
0.252003 0 0.000122072
0.29958 0 1.5259e-05
0.350195 0 0
0.404654 0 0
0.462638 0 0
0.522133 0 0
0.583383 0 0
0.645579 0 0
0.707561 0 0
0.769253 0 0
0.829114 0 0
0.886137 0 0
0.941405 0 0
0.974456 0 0
0.981872 0 0
0.988785 0 0
0.995651 0 0
0.999023 0 0
1 0 0
1 0 0
1 0 0
1 0 0
1 0 0
0.0101015 0.0558328 0.0241703
0.0149233 0.0542153 0.0231632
0.0272374 0.0502937 0.0207828
0.0423133 0.0455787 0.0178683
0.0597543 0.0401923 0.0144808
0.0796063 0.034226 0.0106966
0.104051 0.0271 0.00608835
0.134112 0.0200198 0.00337224
0.167361 0.0131228 0.00151064
0.205081 0.00729381 0.000457771
0.248142 0.00311284 0.00015259
0.29546 0.000869764 1.5259e-05
0.34583 0.000198367 0
0.400671 1.5259e-05 0
0.45832 0 0
0.517479 0 0
0.578683 0 0
0.640864 0 0
0.702876 0 0
0.764614 0 0
0.824475 0 0
0.88191 0 0
0.937148 0 0
0.970565 0 0
0.980026 0 0
0.987549 0 0
0.995041 0 0
0.998795 0 0
1 0 0
1 0 0
1 0 0
1 0 0
1 0 0
0.00727855 0.0746777 0.0272526
0.0116274 0.073106 0.0263066
0.0238956 0.0691386 0.0238651
0.0389105 0.0643778 0.0209354
0.0560922 0.0589609 0.0176394
0.0759594 0.052781 0.0138247
0.100328 0.0452735 0.00914015
0.130266 0.03682 0.00550851
0.163119 0.0279088 0.00248722
0.200809 0.0185702 0.000656138
0.24387 0.00953689 0.000244144
0.290898 0.00390631 3.0518e-05
0.341222 0.00180056 0
0.396033 0.000808728 0
0.453574 0.000289921 0
0.512718 0 0
0.573938 0 0
0.636133 0 0
0.698375 0 0
0.759747 0 0
0.820066 0 0
0.877333 0 0
0.932784 0 0
0.966476 0 0
0.977966 0 0
0.986145 0 0
0.994324 0 0
0.99855 0 0
1 0 0
1 0 0
1 0 0
1 0 0
1 0 0
0.00447089 0.0967575 0.0308537
0.00828565 0.0952468 0.0299992
0.0202182 0.0911879 0.0274815
0.0349889 0.0862745 0.0245518
0.0519417 0.0808728 0.0212863
0.0716411 0.0746624 0.0175021
0.0959793 0.0671855 0.0128328
0.12575 0.0580606 0.00831617
0.158373 0.0480049 0.00404364
0.196048 0.036347 0.00123598
0.239124 0.0239719 0.000503548
0.285847 0.0147097 9.15541e-05
0.336416 0.00914015 1.5259e-05
0.39089 0.00508125 0
0.448554 0.00202945 0
0.507439 0 0
0.568978 0 0
0.630823 0 0
0.693049 0 0
0.754406 0 0
0.814817 0 0
0.872221 0 0
0.927657 0 0
0.961975 0 0
0.975479 0 0
0.984482 0 0
0.993484 0 0
0.998291 0 0
1 0 0
1 0 0
1 0 0
1 0 0
1 0 0
0.00189212 0.123156 0.035172
0.00512703 0.121584 0.0343328
0.0161593 0.117479 0.0318456
0.030457 0.112612 0.0289311
0.0470741 0.107256 0.0256809
0.0665751 0.101167 0.0219272
0.0910353 0.0935683 0.0172427
0.120592 0.0843671 0.0119631
0.153048 0.0743572 0.00648508
0.190463 0.0628824 0.00262455
0.233936 0.049958 0.00109865
0.280034 0.0375982 0.000198367
0.330678 0.0259556 3.0518e-05
0.385183 0.0156558 0
0.442573 0.00720226 0
0.50106 0.00120546 0
0.562631 0.000793469 0
0.62446 0.000457771 0
0.6869 0.000167849 0
0.748379 0 0
0.808499 0 0
0.866636 0 0
0.921828 0 0
0.956939 0 0
0.972412 0 0
0.982498 0 0
0.992432 0 0
0.99794 0 0
1 0 0
1 0 0
1 0 0
1 0 0
1 0 0
0.000793469 0.155108 0.0404517
0.00317388 0.153674 0.0396735
0.0121004 0.149294 0.0371099
0.0252079 0.144427 0.0341955
0.041413 0.139055 0.0309758
0.0608377 0.132708 0.0272068
0.0853437 0.124804 0.022446
0.114519 0.11577 0.0169223
0.146777 0.105837 0.0108492
0.184176 0.0943618 0.00578317
0.227527 0.0809644 0.00241093
0.273335 0.0671244 0.000289921
0.324025 0.0522011 3.0518e-05
0.378393 0.0381018 0
0.435584 0.0252232 0
0.494347 0.0145418 0
0.555962 0.00959792 0
0.618158 0.00553903 0
0.68014 0.00209049 0
0.741833 0 0
0.801892 0 0
0.859953 0 0
0.91516 0 0
0.951202 0 0
0.968841 0 0
0.980133 0 0
0.991241 0 0
0.997574 0 0
1 0 0
1 0 0
1 0 0
1 0 0
1 0 0
0.000396735 0.190127 0.0462348
0.00190738 0.188693 0.0454871
0.00807202 0.184161 0.0429084
0.0197299 0.179141 0.0399634
0.0352178 0.173693 0.0367437
0.0544594 0.167559 0.0330358
0.0789502 0.159747 0.0283055
0.107958 0.150744 0.0227512
0.140246 0.140536 0.0165103
0.177768 0.128939 0.0101472
0.220539 0.115816 0.00433356
0.266438 0.101732 0.000289921
0.31696 0.086305 1.5259e-05
0.371374 0.0704204 0
0.428138 0.054551 0
0.487007 0.0395056 0
0.548394 0.0267033 0
0.610529 0.0157626 0
0.672618 0.00619516 0
0.734432 0.000274662 0
0.794369 0 0
0.852705 0 0
0.907942 0 0
0.944961 0 0
0.964721 0 0
0.977295 0 0
0.989807 0 0
0.997116 0 0
1 0 0
1 0 0
1 0 0
1 0 0
1 0 0
0.000198367 0.230838 0.0530098
0.0010071 0.22945 0.0522927
0.00454719 0.225132 0.0497597
0.0144045 0.219974 0.0467994
0.0285649 0.214527 0.0436103
0.0473182 0.208347 0.0399023
0.0717174 0.200366 0.035172
0.100557 0.191363 0.0296483
0.132677 0.181247 0.0234836
0.170169 0.169543 0.0164492
0.212665 0.156451 0.00921645
0.258305 0.142229 0.00337224
0.308888 0.126772 0.00128176
0.363241 0.11017 0.000320439
0.419821 0.0930648 0
0.478584 0.0756542 0
0.539925 0.0580301 0
0.602014 0.0420233 0
0.664485 0.0275273 0
0.72607 0.0171054 0
0.786358 0.0126192 0
0.844602 0.00889601 0
0.900099 0.00544747 0
0.937957 0.00285344 0
0.959899 0.00114443 0
0.974014 0 0
0.988037 0 0
0.996582 0 0
1 0 0
1 0 0
1 0 0
1 0 0
1 0 0
7.62951e-05 0.277089 0.0607462
0.000366217 0.275715 0.0600595
0.00180056 0.271321 0.0575265
0.00950637 0.266194 0.054612
0.0217594 0.260517 0.0514229
0.0393225 0.254246 0.0477302
0.0636606 0.246403 0.0430152
0.0921035 0.237324 0.0375982
0.124208 0.227115 0.0314641
0.161761 0.215106 0.0243381
0.204028 0.201999 0.0167086
0.24921 0.188006 0.00950637
0.300145 0.172305 0.00415045
0.354253 0.155566 0.00132753
0.410971 0.138109 0.000198367
0.469337 0.120073 0
0.53109 0.101274 0
0.592752 0.0834211 0
0.655253 0.06598 0
0.716915 0.0508583 0
0.777371 0.0390326 0
0.835752 0.0281529 0
0.891249 0.0181277 0
0.930251 0.0105745 0
0.954452 0.00526436 0
0.970321 0.0016022 0
0.986068 0.00129702 0
0.996048 0.00105287 0
1 0.000869764 0
1 0.000701915 0
1 0.000595102 0
1 0.000457771 0
1 0.000366217 0
0 0.32607 0.0689097
0 0.324422 0.0682383
1.5259e-05 0.319661 0.0657054
0.00549325 0.314595 0.0628519
0.0151522 0.309224 0.0597848
0.0308537 0.302907 0.0561227
0.0552224 0.294942 0.0514382
0.0834363 0.285374 0.0459754
0.115724 0.275105 0.0398413
0.152926 0.263447 0.0328069
0.195056 0.250294 0.0249332
0.239918 0.236332 0.0168154
0.291005 0.220233 0.00849927
0.344869 0.203342 0.00350958
0.401389 0.185977 0.000961318
0.459861 0.168048 0
0.521477 0.149187 0
0.583291 0.130282 0
0.645945 0.110704 0
0.70753 0.091722 0
0.767758 0.0733349 0
0.826566 0.0553902 0
0.882033 0.0384527 0
0.922469 0.0251316 0
0.948669 0.0151827 0
0.966339 0.0078584 0
0.983917 0.00646983 0
0.995453 0.00529488 0
1 0.0043183 0
1 0.00354009 0
1 0.00292973 0
1 0.00228885 0
1 0.00187686 0
0 0.379919 0.0780041
0 0.378363 0.0774548
0 0.373846 0.0750286
0.00332647 0.368887 0.0722515
0.00943008 0.3635 0.0691386
0.0221256 0.356847 0.0653697
0.0459449 0.34876 0.0606851
0.0736095 0.339849 0.0554208
0.105913 0.32961 0.0493477
0.14316 0.317937 0.0423133
0.185107 0.30454 0.0343328
0.22945 0.290501 0.0260166
0.280568 0.274647 0.0169528
0.334432 0.25803 0.00973526
0.390814 0.240711 0.00392157
0.449317 0.222721 0
0.510781 0.203342 0
0.572885 0.184298 0
0.635111 0.165179 0
0.697047 0.146136 0
0.75729 0.127626 0
0.816281 0.109483 0
0.87158 0.0920424 0
0.913268 0.0771801 0
0.941787 0.0645457 0
0.961639 0.0536965 0
0.981262 0.0472572 0
0.99472 0.0415045 0
1 0.0364233 0
1 0.0325322 0
1 0.0298619 0
1 0.0278477 0
1 0.0268406 0
0 0.438056 0.087953
0 0.436637 0.0874647
0 0.432135 0.0850843
0.00178531 0.426688 0.0822309
0.00521859 0.421164 0.0790875
0.0151827 0.414771 0.075349
0.0369726 0.406821 0.0707103
0.0634623 0.398001 0.065507
0.0957198 0.387243 0.0593729
0.133043 0.375402 0.0522927
0.174411 0.362402 0.044419
0.21883 0.348409 0.0359655
0.269764 0.332647 0.0265354
0.323735 0.315816 0.0177768
0.379797 0.298161 0.0096437
0.438392 0.28011 0.00320439
0.499733 0.261082 0.00140383
0.561791 0.242008 0.000320439
0.624018 0.222736 0
0.685924 0.203586 0
0.746212 0.184741 0
0.805417 0.166491 0
0.8607 0.149355 0
0.90367 0.133623 0
0.934478 0.119112 0
0.956497 0.105516 0
0.977951 0.0955215 0
0.993149 0.0865949 0
0.999405 0.0789349 0
0.999847 0.0728466 0
1 0.0684062 0
1 0.064622 0
1 0.0629435 0
0 0.49836 0.0983139
0 0.497032 0.0978561
0 0.492531 0.095491
0.000701915 0.487282 0.0926833
0.00209049 0.481621 0.0895247
0.00965896 0.47509 0.0857557
0.0285344 0.466987 0.0811322
0.053193 0.458152 0.0759594
0.085008 0.447654 0.0698711
0.12224 0.435691 0.0628061
0.163333 0.422644 0.0549477
0.207553 0.408759 0.0464942
0.258595 0.39263 0.0368505
0.312474 0.375769 0.0271763
0.368414 0.358282 0.0175326
0.427039 0.340093 0.00895705
0.488212 0.321263 0.00401312
0.550286 0.301854 0.000885023
0.612818 0.282429 0
0.674403 0.26331 0
0.735012 0.244602 0
0.794186 0.2262 0
0.849683 0.209064 0
0.893736 0.192706 0
0.926741 0.177356 0
0.950927 0.162951 0
0.973678 0.151308 0
0.9906 0.140749 0
0.998154 0.131762 0
0.999496 0.124331 0
1 0.118898 0
1 0.114443 0
1 0.112413 0
0 0.560708 0.109041
0 0.559258 0.108537
0 0.554849 0.106233
0 0.549844 0.103502
0 0.543755 0.100267
0.00537118 0.536995 0.0964523
0.0207218 0.529198 0.0919203
0.0424659 0.520439 0.0868086
0.0738537 0.51014 0.0807507
0.111116 0.497795 0.0736095
0.15201 0.484596 0.0657664
0.195926 0.470726 0.0573739
0.247196 0.454765 0.0477302
0.300816 0.438148 0.037644
0.35697 0.420584 0.0270695
0.415274 0.401999 0.0168154
0.476555 0.383093 0.00831617
0.538201 0.364126 0.00254826
0.600702 0.344884 0.000534066
0.662394 0.325872 0.00015259
0.723278 0.307027 0
0.782773 0.288014 0
0.837995 0.270832 0
0.88333 0.254704 0
0.918608 0.239368 0
0.944976 0.225223 0
0.968551 0.213535 0
0.98706 0.202335 0
0.99617 0.19324 0
0.998901 0.186053 0
1 0.180514 0
1 0.176135 0
1 0.173892 0
0 0.62623 0.120363
0 0.624475 0.119799
0 0.619883 0.117464
0 0.614908 0.114733
0 0.609155 0.111604
0.00369268 0.602426 0.107836
0.0143282 0.594705 0.103334
0.0315099 0.585748 0.0982071
0.0625772 0.575341 0.0920424
0.0993973 0.563546 0.0850538
0.1402 0.550469 0.0772717
0.184009 0.536507 0.068925
0.235218 0.520562 0.0592203
0.288518 0.5037 0.0491035
0.344579 0.48632 0.0385443
0.403021 0.468132 0.027924
0.464225 0.448844 0.0177462
0.525856 0.429801 0.0093843
0.588418 0.410498 0.0039826
0.65008 0.391165 0.00108339
0.710781 0.372351 0
0.770352 0.35375 0
0.825772 0.33637 0
0.872648 0.320043 0
0.909895 0.304417 0
0.938598 0.290181 0
0.962737 0.278294 0
0.982452 0.267384 0
0.993317 0.258198 0
0.997971 0.250813 0
1 0.244846 0
1 0.240375 0
1 0.238392 0
0 0.691783 0.131655
0 0.689967 0.13106
0 0.685786 0.128817
0 0.680888 0.126116
0 0.675074 0.122988
0.00227359 0.66804 0.119203
0.00892653 0.66038 0.114748
0.0212863 0.651881 0.109758
0.0513924 0.641428 0.103548
0.0877852 0.629648 0.0965438
0.128222 0.616648 0.088838
0.171786 0.602426 0.0805219
0.222965 0.586465 0.0707866
0.276188 0.56994 0.0607004
0.332158 0.55259 0.0501411
0.390448 0.534432 0.0392615
0.451591 0.514778 0.0280156
0.513481 0.495628 0.0177157
0.575753 0.476402 0.00952163
0.637797 0.457237 0.00396735
0.698451 0.438468 0.00108339
0.758465 0.419821 3.0518e-05
0.813519 0.402136 0
0.861692 0.385733 0
0.901015 0.370398 0
0.931914 0.356176 0
0.956649 0.344167 0
0.977417 0.333074 0
0.990158 0.323537 0
0.996841 0.316121 0
1 0.310369 0
1 0.305913 0
1 0.303838 0
0 0.757916 0.143008
0 0.756237 0.142412
0 0.752194 0.140261
0 0.74699 0.137514
0 0.741176 0.134386
0.00102235 0.734462 0.130678
0.00428778 0.726848 0.126268
0.0121157 0.71841 0.121324
0.04094 0.707622 0.115038
0.0765698 0.69575 0.108019
0.116228 0.682826 0.100389
0.15996 0.66894 0.0921187
0.210758 0.653101 0.082475
0.263996 0.636545 0.0724041
0.319753 0.61883 0.061799
0.378408 0.600488 0.0506905
0.439002 0.581521 0.0392157
0.500862 0.562387 0.0279545
0.563119 0.54316 0.017792
0.625132 0.52401 0.00972
0.685893 0.504845 0.00404364
0.74609 0.486 0.000183108
0.80116 0.468727 3.0518e-05
0.850553 0.452293 0
0.891814 0.436957 0
0.924849 0.422812 0
0.950713 0.410269 0
0.972244 0.399008 0
0.986877 0.389761 0
0.995605 0.382452 0
1 0.376593 0
1 0.371832 0
1 0.369696 0
0 0.823545 0.154269
0 0.821729 0.153643
0 0.817823 0.151568
0 0.812848 0.148867
0 0.807095 0.145754
0.000183108 0.800458 0.142046
0.00120546 0.792599 0.137652
0.00544747 0.784192 0.132753
0.0318608 0.773693 0.126513
0.0655985 0.761822 0.119509
0.104265 0.748989 0.111925
0.148074 0.735195 0.10367
0.198703 0.719097 0.0940566
0.251682 0.702541 0.0840162
0.307347 0.685054 0.0734417
0.366079 0.666682 0.0623026
0.426505 0.64802 0.0508888
0.488319 0.628931 0.0393072
0.550607 0.6094 0.0279698
0.612558 0.590204 0.0178836
0.673579 0.571191 0.00933852
0.733593 0.5523 0.002121
0.789059 0.535103 0.000991836
0.839307 0.518425 0.000289921
0.882536 0.503029 0
0.917418 0.488975 0
0.944488 0.476539 0
0.966873 0.465141 0
0.983307 0.456001 0
0.994079 0.448432 0
0.999832 0.442496 0
0.999954 0.438071 0
1 0.435798 0
0 0.886748 0.165286
0 0.885267 0.164691
0 0.881575 0.162707
0 0.876432 0.159976
0 0.870619 0.156802
0 0.864225 0.153094
0.000381476 0.856855 0.148836
0.00248722 0.848676 0.14406
0.0249027 0.837949 0.137789
0.0554513 0.82623 0.1308
0.0926375 0.813428 0.123217
0.136355 0.799756 0.114977
0.186587 0.784146 0.105455
0.239582 0.767376 0.0953689
0.295445 0.74992 0.0847944
0.353735 0.731624 0.0737469
0.414313 0.712963 0.0623026
0.475776 0.694026 0.0506905
0.538293 0.674754 0.0389105
0.600137 0.655467 0.0277409
0.661402 0.636271 0.0173495
0.721401 0.617441 0.00788891
0.776745 0.600305 0.00393683
0.827848 0.583917 0.00120546
0.872709 0.56846 0
0.909468 0.554345 0
0.937911 0.541588 0
0.961349 0.530022 0
0.979385 0.521019 0
0.99202 0.513741 0
0.999268 0.507759 0
0.999847 0.503334 0
0.999969 0.500465 0
0 0.93727 0.176028
0 0.936294 0.175433
0 0.933104 0.173465
0 0.929015 0.170794
0 0.924315 0.167681
0 0.918685 0.163973
0.000198367 0.912123 0.159716
0.00125124 0.90454 0.154986
0.0193179 0.894804 0.148714
0.0458381 0.884153 0.141848
0.0812543 0.87245 0.13431
0.125017 0.859571 0.12604
0.17525 0.844648 0.116472
0.227573 0.828763 0.106493
0.283436 0.812085 0.095964
0.341833 0.794598 0.0849775
0.402304 0.77641 0.073579
0.463752 0.757595 0.0619364
0.526284 0.73843 0.0501106
0.588006 0.719142 0.0384985
0.649058 0.700328 0.0272221
0.708904 0.681941 0.0163729
0.764675 0.664805 0.00860609
0.816846 0.648173 0.00267033
0.862684 0.63241 1.5259e-05
0.901091 0.618311 0
0.931197 0.605722 0
0.955642 0.594385 0
0.975067 0.585443 0
0.989471 0.577966 0
0.99826 0.571328 0
0.999573 0.566903 0
0.999908 0.564584 0
0 0.958572 0.186084
0 0.95787 0.185504
0 0.955688 0.183673
0 0.952544 0.181033
0 0.948852 0.177905
0 0.944396 0.174212
6.10361e-05 0.939284 0.170001
0.000381476 0.933639 0.165377
0.0141146 0.925841 0.15906
0.0368811 0.917372 0.152209
0.0703593 0.90808 0.144701
0.114092 0.897688 0.1364
0.164019 0.885832 0.12694
0.21622 0.873396 0.117082
0.272053 0.859861 0.106523
0.330343 0.845426 0.0955062
0.390692 0.830106 0.084123
0.452445 0.813596 0.0724193
0.514672 0.794965 0.0606699
0.576761 0.775814 0.0489662
0.637675 0.756985 0.0374914
0.697734 0.738552 0.0262455
0.753307 0.721248 0.0168917
0.805875 0.704692 0.00894179
0.852064 0.689326 0.00373846
0.891173 0.675242 0.00117494
0.923156 0.662516 1.5259e-05
0.949783 0.651133 0
0.970092 0.642008 0
0.985382 0.634638 0
0.995697 0.628443 0
0.998871 0.624109 0
0.999756 0.62179 0
0 0.972244 0.19559
0 0.971679 0.194995
0 0.97023 0.193271
0 0.967971 0.190616
0 0.965393 0.187533
0 0.962341 0.183932
0 0.958816 0.179751
0 0.95494 0.175128
0.00947585 0.949462 0.168826
0.0284581 0.943358 0.161975
0.0600443 0.936629 0.154482
0.10399 0.928985 0.146181
0.153338 0.920058 0.136873
0.205615 0.910445 0.127031
0.261219 0.899825 0.116472
0.319799 0.888426 0.105394
0.379721 0.876173 0.0940719
0.441382 0.862882 0.0824445
0.503609 0.845548 0.0707408
0.565713 0.827375 0.0590677
0.626734 0.809201 0.0475471
0.686824 0.791562 0.0362707
0.742443 0.774563 0.0261845
0.795346 0.758083 0.0168765
0.841566 0.742824 0.00929274
0.88101 0.728786 0.00387579
0.915053 0.715724 0.000946059
0.943862 0.704402 0.000396735
0.964935 0.695506 0.00015259
0.98085 0.688197 6.10361e-05
0.992599 0.682124 0
0.99794 0.677623 0
0.999557 0.675319 0
0 0.985855 0.204532
0 0.985382 0.203906
0 0.984558 0.202243
0 0.983368 0.19971
0 0.981933 0.196674
0 0.980194 0.193057
0 0.978073 0.188876
0 0.97583 0.184207
0.00535592 0.972808 0.177996
0.0205386 0.969207 0.171252
0.0501717 0.964736 0.163821
0.0942397 0.959075 0.155489
0.143313 0.951659 0.146197
0.195239 0.943618 0.136385
0.250813 0.934951 0.125917
0.309453 0.925505 0.114855
0.369345 0.915343 0.103578
0.430945 0.90428 0.0919356
0.493217 0.889265 0.0802167
0.555215 0.873747 0.0686046
0.616388 0.858244 0.0571145
0.676204 0.84271 0.0458381
0.732372 0.825956 0.0352331
0.785428 0.809339 0.0251011
0.83183 0.794018 0.0159762
0.871351 0.780133 0.00857557
0.906996 0.767437 0.00369268
0.937881 0.756191 0.00158694
0.959731 0.747204 0.000656138
0.97644 0.739544 0.000228885
0.989441 0.73344 0
0.996902 0.729168 0
0.999329 0.726909 0
0 0.999374 0.213046
0 0.999161 0.212467
0 0.998871 0.210834
0 0.998596 0.208331
0 0.998199 0.205249
0 0.997818 0.201663
0 0.997345 0.197574
0 0.996719 0.192874
0.00161746 0.996063 0.186725
0.0131075 0.99469 0.179995
0.0409552 0.992065 0.172564
0.0848554 0.9879 0.164279
0.133516 0.981125 0.155032
0.185458 0.972992 0.145159
0.241199 0.964263 0.134661
0.299489 0.955139 0.12372
0.359869 0.94548 0.112352
0.42089 0.935775 0.100862
0.483406 0.924743 0.0891127
0.545296 0.913542 0.0774853
0.606592 0.902174 0.0659342
0.666148 0.89015 0.054612
0.722438 0.874678 0.044007
0.775891 0.858412 0.0338445
0.822522 0.842878 0.0245212
0.862531 0.828763 0.0163577
0.899474 0.815991 0.00944533
0.932158 0.804547 0.00416571
0.954742 0.795727 0.00175479
0.97232 0.788327 0.000595102
0.986435 0.782116 0
0.99588 0.777523 0
0.999115 0.775219 0
0 0.999969 0.219669
0 0.999924 0.219135
0 0.999863 0.217594
0 0.999802 0.215106
0 0.999725 0.21207
0 0.999649 0.208545
0 0.999557 0.204501
0 0.99942 0.199832
0.000686656 0.999268 0.193652
0.0100862 0.998734 0.187015
0.035996 0.997497 0.179614
0.0778515 0.995224 0.171389
0.125765 0.991318 0.162219
0.177234 0.986374 0.152438
0.23299 0.980987 0.141924
0.291157 0.975128 0.131014
0.351171 0.968719 0.119768
0.412451 0.961776 0.108293
0.474937 0.952407 0.0965744
0.536721 0.942443 0.0849165
0.597955 0.932418 0.0733654
0.657649 0.922148 0.0621042
0.714092 0.909346 0.0514839
0.768185 0.895644 0.0412451
0.814435 0.882445 0.0319524
0.854719 0.869596 0.0234989
0.892348 0.857481 0.0158999
0.926482 0.846265 0.00943008
0.949828 0.837552 0.00581369
0.968322 0.830152 0.00344854
0.983337 0.82385 0.0018616
0.994034 0.819577 0.00115969
0.998291 0.817121 0.000808728
0 1 0.225681
0 1 0.225177
0 1 0.223743
0 1 0.221302
0 1 0.21828
0 1 0.214771
0 1 0.210773
0 1 0.206134
0.000198367 1 0.200092
