luts/varicam_official/LoCon_Neu.cube
TITLE "Generated by Resolve"
LUT_3D_SIZE 5
0.0162356 0.0182956 0.0182956
0.17673 0.000274662 0.00062562
0.590234 0 0
0.984192 0 0
1 0 0
0.000396735 0.190127 0.0462348
0.140246 0.140536 0.0165103
0.548394 0.0267033 0
0.964721 0 0
1 0 0
0 0.62623 0.120363
0.0625772 0.575341 0.0920424
0.464225 0.448844 0.0177462
0.909895 0.304417 0
1 0.238392 0
0 0.985855 0.204532
0.00535592 0.972808 0.177996
0.369345 0.915343 0.103578
0.83183 0.794018 0.0159762
0.999329 0.726909 0
0 1 0.241337
0 1 0.217273
0.318105 1 0.145174
0.783307 0.997574 0.0576181
0.991272 0.962768 0.016556
0.0146944 0.0212253 0.161089
0.173419 0.000320439 0.127398
0.585412 0 0.0471962
0.982956 0 0
1 0 0
0.00030518 0.190799 0.181506
0.137407 0.142123 0.149737
0.544259 0.0281529 0.0700999
0.963378 0 0.00181582
1 0 0
0 0.625162 0.249958
0.0600443 0.575082 0.218799
0.46006 0.449195 0.139925
0.907851 0.30428 0.0495155
1 0.237186 0.0174258
0 0.985763 0.328069
0.00480659 0.972442 0.298772
0.365286 0.930434 0.221256
0.828901 0.798093 0.130037
1 0.72929 0.0865492
0 1 0.358877
0 1 0.331609
0.313451 1 0.256565
0.779904 0.999832 0.165606
0.998871 0.974426 0.121065
0.0112917 0.029221 0.524468
0.167941 0.000579843 0.489113
0.5785 0 0.406378
0.980545 0 0.315312
1 0 0.275425
0.000167849 0.196887 0.540993
0.132555 0.148714 0.506569
0.537423 0.0329442 0.424445
0.960403 0 0.33196
1 0 0.289647
0 0.629252 0.603021
0.0554055 0.579629 0.569589
0.453941 0.454414 0.487846
0.904219 0.308782 0.394202
1 0.241367 0.349538
0 0.987137 0.67538
0.00373846 0.973632 0.643473
0.358984 0.932128 0.563699
0.823575 0.803433 0.469825
1 0.733974 0.423224
0 1 0.701045
0 1 0.671656
0.307271 1 0.594217
0.773983 0.999985 0.500359
0.99855 0.981582 0.452735
0.00759899 0.0373236 0.894423
0.162371 0.00213626 0.861418
0.571756 0 0.781018
0.977737 0 0.692012
1 0 0.653696
7.62951e-05 0.203357 0.914733
0.127413 0.155779 0.882887
0.530617 0.0386206 0.803388
0.957321 0 0.712795
1 0 0.672053
0 0.634195 0.975219
0.0506752 0.58471 0.949081
0.447333 0.460182 0.871672
0.899977 0.315038 0.779965
1 0.246281 0.736355
0 0.989013 0.999268
0.00277714 0.975357 0.996399
0.352377 0.932845 0.951904
0.818189 0.809766 0.859037
0.999985 0.73959 0.813474
0 1 0.994705
0 1 0.990326
0.299992 1 0.975906
0.76759 1 0.89099
0.996597 0.98996 0.843656
0.00669871 0.0395209 0.998749
0.15938 0.00289921 0.970352
0.567208 0 0.894347
0.976486 0 0.808881
1 0 0.774044
4.57771e-05 0.203876 1
0.124804 0.156893 0.996551
0.526619 0.0397345 0.92401
0.955856 0 0.83714
1 0 0.799802
0 0.632883 1
0.0481117 0.584588 1
0.443198 0.460136 0.993454
0.897734 0.314931 0.910948
1 0.24593 0.870787
0 0.989364 1
0.00241093 0.975616 1
0.348348 0.931517 1
0.814771 0.810742 0.995605
0.999969 0.73991 0.95668
0 1 1
0 1 1
0.295399 1 1
0.763699 1 1
0.995361 0.992554 0.998215
