luts/varicam_official/LoCon Cool 33 E-E.cube
TITLE "Generated by Resolve"
LUT_3D_SIZE 9
0.0156252 0.0156252 0.0156252
0.0386969 0.00872816 0.0112459
0.108171 0 0.0012665
0.232029 0 0
0.411414 0 0
0.629084 0 0
0.851637 0 0
0.983886 0 0
0.999939 0 0
0.0116121 0.0399634 0.0196384
0.0336309 0.0333562 0.0156405
0.102831 0.0138705 0.00288396
0.22594 0.000213626 0
0.40531 0 0
0.623514 0 0
0.846265 0 0
0.981491 0 0
1 0 0
0.00169375 0.114809 0.032578
0.020798 0.108507 0.0285954
0.0885176 0.087953 0.0158846
0.210605 0.0510109 0.00115969
0.389761 0.0121767 0
0.607217 0 0
0.830716 0 0
0.973266 0 0
1 0 0
0 0.248173 0.0554665
0.00482185 0.242557 0.0517586
0.0647135 0.222217 0.0392615
0.18529 0.185611 0.0166781
0.363333 0.131853 0.000518807
0.580392 0.0681163 0
0.80473 0.0228733 0
0.958053 0.00218204 0
1 0 0
0 0.443427 0.0888838
0.00030518 0.438865 0.0856947
0.0322728 0.419043 0.0732738
0.149737 0.382818 0.0509957
0.326497 0.329229 0.0191348
0.543435 0.263844 0.000808728
0.768154 0.195346 0
0.934585 0.1364 0
0.998947 0.0972152 0
0 0.681437 0.12987
0 0.677012 0.126757
0.00761425 0.65771 0.114733
0.107027 0.62211 0.092668
0.282429 0.569406 0.0597391
0.498833 0.503731 0.0205692
0.724346 0.435752 0.000686656
0.904677 0.375662 0
0.988357 0.333883 0
0 0.916838 0.17174
0 0.914015 0.168963
9.15541e-05 0.897078 0.157153
0.0635996 0.864683 0.135683
0.236988 0.81471 0.102998
0.452857 0.751492 0.0625925
0.678737 0.683757 0.0209659
0.870375 0.624018 3.0518e-05
0.973175 0.582071 0
0 0.990967 0.207813
0 0.990692 0.20528
0 0.988067 0.193851
0.0250248 0.98204 0.172656
0.196735 0.960204 0.140276
0.412558 0.926482 0.0999161
0.638865 0.881865 0.0575875
0.832807 0.826185 0.0204776
0.953964 0.78407 0.0016022
0 1 0.231769
0 1 0.22945
0 1 0.218173
0.00982681 1 0.197452
0.167941 1 0.16556
0.383413 0.99823 0.125338
0.610025 0.982635 0.0829175
0.805737 0.95523 0.0454871
0.935683 0.924392 0.0193027
0.0153201 0.0160678 0.0420386
0.0376898 0.00950637 0.0376593
0.106767 0 0.0243687
0.229709 0 0.00660716
0.408728 0 0
0.626017 0 0
0.848997 0 0
0.98352 0 0
0.999924 0 0
0.011429 0.0399481 0.0451972
0.0329137 0.0333104 0.0410163
0.101503 0.0141451 0.0280156
0.223804 6.10361e-05 0.00917067
0.402762 0 4.57771e-05
0.620706 0 0
0.843595 0 0
0.981186 0 0
1 0 0
0.00170901 0.114229 0.0568093
0.0203555 0.10808 0.0530251
0.0874189 0.0876631 0.0401617
0.208667 0.0510872 0.018143
0.387259 0.0124666 0.0021973
0.604456 0 0
0.828092 0 0
0.97293 0 0
1 0 0
0 0.246693 0.0782483
0.00466926 0.24123 0.0747692
0.0637522 0.221088 0.0621195
0.183642 0.184878 0.0393835
0.361288 0.131289 0.0104677
0.578302 0.0675822 0.000335698
0.802533 0.0225071 0
0.957595 0.00225834 0
1 0 0
0 0.441718 0.110307
0.000274662 0.437171 0.107134
0.0315557 0.417456 0.0947738
0.148348 0.381399 0.0722667
0.324575 0.328267 0.0392004
0.541253 0.262699 0.00743114
0.766079 0.194461 0.000106813
0.933913 0.135424 0
0.999908 0.0957656 0
0 0.679225 0.149584
0 0.674998 0.146761
0.00743114 0.655833 0.134615
0.105653 0.621195 0.112657
0.280735 0.568093 0.079469
0.497032 0.50248 0.0387579
0.722576 0.434272 0.00541695
0.90367 0.374243 0
0.999008 0.33225 0
0 0.915908 0.190036
0 0.91313 0.187488
6.10361e-05 0.896284 0.175723
0.0623178 0.863905 0.154009
0.23505 0.813489 0.12134
0.450996 0.750179 0.080766
0.677134 0.682353 0.0381933
0.8692 0.622599 0.00593576
0.993271 0.580514 0
0 0.990677 0.224643
0 0.990311 0.222477
0 0.987488 0.211093
0.0240787 0.981888 0.190036
0.195071 0.971466 0.157702
0.410803 0.951873 0.117189
0.637079 0.891112 0.0745556
0.831495 0.831495 0.0371557
0.967544 0.789029 0.0126802
0 1 0.247654
0 1 0.24567
0 1 0.234562
0.00865187 1 0.213916
0.16614 1 0.18204
0.381598 0.999634 0.141649
0.607996 0.995697 0.0993515
0.804227 0.969467 0.0617227
0.944549 0.934173 0.0352331
0.0145113 0.017792 0.118151
0.0362097 0.0114137 0.113436
0.104707 0.000274662 0.0997635
0.226902 0 0.0758679
0.404761 0 0.042298
0.621942 0 0.0118868
0.845151 0 0.000915541
0.982666 0 0
0.999878 0 0
0.0107424 0.0408179 0.120226
0.0317388 0.0345922 0.115984
0.0997482 0.0154421 0.102617
0.221363 0 0.0789502
0.399451 0 0.0453193
0.617044 0 0.0129397
0.840223 0 0.00155642
0.980514 0 0
1 0 0
0.0016022 0.114611 0.130144
0.0192721 0.108659 0.126467
0.0858778 0.0883345 0.113237
0.20618 0.0521401 0.0901656
0.384024 0.0131533 0.0561379
0.601389 0 0.018677
0.825101 0 0.00358587
0.972152 0 0
1 0 0
0 0.24622 0.14995
0.00424201 0.240848 0.146471
0.0623178 0.221073 0.133913
0.181582 0.184848 0.110811
0.358297 0.131624 0.0768902
0.575479 0.0679026 0.0362249
0.799695 0.0224765 0.00675975
0.956573 0.00250248 0.000854505
1 0 0
0 0.440635 0.180468
0.000213626 0.435981 0.17734
0.0303197 0.416709 0.16492
0.146166 0.380911 0.14226
0.32192 0.327825 0.108644
0.538354 0.262364 0.0670634
0.763394 0.194018 0.0247501
0.93283 0.13489 0.00248722
1 0.0951247 0.000213626
0 0.677791 0.218036
0 0.673716 0.215091
0.00709544 0.654673 0.202976
0.103746 0.620249 0.180774
0.278248 0.567346 0.147478
0.49424 0.501991 0.106538
0.719921 0.433539 0.0637675
0.902113 0.373373 0.0273136
1 0.331441 0.00663767
0 0.915373 0.256718
0 0.912795 0.254154
3.0518e-05 0.896025 0.242618
0.0609445 0.8636 0.221302
0.232975 0.813657 0.189075
0.448234 0.750256 0.148547
0.674601 0.682139 0.105928
0.867079 0.62208 0.0682841
0.995819 0.579355 0.0420539
0 0.990326 0.290089
0 0.989944 0.288472
0 0.987015 0.277607
0.0224765 0.981247 0.256886
0.192493 0.972076 0.22475
0.408042 0.955627 0.184466
0.634104 0.89276 0.141833
0.82945 0.832929 0.104158
0.969772 0.790082 0.0773785
0 1 0.312383
0 1 0.311254
0 1 0.300496
0.00753796 1 0.280369
0.163622 1 0.248417
0.378485 1 0.208209
0.605234 0.999802 0.165591
0.802121 0.97464 0.127581
0.946365 0.938277 0.100938
0.0131533 0.0210117 0.256931
0.0343175 0.0146944 0.251987
0.102022 0.00137331 0.237598
0.222889 0 0.213367
0.400504 0 0.17821
0.617319 0 0.135927
0.840879 0 0.0921645
0.981521 0 0.055787
0.999832 0 0.0312505
0.00973526 0.0431983 0.257115
0.0298619 0.0371252 0.253239
0.0971237 0.0180667 0.239384
0.2177 0 0.215274
0.395499 0 0.180529
0.612696 0 0.138277
0.836042 0 0.0946822
0.979309 0 0.0572976
1 0 0.0311589
0.00125124 0.116045 0.26566
0.0177615 0.110552 0.261845
0.0835584 0.0903639 0.2486
0.202914 0.0543679 0.224979
0.380392 0.0144656 0.190707
0.596994 0 0.14876
0.821225 0 0.105257
0.970855 0 0.0673533
1 0 0.0409857
0 0.246677 0.283421
0.00349432 0.24184 0.280446
0.0602121 0.222065 0.267628
0.178454 0.186389 0.244633
0.354726 0.133349 0.210712
0.571496 0.069398 0.168902
0.795895 0.0229343 0.12546
0.95523 0.00299077 0.08748
1 0 0.0608225
0 0.440452 0.312184
0.00015259 0.436286 0.309438
0.0287175 0.416907 0.297398
0.143557 0.381552 0.274769
0.318685 0.328542 0.241138
0.534524 0.26331 0.19968
0.759762 0.19501 0.156252
0.93109 0.135531 0.118318
1 0.0959182 0.091783
0 0.677485 0.348165
0 0.673594 0.346075
0.0065156 0.654658 0.334264
0.101167 0.620447 0.312551
0.274968 0.567697 0.279561
0.490669 0.50251 0.238361
0.716533 0.434348 0.195468
0.900191 0.373938 0.157427
1 0.331594 0.130373
0 0.91577 0.385885
0 0.913497 0.384405
0 0.896773 0.373449
0.0585489 0.864424 0.352056
0.229572 0.814588 0.319554
0.44477 0.751019 0.278828
0.670893 0.682857 0.235721
0.864591 0.622583 0.19762
0.994919 0.579629 0.170459
0 0.990234 0.418509
0 0.989837 0.417472
0 0.986709 0.406577
0.0205539 0.980545 0.385809
0.189273 0.970977 0.35375
0.404196 0.955718 0.312932
0.630625 0.893965 0.270115
0.82681 0.833677 0.231739
0.967987 0.790814 0.204517
0 1 0.439185
0 1 0.438483
0 1 0.427756
0.00650034 1 0.407614
0.160098 1 0.375647
0.374731 1 0.335164
0.601572 1 0.292271
0.79913 0.976211 0.25391
0.943954 0.94052 0.22649
0.0115206 0.0253147 0.450523
0.031693 0.0193484 0.445441
0.0986496 0.00321965 0.43122
0.218662 0 0.406867
0.39501 0 0.371603
0.612055 0 0.328374
0.835615 0 0.284474
0.979995 0 0.24567
0.999756 0 0.218952
0.00802625 0.0467689 0.450309
0.0274968 0.0407874 0.446235
0.0940871 0.0216373 0.432547
0.213703 0.000457771 0.408728
0.390631 0 0.373724
0.607385 0 0.331228
0.831189 0 0.287343
0.977768 0 0.24889
0.999924 0 0.222126
0.000549325 0.119097 0.458015
0.0158389 0.113497 0.45452
0.080705 0.0935531 0.441413
0.199115 0.0580301 0.417914
0.375845 0.0163272 0.38349
0.592035 6.10361e-05 0.341588
0.816449 0 0.297749
0.969207 0 0.259129
1 0 0.232227
0 0.248569 0.475013
0.002533 0.244038 0.472358
0.0575723 0.224384 0.45951
0.174975 0.189014 0.436698
0.350393 0.136095 0.402869
0.566766 0.0721141 0.360693
0.791272 0.0236057 0.316945
0.953307 0.00367742 0.278767
1 0 0.251606
0 0.441428 0.502846
9.15541e-05 0.437491 0.500603
0.0264591 0.418631 0.488609
0.140398 0.383215 0.465995
0.314626 0.330709 0.432425
0.530312 0.265309 0.390646
0.75555 0.197086 0.347265
0.92903 0.137331 0.308904
1 0.0975204 0.281773
0 0.678019 0.537896
0 0.674708 0.536324
0.00570687 0.656489 0.524697
0.0980545 0.621668 0.502953
0.271015 0.569467 0.469749
0.486366 0.504341 0.428336
0.712306 0.436133 0.385
0.897459 0.375586 0.346502
1 0.332815 0.319112
0 0.917678 0.574899
0 0.915557 0.573587
0 0.898924 0.562387
0.0556344 0.866697 0.541314
0.225589 0.816831 0.508675
0.440421 0.753048 0.467582
0.66659 0.685023 0.424323
0.861524 0.624262 0.385657
0.993591 0.581033 0.3579
0 0.990494 0.605997
0 0.990036 0.605081
0 0.986725 0.594324
0.018616 0.980301 0.573678
0.185245 0.970184 0.541512
0.400153 0.95668 0.500542
0.626535 0.89659 0.457252
0.823529 0.836057 0.418631
0.965621 0.792752 0.390921
0 1 0.625528
0 1 0.624765
0 1 0.614389
0.00543221 1 0.594202
0.156268 1 0.562158
0.370565 1 0.521538
0.597055 1 0.478523
0.795621 0.978729 0.439628
0.941054 0.943633 0.412131
0.00944533 0.0302281 0.664988
0.0287785 0.0244907 0.660136
0.0951858 0.00546273 0.645975
0.213916 0 0.621851
0.389715 0 0.58706
0.606104 0 0.544121
0.830213 0 0.499886
0.978088 0 0.461479
0.999664 0 0.434287
0.00608835 0.0507362 0.664836
0.0247654 0.0451362 0.661143
0.0909285 0.025391 0.647623
0.20911 0.00276188 0.624002
0.385473 0 0.589349
0.601816 0 0.546822
0.825849 0 0.502892
0.975952 0 0.464561
0.999832 0 0.437385
0 0.122423 0.672724
0.0138857 0.117067 0.669535
0.0775006 0.097322 0.656504
0.19498 0.0621042 0.633234
0.370825 0.0187381 0.5991
0.587045 0.000457771 0.556878
0.811505 0 0.513344
0.967346 0 0.474907
1 0 0.447608
0 0.250858 0.689723
0.00173953 0.246494 0.687053
0.0546883 0.227176 0.674876
0.171176 0.191867 0.651881
0.345892 0.139376 0.618082
0.561761 0.0755474 0.576349
0.786526 0.024979 0.532692
0.951354 0.00451667 0.494087
1 0 0.466835
0 0.443091 0.717617
3.0518e-05 0.439292 0.715602
0.0241398 0.420584 0.703365
0.136751 0.385428 0.681193
0.310292 0.333181 0.647898
0.525399 0.268208 0.60621
0.750866 0.199908 0.562478
0.926574 0.139605 0.524102
1 0.099382 0.496544
0 0.679225 0.75288
0 0.676081 0.751247
0.00489815 0.657984 0.73962
0.0945602 0.623758 0.718013
0.266743 0.571511 0.68481
0.481544 0.507149 0.643763
0.707637 0.4383 0.59997
0.894713 0.377462 0.561166
1 0.334661 0.533776
0 0.91986 0.789487
0 0.917815 0.78819
0 0.901488 0.77731
0.0524147 0.869642 0.756146
0.221424 0.819532 0.723568
0.435889 0.755627 0.682551
0.662318 0.687236 0.638972
0.85803 0.626688 0.600443
0.991989 0.583139 0.572549
0 0.990875 0.820432
0 0.990478 0.819928
0 0.986877 0.80914
0.0168154 0.980072 0.788388
0.181079 0.969497 0.756436
0.395178 0.955673 0.715892
0.621805 0.899443 0.672633
0.819959 0.838819 0.633677
0.963012 0.795316 0.606012
0 1 0.839933
0 1 0.839536
0 1 0.82919
0.00444038 1 0.809247
0.15201 1 0.777554
0.365911 1 0.737102
0.592416 1 0.694041
0.791592 0.981186 0.655238
0.937789 0.947341 0.627237
0.00753796 0.0344091 0.851698
0.026276 0.0288396 0.847501
0.0919203 0.00947585 0.834073
0.209384 0 0.810452
0.384253 0 0.776028
0.600244 0 0.734066
0.824598 0 0.69041
0.976333 0 0.652155
0.999542 0 0.625422
0.00450141 0.0541848 0.852552
0.0224308 0.0487373 0.848966
0.0877394 0.0291752 0.836027
0.20499 0.00486763 0.812863
0.380514 0 0.7785
0.596551 0 0.736919
0.820706 0 0.693339
0.974289 0 0.655161
0.99971 0 0.628519
0 0.124865 0.86125
0.0121462 0.120043 0.858213
0.0745556 0.100465 0.845472
0.191089 0.0655222 0.822751
0.366079 0.0207218 0.789136
0.582177 0.000885023 0.747509
0.806531 0 0.704082
0.96556 0 0.666041
1 0 0.638972
0 0.252537 0.879393
0.000946059 0.248325 0.876905
0.052018 0.229313 0.864668
0.167376 0.194629 0.842206
0.341573 0.142245 0.808835
0.556741 0.0782635 0.767376
0.781964 0.026276 0.724041
0.94934 0.0056611 0.685832
1 0 0.658579
0 0.444236 0.908339
0 0.440818 0.906249
0.0220645 0.421698 0.894469
0.133089 0.387198 0.872419
0.305791 0.33521 0.839338
0.520745 0.270008 0.798306
0.746609 0.20177 0.754864
0.924315 0.141421 0.716442
1 0.100771 0.689021
0 0.679957 0.943938
0 0.676982 0.942428
0.00425727 0.658991 0.931746
0.0912184 0.625055 0.910155
0.262654 0.572976 0.877546
0.476905 0.508827 0.836515
0.703258 0.439902 0.793286
0.891905 0.379568 0.754864
1 0.335805 0.727169
0 0.921324 0.970718
0 0.919554 0.97052
0 0.903334 0.963943
0.0496529 0.871595 0.948653
0.217319 0.821759 0.917403
0.431342 0.757458 0.876692
0.65774 0.689372 0.833478
0.854475 0.628214 0.794888
0.990265 0.58468 0.767071
0 0.991318 0.991501
0 0.99086 0.991089
0 0.987137 0.984283
0.0150301 0.97995 0.971618
0.176776 0.968673 0.949691
0.390707 0.95404 0.911101
0.617456 0.901991 0.86804
0.816373 0.841016 0.829297
0.960555 0.797269 0.801541
0 1 0.973022
0 1 0.973007
0 1 0.969192
0.00363165 1 0.960571
0.147738 1 0.946624
0.360876 1 0.922499
0.587808 1 0.883864
0.787793 0.983337 0.84596
0.93463 0.950668 0.818006
0.00663767 0.0370031 0.968078
0.0243534 0.0318303 0.964446
0.089128 0.0126497 0.951751
0.205478 0 0.929259
0.379187 0 0.895888
0.5953 0 0.854688
0.82002 0 0.811841
0.974914 0 0.77438
0.999405 0 0.748577
0.00354009 0.0559091 0.970031
0.020676 0.0507668 0.966888
0.0852674 0.0314794 0.954299
0.201312 0.00613413 0.93196
0.376059 0 0.89836
0.591623 0 0.857298
0.816693 0 0.814374
0.972793 0 0.776944
0.999573 0 0.750988
0 0.126024 0.980331
0.0110781 0.121233 0.976898
0.0721599 0.102098 0.964767
0.187839 0.0673991 0.942519
0.36199 0.0215305 0.9093
0.577615 0.00117494 0.868269
0.802121 0 0.825681
0.964187 0 0.788006
1 0 0.761669
0 0.252644 0.991272
0.000503548 0.248707 0.990082
0.0499123 0.229892 0.982483
0.164584 0.195499 0.96289
0.337621 0.143252 0.930266
0.552712 0.0797436 0.889387
0.777707 0.026688 0.846769
0.94789 0.00628672 0.808942
1 0 0.782391
0 0.443397 0.999359
0 0.440192 0.998917
0.0203403 0.421378 0.995697
0.130434 0.387243 0.986969
0.302266 0.335348 0.961837
0.516533 0.270604 0.921859
0.742718 0.202258 0.87895
0.922454 0.141741 0.841215
1 0.100847 0.814343
0 0.678691 1
0 0.676509 1
0.0037995 0.658473 1
0.0886091 0.62446 0.999054
0.259113 0.573236 0.990326
0.47303 0.508598 0.961852
0.699413 0.440009 0.919387
0.889647 0.379156 0.881254
1 0.335317 0.853941
0 0.921492 1
0 0.919829 1
0 0.903731 1
0.0472267 0.872206 1
0.213779 0.82211 0.999817
0.42739 0.757763 0.991363
0.654139 0.689555 0.961151
0.851759 0.628565 0.922881
0.989059 0.584482 0.895445
0 0.991485 1
0 0.990997 1
0 0.987045 1
0.0136721 0.979599 1
0.173419 0.967666 1
0.386725 0.952193 1
0.613474 0.902892 0.988373
0.81326 0.841932 0.959136
0.958251 0.797864 0.931533
0 1 1
0 1 1
0 1 1
0.00280766 1 1
0.144198 1 1
0.356909 1 0.997116
0.583505 0.999863 0.988586
0.784405 0.984634 0.97116
0.931975 0.952499 0.949767
0.00634775 0.0378271 0.998398
0.0232242 0.0327764 0.99527
0.0871595 0.0137942 0.983169
0.202472 0 0.961547
0.375326 0 0.92929
0.591043 0 0.889021
0.815869 0 0.846952
0.973877 0 0.81033
0.999268 0 0.785
0.0033875 0.0557107 0.99939
0.0197299 0.0508278 0.997574
0.0835279 0.031754 0.986236
0.198459 0.00643931 0.964645
0.372381 0 0.932128
0.587777 0 0.891859
0.812757 0 0.849729
0.971756 0 0.812894
0.99942 0 0.787396
0 0.125032 1
0.0105135 0.120516 1
0.0707256 0.10164 0.996506
0.18526 0.0672465 0.976883
0.358679 0.0214694 0.944335
0.57351 0.00128176 0.904173
0.798535 0 0.862028
0.963363 0 0.824964
0.999817 0 0.79913
0 0.250904 1
0.000396735 0.24712 1
0.0486763 0.228458 0.999969
0.162158 0.194415 0.995087
0.334478 0.142428 0.966735
0.549157 0.0793011 0.926467
0.77435 0.0259861 0.884215
0.94696 0.00631724 0.846845
1 0 0.820676
0 0.440848 1
0 0.43772 1
0.0193179 0.419333 1
0.128298 0.385489 0.999939
0.299306 0.333608 0.994263
0.513542 0.268986 0.959991
0.739345 0.200931 0.917662
0.921309 0.139834 0.880003
1 0.0987106 0.853346
0 0.675532 1
0 0.673609 1
0.00360113 0.65568 1
0.0866407 0.622293 1
0.256199 0.571038 0.999954
0.469963 0.506767 0.994797
0.696345 0.438193 0.958938
0.888075 0.377172 0.921141
1 0.332906 0.894133
0 0.919249 1
0 0.918074 1
0 0.901778 1
0.0456703 0.87071 1
0.211032 0.820264 1
0.424292 0.755993 1
0.650797 0.687999 0.995148
0.849851 0.626337 0.96434
0.988312 0.5823 0.937209
0 0.991257 1
0 0.990707 1
0 0.986542 1
0.0125582 0.978851 1
0.170687 0.966293 1
0.383597 0.94995 1
0.610224 0.901869 1
0.811002 0.84062 0.996475
0.956603 0.796551 0.975082
0 1 1
0 1 1
0 1 1
0.00205997 1 1
0.141314 1 1
0.353384 1 1
0.580331 0.999634 1
0.781735 0.984863 0.999634
0.930159 0.95227 0.994949
