luts/varicam_official/Magenta 1 33 E-E.cube
TITLE "Generated by Resolve"
LUT_3D_SIZE 33
0.0303502 0.022034 0.0297856
0.0442054 0.0177462 0.0269017
0.0594339 0.0135348 0.0237125
0.0792706 0.00952163 0.0198215
0.10248 0.00616464 0.01561
0.130083 0.00360113 0.011017
0.164263 0.00169375 0.00677501
0.201266 7.62951e-05 0.00270085
0.247578 0 0.00115969
0.296513 0 3.0518e-05
0.352514 0 1.5259e-05
0.412009 0 0
0.476112 0 0
0.543648 0 0
0.612985 0 0
0.684199 0 0
0.754925 0 0
0.824277 0 0
0.889982 0 0
0.94995 0 0
0.979614 0 0
0.987045 0 0
0.993683 0 0
1 0 0
1 0 0
1 0 0
1 0 0
1 0 0
1 0 0
1 0 0
1 0 0
1 0 0
1 0 0
0.0277256 0.0320439 0.0307622
0.0413519 0.0277867 0.0278935
0.0563516 0.0232242 0.0247654
0.0756847 0.0180514 0.0209201
0.0985885 0.0128634 0.0166323
0.125597 0.00776684 0.0119326
0.159197 0.00375372 0.00770581
0.195727 0.000213626 0.00361639
0.241871 0 0.00157168
0.290028 0 0
0.345876 0 0
0.405463 0 0
0.469215 0 0
0.536233 0 0
0.605646 0 0
0.676783 0 0
0.747417 0 0
0.817044 0 0
0.883848 0 0
0.946029 0 0
0.977691 0 0
0.985626 0 0
0.99292 0 0
1 0 0
1 0 0
1 0 0
1 0 0
1 0 0
1 0 0
1 0 0
1 0 0
1 0 0
1 0 0
0.0247501 0.0442969 0.0321355
0.038117 0.0400397 0.0293278
0.052842 0.0353094 0.0262455
0.0717937 0.0294652 0.0223545
0.0940719 0.0231785 0.0181125
0.120928 0.0162814 0.0132448
0.153994 0.0102846 0.00883497
0.189807 0.00459297 0.00462348
0.235401 0.00218204 0.00204471
0.283009 0.000366217 0
0.339132 0.00015259 0
0.398032 1.5259e-05 0
0.461601 0 0
0.528832 0 0
0.597681 0 0
0.668742 0 0
0.739467 0 0
0.809277 0 0
0.876707 0 0
0.940276 0 0
0.974166 0 0
0.983688 0 0
0.991989 0 0
0.999893 0 0
1 0 0
1 0 0
1 0 0
1 0 0
1 0 0
1 0 0
1 0 0
1 0 0
1 0 0
0.0213474 0.0589456 0.0339361
0.0343786 0.0545815 0.0311437
0.0487678 0.0498054 0.0280766
0.0674601 0.0438849 0.0242313
0.0893263 0.0371405 0.0199283
0.115618 0.0293736 0.0149844
0.148165 0.0213169 0.0103151
0.183749 0.0131838 0.00573739
0.228748 0.0065919 0.00256352
0.275883 0.00109865 1.5259e-05
0.331472 0.000442512 0
0.390188 4.57771e-05 0
0.453712 1.5259e-05 0
0.520623 0 0
0.589624 0 0
0.660212 0 0
0.731502 0 0
0.801007 0 0
0.868818 0 0
0.933028 0 0
0.969284 0 0
0.981292 0 0
0.990936 0 0
0.999756 0 0
1 0 0
1 0 0
1 0 0
1 0 0
1 0 0
1 0 0
1 0 0
1 0 0
1 0 0
0.0176699 0.0770581 0.0362707
0.0302739 0.0726329 0.0335088
0.0442817 0.0677958 0.0304875
0.0626078 0.0617685 0.0267033
0.0840009 0.054902 0.0224002
0.109804 0.0467842 0.01738
0.141848 0.037644 0.0122988
0.177096 0.0277867 0.00720226
0.221576 0.0174258 0.00357061
0.268788 0.0080415 0.000534066
0.324025 0.00489815 0.000228885
0.382345 0.00236515 3.0518e-05
0.445441 0.000900282 0
0.511696 0.000213626 0
0.58053 3.0518e-05 0
0.651514 0 0
0.722225 0 0
0.791867 0 0
0.859937 0 0
0.924529 0 0
0.963272 0 0
0.978347 0 0
0.989364 0 0
0.998947 0 0
0.999695 0 0
1 0 0
1 0 0
1 0 0
1 0 0
1 0 0
1 0 0
1 0 0
1 0 0
0.013901 0.0962692 0.0387884
0.0260471 0.091783 0.0360571
0.0396124 0.0868849 0.0330816
0.0574502 0.0809339 0.0293889
0.0784772 0.073991 0.0251011
0.1037 0.0658732 0.0200504
0.135332 0.0556649 0.0145113
0.170016 0.0445258 0.00880446
0.214603 0.0305028 0.00469978
0.261295 0.0173495 0.00123598
0.316091 0.0110323 0.000534066
0.373877 0.00569161 6.10361e-05
0.436545 0.00222782 1.5259e-05
0.502983 0.000549325 0
0.571817 7.62951e-05 0
0.642069 0 0
0.712703 0 0
0.78291 0 0
0.851255 0 0
0.916091 0 0
0.957015 0 0
0.975113 0 0
0.987625 0 0
0.998032 0 0
0.999313 0 0
1 0 0
1 0 0
1 0 0
1 0 0
1 0 0
1 0 0
1 0 0
1 0 0
0.010193 0.121035 0.0422217
0.0212863 0.116548 0.0394903
0.0339361 0.11162 0.0365454
0.0514534 0.105547 0.0328985
0.0720836 0.0984817 0.028687
0.0969711 0.0902724 0.0236362
0.128099 0.0800793 0.0176852
0.162905 0.0688182 0.0112001
0.206592 0.0548867 0.00657664
0.252979 0.0407874 0.00254826
0.307301 0.0285344 0.00117494
0.364645 0.0171359 0.000244144
0.427115 0.00747692 6.10361e-05
0.492653 0.00241093 0
0.56112 0.000350958 0
0.631418 0 0
0.702571 0 0
0.772473 0 0
0.840986 0 0
0.906188 0 0
0.949493 0 0
0.971038 0 0
0.985229 0 0
0.996704 0 0
0.998779 0 0
1 0 0
1 0 0
1 0 0
1 0 0
1 0 0
1 0 0
1 0 0
1 0 0
0.00683604 0.148074 0.0460517
0.016495 0.143618 0.0433661
0.027863 0.13872 0.0404517
0.0450294 0.13257 0.0368811
0.0651255 0.125521 0.0327153
0.0898146 0.117067 0.0276493
0.120806 0.106813 0.0213626
0.155337 0.0957656 0.0144045
0.198459 0.0818799 0.00898756
0.24387 0.0673533 0.00411994
0.298146 0.0505989 0.00195315
0.35494 0.0348516 0.000457771
0.416724 0.0201724 0.000137331
0.482414 0.0109102 0
0.550469 0.00564584 0
0.620737 0.00300603 0
0.691539 0.0010071 0
0.761486 0.000442512 0
0.83032 0 0
0.895735 0 0
0.941497 0 0
0.966354 0 0
0.982605 0 0
0.995178 0 0
0.998154 0 0
1 0 0
1 0 0
1 0 0
1 0 0
1 0 0
1 0 0
1 0 0
1 0 0
0.0043183 0.181018 0.0508888
0.0116274 0.176684 0.0482643
0.020798 0.171862 0.0453956
0.0375219 0.165835 0.0419013
0.0573129 0.158877 0.0377966
0.0820172 0.150454 0.0327153
0.112627 0.140307 0.0265049
0.1467 0.129168 0.0196384
0.189242 0.115389 0.0127718
0.234012 0.101167 0.00631724
0.287449 0.0843824 0.00309758
0.343801 0.0674144 0.000808728
0.405676 0.0501106 0.000259403
0.470985 0.0355383 1.5259e-05
0.538445 0.0227054 0
0.609094 0.0130159 0
0.679805 0.00440986 0
0.749966 0.00187686 0
0.818936 0 0
0.884779 0 0
0.932662 0 0
0.960815 0 0
0.979294 0 0
0.993286 0 0
0.997345 0 0
1 0 0
1 0 0
1 0 0
1 0 0
1 0 0
1 0 0
1 0 0
1 0 0
0.00236515 0.218997 0.0565805
0.00724804 0.214664 0.0540475
0.014023 0.209857 0.051194
0.0300298 0.20351 0.0476692
0.0491951 0.196536 0.043595
0.07364 0.188067 0.038529
0.103777 0.177951 0.0323949
0.137072 0.167208 0.0256962
0.179263 0.153399 0.0179294
0.223529 0.138979 0.0103456
0.276524 0.122103 0.0055848
0.332387 0.10457 0.00198367
0.393759 0.0860456 0.000701915
0.458381 0.0678264 0.000106813
0.526192 0.0498665 1.5259e-05
0.596231 0.0346532 0
0.666835 0.0204166 0
0.737133 0.013611 0
0.806363 0.00787366 0
0.872541 0.0049897 0
0.922774 0.00270085 0
0.95465 0.00109865 0
0.975341 0.000366217 0
0.991043 3.0518e-05 0
0.996323 0 0
1 0 0
1 0 0
1 0 0
1 0 0
1 0 0
1 0 0
1 0 0
1 0 0
0.000885023 0.26099 0.062974
0.00332647 0.256626 0.0605173
0.00755322 0.251698 0.0577096
0.022446 0.245487 0.0541543
0.0406806 0.238392 0.0500649
0.0646372 0.229847 0.0450599
0.0942397 0.219715 0.0390021
0.127123 0.208667 0.0323491
0.16875 0.194827 0.0241703
0.212451 0.180362 0.0159609
0.265003 0.163439 0.00923171
0.320363 0.145693 0.00390631
0.38085 0.126665 0.00144961
0.445609 0.106371 0.000244144
0.512917 0.0855421 4.57771e-05
0.58323 0.0657054 0
0.653681 0.0466011 0
0.724132 0.0336309 0
0.793561 0.0219272 0
0.860105 0.0139162 0
0.912413 0.0075227 0
0.947646 0.00311284 0
0.971023 0.00102235 0
0.988357 0.000106813 0
0.995148 0 0
1 0 0
1 0 0
1 0 0
1 0 0
1 0 0
1 0 0
1 0 0
1 0 0
0.000320439 0.309239 0.0704204
0.00137331 0.304448 0.0679484
0.00383001 0.299443 0.0651865
0.0159152 0.29308 0.0616007
0.0319371 0.285924 0.0575113
0.0548867 0.277348 0.0525521
0.0837415 0.267201 0.0465858
0.116121 0.256138 0.0400397
0.157137 0.242374 0.0318303
0.200259 0.228 0.0234073
0.252354 0.210956 0.0151522
0.307225 0.193072 0.00810254
0.367315 0.173907 0.00361639
0.431769 0.153201 0.00108339
0.498878 0.131762 0.000198367
0.569116 0.11017 0
0.639521 0.0890822 0
0.710109 0.0709544 0
0.779843 0.0535744 0
0.846632 0.038941 0
0.900664 0.0262913 0
0.939681 0.0162203 0
0.965515 0.0104524 0
0.985046 0.00663767 0
0.993576 0.00503548 0
1 0.0037232 0
1 0.00294499 0
1 0.00222782 0
1 0.00172427 0
1 0.00122072 0
1 0.000732433 0
1 0.000350958 0
1 3.0518e-05 0
0 0.359014 0.0781262
0 0.354086 0.0756847
0.000961318 0.349004 0.0729686
0.00975052 0.342535 0.0693523
0.0231785 0.335302 0.0652781
0.0449378 0.326711 0.0603647
0.0729229 0.316579 0.05449
0.104799 0.30547 0.0480354
0.14522 0.291829 0.0399176
0.187716 0.277562 0.0314488
0.239368 0.26038 0.0218204
0.293324 0.242542 0.0131228
0.353582 0.222827 0.00628672
0.417594 0.202472 0.00222782
0.484474 0.181048 0.000442512
0.554162 0.158618 1.5259e-05
0.624659 0.135897 0
0.695293 0.113466 0
0.76527 0.0908827 0
0.832471 0.0690929 0
0.888762 0.0501717 0
0.930938 0.034165 0
0.959838 0.0237888 0
0.981323 0.0168307 0
0.991913 0.0130465 0
1 0.0101625 0
1 0.00825513 0
1 0.00674449 0
1 0.00556954 0
1 0.00463874 0
1 0.00358587 0
1 0.00296025 0
1 0.00225834 0
0 0.415824 0.0870222
0 0.410727 0.0845808
0.000549325 0.405417 0.0818494
0.00582895 0.398871 0.0782788
0.0159304 0.391623 0.0742351
0.0350347 0.383062 0.0693675
0.061326 0.372961 0.0635691
0.0923171 0.361898 0.0572061
0.131762 0.348409 0.0493019
0.173922 0.334112 0.0409247
0.22472 0.317067 0.0312505
0.278538 0.299168 0.0217594
0.338521 0.279545 0.0128939
0.401831 0.25893 0.00640879
0.468849 0.237171 0.00189212
0.538399 0.214954 0.000488289
0.609003 0.192035 0
0.679866 0.169024 0
0.749935 0.146624 0
0.817472 0.12462 0
0.875257 0.104311 0
0.920851 0.0862898 0
0.952697 0.0715038 0
0.976776 0.0587778 0
0.98967 0.0502174 0
1 0.0422217 0
1 0.0374609 0
1 0.0332494 0
1 0.0310216 0
1 0.0294957 0
1 0.0283665 0
1 0.0275731 0
1 0.026688 0
0 0.47422 0.0961776
0 0.469017 0.0937667
0.000228885 0.463584 0.0910353
0.002533 0.456992 0.0875257
0.00956741 0.449729 0.0835737
0.0256657 0.441199 0.0787976
0.0499733 0.430732 0.0730602
0.0796826 0.419699 0.0668345
0.118379 0.406287 0.0591135
0.159579 0.392172 0.0509651
0.210224 0.375051 0.0411536
0.263447 0.357626 0.03122
0.32314 0.338033 0.0207218
0.386114 0.317403 0.0120089
0.452811 0.295583 0.00474556
0.522377 0.272877 0.00172427
0.593027 0.249836 3.0518e-05
0.66392 0.227115 0
0.734279 0.204166 0
0.802136 0.181979 0
0.861479 0.161273 0
0.910262 0.141238 0
0.944747 0.123415 0
0.971374 0.107088 0
0.986801 0.0944381 0
0.999466 0.0827497 0
0.999771 0.075761 0
1 0.0694896 0
1 0.0666056 0
1 0.0641947 0
1 0.0631113 0
1 0.061799 0
1 0.0609293 0
0 0.53611 0.105928
0 0.531487 0.103655
6.10361e-05 0.526223 0.100984
0.000823987 0.519158 0.0975204
0.00552377 0.51191 0.0937514
0.0177005 0.503487 0.0892653
0.0389258 0.493523 0.0838636
0.0663767 0.482597 0.0778821
0.104112 0.469291 0.0704051
0.144656 0.455299 0.0624857
0.194827 0.438193 0.0527504
0.247654 0.42034 0.0426184
0.307042 0.400626 0.0315557
0.36965 0.380041 0.021088
0.435599 0.358541 0.0111238
0.505348 0.336217 0.00497444
0.575875 0.313237 0.000137331
0.647028 0.290074 0
0.717601 0.267063 0
0.785336 0.244907 0
0.846677 0.22388 0
0.898024 0.2038 0
0.935439 0.18555 0
0.964019 0.169039 0
0.982238 0.155459 0
0.997726 0.142687 0
0.999023 0.134691 0
1 0.127367 0
1 0.123507 0
1 0.120104 0
1 0.11809 0
1 0.116014 0
1 0.114488 0
0 0.600641 0.116411
0 0.596231 0.114305
0 0.590646 0.111711
0 0.58407 0.108476
0.00285344 0.576883 0.10486
0.0112764 0.568551 0.100542
0.0288853 0.558267 0.0952468
0.0529793 0.547478 0.0894026
0.0895399 0.53431 0.0820935
0.129458 0.520455 0.074342
0.179141 0.503471 0.0646982
0.231464 0.485725 0.0545815
0.290455 0.466011 0.0432441
0.352575 0.44596 0.0318914
0.418265 0.424567 0.0202792
0.487953 0.401816 0.0113222
0.558434 0.378805 0.00340276
0.629221 0.355734 0.00143435
0.700038 0.332631 0
0.768444 0.310628 0
0.831312 0.288991 0
0.885374 0.268711 0
0.925414 0.250187 0
0.956268 0.233402 0
0.977005 0.219226 0
0.995041 0.205859 0
0.997864 0.197284 0
1 0.189288 0
1 0.184833 0
1 0.180865 0
1 0.178439 0
1 0.175982 0
1 0.173709 0
0 0.666743 0.127443
0 0.662501 0.125582
0 0.657603 0.123323
0 0.650629 0.120119
0.00157168 0.643534 0.116625
0.00633249 0.63534 0.112428
0.0196536 0.625696 0.107301
0.039353 0.615076 0.101534
0.0745098 0.60209 0.0943313
0.113802 0.588403 0.0866865
0.162997 0.571618 0.0771496
0.214755 0.55407 0.0671397
0.273289 0.534478 0.0558328
0.335134 0.514046 0.0441138
0.400595 0.492683 0.0319219
0.469673 0.470039 0.0205997
0.540108 0.446906 0.00962844
0.611536 0.423545 0.00422675
0.682567 0.40032 0
0.751293 0.378149 0
0.815045 0.356435 0
0.872053 0.335821 0
0.914504 0.317128 0
0.948013 0.299931 0
0.971145 0.285405 0
0.991562 0.271687 0
0.996353 0.262837 0
1 0.254536 0
1 0.24979 0
1 0.245609 0
1 0.242588 0
1 0.240452 0
1 0.238102 0
0 0.734936 0.139071
0 0.730388 0.13727
0 0.725734 0.13518
0 0.719295 0.132113
0.000762951 0.711833 0.128634
0.00315862 0.7037 0.124498
0.0125887 0.69427 0.119509
0.0274205 0.683787 0.113848
0.0605325 0.670878 0.106676
0.0983597 0.657343 0.0991226
0.146715 0.640787 0.0897841
0.19791 0.623362 0.079881
0.255924 0.603906 0.0686809
0.317388 0.583566 0.0569009
0.382712 0.562234 0.0444953
0.451591 0.53962 0.0320897
0.521859 0.516518 0.0196994
0.593393 0.493095 0.0110933
0.664591 0.469764 0.00373846
0.733669 0.447471 0.00143435
0.798581 0.425589 0
0.857801 0.40473 0
0.902968 0.385824 0
0.939055 0.368582 0
0.964431 0.35375 0
0.98703 0.33962 0
0.994369 0.330526 0
1 0.321996 0
1 0.316594 0
1 0.312657 0
1 0.309529 0
1 0.306889 0
1 0.304967 0
0 0.803143 0.150759
0 0.799268 0.149157
0 0.794369 0.147143
0 0.788006 0.144121
0.000122072 0.781125 0.14078
0.000534066 0.772641 0.13666
0.00621042 0.763348 0.131792
0.0161288 0.752911 0.126192
0.0465248 0.740261 0.119173
0.0825055 0.726894 0.111727
0.130358 0.71043 0.10248
0.180972 0.693126 0.0927138
0.238468 0.673777 0.0816205
0.29955 0.653544 0.0698711
0.364736 0.632242 0.0573739
0.433417 0.609689 0.0442969
0.503471 0.586648 0.0310063
0.575082 0.56318 0.0193027
0.646464 0.539757 0.00869764
0.715541 0.517021 0.00335698
0.781903 0.495277 0
0.842802 0.474372 0
0.891157 0.4551 0
0.930236 0.437232 0
0.957656 0.422614 0
0.982086 0.40824 0
0.992172 0.398428 0
1 0.390036 0
1 0.384451 0
1 0.379873 0
1 0.377157 0
1 0.374441 0
1 0.372045 0
0 0.869947 0.162249
0 0.866331 0.1608
0 0.861692 0.158923
0 0.855451 0.155932
4.57771e-05 0.848722 0.152651
0.000228885 0.840452 0.148608
0.00392157 0.831373 0.143862
0.0105287 0.821149 0.138399
0.0358892 0.808606 0.131502
0.0666514 0.795361 0.124178
0.113954 0.779248 0.115068
0.164096 0.761807 0.105333
0.221149 0.742657 0.094316
0.281849 0.722484 0.0826276
0.346685 0.701579 0.0702678
0.415183 0.679194 0.0571908
0.48513 0.656397 0.0438544
0.556832 0.632929 0.0310063
0.628367 0.609506 0.0188144
0.697795 0.586694 0.0100862
0.765026 0.564416 0.00360113
0.827268 0.543404 0.00106813
0.878141 0.524407 0
0.920501 0.506218 0
0.94995 0.491035 0
0.976028 0.476631 0
0.989136 0.467109 0
0.999512 0.45803 0
0.999817 0.452308 0
1 0.448157 0
1 0.444953 0
1 0.442267 0
1 0.440375 0
0 0.926543 0.173556
0 0.9234 0.172244
0 0.919539 0.170504
0 0.913787 0.167559
0 0.907378 0.164248
0 0.900236 0.160403
0.00199893 0.891768 0.155749
0.00563058 0.882307 0.150469
0.025803 0.870481 0.143694
0.0510262 0.857664 0.1364
0.0981613 0.842374 0.127352
0.147326 0.826459 0.117891
0.203983 0.808148 0.106935
0.264271 0.788754 0.0953231
0.328954 0.768048 0.082948
0.397238 0.746365 0.0698711
0.467063 0.724269 0.0565194
0.538796 0.700938 0.0428168
0.610346 0.678019 0.0294804
0.680079 0.655207 0.0178836
0.748012 0.632883 0.00846876
0.81146 0.611841 0.00314336
0.864591 0.592325 0.000595102
0.910353 0.5738 0.000106813
0.941817 0.558968 0
0.969665 0.544518 0
0.985763 0.534356 0
0.998642 0.525551 0
0.999496 0.519768 0
1 0.515053 0
1 0.511894 0
1 0.509743 0
1 0.507439 0
0 0.950957 0.184237
0 0.94905 0.183062
0 0.946609 0.181506
0 0.942596 0.178637
0 0.938018 0.175433
0 0.932845 0.17171
0.0010071 0.926589 0.167163
0.0028687 0.919234 0.161929
0.017319 0.910109 0.155306
0.0357366 0.900359 0.148241
0.0825208 0.888014 0.139239
0.131304 0.87509 0.129854
0.18764 0.859998 0.11899
0.247532 0.843885 0.1075
0.311818 0.82652 0.0952163
0.379797 0.807492 0.0822156
0.449409 0.787717 0.0688945
0.52105 0.764981 0.0552071
0.592691 0.742 0.0416266
0.662638 0.719326 0.0289006
0.731044 0.697093 0.0174411
0.795209 0.676555 0.00856031
0.850263 0.657084 0.00320439
0.898619 0.638651 0.000564584
0.932555 0.623346 0
0.962585 0.608881 0
0.981216 0.598993 0
0.996475 0.589639 0
0.998688 0.583841 0
1 0.579187 0
1 0.576699 0
1 0.574258 0
1 0.572198 0
0 0.970657 0.1944
0 0.969497 0.193286
0 0.9682 0.191989
0 0.965484 0.189136
0 0.962615 0.186099
0 0.959121 0.182467
0.000350958 0.954726 0.178012
0.00102235 0.949798 0.172946
0.0104982 0.943282 0.16643
0.022797 0.936294 0.159487
0.0682689 0.926848 0.150591
0.115999 0.916594 0.141238
0.171954 0.904387 0.130495
0.231373 0.891264 0.119112
0.295216 0.877012 0.10692
0.362875 0.860883 0.0939956
0.432288 0.843915 0.0807355
0.503822 0.822828 0.0670939
0.575311 0.801663 0.0535286
0.645411 0.77995 0.0401923
0.714153 0.758404 0.0274815
0.778958 0.737591 0.0161898
0.835386 0.718151 0.00816358
0.885222 0.699794 0.00268559
0.922042 0.684367 0.000900282
0.95491 0.670192 0.000213626
0.975708 0.659693 9.15541e-05
0.993179 0.650156 0
0.997436 0.644327 0
1 0.640085 0
1 0.637278 0
1 0.635004 0
1 0.633494 0
0 0.985168 0.203983
0 0.98439 0.203021
0 0.983474 0.201816
0 0.981903 0.199115
0 0.980163 0.196185
0 0.977935 0.192615
7.62951e-05 0.975372 0.188327
0.000244144 0.972412 0.183322
0.00569161 0.968261 0.176822
0.0127718 0.963943 0.169955
0.055787 0.957366 0.161212
0.101335 0.950118 0.152102
0.156802 0.940398 0.141466
0.215656 0.929961 0.130205
0.278965 0.918578 0.11812
0.346303 0.905715 0.105287
0.415549 0.892149 0.0921035
0.486976 0.874022 0.0785382
0.558526 0.855238 0.0649577
0.628702 0.835477 0.0516213
0.697597 0.81532 0.0385901
0.762631 0.794797 0.0264591
0.81976 0.775372 0.0159457
0.870527 0.756848 0.00674449
0.91043 0.741588 0.00288396
0.947097 0.726848 0.000671397
0.969375 0.716243 0.000274662
0.988556 0.7066 0
0.995666 0.701091 0
1 0.696437 0
1 0.69369 0
1 0.691524 0
1 0.690105 0
0 0.993606 0.212329
0 0.993271 0.211582
0 0.992828 0.210575
0 0.99205 0.20795
0 0.991165 0.205066
0 0.990143 0.201663
0 0.98883 0.197421
0 0.987396 0.192508
0.00273136 0.985428 0.186191
0.00631724 0.983307 0.179431
0.0455482 0.979141 0.170809
0.0880751 0.97438 0.161852
0.142763 0.967056 0.151354
0.2009 0.958984 0.14023
0.263706 0.949966 0.128252
0.330694 0.939666 0.115541
0.399695 0.928756 0.102464
0.471015 0.914137 0.0889601
0.542016 0.899031 0.0755016
0.612741 0.882643 0.0620584
0.681392 0.865492 0.0489967
0.74725 0.846403 0.0364538
0.805081 0.827939 0.0250401
0.85655 0.810239 0.0145266
0.899016 0.794705 0.00816358
0.938521 0.779965 0.00315862
0.962295 0.769314 0.00158694
0.983215 0.759594 0.000350958
0.993317 0.753948 0.000183108
0.999741 0.749233 6.10361e-05
0.999924 0.746654 3.0518e-05
1 0.744625 1.5259e-05
1 0.743297 0
0 0.999634 0.220249
0 0.999557 0.219608
0 0.999496 0.218799
0 0.999435 0.216251
0 0.999313 0.213428
0 0.999237 0.210132
0 0.999146 0.206012
0 0.998962 0.201129
0.000640879 0.998795 0.194949
0.00149538 0.998627 0.188373
0.0363317 0.996902 0.17998
0.0757153 0.994476 0.17113
0.129198 0.98941 0.160769
0.186557 0.983597 0.149783
0.248875 0.976669 0.137942
0.315465 0.968643 0.125338
0.384207 0.960067 0.112367
0.455421 0.949187 0.098909
0.526864 0.937926 0.0854047
0.597162 0.925856 0.0720226
0.666026 0.912261 0.0589303
0.732311 0.895354 0.0463417
0.790738 0.878645 0.0348058
0.84303 0.861387 0.0239567
0.887617 0.846098 0.0149844
0.92961 0.831479 0.00662242
0.954879 0.820813 0.00340276
0.977523 0.811032 0.000854505
0.990784 0.805234 0.000427253
0.999374 0.800458 0.000137331
0.999817 0.798108 7.62951e-05
1 0.796216 3.0518e-05
1 0.795041 0
0 1 0.226322
0 1 0.225849
0 1 0.225269
0 1 0.222751
0 1 0.220066
0 1 0.216785
0 1 0.212772
0 1 0.208072
0.000228885 1 0.201999
