luts/varicam_official/Magenta 1 33 E-E.cube
TITLE "Generated by Resolve"
LUT_3D_SIZE 5
0.0303502 0.022034 0.0297856
0.247578 0 0.00115969
0.754925 0 0
1 0 0
1 0 0
0.0043183 0.181018 0.0508888
0.189242 0.115389 0.0127718
0.679805 0.00440986 0
0.997345 0 0
1 0 0
0 0.600641 0.116411
0.0895399 0.53431 0.0820935
0.558434 0.378805 0.00340276
0.977005 0.219226 0
1 0.173709 0
0 0.985168 0.203983
0.00569161 0.968261 0.176822
0.415549 0.892149 0.0921035
0.91043 0.741588 0.00288396
1 0.690105 0
0 1 0.241566
0 1 0.221912
0.315908 1 0.145785
0.834745 0.99443 0.0472877
0.999557 0.960311 0.0154116
0.0273747 0.0256504 0.238468
0.240864 0 0.189273
0.746761 0 0.085069
1 0 0.0153506
1 0 0.00210575
0.00334173 0.181552 0.235584
0.184024 0.116808 0.189532
0.671229 0.00535592 0.0883955
0.996597 0 0.0166476
1 0 0.00839246
0 0.596246 0.277272
0.0853437 0.5308 0.236118
0.550713 0.376547 0.138491
0.979171 0.215885 0.0417182
1 0.169055 0.0205539
0 0.984253 0.336538
0.00512703 0.966796 0.302022
0.408057 0.90222 0.209659
0.915236 0.74078 0.104189
1 0.686091 0.0706798
0 1 0.347738
0 1 0.322408
0.307286 1 0.240513
0.831235 0.998825 0.134966
1 0.970459 0.0955215
0.0218814 0.0349432 0.697124
0.231281 0.000564584 0.64625
0.735286 0 0.540169
0.999954 0 0.447593
1 0 0.426261
0.00192264 0.187823 0.684611
0.175723 0.124376 0.636469
0.660349 0.00813306 0.532372
0.995575 0 0.432029
1 0 0.404242
0 0.597528 0.711604
0.0779431 0.53373 0.666224
0.539742 0.380774 0.564279
0.976745 0.218585 0.456245
1 0.170382 0.420554
0 0.985611 0.752544
0.00401312 0.968002 0.712627
0.397314 0.903563 0.615167
0.907073 0.744091 0.502876
1 0.687816 0.460655
0 1 0.742763
0 1 0.709957
0.295964 1 0.620813
0.822416 0.999466 0.507134
1 0.977386 0.459174
0.0180362 0.0402991 0.988449
0.223621 0.000961318 0.948562
0.724804 0 0.853712
0.999664 0 0.770031
1 0 0.756954
0.00105287 0.191379 0.996918
0.168612 0.129137 0.970794
0.649943 0.0107576 0.876265
0.994492 0 0.784619
1 0 0.764904
0 0.597559 1
0.0709239 0.535531 0.998062
0.529702 0.383215 0.940047
0.974334 0.219928 0.841031
1 0.170977 0.813642
0 0.98735 1
0.00315862 0.969604 1
0.386496 0.902373 0.993912
0.898924 0.747814 0.916777
1 0.689845 0.880552
0 1 1
0 1 1
0.284062 1 0.999191
0.813169 0.99971 0.945556
0.999817 0.986175 0.904784
0.0167239 0.0393378 0.997238
0.219013 0.000915541 0.959411
0.717067 0 0.866468
0.999207 0 0.784329
1 0 0.7738
0.000701915 0.18822 1
0.164691 0.126574 0.988449
0.642496 0.0102235 0.899031
0.993744 0 0.810208
1 0 0.793545
0 0.589944 1
0.067216 0.529412 1
0.522866 0.377997 0.975418
0.972534 0.213947 0.880095
1 0.163653 0.85655
0 0.986587 1
0.00299077 0.968215 1
0.379431 0.897612 1
0.893767 0.743908 0.977508
1 0.683619 0.946929
0 1 1
0 1 1
0.275349 1 1
0.806912 0.999756 1
0.999756 0.986954 0.997909
