luts/varicam_official/Magenta_2.cube
TITLE "Generated by Resolve"
LUT_3D_SIZE 33
0.0428321 0.0332341 0.0421454
0.0536965 0.0303349 0.0404822
0.0655833 0.0271763 0.0386206
0.0815595 0.0229648 0.0360571
0.0990463 0.0184329 0.0331731
0.118502 0.0135653 0.0299535
0.142489 0.00898756 0.0259556
0.168765 0.00442512 0.0214542
0.20116 0.00260929 0.0171359
0.235111 0.00117494 0.0128176
0.274128 0.000595102 0.00877394
0.315267 0.000198367 0.0049897
0.360006 4.57771e-05 0.00163272
0.408957 0 0.000289921
0.460365 0 0.000106813
0.515282 0 4.57771e-05
0.571023 0 0
0.628763 0 0
0.68719 0 0
0.745769 0 0
0.803754 0 0
0.861234 0 0
0.915434 0 0
0.968673 0 0
0.97644 0 0
0.984268 0 0
0.992187 0 0
0.997482 0 0
0.999344 0 0
1 0 0
1 0 0
1 0 0
1 0 0
0.0419623 0.0437629 0.0446326
0.0528267 0.0409247 0.0429847
0.0646982 0.0378729 0.0411536
0.0809339 0.0334936 0.038468
0.098558 0.0288853 0.0356146
0.118532 0.0238499 0.0323033
0.142596 0.0186465 0.0282444
0.168856 0.0132296 0.0237888
0.201526 0.00895705 0.0190433
0.235492 0.00500496 0.0143893
0.274678 0.00244144 0.0100252
0.315938 0.000686656 0.00605783
0.360876 0.000183108 0.00259403
0.409827 0 0.000900282
0.461219 0 0.000274662
0.51635 0 9.15541e-05
0.57232 0 0
0.630091 0 0
0.688502 0 0
0.747021 0 0
0.804868 0 0
0.862165 0 0
0.915114 0 0
0.966705 0 0
0.975525 0 0
0.983719 0 0
0.992142 0 0
0.997711 0 0
0.99939 0 0
1 0 0
1 0 0
1 0 0
1 0 0
0.0409857 0.0551461 0.0473182
0.0518959 0.0524453 0.0456703
0.0637675 0.0493935 0.0438239
0.0801404 0.0449989 0.0411231
0.098146 0.0402533 0.0381476
0.118349 0.0350652 0.0348669
0.142443 0.0292973 0.0307927
0.168688 0.0231022 0.0262913
0.201572 0.0165255 0.0212406
0.236072 0.0102693 0.016144
0.275288 0.0059968 0.0115358
0.316701 0.00289921 0.00732433
0.362097 0.00164797 0.00367742
0.411063 0.000808728 0.00158694
0.462089 0.000198367 0.000427253
0.517342 4.57771e-05 0.000137331
0.57348 0 0
0.631281 0 0
0.689677 0 0
0.748089 0 0
0.805814 0 0
0.862882 0 0
0.914595 0 0
0.964523 0 0
0.974395 0 0
0.983124 0 0
0.992111 0 0
0.998001 0 0
0.999451 0 0
1 0 0
1 0 0
1 0 0
1 0 0
0.0399786 0.0675364 0.0501259
0.0507973 0.0648814 0.0485237
0.0626078 0.0620279 0.0467079
0.0793774 0.0576181 0.0439612
0.0976577 0.052781 0.0409552
0.118196 0.0473182 0.0375525
0.142351 0.04094 0.0334783
0.168582 0.0341344 0.0290684
0.201724 0.0255283 0.0236362
0.236271 0.0171511 0.0181888
0.276204 0.0114748 0.0133364
0.317861 0.00700389 0.00881971
0.363058 0.00462348 0.0049897
0.411948 0.00251774 0.00236515
0.46331 0.000610361 0.000579843
0.518242 0.00015259 0.00015259
0.574487 0 0
0.632288 0 0
0.690669 0 0
0.748974 0 0
0.806546 0 0
0.863416 0 0
0.913909 0 0
0.962142 0 0
0.973037 0 0
0.982437 0 0
0.992035 0 0
0.998322 0 0
0.999527 0 0
1 0 0
1 0 0
1 0 0
1 0 0
0.0383459 0.0843977 0.0537575
0.0492103 0.0817578 0.0520943
0.0610513 0.0788434 0.0502632
0.0780346 0.0744182 0.0475166
0.0964218 0.0695811 0.0444953
0.117449 0.0640574 0.0410468
0.141695 0.0575113 0.0369573
0.16791 0.0504311 0.032517
0.201099 0.0412909 0.026978
0.236225 0.0321355 0.0212558
0.276234 0.0244755 0.0160067
0.318151 0.0175937 0.0111086
0.363561 0.011841 0.00672923
0.412451 0.00637827 0.00335698
0.463813 0.00114443 0.000640879
0.519203 0.000106813 9.15541e-05
0.575174 0 0
0.633417 0 0
0.691386 0 0
0.749615 0 0
0.80705 0 0
0.863691 0 0
0.913054 0 0
0.959594 0 0
0.971664 0 0
0.981704 0 0
0.99205 0 0
0.998779 0 0
0.999649 0 0
1 0 0
1 0 0
1 0 0
1 0 0
0.0364538 0.103029 0.0576944
0.0473793 0.100359 0.0560159
0.0592508 0.0974289 0.0541695
0.076463 0.0930037 0.0513466
0.0950942 0.0881361 0.0482795
0.116335 0.082414 0.0448157
0.140642 0.0758526 0.0407416
0.166857 0.0687724 0.0363317
0.200504 0.0596323 0.0305791
0.235691 0.0500496 0.0247196
0.276326 0.040177 0.0189975
0.318532 0.0304265 0.0135805
0.364218 0.0205539 0.00863661
0.413199 0.0110323 0.0043946
0.464546 0.0018616 0.000701915
0.519631 9.15541e-05 0
0.57612 0.000137331 0
0.634028 7.62951e-05 0
0.691997 4.57771e-05 0
0.750149 1.5259e-05 0
0.807462 0 0
0.86389 0 0
0.912139 0 0
0.957015 0 0
0.970184 0 0
0.980941 0 0
0.99205 0 0
0.999268 0 0
0.999786 0 0
1 0 0
1 0 0
1 0 0
1 0 0
0.0338445 0.126314 0.0624704
0.0450141 0.123674 0.0607614
0.0571145 0.12079 0.0588846
0.0743114 0.116442 0.0560922
0.0930343 0.11162 0.0530251
0.114656 0.105913 0.0494545
0.139284 0.0993973 0.0453803
0.16582 0.0925002 0.0409247
0.199496 0.0833906 0.0351263
0.234699 0.0738689 0.0291447
0.275395 0.0632639 0.0231022
0.31783 0.0526894 0.0171664
0.36376 0.0416724 0.01149
0.412863 0.0307774 0.00653086
0.464393 0.0200809 0.00205997
0.519799 0.0142519 0.000717174
0.575845 0.00979629 0.000167849
0.633753 0.00575265 7.62951e-05
0.692103 0.00234989 0
0.750134 0.000808728 0
0.807279 0 0
0.863447 0 0
0.910567 0 0
0.953536 0 0
0.968002 0 0
0.979812 0 0
0.991852 0 0
0.999695 0 0
0.999908 0 0
1 0 0
1 0 0
1 0 0
1 0 0
0.0310216 0.150912 0.0674907
0.0424506 0.148318 0.0657511
0.0547646 0.14548 0.063859
0.0718395 0.141253 0.0610971
0.0907912 0.136492 0.0580148
0.112779 0.1308 0.0543984
0.137743 0.1243 0.0502022
0.16466 0.117266 0.0457008
0.198077 0.108553 0.0399786
0.233524 0.0990768 0.0339208
0.274525 0.087953 0.0273899
0.317235 0.0765545 0.0209659
0.363455 0.0647746 0.0146639
0.412741 0.0526131 0.00894179
0.464439 0.0403296 0.00370794
0.519432 0.030869 0.0016022
0.575814 0.0218662 0.00030518
0.633738 0.0141756 0.000137331
0.691661 0.00749218 0
0.749569 0.0043946 0
0.806546 0.00239567 0
0.862455 0.00180056 0
0.908583 0.0011902 0
0.94995 0.000610361 0
0.965759 0.000274662 0
0.978744 0 0
0.991516 0 0
1 0 0
1 0 0
1 0 0
1 0 0
1 0 0
1 0 0
0.0276036 0.1794 0.0732128
0.0392767 0.176837 0.0714427
0.0518044 0.17406 0.0695354
0.0689097 0.16997 0.0668193
0.0879835 0.165331 0.0637369
0.110353 0.159777 0.0600443
0.135698 0.153277 0.0558022
0.16286 0.146181 0.0512093
0.19646 0.137377 0.0455329
0.231556 0.128359 0.0395666
0.27306 0.117357 0.0325628
0.315999 0.105928 0.0256046
0.362661 0.0934768 0.0186618
0.411826 0.0806744 0.0123293
0.463691 0.0670787 0.0062562
0.519036 0.0537881 0.00292973
0.574975 0.0408179 0.000381476
0.632929 0.0297856 0.000167849
0.691234 0.0201724 0
0.74902 0.0150759 0
0.805814 0.0109712 0
0.861036 0.00813306 0
0.906279 0.00535592 0
0.946441 0.00268559 0
0.963333 0.00120546 0
0.977523 0 0
0.990921 0 0
1 0 0
1 0 0
1 0 0
1 0 0
1 0 0
1 0 0
0.0239567 0.212634 0.0797589
0.0356298 0.21004 0.0779583
0.048188 0.207263 0.0760052
0.0653086 0.20322 0.0732891
0.0844739 0.198642 0.0702068
0.107225 0.193088 0.066453
0.132952 0.186542 0.06215
0.160555 0.179339 0.057496
0.194171 0.170596 0.0517739
0.229221 0.161471 0.0457771
0.270787 0.150561 0.0386358
0.314015 0.139086 0.031342
0.361059 0.126589 0.0239261
0.410803 0.113054 0.0167391
0.462852 0.0988632 0.00982681
0.517754 0.0841993 0.00480659
0.573999 0.068925 0.00030518
0.631968 0.055436 0.000137331
0.68986 0.0432136 0
0.747509 0.0343175 0
0.80412 0.026276 0
0.85948 0.018967 0
0.903822 0.0127871 0
0.942428 0.00708019 0
0.960861 0.00430304 0
0.976303 0.00215152 0
0.990402 0.00230411 0
1 0.00241093 0
1 0.00256352 0
1 0.00267033 0
1 0.00282292 0
1 0.00303655 0
1 0.00335698 0
0.0201267 0.250568 0.0871748
0.0315709 0.247639 0.0852064
0.0439765 0.24477 0.0831922
0.0610819 0.240726 0.0804608
0.0803235 0.236103 0.077348
0.103441 0.230457 0.0735637
0.129564 0.223804 0.0692149
0.15761 0.21648 0.0644846
0.191211 0.207721 0.0587472
0.226215 0.198581 0.0527504
0.268269 0.187778 0.0455024
0.311925 0.176181 0.0380865
0.359335 0.163317 0.0301823
0.409308 0.149783 0.0222629
0.461219 0.136004 0.0144198
0.516411 0.120943 0.00717174
0.572137 0.105699 0.00015259
0.630518 0.0903792 3.0518e-05
0.688411 0.0755779 0
0.745922 0.0612039 0
0.802365 0.0473487 0
0.857053 0.0338598 0
0.900786 0.0229953 0
0.938476 0.0134279 0
0.95816 0.00918593 0
0.975174 0.00605783 0
0.989792 0.00639353 0
1 0.00677501 0
1 0.00712596 0
1 0.00743114 0
1 0.00776684 0
1 0.0083772 0
1 0.00917067 0
0.0161898 0.292927 0.0953231
0.026978 0.290272 0.0933852
0.0389258 0.287404 0.0913405
0.0560006 0.283543 0.0886244
0.0753643 0.278706 0.0854505
0.0990005 0.272923 0.0815747
0.125292 0.266331 0.0772106
0.153903 0.259052 0.0724041
0.187488 0.250385 0.0666972
0.2224 0.241642 0.0607767
0.264912 0.230457 0.0534218
0.308934 0.218799 0.0458381
0.356649 0.205966 0.0377356
0.406851 0.192508 0.0294194
0.458915 0.178897 0.0210422
0.514107 0.164019 0.0128023
0.569802 0.148959 0.00471504
0.627771 0.133303 0.00233463
0.685649 0.117968 0.000488289
0.743053 0.102495 0.000289921
0.79939 0.0876173 0.00015259
0.854307 0.0728466 0.000106813
0.897444 0.060441 4.57771e-05
0.933852 0.0497292 0
0.955367 0.0427558 0
0.974014 0.0370031 0
0.989181 0.0340887 0
1 0.0316777 0
1 0.0297704 0
1 0.0285801 0
1 0.0277562 0
1 0.0280613 0
1 0.0286259 0
0.0122835 0.336797 0.103761
0.0222477 0.334188 0.101854
0.0336767 0.33135 0.0997177
0.0506752 0.327733 0.0970321
0.0701152 0.323339 0.0939193
0.0942855 0.317403 0.0899519
0.120958 0.310857 0.0855268
0.149889 0.303731 0.080705
0.18349 0.295201 0.0750134
0.218357 0.286275 0.0690776
0.261265 0.274998 0.0616617
0.305638 0.263294 0.0539864
0.353658 0.250523 0.0456397
0.403708 0.237263 0.0371405
0.456291 0.223728 0.0283207
0.511116 0.209186 0.0195315
0.567208 0.194278 0.0106966
0.625162 0.178561 0.00544747
0.683024 0.163256 0.00120546
0.740322 0.147936 0.000717174
0.796582 0.132937 0.000366217
0.850935 0.118837 0.000244144
0.893675 0.105913 0.000137331
0.929366 0.0942702 3.0518e-05
0.952361 0.0844739 0
0.972885 0.0752117 0
0.988693 0.0686046 0
1 0.0623484 0
1 0.0580911 0
1 0.0546883 0
1 0.0528725 0
1 0.0524147 0
1 0.0530404 0
0.00816358 0.387533 0.113451
0.0174716 0.384466 0.111406
0.0283665 0.381491 0.109224
0.0449226 0.377951 0.106538
0.0639353 0.373678 0.103456
0.0885023 0.367697 0.0993973
0.115633 0.361105 0.0948806
0.145098 0.353933 0.0899519
0.178836 0.345464 0.0842451
0.214237 0.336492 0.0782483
0.257069 0.325353 0.0708934
0.301396 0.313817 0.0632486
0.349691 0.301198 0.0548714
0.399924 0.287999 0.0462806
0.45272 0.274037 0.0372625
0.507683 0.259876 0.028336
0.563577 0.245136 0.0193332
0.621866 0.229572 0.0121614
0.679683 0.21416 0.00602731
0.736873 0.199344 0.00373846
0.792508 0.184619 0.00204471
0.846845 0.170321 0.00122072
0.889342 0.15761 0.000686656
0.924559 0.145357 0.000320439
0.94963 0.135317 0.000137331
0.972198 0.125521 0
0.988235 0.118364 0
1 0.11223 0
1 0.107652 0
1 0.104875 0
1 0.103334 0
1 0.103792 0
1 0.104677 0
0.0043946 0.439399 0.123339
0.0129244 0.43624 0.121233
0.0233158 0.433188 0.119036
0.0391394 0.429679 0.116289
0.0576944 0.425437 0.113191
0.0826123 0.419104 0.109026
0.110124 0.412467 0.104448
0.140124 0.405188 0.0994125
0.174228 0.396704 0.0936751
0.209964 0.387747 0.0876478
0.252735 0.376761 0.0803693
0.297032 0.365743 0.0728466
0.345235 0.353292 0.0644846
0.395987 0.340047 0.0557259
0.448966 0.32607 0.0466773
0.504082 0.311589 0.0374762
0.560143 0.296864 0.0282139
0.617929 0.282017 0.0196689
0.6757 0.266804 0.0118257
0.732815 0.251759 0.00761425
0.788632 0.237491 0.00440986
0.842557 0.223423 0.00271611
0.884733 0.210376 0.00163272
0.919997 0.19823 0.000885023
0.946777 0.187655 0.00047303
0.971649 0.177523 0.00015259
0.98793 0.170596 9.15541e-05
1 0.164019 3.0518e-05
1 0.160006 1.5259e-05
1 0.157153 0
1 0.156451 0
1 0.157031 0
1 0.158801 0
0.00146487 0.495064 0.133837
0.00923171 0.492363 0.131777
0.0189975 0.489403 0.129534
0.0336309 0.485695 0.126711
0.0513161 0.481025 0.123491
0.0761883 0.475257 0.119432
0.104143 0.468544 0.114824
0.134432 0.461067 0.109789
0.168948 0.452522 0.104051
0.205066 0.443565 0.0980545
0.247929 0.432761 0.090837
0.292317 0.421485 0.0833143
0.340719 0.408881 0.0749676
0.391623 0.395636 0.0662242
0.444389 0.381918 0.0572061
0.499931 0.367697 0.0478981
0.556069 0.352865 0.0383612
0.613779 0.337728 0.0291142
0.671473 0.322621 0.0203098
0.728496 0.308064 0.0137942
0.784237 0.293523 0.00863661
0.837522 0.279683 0.0056611
0.880125 0.267109 0.00361639
0.915526 0.25478 0.00215152
0.944289 0.244572 0.00134279
0.971298 0.235264 0.000686656
0.987655 0.228046 0.000396735
1 0.221561 0.00015259
1 0.217945 6.10361e-05
1 0.21532 0
1 0.21471 0
1 0.215473 0
1 0.217533 0
0 0.554025 0.144991
0.00653086 0.551247 0.142855
0.0150301 0.548165 0.140566
0.0280461 0.543984 0.137697
0.0445563 0.539635 0.134463
0.0694591 0.533898 0.130419
0.0976425 0.527138 0.125811
0.128405 0.519554 0.12076
0.163333 0.510918 0.115007
0.199817 0.501869 0.10898
0.242664 0.491127 0.101793
0.287098 0.479866 0.0942855
0.335836 0.467201 0.0859388
0.386969 0.453925 0.0771954
0.439948 0.440192 0.0681468
0.495598 0.425589 0.0586099
0.551812 0.410788 0.0490425
0.609415 0.395743 0.0393835
0.666972 0.381109 0.0300298
0.72401 0.36614 0.0217441
0.779644 0.351659 0.014847
0.832654 0.338033 0.010132
0.875471 0.325658 0.00686656
0.910994 0.313588 0.00456245
0.942061 0.303471 0.00314336
0.971466 0.294392 0.00195315
0.987655 0.287404 0.00129702
1 0.28159 0.000762951
1 0.27779 0.000534066
1 0.275349 0.000411994
1 0.274968 0.000411994
1 0.275837 0.000442512
1 0.277974 0.00047303
0 0.615869 0.156588
0.00485237 0.612497 0.154391
0.0112612 0.609125 0.152071
0.0223545 0.605341 0.149279
0.0374304 0.600961 0.14612
0.0624399 0.594675 0.141955
0.0908675 0.587884 0.137346
0.122087 0.580301 0.132265
0.157397 0.571557 0.126436
0.194247 0.562356 0.120333
0.237003 0.551476 0.113146
0.281086 0.54023 0.105699
0.330617 0.527535 0.097261
0.382086 0.514199 0.0884718
0.43534 0.500252 0.0793622
0.490684 0.485817 0.0699016
0.547326 0.471061 0.0602579
0.604791 0.456489 0.0505837
0.662287 0.441459 0.0408179
0.71931 0.426352 0.0314488
0.774487 0.411948 0.0230259
0.827543 0.398947 0.0161288
0.870512 0.386435 0.0113527
0.906874 0.374395 0.00807202
0.939864 0.364797 0.00585946
0.971878 0.355291 0.00387579
0.987823 0.348592 0.00273136
1 0.343053 0.00178531
1 0.33933 0.00140383
1 0.337041 0.0011902
1 0.337011 0.0011902
1 0.337881 0.00125124
1 0.339925 0.00134279
3.0518e-05 0.678782 0.168734
0.00317388 0.675837 0.166644
0.00737011 0.67248 0.164263
0.0174258 0.668055 0.161303
0.0314183 0.663523 0.158114
0.0556344 0.657618 0.154086
0.0838483 0.650767 0.149447
0.11548 0.642664 0.144167
0.151446 0.633753 0.138201
0.188449 0.624521 0.132052
0.231357 0.613565 0.124865
0.275547 0.602274 0.117433
0.325277 0.589563 0.108965
0.376944 0.576181 0.100145
0.430396 0.562142 0.090959
0.485801 0.548135 0.0815595
0.542489 0.533425 0.0719005
0.599878 0.518486 0.0620432
0.657282 0.503502 0.0522774
0.713726 0.488624 0.04271
0.769177 0.474205 0.0336156
0.822126 0.461189 0.0256046
0.865736 0.448737 0.0192874
0.90309 0.436835 0.0141146
0.938308 0.426917 0.0107729
0.972946 0.417929 0.00794995
0.988113 0.411505 0.00648508
0.999985 0.405692 0.00515755
1 0.402533 0.00450141
1 0.400351 0.0040589
1 0.400504 0.00393683
1 0.40148 0.00401312
1 0.403159 0.00418097
9.15541e-05 0.742641 0.181201
0.00149538 0.739361 0.178988
0.00347906 0.73611 0.176562
0.012726 0.731823 0.173587
0.025803 0.726665 0.170275
0.0489662 0.720745 0.166369
0.0768139 0.713832 0.161639
0.108736 0.706065 0.156298
0.145098 0.697063 0.150225
0.182574 0.687312 0.143908
0.225711 0.67631 0.136706
0.270069 0.664988 0.129274
0.319921 0.652247 0.12079
0.371695 0.638819 0.11194
0.425345 0.624704 0.102708
0.480812 0.610681 0.0932631
0.537163 0.596078 0.0836194
0.594476 0.581155 0.0737926
0.651774 0.566247 0.0640421
0.70837 0.551492 0.0544137
0.763684 0.537163 0.0450752
0.816236 0.524117 0.0363928
0.860929 0.511589 0.0283665
0.899123 0.499916 0.0210727
0.936873 0.490043 0.0164645
0.974197 0.481178 0.0127108
0.988602 0.474922 0.0109407
0.999969 0.469261 0.00929274
0.999985 0.466239 0.00827039
1 0.464164 0.00755322
1 0.463996 0.00724804
1 0.465522 0.00732433
1 0.467353 0.00762951
4.57771e-05 0.80618 0.193652
0.000640879 0.80325 0.191409
0.00158694 0.799558 0.188937
0.0106355 0.795224 0.185824
0.0227359 0.790036 0.182467
0.0429236 0.784131 0.178546
0.0695811 0.777142 0.173846
0.101991 0.769223 0.168399
0.138888 0.760037 0.162249
0.176898 0.750515 0.155901
0.220401 0.738949 0.148516
0.265354 0.727398 0.140932
0.3149 0.714549 0.132494
0.366751 0.70106 0.123613
0.420615 0.686992 0.114351
0.476204 0.672511 0.104814
0.532601 0.658259 0.0952468
0.589822 0.643198 0.08542
0.647013 0.628138 0.0756085
0.703334 0.613489 0.066041
0.75848 0.599176 0.056672
0.811032 0.585641 0.0478523
0.856229 0.573632 0.0397803
0.895216 0.562203 0.0322576
0.934234 0.552514 0.0269169
0.973526 0.543282 0.0220798
0.987655 0.537453 0.0191501
0.998917 0.531853 0.0165255
0.999603 0.52874 0.0149691
1 0.527352 0.0140078
1 0.527352 0.0138399
1 0.52842 0.0140383
1 0.530571 0.0145418
0 0.865904 0.205951
0 0.862898 0.203693
0.000183108 0.859251 0.20116
0.00875868 0.854902 0.198093
0.0197147 0.850111 0.194705
0.0372473 0.843854 0.1906
0.0625162 0.836927 0.185885
0.0955978 0.828962 0.180362
0.132753 0.819837 0.174182
0.171374 0.809995 0.167651
0.215198 0.798978 0.160235
0.26041 0.787564 0.152575
0.309972 0.774899 0.144121
0.361913 0.761654 0.13521
0.415976 0.747921 0.125902
0.471672 0.733532 0.11635
0.528161 0.718837 0.106676
0.585275 0.704051 0.0969406
0.642359 0.688899 0.0871443
0.698405 0.674266 0.0775158
0.753323 0.659968 0.0681926
0.805707 0.646387 0.0593423
0.851347 0.633982 0.051133
0.891005 0.623041 0.043595
0.931258 0.613458 0.0374914
0.971695 0.60441 0.0319371
0.986236 0.598077 0.0279545
0.997681 0.592905 0.0244907
0.99913 0.590082 0.0226291
1 0.588418 0.0213931
1 0.588891 0.0213016
1 0.589929 0.0216983
1 0.591562 0.0223087
0 0.912261 0.218051
0 0.909056 0.215824
0.000106813 0.905318 0.213245
0.00772107 0.90071 0.21004
0.017258 0.895491 0.206439
0.0321965 0.889799 0.202335
0.056199 0.883268 0.197574
0.0894942 0.875853 0.192111
0.127062 0.86714 0.185687
0.166125 0.858396 0.179141
0.210285 0.848554 0.171633
0.255756 0.838422 0.163897
0.305333 0.827405 0.155444
0.357366 0.815747 0.146517
0.411688 0.803464 0.137148
0.467506 0.789685 0.12752
0.524086 0.775174 0.117784
0.581125 0.760037 0.108003
0.638056 0.744884 0.0982223
0.693828 0.730175 0.0886702
0.748318 0.716182 0.0794842
0.799969 0.702556 0.0706493
0.84535 0.689982 0.0624704
0.885756 0.678233 0.0547799
0.926345 0.668666 0.0485695
0.967041 0.660121 0.0429694
0.982956 0.653834 0.038941
0.99585 0.648234 0.0353246
0.998428 0.645396 0.033341
1 0.644007 0.0322271
1 0.643915 0.0320439
1 0.644862 0.0323796
1 0.646876 0.0332341
0 0.945815 0.229862
0 0.943008 0.227573
4.57771e-05 0.93991 0.22501
0.00634775 0.935836 0.221653
0.0143587 0.931441 0.218006
0.0273594 0.92668 0.213748
0.0505837 0.921294 0.208896
0.0838483 0.915084 0.203326
0.121706 0.908309 0.196979
0.161212 0.901244 0.190249
0.205783 0.893446 0.182666
0.251575 0.885466 0.174868
0.301198 0.876921 0.166384
0.353292 0.867628 0.157427
0.407782 0.857527 0.147997
0.463706 0.844678 0.138338
0.520363 0.830411 0.128542
0.577295 0.815335 0.118746
0.634104 0.800214 0.108995
0.689601 0.785473 0.0995041
0.743374 0.771176 0.0902724
0.794675 0.757488 0.0814984
0.839948 0.744839 0.0733349
0.880598 0.733318 0.0657206
0.92137 0.723766 0.0594644
0.96228 0.714946 0.0536507
0.980056 0.708736 0.0496834
0.994614 0.703578 0.046128
0.99794 0.700832 0.0441749
1 0.699077 0.0429084
1 0.69897 0.0428016
1 0.700267 0.0432288
1 0.701915 0.0439765
0 0.964004 0.241169
0 0.962173 0.238804
3.0518e-05 0.960372 0.236439
0.00457771 0.957809 0.232837
0.0110018 0.955001 0.229053
0.0227665 0.952102 0.224811
0.0453803 0.948669 0.21973
0.0787366 0.945083 0.214145
0.116854 0.941054 0.207706
0.156725 0.936843 0.200946
0.201785 0.932265 0.19321
0.24802 0.927275 0.185275
0.297719 0.92221 0.176745
0.349859 0.916289 0.167758
0.404395 0.909316 0.158297
0.460365 0.897795 0.148592
0.517098 0.883864 0.138735
0.573953 0.868864 0.128954
0.630655 0.853758 0.119188
0.685908 0.839094 0.109743
0.739284 0.825254 0.100633
0.789868 0.811704 0.0919356
0.834897 0.799161 0.0838178
0.875593 0.787366 0.0762036
0.916411 0.77789 0.0699626
0.957351 0.769162 0.0641794
0.977462 0.76347 0.0602579
0.994095 0.758099 0.0567636
0.997726 0.75555 0.0548867
1 0.753979 0.053666
1 0.754391 0.0535592
1 0.755383 0.0540169
1 0.757046 0.0548104
0 0.981506 0.251667
0 0.98056 0.249363
0 0.97969 0.246891
0.00263981 0.978271 0.243168
0.00749218 0.976944 0.239246
0.0191958 0.975357 0.234775
0.0413367 0.973785 0.229709
0.0745098 0.972061 0.224109
0.112871 0.970123 0.217594
0.153231 0.967895 0.210666
0.198627 0.965698 0.202914
0.245151 0.963409 0.194888
0.29514 0.960769 0.186297
0.347417 0.957275 0.177279
0.401984 0.952636 0.167803
0.458 0.942687 0.158083
0.514809 0.929808 0.148226
0.571603 0.91632 0.138415
0.628214 0.902724 0.128649
0.683207 0.88896 0.119203
0.736233 0.875334 0.110063
0.786084 0.861723 0.101335
0.830854 0.849134 0.09337
0.871305 0.837385 0.0858778
0.912383 0.827634 0.0795605
0.953246 0.818998 0.0737926
0.97528 0.81297 0.0698863
0.993576 0.807614 0.0664683
0.99736 0.804974 0.0646525
0.999802 0.803677 0.0635538
0.999939 0.803754 0.0634775
1 0.804654 0.0639811
1 0.806149 0.0647746
0 0.998581 0.26183
0 0.99852 0.259434
0 0.998322 0.25684
0.000610361 0.998215 0.253056
0.00396735 0.997955 0.248936
0.0159304 0.997833 0.244373
0.0379187 0.997696 0.239322
0.0710002 0.99736 0.233539
0.109636 0.997177 0.226947
0.150484 0.996994 0.219974
0.195834 0.99678 0.212177
0.242649 0.996246 0.204074
0.29337 0.995483 0.1953
0.34551 0.993912 0.186313
0.400107 0.99118 0.176822
0.456168 0.982895 0.167086
0.513039 0.97145 0.157244
0.569772 0.960174 0.147417
0.626307 0.948806 0.137621
0.681041 0.936355 0.128191
0.7337 0.923583 0.119051
0.782818 0.909819 0.110399
0.827298 0.897108 0.102495
0.867765 0.885618 0.0951247
0.908797 0.875517 0.0887617
0.949615 0.866163 0.0828565
0.973281 0.860105 0.0790417
0.993042 0.854704 0.075639
0.996887 0.851865 0.0739757
0.999496 0.850385 0.0729229
0.999847 0.850446 0.0729992
1 0.851179 0.0734722
1 0.852735 0.0744182
0 1 0.270466
0 1 0.267948
0 1 0.265461
0.000213626 1 0.261448
0.00340276 1 0.25742
0.016434 1 0.252613
0.0379797 1 0.247501
0.0692149 1 0.241794
0.107576 1 0.234958
