luts/varicam_official/Magenta_2.cube
TITLE "Generated by Resolve"
LUT_3D_SIZE 5
0.0428321 0.0332341 0.0421454
0.20116 0.00260929 0.0171359
0.571023 0 0
0.97644 0 0
1 0 0
0.0276036 0.1794 0.0732128
0.19646 0.137377 0.0455329
0.574975 0.0408179 0.000381476
0.963333 0.00120546 0
1 0 0
0 0.554025 0.144991
0.163333 0.510918 0.115007
0.551812 0.410788 0.0490425
0.942061 0.303471 0.00314336
1 0.277974 0.00047303
0 0.964004 0.241169
0.116854 0.941054 0.207706
0.517098 0.883864 0.138735
0.916411 0.77789 0.0699626
1 0.757046 0.0548104
0 1 0.297856
0.11458 1 0.259419
0.526436 1 0.187152
0.906813 0.997711 0.121187
1 0.977493 0.109773
0.0428321 0.0374304 0.184604
0.20322 0.0037995 0.162234
0.575036 0 0.102266
0.975982 0 0.0375677
1 0 0.01944
0.0270542 0.186358 0.227054
0.198001 0.143862 0.203647
0.578332 0.0460059 0.143313
0.963241 0.00161746 0.0756237
1 0 0.0586557
0 0.563394 0.314992
0.164797 0.519295 0.28835
0.554467 0.418891 0.226368
0.943206 0.312215 0.1608
1 0.287449 0.147951
0 0.967117 0.424933
0.118212 0.944839 0.394873
0.519768 0.891417 0.3308
0.917021 0.786023 0.268437
1 0.766384 0.260746
0 1 0.499565
0.116426 1 0.464668
0.528923 1 0.397086
0.907286 0.998795 0.336416
1 0.982681 0.33048
0.0411688 0.0460517 0.512825
0.203937 0.00764477 0.493843
0.578515 0 0.437385
0.974472 0 0.370596
1 0 0.352178
0.0251926 0.198001 0.563531
0.19855 0.155047 0.541833
0.580697 0.0554971 0.484291
0.962509 0.00242618 0.419638
1 0 0.405112
0.000106813 0.577447 0.659693
0.165255 0.532815 0.634943
0.556313 0.432135 0.575555
0.944396 0.326009 0.513817
1 0.302525 0.504372
0 0.972107 0.778454
0.118441 0.95082 0.749462
0.521416 0.90248 0.686488
0.916747 0.798703 0.625849
1 0.77969 0.620462
0 1 0.857435
0.118273 1 0.822599
0.531533 1 0.756024
0.907332 0.999756 0.69723
1 0.990982 0.693294
0.0394751 0.0558633 0.876799
0.205158 0.0143893 0.853452
0.582574 0 0.792142
0.973236 0 0.720104
1 0 0.696818
0.0231479 0.210742 0.918669
0.199466 0.166613 0.893172
0.584298 0.065095 0.830518
0.962203 0.0043946 0.759091
1 0 0.737606
0.000335698 0.592371 0.985046
0.165988 0.546624 0.966918
0.559289 0.445335 0.905486
0.94641 0.339635 0.837293
1 0.317403 0.821469
0 0.976608 1
0.119997 0.95639 0.999359
0.524834 0.912703 0.986099
0.916762 0.810925 0.932296
1 0.79295 0.920211
0 1 1
0.121324 1 1
0.535698 1 1
0.90869 1 0.976928
1 0.997406 0.9664
0.0400854 0.0603647 0.99678
0.209186 0.0171511 0.966308
0.589685 0 0.895994
0.973663 0 0.815
1 0 0.782864
0.0234684 0.218341 1
0.203723 0.17258 0.989609
0.590631 0.0699474 0.919966
0.963516 0.00515755 0.842176
1 0 0.814435
0.00128176 0.602655 1
0.169848 0.555261 1
0.565393 0.453025 0.979904
0.949935 0.348257 0.906615
1 0.327489 0.884627
0 0.978744 1
0.124376 0.960128 1
0.531411 0.919005 1
0.919539 0.817639 0.984314
1 0.80061 0.966323
0 1 1
0.127718 1 1
0.542596 1 1
0.912505 1 1
1 0.998291 0.999741
