luts/varicam_official/Magenta_2.cube
TITLE "Generated by Resolve"
LUT_3D_SIZE 9
0.0428321 0.0332341 0.0421454
0.0990463 0.0184329 0.0331731
0.20116 0.00260929 0.0171359
0.360006 4.57771e-05 0.00163272
0.571023 0 0
0.803754 0 0
0.97644 0 0
0.999344 0 0
1 0 0
0.0383459 0.0843977 0.0537575
0.0964218 0.0695811 0.0444953
0.201099 0.0412909 0.026978
0.363561 0.011841 0.00672923
0.575174 0 0
0.80705 0 0
0.971664 0 0
0.999649 0 0
1 0 0
0.0276036 0.1794 0.0732128
0.0879835 0.165331 0.0637369
0.19646 0.137377 0.0455329
0.362661 0.0934768 0.0186618
0.574975 0.0408179 0.000381476
0.805814 0.0109712 0
0.963333 0.00120546 0
1 0 0
1 0 0
0.0122835 0.336797 0.103761
0.0701152 0.323339 0.0939193
0.18349 0.295201 0.0750134
0.353658 0.250523 0.0456397
0.567208 0.194278 0.0106966
0.796582 0.132937 0.000366217
0.952361 0.0844739 0
1 0.0580911 0
1 0.0530404 0
0 0.554025 0.144991
0.0445563 0.539635 0.134463
0.163333 0.510918 0.115007
0.335836 0.467201 0.0859388
0.551812 0.410788 0.0490425
0.779644 0.351659 0.014847
0.942061 0.303471 0.00314336
1 0.27779 0.000534066
1 0.277974 0.00047303
4.57771e-05 0.80618 0.193652
0.0227359 0.790036 0.182467
0.138888 0.760037 0.162249
0.3149 0.714549 0.132494
0.532601 0.658259 0.0952468
0.75848 0.599176 0.056672
0.934234 0.552514 0.0269169
0.999603 0.52874 0.0149691
1 0.530571 0.0145418
0 0.964004 0.241169
0.0110018 0.955001 0.229053
0.116854 0.941054 0.207706
0.297719 0.92221 0.176745
0.517098 0.883864 0.138735
0.739284 0.825254 0.100633
0.916411 0.77789 0.0699626
0.997726 0.75555 0.0548867
1 0.757046 0.0548104
0 1 0.278599
0.00329595 1 0.265309
0.105974 1 0.242695
0.292607 1 0.21033
0.513222 1 0.171725
0.731929 0.984771 0.133532
0.903532 0.945647 0.103838
0.995438 0.921019 0.0891127
1 0.920241 0.0896925
0 1 0.297856
0.00407416 1 0.283604
0.11458 1 0.259419
0.305241 1 0.225956
0.526436 1 0.187152
0.742336 1 0.149126
0.906813 0.997711 0.121187
0.993759 0.980697 0.10837
1 0.977493 0.109773
0.0429694 0.0348974 0.0927138
0.0995346 0.0197299 0.0844892
0.202243 0.00308232 0.0679942
0.361501 9.15541e-05 0.0414435
0.573037 0 0.0126192
0.805829 0 0.00242618
0.976471 0 0
0.999405 0 0
1 0 0
0.038468 0.0864424 0.106142
0.09691 0.0715038 0.0974136
0.202106 0.0431373 0.0806134
0.36527 0.0126345 0.0532692
0.577279 0 0.0185702
0.809003 0 0.00424201
0.971542 0 0
0.999725 0 0
1 0 0
0.0275273 0.182315 0.127886
0.0880903 0.168109 0.118929
0.197406 0.140093 0.101442
0.363928 0.0958419 0.073991
0.576654 0.0429541 0.0383154
0.807202 0.0120089 0.0122988
0.963317 0.00135805 0.00209049
1 0 0
1 0 0.000488289
0.011902 0.340414 0.161273
0.0701457 0.326207 0.152422
0.184421 0.297749 0.134737
0.354482 0.25391 0.106828
0.568536 0.197024 0.0710918
0.797757 0.136187 0.034699
0.952819 0.0869917 0.0145876
1 0.0603647 0.00509651
1 0.0552529 0.00363165
0 0.558053 0.207095
0.0448463 0.542977 0.197284
0.164248 0.514351 0.178744
0.33724 0.470329 0.150652
0.553017 0.414435 0.11487
0.780819 0.355047 0.0771496
0.942672 0.307362 0.0477455
1 0.281529 0.0343938
1 0.282139 0.0345617
7.62951e-05 0.809781 0.259144
0.0232395 0.793896 0.248783
0.139483 0.763333 0.229252
0.316106 0.718273 0.200488
0.534096 0.661418 0.164279
0.759258 0.602533 0.126864
0.935119 0.556054 0.0969253
0.999557 0.532677 0.0818494
1 0.534524 0.082826
0 0.965255 0.310155
0.0110018 0.956436 0.298604
0.117464 0.942535 0.277852
0.299245 0.924498 0.247974
0.518349 0.886931 0.211078
0.740139 0.828412 0.174105
0.91693 0.781155 0.144503
0.997864 0.758953 0.130922
1 0.760891 0.133196
0 1 0.351049
0.00337224 1 0.338293
0.106905 1 0.316152
0.293889 1 0.284596
0.514672 1 0.247013
0.732921 0.985687 0.21088
0.903853 0.948043 0.183154
0.99527 0.923598 0.170626
1 0.923064 0.173327
0 1 0.373861
0.00402838 1 0.360647
0.115618 1 0.337514
0.306493 1 0.305608
0.527794 1 0.268269
0.743175 1 0.232013
0.907179 0.998337 0.205432
0.993606 0.982635 0.194018
1 0.979538 0.196796
0.0428321 0.0374304 0.184604
0.0997177 0.0220645 0.177539
0.20322 0.0037995 0.162234
0.363058 0.000137331 0.137057
0.575036 0 0.102266
0.807523 0 0.0647288
0.975982 0 0.0375677
0.999451 0 0.0222477
1 0 0.01944
0.0381018 0.0896773 0.201144
0.0970016 0.0746777 0.193683
0.202808 0.0461585 0.178149
0.366781 0.014023 0.152361
0.579049 0 0.118227
0.810651 0 0.0807507
0.971222 0 0.051545
0.999832 0 0.0364233
1 0 0.0346227
0.0270542 0.186358 0.227054
0.0882582 0.172076 0.219562
0.198001 0.143862 0.203647
0.365316 0.0993515 0.177584
0.578332 0.0460059 0.143313
0.808713 0.0132601 0.106264
0.963241 0.00161746 0.0756237
1 0 0.0595102
1 0 0.0586557
0.011429 0.345113 0.265415
0.0699016 0.3308 0.257435
0.185107 0.302281 0.240543
0.355657 0.257801 0.214069
0.570092 0.200839 0.179599
0.799054 0.140124 0.142824
0.952911 0.0911116 0.112322
1 0.0640726 0.0956588
1 0.059266 0.0959182
0 0.563394 0.314992
0.044892 0.54818 0.305943
0.164797 0.519295 0.28835
0.337972 0.475288 0.261189
0.554467 0.418891 0.226368
0.781659 0.360082 0.190066
0.943206 0.312215 0.1608
1 0.287114 0.14609
1 0.287449 0.147951
0.000106813 0.815167 0.370459
0.0237125 0.798581 0.360647
0.140139 0.768109 0.342016
0.317128 0.722927 0.314244
0.534951 0.665873 0.27921
0.759869 0.607614 0.243549
0.935653 0.561227 0.215625
0.999496 0.538201 0.202502
1 0.539895 0.205615
0 0.967117 0.424933
0.0106661 0.958511 0.414282
0.118212 0.944839 0.394873
0.300206 0.92726 0.366155
0.519768 0.891417 0.3308
0.741161 0.832654 0.295781
0.917021 0.786023 0.268437
0.998047 0.76379 0.256794
1 0.766384 0.260746
0 1 0.470848
0.00341802 1 0.459068
0.107713 1 0.438407
0.294926 1 0.408377
0.515831 1 0.372503
0.734096 0.986877 0.337362
0.904067 0.951629 0.311116
0.994934 0.927718 0.299901
1 0.927214 0.304051
0 1 0.499565
0.0039826 1 0.486702
0.116426 1 0.464668
0.307774 1 0.433371
0.528923 1 0.397086
0.744427 1 0.361776
0.907286 0.998795 0.336416
0.993378 0.985672 0.326711
1 0.982681 0.33048
0.0422065 0.0411536 0.328435
0.0997787 0.0258335 0.322286
0.203647 0.00488289 0.308446
0.364858 0.000244144 0.284245
0.576761 0 0.251225
0.80943 0 0.214466
0.975311 0 0.182452
0.999527 0 0.163424
1 0 0.16199
0.0374151 0.0941482 0.347539
0.0969558 0.0789044 0.340917
0.203464 0.0501411 0.326574
0.368429 0.0158541 0.301549
0.58024 0 0.26836
0.812146 0 0.231891
0.970596 0 0.200793
0.999908 0 0.182498
1 0 0.18233
0.0261845 0.191592 0.376455
0.0877546 0.177142 0.36936
0.198413 0.148943 0.35404
0.366323 0.104005 0.328832
0.579583 0.0501564 0.29575
0.809735 0.0149691 0.259724
0.96286 0.00196841 0.229618
1 0 0.21265
1 0 0.214115
0.0104982 0.351217 0.41738
0.0693523 0.336751 0.409979
0.18555 0.30782 0.3935
0.356634 0.263249 0.367758
0.571633 0.206302 0.334691
0.800244 0.145678 0.299229
0.953094 0.0962234 0.270466
1 0.068925 0.255497
1 0.0646067 0.257755
1.5259e-05 0.569924 0.469596
0.0445869 0.554513 0.461341
0.164858 0.525704 0.444739
0.338872 0.4813 0.418662
0.555306 0.425193 0.385122
0.782605 0.366064 0.350286
0.943771 0.318746 0.322805
1 0.293507 0.30959
1 0.294575 0.312947
0.000122072 0.821912 0.529335
0.0238651 0.805173 0.520088
0.140169 0.774395 0.502495
0.317922 0.729091 0.475731
0.536065 0.672068 0.441871
0.760388 0.61413 0.407355
0.936416 0.5673 0.380255
0.999451 0.544686 0.368536
1 0.547158 0.37261
0 0.969558 0.587457
0.0102846 0.96112 0.57731
0.118502 0.947677 0.558556
0.301427 0.930663 0.530312
0.520348 0.896849 0.495888
0.741619 0.838346 0.461891
0.917037 0.791897 0.435279
0.998276 0.770169 0.424826
1 0.772412 0.429374
0 1 0.636378
0.00355535 1 0.624659
0.1084 1 0.604608
0.296437 1 0.574853
0.516594 1 0.539437
0.734783 0.988479 0.505104
0.903655 0.956115 0.479759
0.994598 0.932464 0.469841
1 0.932128 0.474815
0 1 0.66714
0.0043183 1 0.654505
0.11754 1 0.63241
0.30869 1 0.602045
0.530526 1 0.56614
0.745235 1 0.532067
0.907454 0.999283 0.507744
0.993042 0.989578 0.498894
1 0.986679 0.504097
0.0411688 0.0460517 0.512825
0.0994278 0.030518 0.507271
0.203937 0.00764477 0.493843
0.366308 0.000366217 0.47013
0.578515 0 0.437385
0.810697 0 0.40177
0.974472 0 0.370596
0.999603 0 0.352636
1 0 0.352178
0.0363317 0.0995651 0.533074
0.0965133 0.0841993 0.527123
0.203769 0.0550546 0.512978
0.369467 0.018555 0.488731
0.581918 0.000183108 0.455726
0.813626 0 0.420081
0.970001 0 0.389899
0.999969 0 0.372503
1 0 0.373251
0.0251926 0.198001 0.563531
0.0870832 0.183307 0.556771
0.19855 0.155047 0.541833
0.367681 0.109575 0.517006
0.580697 0.0554971 0.484291
0.810712 0.0173037 0.449149
0.962509 0.00242618 0.419638
1 0 0.403555
1 0 0.405112
0.00929274 0.35816 0.605463
0.0687724 0.343511 0.598581
0.185718 0.314366 0.582712
0.357382 0.269993 0.557458
0.572717 0.212634 0.524407
0.801175 0.152392 0.489464
0.953124 0.102327 0.461234
1 0.0747692 0.446799
1 0.0720836 0.449317
0.000106813 0.577447 0.659693
0.0439918 0.562127 0.65124
0.165255 0.532815 0.634943
0.339529 0.488334 0.609003
0.556313 0.432135 0.575555
0.783322 0.373098 0.540978
0.944396 0.326009 0.513817
1 0.301167 0.500786
1 0.302525 0.504372
0.000122072 0.82945 0.719768
0.0239872 0.812512 0.710536
0.1402 0.781674 0.69279
0.318578 0.736065 0.666224
0.537087 0.679026 0.632334
0.760998 0.620722 0.598062
0.936904 0.574456 0.571038
0.999374 0.5523 0.559594
1 0.554711 0.564157
0 0.972107 0.778454
0.00981155 0.96376 0.768078
0.118441 0.95082 0.749462
0.302052 0.934112 0.720836
0.521416 0.90248 0.686488
0.742229 0.844419 0.652171
0.916747 0.798703 0.625849
0.998535 0.777218 0.615595
1 0.77969 0.620462
0 1 0.826688
0.00366217 1 0.815137
0.109209 1 0.79472
0.297597 1 0.764889
0.517922 1 0.729427
0.735592 0.990311 0.695232
0.903517 0.960342 0.670176
0.994232 0.937957 0.660227
1 0.937865 0.665232
0 1 0.857435
0.00460822 1 0.844663
0.118273 1 0.822599
0.310048 1 0.791653
0.531533 1 0.756024
0.746273 1 0.721599
0.907332 0.999756 0.69723
0.992172 0.993591 0.688746
1 0.990982 0.693294
0.0400702 0.0512398 0.710109
0.0989395 0.0355688 0.704097
0.204364 0.0112612 0.689845
0.367391 0.000534066 0.665782
0.58027 0 0.632639
0.812207 0 0.596429
0.973587 0 0.564279
0.999695 0 0.545327
1 0 0.544121
0.035172 0.105241 0.729992
0.0957961 0.089662 0.723323
0.204349 0.0603952 0.708263
0.370687 0.0215915 0.683253
0.583581 0.000411994 0.64979
0.814725 4.57771e-05 0.613321
0.96936 0 0.581613
1 0 0.563531
1 0 0.563104
0.0239719 0.204807 0.75903
0.0864118 0.18999 0.751781
0.198993 0.160952 0.73579
0.368414 0.115785 0.709957
0.58204 0.0605631 0.676356
0.812406 0.020264 0.639918
0.962203 0.00334173 0.609369
1 0 0.592309
1 0 0.593164
0.00784314 0.365621 0.799115
0.0683604 0.350668 0.791043
0.186206 0.321553 0.774197
0.358526 0.276371 0.747738
0.573663 0.219348 0.713848
0.802075 0.158663 0.677852
0.953185 0.108888 0.648402
1 0.0809796 0.633188
1 0.0796826 0.635019
0.00015259 0.585458 0.850202
0.0435187 0.569909 0.841382
0.165499 0.540017 0.82356
0.34023 0.495598 0.796796
0.557656 0.43888 0.762402
0.784054 0.380362 0.72697
0.945296 0.333257 0.698772
1 0.308904 0.685328
1 0.310613 0.687953
0.000106813 0.836912 0.906661
0.0243229 0.819928 0.897276
0.14049 0.788815 0.87924
0.319692 0.743008 0.85127
0.538262 0.685924 0.816617
0.761532 0.627619 0.781735
0.937453 0.581643 0.754177
0.999313 0.559808 0.742107
1 0.562097 0.745083
0 0.974685 0.956252
0.00936904 0.966308 0.947402
0.118944 0.95378 0.931105
0.30312 0.937865 0.903639
0.523018 0.907835 0.868574
0.74287 0.851011 0.83328
0.916396 0.805173 0.805951
0.998611 0.784115 0.793866
1 0.787121 0.796933
0 1 0.960449
0.00366217 1 0.954971
0.110185 1 0.945235
0.298451 1 0.92958
0.519799 1 0.899229
0.736538 0.991974 0.865324
0.903685 0.964431 0.839155
0.993774 0.943221 0.828
1 0.943023 0.831815
0 1 0.973007
0.00508125 1 0.969146
0.119387 1 0.963104
0.312016 1 0.952941
0.533196 1 0.923537
0.747387 1 0.889204
0.907637 0.999985 0.863981
0.990967 0.996811 0.854337
1 0.994858 0.857618
0.0394751 0.0558633 0.876799
0.0988937 0.0399939 0.869108
0.205158 0.0143893 0.853452
0.369284 0.000656138 0.826963
0.582574 0 0.792142
0.814542 0 0.753674
0.973236 0 0.720104
0.999786 0 0.699779
1 0 0.696818
0.0344091 0.110323 0.893034
0.0957351 0.0945144 0.884962
0.205173 0.0648814 0.868421
0.372702 0.0242618 0.841794
0.58584 0.000946059 0.806653
0.816831 9.15541e-05 0.768688
0.969039 0 0.735592
1 0 0.715496
1 0 0.712428
0.0231479 0.210742 0.918669
0.0859998 0.19585 0.910231
0.199466 0.166613 0.893172
0.370169 0.120775 0.865843
0.584298 0.065095 0.830518
0.813931 0.0227512 0.791699
0.962203 0.0043946 0.759091
1 0 0.739696
1 0 0.737606
0.00653086 0.372213 0.955627
0.0682689 0.356924 0.946487
0.187076 0.327169 0.927626
0.359808 0.282139 0.899016
0.575921 0.224704 0.862745
0.804105 0.164263 0.824338
0.95378 0.114763 0.792859
1 0.0869764 0.775265
1 0.0864424 0.774319
0.000335698 0.592371 0.985046
0.0434882 0.576562 0.98024
0.165988 0.546624 0.966918
0.34197 0.501732 0.941344
0.559289 0.445335 0.905486
0.785733 0.386404 0.867674
0.94641 0.339635 0.837293
1 0.316136 0.821332
1 0.317403 0.821469
0.000106813 0.843809 0.998932
0.0246891 0.826856 0.996475
0.141436 0.795499 0.991196
0.321248 0.749126 0.979599
0.540032 0.691875 0.952148
0.762676 0.634104 0.915892
0.938491 0.587869 0.886137
0.999313 0.565988 0.871733
1 0.568414 0.872755
0 0.976608 1
0.00907912 0.968719 0.999985
0.119997 0.95639 0.999359
0.305318 0.941268 0.995773
0.524834 0.912703 0.986099
0.744167 0.856077 0.960037
0.916762 0.810925 0.932296
0.998734 0.789944 0.918914
1 0.79295 0.920211
0 1 0.99971
0.00393683 1 0.999176
0.111528 1 0.998764
0.30071 1 0.997177
0.521889 1 0.990845
0.738125 0.993149 0.978332
0.904295 0.96759 0.95993
0.993545 0.947112 0.947021
1 0.947219 0.948104
0 1 1
0.00584421 1 1
0.121324 1 1
0.314153 1 1
0.535698 1 1
0.74931 1 0.992355
0.90869 1 0.976928
0.990463 0.998428 0.966125
1 0.997406 0.9664
0.0394141 0.0589609 0.975845
0.0996109 0.0428016 0.965927
0.206607 0.0163577 0.94757
0.372381 0.000732433 0.918456
0.585779 0 0.880537
0.817487 0 0.839338
0.973175 0 0.802762
0.999878 0 0.7794
1 0 0.773739
0.0342718 0.113863 0.985489
0.0963455 0.0977493 0.976791
0.206943 0.0678111 0.958007
0.37496 0.0261082 0.928588
0.588739 0.00144961 0.89073
0.819776 0.000137331 0.849805
0.969253 0 0.814404
1 0 0.791897
1 0 0.786984
0.0230716 0.215183 0.99585
0.0864729 0.199939 0.991409
0.201266 0.170443 0.976654
0.372702 0.124285 0.94728
0.587304 0.0680705 0.909483
0.816602 0.0245518 0.869169
0.962615 0.0049897 0.834424
1 0 0.812497
1 0 0.807614
0.00570687 0.377371 0.999603
0.0690471 0.361944 0.999359
0.188785 0.331853 0.995895
0.362295 0.286412 0.976104
0.578408 0.229084 0.937728
0.806439 0.168429 0.896681
0.954665 0.118761 0.86247
1 0.092134 0.842329
1 0.0917678 0.838621
0.000793469 0.598276 1
0.0442359 0.582269 1
0.167742 0.551781 0.999954
0.344076 0.506691 0.997406
0.562219 0.449821 0.97322
0.787579 0.391318 0.933501
0.948135 0.344717 0.90045
1 0.321172 0.881956
1 0.322759 0.879164
9.15541e-05 0.849439 1
0.025391 0.831907 1
0.142916 0.800259 1
0.323293 0.753887 1
0.542489 0.696559 0.998001
0.764721 0.638407 0.974701
0.940124 0.592691 0.942351
0.999344 0.571054 0.925383
1 0.573266 0.923476
0 0.97789 1
0.00906386 0.970214 1
0.12192 0.958587 1
0.307851 0.944076 1
0.52784 0.916075 0.999985
0.74641 0.860121 0.997589
0.918074 0.81471 0.980865
0.999054 0.794079 0.964828
1 0.797208 0.963714
0 1 1
0.00411994 1 1
0.113924 1 1
0.303975 1 1
0.524712 1 1
0.740749 0.993637 0.99968
0.905669 0.969329 0.997314
0.993561 0.94966 0.99028
1 0.949691 0.989136
0 1 1
0.00732433 1 1
0.124163 1 1
0.317342 1 1
0.538857 1 1
0.752148 1 1
0.910384 1 1
0.990555 0.998779 0.999344
1 0.998169 0.998901
0.0400854 0.0603647 0.99678
0.101015 0.0439765 0.986252
0.209186 0.0171511 0.966308
0.37583 0.000762951 0.935531
0.589685 0 0.895994
0.821241 0 0.853086
0.973663 0 0.815
0.999985 0 0.790097
1 0 0.782864
0.0349126 0.11577 0.999741
0.0977035 0.0994888 0.994446
0.209369 0.0691386 0.974594
0.378332 0.0272526 0.943404
0.592782 0.00192264 0.903929
0.82298 0.000167849 0.861524
0.969802 0 0.824537
1 0 0.800595
1 0 0.794446
0.0234684 0.218341 1
0.0876936 0.202625 0.999634
0.203723 0.17258 0.989609
0.375631 0.126329 0.959365
0.590631 0.0699474 0.919966
0.820142 0.0255741 0.877852
0.963516 0.00515755 0.842176
1 0 0.819837
1 0 0.814435
0.00534066 0.381201 1
0.0705577 0.36524 1
0.191043 0.334508 0.999405
0.36495 0.289555 0.984817
0.582116 0.231296 0.945556
0.809735 0.171008 0.904067
0.956054 0.121935 0.869459
1 0.0957504 0.849119
1 0.0962692 0.844984
0.00128176 0.602655 1
0.0456855 0.585977 1
0.169848 0.555261 1
0.347219 0.50985 0.999786
0.565393 0.453025 0.979904
0.790234 0.394629 0.940047
0.949935 0.348257 0.906615
1 0.325277 0.887846
1 0.327489 0.884627
9.15541e-05 0.853315 1
0.0265354 0.835904 1
0.145312 0.803708 1
0.326696 0.756924 1
0.545937 0.699428 0.999863
0.76762 0.64152 0.979934
0.942046 0.595972 0.947341
0.99942 0.574517 0.929992
1 0.57702 0.927626
0 0.978744 1
0.00944533 0.971252 1
0.124376 0.960128 1
0.310994 0.946456 1
0.531411 0.919005 1
0.749447 0.862593 0.999054
0.919539 0.817639 0.984314
0.999191 0.797299 0.967834
1 0.80061 0.966323
0 1 1
0.00433356 1 1
0.116747 1 1
0.307378 1 1
0.528481 1 1
0.743786 0.993744 1
0.9075 0.970382 0.999008
0.993713 0.951202 0.992554
1 0.951308 0.991165
0 1 1
0.00906386 1 1
0.127718 1 1
0.321065 1 1
0.542596 1 1
0.755367 1 1
0.912505 1 1
0.990921 0.998825 0.999954
1 0.998291 0.999741
