luts/varicam_official/Magenta 1 33 E-E.cube
TITLE "Generated by Resolve"
LUT_3D_SIZE 9
0.0303502 0.022034 0.0297856
0.10248 0.00616464 0.01561
0.247578 0 0.00115969
0.476112 0 0
0.754925 0 0
0.979614 0 0
1 0 0
1 0 0
1 0 0
0.0176699 0.0770581 0.0362707
0.0840009 0.054902 0.0224002
0.221576 0.0174258 0.00357061
0.445441 0.000900282 0
0.722225 0 0
0.963272 0 0
0.999695 0 0
1 0 0
1 0 0
0.0043183 0.181018 0.0508888
0.0573129 0.158877 0.0377966
0.189242 0.115389 0.0127718
0.405676 0.0501106 0.000259403
0.679805 0.00440986 0
0.932662 0 0
0.997345 0 0
1 0 0
1 0 0
0 0.359014 0.0781262
0.0231785 0.335302 0.0652781
0.14522 0.291829 0.0399176
0.353582 0.222827 0.00628672
0.624659 0.135897 0
0.888762 0.0501717 0
0.991913 0.0130465 0
1 0.00556954 0
1 0.00225834 0
0 0.600641 0.116411
0.00285344 0.576883 0.10486
0.0895399 0.53431 0.0820935
0.290455 0.466011 0.0432441
0.558434 0.378805 0.00340276
0.831312 0.288991 0
0.977005 0.219226 0
1 0.184833 0
1 0.173709 0
0 0.869947 0.162249
4.57771e-05 0.848722 0.152651
0.0358892 0.808606 0.131502
0.221149 0.742657 0.094316
0.48513 0.656397 0.0438544
0.765026 0.564416 0.00360113
0.94995 0.491035 0
0.999817 0.452308 0
1 0.440375 0
0 0.985168 0.203983
0 0.980163 0.196185
0.00569161 0.968261 0.176822
0.156802 0.940398 0.141466
0.415549 0.892149 0.0921035
0.697597 0.81532 0.0385901
0.91043 0.741588 0.00288396
0.995666 0.701091 0
1 0.690105 0
0 1 0.231937
0 1 0.226184
0 1 0.208652
0.106676 1 0.175799
0.356863 0.998032 0.128344
0.638727 0.968887 0.0752117
0.866194 0.926009 0.030457
0.982605 0.886702 0.0062562
0.999969 0.875502 0.00241093
0 1 0.241566
0 1 0.237583
0 1 0.221912
0.0758679 1 0.191455
0.315908 1 0.145785
0.598093 0.999969 0.093019
0.834745 0.99443 0.0472877
0.967926 0.970184 0.0208743
0.999557 0.960311 0.0154116
0.02916 0.0230259 0.0979629
0.100679 0.00643931 0.0820478
0.24448 0 0.0525978
0.472358 0 0.0164797
0.75111 0 0.00184634
0.978622 0 0
1 0 0
1 0 0
1 0 0
0.0167086 0.0774548 0.0996567
0.0821851 0.0555123 0.084596
0.219013 0.0180362 0.0560769
0.442023 0.000900282 0.0176547
0.718471 0 0.00125124
0.960784 0 1.5259e-05
0.999512 0 0
1 0 0
1 0 0
0.00393683 0.180545 0.109087
0.0559396 0.158541 0.0945907
0.186954 0.115389 0.0668803
0.402396 0.0503853 0.024567
0.675792 0.00474556 0.00135805
0.929992 0 0
0.996994 0 0
1 0 0
1 0 0
0 0.35697 0.130877
0.022446 0.333761 0.117052
0.143008 0.290288 0.0911269
0.350591 0.221851 0.0495003
0.621302 0.135012 0.00766003
0.886061 0.0487221 0.00015259
0.991348 0.0112459 0
1 0.00422675 0
1 0.00216678 0
0 0.597574 0.165393
0.00265507 0.574212 0.152636
0.0877089 0.532296 0.128054
0.28719 0.464469 0.087602
0.554833 0.37702 0.0353246
0.828519 0.286976 0.00370794
0.980072 0.216754 0.000137331
1 0.181903 0
1 0.171054 0
0 0.866773 0.2047
6.10361e-05 0.845869 0.193423
0.034165 0.806027 0.170596
0.217945 0.740887 0.13164
0.481651 0.654215 0.0791791
0.762142 0.562036 0.0258793
0.960983 0.488167 0.00263981
1 0.449409 0.000289921
1 0.436957 4.57771e-05
0 0.984543 0.239719
0 0.979492 0.230304
0.00546273 0.967361 0.20911
0.154162 0.943603 0.171878
0.411994 0.903578 0.120714
0.694286 0.816938 0.0649729
0.917571 0.741619 0.0203098
0.999557 0.699748 0.00408942
1 0.687968 0.00267033
0 1 0.261082
0 1 0.25359
0 1 0.234302
0.10396 1 0.199908
0.353201 0.999847 0.150973
0.635203 0.992172 0.0964523
0.86656 0.937774 0.0500496
0.989899 0.894789 0.0237125
0.999985 0.882521 0.0178378
0 1 0.264637
0 1 0.259236
0 1 0.242329
0.0731823 1 0.210498
0.312093 1 0.163531
0.5944 0.999985 0.109163
0.833677 0.996948 0.0617685
0.973678 0.975235 0.0335546
0.999756 0.96466 0.0264744
0.0273747 0.0256504 0.238468
0.0979324 0.00802625 0.220783
0.240864 0 0.189273
0.468147 0 0.141894
0.746761 0 0.085069
0.976989 0 0.0407874
1 0 0.0153506
1 0 0.00576791
1 0 0.00210575
0.0151217 0.0793927 0.233341
0.0796368 0.0576638 0.216571
0.215625 0.0196689 0.186145
0.437736 0.000961318 0.139437
0.713863 0 0.0827497
0.957488 0 0.0354162
0.999268 0 0.0118868
1 0 0.0043946
1 0 0.0037995
0.00334173 0.181552 0.235584
0.0539864 0.159609 0.219272
0.184024 0.116808 0.189532
0.398383 0.0516365 0.144091
0.671229 0.00535592 0.0883955
0.926558 0 0.0388495
0.996597 0 0.0166476
1 0 0.00978103
1 0 0.00839246
0 0.356664 0.249851
0.0212863 0.33312 0.234104
0.140169 0.290166 0.2065
0.346532 0.222416 0.163104
0.617105 0.135149 0.10724
0.883085 0.0483253 0.0546273
0.990784 0.00906386 0.0230411
1 0.00259403 0.0145113
1 0.00199893 0.0121309
0 0.596246 0.277272
0.00247196 0.573114 0.26244
0.0853437 0.5308 0.236118
0.283604 0.463767 0.193683
0.550713 0.376547 0.138491
0.825376 0.286244 0.0816205
0.979171 0.215885 0.0417182
1 0.179889 0.025391
1 0.169055 0.0205539
0 0.865293 0.308995
6.10361e-05 0.844053 0.295888
0.0321202 0.804944 0.271107
0.214435 0.739818 0.230365
0.477928 0.652934 0.175692
0.758907 0.561013 0.117632
0.959625 0.487022 0.0709087
1 0.447089 0.0468299
1 0.434455 0.0397955
0 0.984253 0.336538
0 0.979156 0.3252
0.00512703 0.966796 0.302022
0.150576 0.942473 0.263066
0.408057 0.90222 0.209659
0.689906 0.816724 0.151965
0.915236 0.74078 0.104189
0.999603 0.698131 0.0778058
1 0.686091 0.0706798
0 1 0.350851
0 1 0.341253
0 1 0.320104
0.100877 1 0.284184
0.348852 1 0.233722
0.631189 0.996765 0.177249
0.864271 0.941497 0.129183
0.991714 0.897978 0.100526
1 0.885771 0.0923781
0 1 0.347738
0 1 0.340841
0 1 0.322408
0.0697337 1 0.289036
0.307286 1 0.240513
0.589792 1 0.184222
0.831235 0.998825 0.134966
0.977996 0.980621 0.104631
1 0.970459 0.0955215
0.0248112 0.0299382 0.452598
0.0946059 0.0106203 0.433875
0.236072 0.000106813 0.401175
0.462608 0 0.352682
0.741085 0 0.294591
0.97435 0 0.240162
0.999985 0 0.202289
1 0 0.187472
1 0 0.180987
0.0127565 0.0831311 0.443244
0.0764935 0.0615702 0.425055
0.211841 0.0225528 0.39295
0.432624 0.00108339 0.345449
0.708141 0 0.287541
0.95346 0 0.23154
0.998978 0 0.191135
1 0 0.173663
1 0 0.167269
0.00262455 0.184085 0.440208
0.0511635 0.162387 0.42269
0.180117 0.120043 0.391684
0.393332 0.0543069 0.345052
0.665797 0.00630198 0.287251
0.92253 0 0.230045
0.996094 0 0.187839
1 0 0.168399
1 0 0.161273
0 0.35816 0.449027
0.0195163 0.334752 0.431342
0.136645 0.29189 0.401785
0.341802 0.224338 0.356222
0.611933 0.137346 0.298909
0.879072 0.0498054 0.240772
0.990066 0.00697337 0.196399
1 0.00201419 0.173724
1 0.00207523 0.165621
0 0.596628 0.468757
0.00221256 0.573495 0.452491
0.0816205 0.531777 0.424155
0.279072 0.464988 0.37995
0.54522 0.37818 0.323262
0.820813 0.287694 0.264103
0.978042 0.216571 0.217029
1 0.180117 0.192065
1 0.169024 0.182956
0 0.8654 0.493812
4.57771e-05 0.844388 0.478782
0.0294194 0.80531 0.452155
0.2103 0.740673 0.409445
0.473045 0.653986 0.352956
0.754101 0.562066 0.293111
0.957748 0.486946 0.243671
1 0.446967 0.216632
1 0.434104 0.206638
0 0.984665 0.514534
0 0.97966 0.501396
0.00460822 0.967086 0.476234
0.146593 0.942138 0.435248
0.402792 0.902785 0.380087
0.685359 0.817746 0.319936
0.911315 0.741863 0.269245
0.999329 0.698222 0.239796
1 0.686259 0.230152
0 1 0.521569
0 1 0.510399
0 1 0.486854
0.0967269 1 0.448402
0.343526 1 0.395804
0.625803 0.997375 0.337026
0.8607 0.943572 0.285893
0.990509 0.899184 0.254536
1 0.8869 0.243824
0 1 0.510323
0 1 0.501137
0 1 0.480522
0.0660105 1 0.444892
0.301778 1 0.394369
0.584298 1 0.3355
0.827115 0.999176 0.283543
0.976059 0.983276 0.250797
1 0.973068 0.238849
0.0218814 0.0349432 0.697124
0.0907759 0.0138399 0.678706
0.231281 0.000564584 0.64625
0.457328 0 0.597955
0.735286 0 0.540169
0.96997 0 0.485817
0.999954 0 0.447593
1 0 0.432547
1 0 0.426261
0.0104524 0.087541 0.687572
0.0727855 0.0662089 0.669627
0.20734 0.0266423 0.638239
0.427008 0.00128176 0.590707
0.702602 0 0.532677
0.948974 0 0.476921
0.998657 0 0.436469
1 0 0.418997
1 0 0.411978
0.00192264 0.187823 0.684611
0.0482948 0.166003 0.667216
0.175723 0.124376 0.636469
0.387778 0.0584573 0.590082
0.660349 0.00813306 0.532372
0.918029 0 0.475502
0.995575 0 0.432029
1 0 0.412329
1 0 0.404242
0 0.360403 0.693156
0.0174563 0.337148 0.675532
0.132464 0.295033 0.646174
0.337072 0.227298 0.600351
0.606287 0.140551 0.542535
0.874266 0.0523537 0.483604
0.989242 0.00469978 0.438376
1 0.00205997 0.41471
1 0.00215152 0.405814
0 0.597528 0.711604
0.0019379 0.575036 0.69514
0.0779431 0.53373 0.666224
0.273884 0.467597 0.621637
0.539742 0.380774 0.564279
0.816159 0.290059 0.50428
0.976745 0.218585 0.456245
1 0.181598 0.430289
1 0.170382 0.420554
0 0.866407 0.734279
4.57771e-05 0.84596 0.718746
0.0267796 0.807095 0.691707
0.205386 0.742794 0.648432
0.467536 0.656367 0.591226
0.748837 0.564401 0.53019
0.95581 0.488746 0.48014
1 0.447715 0.451606
1 0.435264 0.441215
0 0.985611 0.752544
0 0.980804 0.738872
0.00401312 0.968002 0.712627
0.141924 0.942596 0.671427
0.397314 0.903563 0.615167
0.679484 0.820951 0.554681
0.907073 0.744091 0.502876
0.998993 0.700313 0.471946
1 0.687816 0.460655
0 1 0.757122
0 1 0.744808
0 1 0.721187
0.0921492 1 0.681834
0.337865 1 0.627726
0.620249 0.997742 0.567285
0.855756 0.947051 0.514321
0.988785 0.902266 0.481453
1 0.889296 0.46894
0 1 0.742763
0 1 0.73228
0 1 0.709957
0.0613718 1 0.673426
0.295964 1 0.620813
0.578622 1 0.560815
0.822416 0.999466 0.507134
0.973754 0.987091 0.472175
1 0.977386 0.459174
0.01944 0.0387884 0.896788
0.0874342 0.0175784 0.880323
0.226825 0.000885023 0.850095
0.452247 0 0.803632
0.729397 0 0.74757
0.965866 0 0.694591
0.999878 0 0.658122
1 0 0.644617
1 0 0.640223
0.00889601 0.0910811 0.893675
0.0696117 0.0700694 0.877317
0.203403 0.0300298 0.84744
0.421958 0.00131228 0.80206
0.696696 0 0.745815
0.944747 0 0.691539
0.998306 0 0.652476
1 0 0.63653
1 0 0.631189
0.00137331 0.190509 0.89633
0.0453651 0.169284 0.880385
0.171862 0.127703 0.851438
0.38291 0.0623941 0.807065
0.654749 0.00991836 0.751064
0.913802 0 0.695644
0.995026 0 0.654169
1 0 0.635676
1 0 0.629496
0 0.362142 0.910353
0.0158083 0.338842 0.89456
0.12874 0.296986 0.866911
0.331838 0.22974 0.823178
0.600687 0.143191 0.767361
0.869963 0.0548257 0.710369
0.988296 0.0043946 0.666712
1 0.002121 0.644923
1 0.00222782 0.6374
0 0.598993 0.931884
0.00169375 0.576257 0.918547
0.0739605 0.535897 0.893278
0.268818 0.469978 0.851102
0.534661 0.382925 0.795377
0.811582 0.292271 0.736385
0.975448 0.220295 0.689464
1 0.182956 0.664454
1 0.171618 0.655268
0 0.86743 0.956878
3.0518e-05 0.847272 0.946258
0.0242618 0.808728 0.923674
0.200671 0.744717 0.882856
0.462211 0.658396 0.826841
0.74377 0.566537 0.766979
0.953719 0.490379 0.717464
1 0.448875 0.689769
1 0.436454 0.680049
0 0.98674 0.973175
0 0.982071 0.96318
0.00352483 0.9691 0.943191
0.13724 0.943282 0.908186
0.391516 0.903197 0.854932
0.674022 0.823941 0.795071
0.902831 0.746639 0.74435
0.998566 0.702449 0.713863
1 0.689677 0.703258
0 1 0.954513
0 1 0.948943
0 1 0.934493
0.0875257 1 0.90782
0.331868 1 0.865827
0.614435 0.997406 0.808911
0.85124 0.950484 0.757366
0.987121 0.905455 0.725368
1 0.89247 0.714046
0 1 0.952728
0 1 0.948074
0 1 0.934173
0.0569924 1 0.907408
0.289631 1 0.864942
0.572152 1 0.807233
0.817609 0.999603 0.753948
0.970672 0.991089 0.719448
0.999939 0.982361 0.705867
0.0180362 0.0402991 0.988449
0.0850996 0.0192264 0.975235
0.223621 0.000961318 0.948562
0.448142 0 0.90602
0.724804 0 0.853712
0.962585 0 0.803845
0.999664 0 0.770031
1 0 0.758831
1 0 0.756954
0.00782788 0.0923018 0.993088
0.0674754 0.0715038 0.983017
0.200427 0.0314794 0.957046
0.417853 0.00109865 0.914809
0.692195 0 0.86183
0.94136 0 0.809949
0.997955 0 0.773571
1 0 0.759747
1 0 0.757351
0.00105287 0.191379 0.996918
0.0435798 0.170382 0.991547
0.168612 0.129137 0.970794
0.378592 0.0639658 0.929412
0.649943 0.0107576 0.876265
0.910109 0 0.823438
0.994492 0 0.784619
1 0 0.768261
1 0 0.764904
0 0.361624 0.998489
0.0146029 0.338933 0.996353
0.125704 0.297002 0.98761
0.327382 0.230564 0.954864
0.596094 0.143832 0.901839
0.866545 0.0551461 0.847486
0.987518 0.00491341 0.806516
1 0.00234989 0.787549
1 0.00222782 0.783413
0 0.597559 1
0.0015259 0.576013 0.999969
0.0709239 0.535531 0.998062
0.264576 0.470085 0.984344
0.529702 0.383215 0.940047
0.807919 0.292302 0.88455
0.974334 0.219928 0.841031
1 0.182376 0.819394
1 0.170977 0.813642
0 0.866896 1
3.0518e-05 0.847013 1
0.0225376 0.808682 1
0.196765 0.744854 0.998856
0.457481 0.658701 0.978576
0.739223 0.566705 0.927306
0.951568 0.490394 0.880674
1 0.448325 0.855192
1 0.435691 0.84802
0 0.98735 1
0 0.982712 1
0.00315862 0.969604 1
0.133104 0.943343 0.999557
0.386496 0.902373 0.993912
0.66894 0.825086 0.963134
0.898924 0.747814 0.916777
0.998169 0.703075 0.888823
1 0.689845 0.880552
0 1 1
0 1 1
0 1 0.999283
0.0835889 1 0.996399
0.326452 1 0.987869
0.609415 0.996338 0.965591
0.847379 0.952743 0.93193
0.985519 0.90724 0.904036
1 0.894102 0.895354
0 1 1
0 1 1
0 1 1
0.0530098 1 1
0.284062 1 0.999191
0.566491 1 0.981277
0.813169 0.99971 0.945556
0.967941 0.993317 0.91516
0.999817 0.986175 0.904784
0.0172885 0.0399786 0.997223
0.0837262 0.0190127 0.984924
0.221256 0.000854505 0.959014
0.444419 0 0.917449
0.720943 0 0.865766
0.959838 0 0.816861
0.99942 0 0.784039
1 0 0.77406
1 0 0.773816
0.007187 0.0914778 0.999878
0.066331 0.0707866 0.994842
0.198184 0.0310674 0.970214
0.414618 0.000991836 0.929427
0.688548 0 0.878004
0.938674 0 0.827924
0.99765 0 0.79295
1 0 0.780591
1 0 0.779812
0.000869764 0.189914 1
0.0426642 0.168688 0.999832
0.166522 0.128252 0.988434
0.375189 0.063447 0.949813
0.646097 0.0106355 0.898604
0.907469 0 0.847272
0.994125 0 0.81004
1 0 0.795239
1 0 0.793683
0 0.358251 1
0.0143435 0.335836 1
0.123781 0.294911 0.999847
0.324514 0.228367 0.981003
0.592508 0.142229 0.930526
0.863493 0.0541085 0.878004
0.986984 0.00511177 0.838514
1 0.00225834 0.821164
1 0.00231937 0.818799
0 0.594018 1
0.00140383 0.572519 1
0.0689403 0.533181 1
0.261494 0.467582 0.999634
0.525994 0.381353 0.975113
0.80499 0.289921 0.921752
0.973281 0.217395 0.879835
1 0.179522 0.859861
1 0.167712 0.85655
0 0.862959 1
1.5259e-05 0.84358 1
0.0214847 0.805753 1
0.194156 0.742458 1
0.453437 0.657053 0.999771
0.735821 0.564477 0.97174
0.949584 0.488304 0.928389
1 0.445701 0.90573
1 0.432578 0.901549
0 0.987137 1
0 0.982483 1
0.00302129 0.969131 1
0.129946 0.942229 1
0.382544 0.900465 1
0.665537 0.823804 0.999222
0.896086 0.7467 0.975998
0.997818 0.701213 0.95053
1 0.687587 0.945052
0 1 1
0 1 1
0 1 1
0.0802472 1 1
0.32221 1 1
0.605051 0.995331 0.999741
0.84416 0.952544 0.995804
0.984466 0.906722 0.979904
1 0.893263 0.973465
0 1 1
0 1 1
0 1 1
0.0497292 1 1
0.279438 1 1
0.561929 1 1
0.809705 0.999741 0.999756
0.966232 0.993698 0.995331
0.999771 0.987427 0.991012
0.0167239 0.0393378 0.997238
0.0822461 0.0185702 0.985077
0.219013 0.000915541 0.959411
0.441276 0 0.918029
0.717067 0 0.866468
0.957275 0 0.817456
0.999207 0 0.784329
1 0 0.774044
1 0 0.7738
0.00662242 0.0903029 0.999878
0.0652171 0.06981 0.994888
0.196124 0.030396 0.970397
0.411322 0.00102235 0.92987
0.684993 0 0.878523
0.936248 0 0.828336
0.997375 0 0.793118
1 0 0.780545
1 0 0.779751
0.000701915 0.18822 1
0.0419013 0.167056 0.999802
0.164691 0.126574 0.988449
0.372061 0.062562 0.950134
0.642496 0.0102235 0.899031
0.905058 0 0.847593
0.993744 0 0.810208
1 0 0.795148
1 0 0.793545
0 0.355123 1
0.013962 0.333089 1
0.121736 0.292149 0.999878
0.321569 0.226017 0.981338
0.589609 0.139727 0.930816
0.861326 0.0533608 0.878355
0.986374 0.0053254 0.838773
1 0.00216678 0.821103
1 0.0021973 0.818677
0 0.589944 1
0.00131228 0.569268 1
0.067216 0.529412 1
0.258595 0.46479 0.999725
0.522866 0.377997 0.975418
0.802563 0.286839 0.92221
0.972534 0.213947 0.880095
1 0.17528 0.859815
1 0.163653 0.85655
0 0.859174 1
1.5259e-05 0.839918 1
0.0207675 0.802152 1
0.191653 0.739025 1
0.450126 0.653544 0.999908
0.732784 0.560891 0.972381
0.948211 0.484489 0.928939
0.999985 0.441245 0.905959
1 0.427924 0.901823
0 0.986587 1
0 0.981933 1
0.00299077 0.968215 1
0.127489 0.940902 1
0.379431 0.897612 1
0.662074 0.821088 0.999496
0.893767 0.743908 0.977508
0.997528 0.697612 0.95201
1 0.683619 0.946929
0 1 1
0 1 1
0 1 1
0.0775464 1 1
0.318349 1 1
0.601648 0.994079 1
0.841932 0.950851 0.999191
0.983764 0.904692 0.986221
1 0.890654 0.980102
0 1 1
0 1 1
0 1 1
0.046891 1 1
0.275349 1 1
0.55845 1 1
0.806912 0.999756 1
0.965133 0.993408 0.999664
0.999756 0.986954 0.997909
