luts/varicam_official/Matrix_1.cube
TITLE "Generated by Resolve"
LUT_3D_SIZE 9
0.0149996 0.0193942 0.0162509
0.0426032 0.0113985 0.0110475
0.0965133 0.00271611 0.00271611
0.183658 0.000198367 0
0.311177 0 0
0.471229 0 0
0.650965 0 0
0.832197 0 0
0.976989 0 0
0.00642405 0.0740063 0.0255436
0.0332799 0.0659495 0.0204623
0.0870222 0.0502022 0.0104677
0.173602 0.0271611 0.00105287
0.300313 0.00569161 0
0.460136 0.000717174 0
0.639628 0 0
0.820615 0 0
0.968643 0 0
6.10361e-05 0.16527 0.0412146
0.0186465 0.157244 0.0361334
0.0717021 0.141421 0.0262303
0.158053 0.116106 0.0104677
0.284184 0.0791791 0
0.44358 0.0375219 0
0.622339 0.0100252 0
0.803632 0 0
0.953811 0 0
0 0.304295 0.0651408
0.00270085 0.296361 0.0601358
0.0488594 0.280583 0.050248
0.134737 0.255177 0.0341497
0.260517 0.218158 0.0117952
0.419318 0.171511 0.00030518
0.597971 0.119326 0
0.779019 0.0663157 0
0.931914 0.0209201 0
0 0.491051 0.0970626
0.000366217 0.482856 0.0922255
0.0222324 0.467201 0.0822156
0.103944 0.441855 0.0663462
0.229297 0.404715 0.0428168
0.387854 0.35819 0.0157168
0.566491 0.305684 0.000900282
0.747173 0.252842 0
0.902831 0.205234 0
0 0.700236 0.133104
0 0.691737 0.128069
0.00572213 0.676143 0.118257
0.0698711 0.650507 0.10222
0.194491 0.613916 0.0789654
0.352712 0.567147 0.049424
0.530877 0.514733 0.0183413
0.712062 0.461448 0.00157168
0.870985 0.413886 0
0 0.909987 0.169146
0 0.901564 0.164141
0 0.88571 0.154223
0.0393378 0.860136 0.138308
0.159899 0.823285 0.115053
0.317494 0.776913 0.0856336
0.495888 0.724147 0.0523079
0.676783 0.670954 0.0196231
0.838102 0.623056 0.000701915
0 0.979782 0.200702
0 0.976883 0.195773
0 0.971222 0.185992
0.0150301 0.961868 0.170031
0.129366 0.945708 0.146792
0.286656 0.922225 0.117403
0.464668 0.889891 0.084184
0.645624 0.843976 0.0505226
0.807721 0.797543 0.0200961
0 1 0.22414
0 1 0.219287
0 1 0.209522
0.00363165 0.999939 0.193606
0.106584 0.997131 0.170459
0.263249 0.990417 0.141131
0.441398 0.977661 0.108003
0.622248 0.953384 0.0742199
0.78439 0.924025 0.0436255
0.0147707 0.0197147 0.036408
0.0423743 0.0117952 0.0313878
0.0962692 0.0027924 0.0215305
0.183413 0.000213626 0.00758373
0.310964 0 0.00112917
0.471122 0 0
0.650843 0 0
0.832044 0 0
0.976806 0 0
0.00622568 0.0744945 0.0455787
0.0330663 0.0663767 0.0404669
0.0867933 0.0506142 0.0305638
0.173373 0.0274968 0.0154726
0.300191 0.00585946 0.00227359
0.459892 0.000732433 0.000167849
0.639094 0 0
0.820371 0 0
0.968414 0 0
6.10361e-05 0.165652 0.0610208
0.0185397 0.157733 0.0559091
0.0715648 0.141848 0.0460212
0.157641 0.116548 0.030045
0.28397 0.0794842 0.0100252
0.443046 0.0378882 0.000869764
0.622095 0.010193 1.5259e-05
0.803113 0 0
0.953567 0 0
0 0.304585 0.084535
0.00262455 0.296529 0.0795758
0.0485542 0.280781 0.0695506
0.134478 0.25568 0.0536507
0.260044 0.218723 0.0303655
0.418921 0.172061 0.00706493
0.59794 0.119478 0.000198367
0.778531 0.0665751 0
0.931517 0.0211032 0
0 0.491402 0.116457
0.000350958 0.482979 0.111315
0.0221103 0.467262 0.101442
0.103777 0.441886 0.08542
0.228931 0.405249 0.06215
0.387472 0.358343 0.0330968
0.565942 0.306249 0.0081178
0.746761 0.253056 0.00047303
0.902693 0.205356 0
0 0.700252 0.152041
0 0.69221 0.147173
0.00564584 0.676265 0.137118
0.0696422 0.651011 0.121263
0.194339 0.614008 0.0978714
0.352331 0.567239 0.0684215
0.530816 0.514824 0.0356909
0.711589 0.461646 0.00927749
0.870573 0.414054 0.000595102
0 0.910033 0.187945
0 0.901686 0.183017
0 0.885771 0.17293
0.0392004 0.860548 0.157
0.159487 0.823316 0.133745
0.317021 0.77705 0.104448
0.49546 0.72433 0.071107
0.676387 0.671138 0.037583
0.837797 0.623117 0.0111086
0 0.97995 0.219547
0 0.976959 0.214511
0 0.971237 0.204593
0.0148318 0.961929 0.188617
0.129076 0.947951 0.165393
0.286229 0.929793 0.136019
0.464179 0.900038 0.1028
0.645167 0.848356 0.0690776
0.807034 0.800473 0.0386358
0 1 0.242786
0 1 0.237873
0 1 0.22797
0.00355535 0.999985 0.212024
0.106233 0.999557 0.188846
0.262943 0.998428 0.159518
0.440894 0.992554 0.126284
0.621897 0.975479 0.0925612
0.783963 0.940185 0.062089
0.0143435 0.020737 0.0768292
0.0419623 0.0125887 0.0717174
0.0960098 0.00299077 0.061799
0.183017 0.000228885 0.0457313
0.310597 0 0.0231327
0.470741 0 0.00669871
0.650431 0 0.000183108
0.831571 0 0
0.976425 0 0
0.00590524 0.0753643 0.0856947
0.0327001 0.0673838 0.0807202
0.0863966 0.0516518 0.0707256
0.173022 0.0281529 0.0547646
0.299779 0.00637827 0.0312505
0.45948 0.000762951 0.010544
0.638743 0 0.000671397
0.819974 0 0
0.968093 0 0
6.10361e-05 0.166567 0.100893
0.0182345 0.158541 0.0959487
0.071107 0.142794 0.0858778
0.15729 0.117479 0.0700389
0.283558 0.0804456 0.0464942
0.442695 0.0384375 0.0196536
0.621759 0.0104829 0.00419623
0.802777 0 0
0.953216 0 0
0 0.305577 0.124392
0.00259403 0.297353 0.119249
0.048188 0.281666 0.109377
0.134157 0.256245 0.09337
0.259754 0.219379 0.0701305
0.418601 0.172625 0.0406348
0.597223 0.120409 0.0122377
0.778164 0.0674144 0.00183108
0.931151 0.0218967 0
0 0.492287 0.156237
0.000335698 0.483864 0.150988
0.0218509 0.468208 0.141146
0.103243 0.442908 0.125139
0.228595 0.405798 0.101793
0.386786 0.359335 0.0723735
0.565316 0.306874 0.0395361
0.746365 0.253941 0.0129549
0.902174 0.205921 0.00242618
0 0.701137 0.191638
0 0.69276 0.186557
0.00555428 0.676783 0.176562
0.0693217 0.651545 0.160616
0.19382 0.614572 0.137346
0.351614 0.568246 0.107927
0.530129 0.515831 0.0748455
0.710918 0.462654 0.0414435
0.870024 0.414633 0.0155184
0 0.910887 0.22739
0 0.902617 0.222263
0 0.886656 0.212314
0.038819 0.861097 0.196338
0.159121 0.824292 0.173022
0.316747 0.77763 0.143679
0.494804 0.725231 0.11046
0.675776 0.671763 0.0768749
0.837415 0.624079 0.0465248
0 0.980148 0.2589
0 0.977264 0.253788
0 0.971496 0.243748
0.0145266 0.962142 0.227817
0.128481 0.948821 0.204486
0.285832 0.931594 0.175143
0.463874 0.902281 0.141985
0.64448 0.85005 0.108263
0.806668 0.801907 0.0778363
0 1 0.282124
0 1 0.277028
0 1 0.267124
0.00343328 1 0.251041
0.105699 1 0.227893
0.262623 0.999908 0.198459
0.440223 0.995499 0.165331
0.621225 0.980102 0.13164
0.783383 0.943786 0.10103
0.0136416 0.0222934 0.143343
0.0413672 0.0141604 0.138125
0.0953841 0.00381476 0.128405
0.182498 0.000259403 0.112367
0.310033 0 0.0889448
0.470375 0 0.0595407
0.64976 0 0.0298924
0.830991 0 0.00450141
0.97583 0 0
0.00526436 0.076997 0.151888
0.0322423 0.0688945 0.146883
0.0859083 0.0531472 0.136919
0.172503 0.0293126 0.120897
0.299107 0.00717174 0.0975814
0.458808 0.000808728 0.0681773
0.638102 0 0.0370031
0.819333 0 0.0109102
0.967605 0 0
4.57771e-05 0.168124 0.166934
0.0176089 0.160082 0.161929
0.0705119 0.144259 0.151827
0.156725 0.119005 0.136034
0.282872 0.0818952 0.112642
0.44213 0.0393683 0.0832532
0.621241 0.0110323 0.0506905
0.802136 0 0.0226596
0.95259 0 0.00303655
0 0.307118 0.190356
0.00251774 0.298894 0.185168
0.0475776 0.283131 0.175158
0.133516 0.25774 0.159213
0.259236 0.220752 0.135988
0.417975 0.174136 0.106493
0.596536 0.12195 0.0733654
0.777584 0.0689403 0.041413
0.930282 0.0231479 0.0178836
0 0.493828 0.221958
0.00030518 0.485344 0.216754
0.0213321 0.469703 0.206806
0.102647 0.444373 0.190768
0.227985 0.407248 0.167376
0.38613 0.360845 0.137987
0.564736 0.308354 0.10486
0.745769 0.25507 0.0713512
0.90164 0.207477 0.04271
0 0.702678 0.257328
0 0.694209 0.252049
0.00535592 0.678279 0.242069
0.0687419 0.652995 0.226062
0.193179 0.616053 0.202823
0.35108 0.569757 0.173373
0.529564 0.516899 0.140291
0.710414 0.463706 0.106691
0.869413 0.416129 0.0764477
0 0.912428 0.292821
0 0.904051 0.287587
0 0.887816 0.277577
0.0383917 0.862623 0.261494
0.158312 0.825498 0.238285
0.315938 0.779171 0.209033
0.494316 0.726421 0.175723
0.675196 0.673213 0.142245
0.836561 0.625299 0.11191
0 0.980652 0.324132
0 0.977676 0.318944
0 0.971984 0.308919
0.0140841 0.962737 0.292958
0.127626 0.949157 0.269535
0.284901 0.931914 0.240253
0.462913 0.903853 0.20708
0.643885 0.851209 0.173388
0.80589 0.803174 0.143038
0 1 0.347341
0 1 0.342107
0 1 0.332021
0.00325017 1 0.316091
0.10515 1 0.292775
0.261631 0.999924 0.263462
0.439551 0.995911 0.230274
0.620249 0.98088 0.196506
0.782483 0.94522 0.166094
0.0126802 0.0245823 0.241642
0.0406348 0.0163577 0.236652
0.0946059 0.00503548 0.226795
0.18172 0.000289921 0.210956
0.309316 0 0.187549
0.469398 0 0.158328
0.649149 0 0.12546
0.83035 0 0.092256
0.975097 0 0.0626078
0.00454719 0.0792706 0.249775
0.0313268 0.0712444 0.244816
0.0849317 0.0552987 0.234821
0.171649 0.0310521 0.219089
0.298436 0.00823987 0.195682
0.458289 0.000869764 0.166278
0.637537 0 0.133471
0.818494 0 0.100206
0.96669 0 0.0704967
4.57771e-05 0.170428 0.26453
0.0166781 0.16228 0.259297
0.0695964 0.14667 0.249332
0.155947 0.121096 0.233371
0.281926 0.0843519 0.210178
0.441199 0.0407568 0.18088
0.620249 0.01178 0.148013
0.801266 0 0.114702
0.95172 0 0.0847334
0 0.309224 0.287404
0.00250248 0.300984 0.282124
0.0467079 0.285328 0.272236
0.132494 0.260197 0.256428
0.258274 0.223087 0.233036
0.416938 0.17673 0.203845
0.595621 0.124071 0.170718
0.776669 0.0710765 0.137407
0.92958 0.0250706 0.107454
0 0.496056 0.318868
0.000274662 0.487541 0.313375
0.0208743 0.471855 0.303441
0.101701 0.446555 0.287526
0.227054 0.409461 0.264118
0.38526 0.362966 0.234836
0.563775 0.310521 0.20174
0.7449 0.257252 0.16817
0.900816 0.209689 0.138247
0 0.704906 0.353841
0 0.696437 0.348455
0.00505074 0.680461 0.338415
0.0678264 0.655192 0.322423
0.192325 0.618219 0.299168
0.350179 0.571542 0.269841
0.528634 0.519112 0.236545
0.709499 0.46595 0.203128
0.868635 0.418311 0.173114
0 0.914153 0.389242
0 0.905913 0.383932
0 0.889952 0.373922
0.0375525 0.864408 0.357778
0.157488 0.827634 0.334524
0.315022 0.781064 0.305089
0.493339 0.728649 0.271839
0.67393 0.675547 0.238392
0.835615 0.627436 0.208026
0 0.981292 0.42031
0 0.978531 0.415045
0 0.972717 0.404929
0.0133669 0.9635 0.388785
0.126711 0.949889 0.365469
0.284077 0.932754 0.336065
0.462089 0.905715 0.30309
0.642725 0.853529 0.269429
0.804974 0.805295 0.239063
0 1 0.443244
0 1 0.437995
0 1 0.427955
0.00306706 1 0.411795
0.10399 1 0.388632
0.260716 0.999954 0.359152
0.438331 0.99649 0.325978
0.619379 0.981537 0.292409
0.781659 0.94696 0.261845
0.0115816 0.0274968 0.369574
0.0394751 0.019379 0.364645
0.0934768 0.00679026 0.354772
0.180591 0.000366217 0.33904
0.308339 0 0.315694
0.468482 0 0.286564
0.648005 0 0.253773
0.829114 0 0.220768
0.973999 0 0.191226
0.00344854 0.0822003 0.377783
0.0301213 0.0740673 0.372656
0.0838788 0.0582895 0.362661
0.170611 0.0332799 0.346685
0.297215 0.00981155 0.323598
0.457023 0.000961318 0.29427
0.636316 0 0.261357
0.817533 0 0.228275
0.965652 0 0.198413
3.0518e-05 0.173342 0.392203
0.0155795 0.165347 0.386984
0.0684672 0.149538 0.376944
0.154711 0.124239 0.361135
0.280797 0.0871443 0.337881
0.440238 0.0426947 0.308705
0.619043 0.0128176 0.275563
0.800061 0 0.242344
0.950576 0 0.212696
0 0.312505 0.414969
0.00236515 0.30425 0.409659
0.0455482 0.288472 0.399725
0.131548 0.263066 0.383673
0.257008 0.226246 0.360571
0.415747 0.179538 0.331167
0.594491 0.127031 0.298085
0.775448 0.0740368 0.264912
0.928664 0.0273289 0.235004
0 0.498848 0.445991
0.000228885 0.490761 0.440772
0.0200351 0.474723 0.43061
0.100526 0.449424 0.414588
0.225834 0.412314 0.391211
0.384039 0.36585 0.361944
0.5626 0.313405 0.328969
0.743664 0.260166 0.295659
0.899718 0.212528 0.265522
0 0.707729 0.481132
0 0.699306 0.475624
0.00466926 0.68333 0.465522
0.0666819 0.65803 0.449317
0.191119 0.621118 0.426032
0.348989 0.57438 0.396765
0.527413 0.521935 0.363775
0.708278 0.468818 0.330343
0.867262 0.421271 0.300206
0 0.917479 0.516136
0 0.908736 0.510689
0 0.892897 0.500587
0.0365759 0.867353 0.484413
0.156222 0.830564 0.461158
0.313832 0.783902 0.431769
0.491829 0.731548 0.398825
0.672724 0.678355 0.365133
0.834562 0.630259 0.334874
0 0.982406 0.547021
0 0.979522 0.541741
0 0.973739 0.53135
0.012604 0.964446 0.515282
0.125505 0.951003 0.492058
0.282856 0.933883 0.462486
0.460914 0.908415 0.42948
0.641489 0.856321 0.395834
0.803555 0.807889 0.36553
0 1 0.569863
0 1 0.564553
0 1 0.554269
0.00297551 1 0.537957
0.102861 1 0.514824
0.259312 0.999985 0.485298
0.437217 0.997299 0.45214
0.617868 0.982315 0.418616
0.780209 0.949569 0.388052
0.0102235 0.0309148 0.515511
0.0381323 0.0227054 0.510292
0.092195 0.0087129 0.500771
0.179385 0.00077821 0.484764
0.307164 0 0.461723
0.467475 0 0.432349
0.646952 0 0.399634
0.828016 0 0.366705
0.972824 0 0.337224
0.0021973 0.0856336 0.523308
0.0287785 0.0774395 0.518257
0.0825971 0.061677 0.508171
0.169345 0.0364233 0.492576
0.296086 0.01149 0.469169
0.455955 0.00120546 0.439933
0.635187 1.5259e-05 0.407019
0.816159 0 0.374029
0.96434 0 0.344259
1.5259e-05 0.176822 0.537621
0.0143587 0.168795 0.532433
0.0670634 0.153033 0.522377
0.153475 0.127443 0.506584
0.279683 0.0906081 0.483268
0.438849 0.0453803 0.453925
0.617899 0.0141299 0.421042
0.798917 0.000106813 0.387839
0.949554 0 0.358022
0 0.315709 0.56025
0.00222782 0.307515 0.55491
0.0441596 0.291814 0.545007
0.130205 0.266361 0.528939
0.255818 0.22948 0.505821
0.414755 0.182712 0.476448
0.593439 0.130495 0.443503
0.774044 0.0773022 0.41033
0.927459 0.0301823 0.380453
0 0.502144 0.591241
0.000183108 0.494041 0.585992
0.0191348 0.478019 0.575799
0.099321 0.452689 0.559777
0.22446 0.416007 0.536492
0.382986 0.36907 0.507149
0.561227 0.316732 0.474174
0.742245 0.263813 0.440711
0.898421 0.215793 0.410773
0 0.710979 0.625986
0 0.702953 0.620508
0.00422675 0.686992 0.610376
0.0654307 0.661372 0.594339
0.189715 0.624414 0.571084
0.347509 0.578042 0.541634
0.526116 0.525292 0.508659
0.706905 0.472114 0.475212
0.8663 0.424475 0.44506
0 0.920714 0.661204
0 0.912444 0.655726
0 0.896101 0.645319
0.0354925 0.870909 0.629389
0.154879 0.833783 0.605905
0.312398 0.787167 0.576455
0.49044 0.734798 0.543526
0.671382 0.681682 0.510155
0.833265 0.63357 0.479896
0 0.983597 0.692012
0 0.980758 0.686427
0 0.974884 0.676005
0.0117494 0.965652 0.659907
0.124224 0.952163 0.636637
0.281529 0.935119 0.60734
0.459525 0.91078 0.574121
0.640208 0.859342 0.540368
0.802136 0.811215 0.51014
0 1 0.714549
0 1 0.709178
0 1 0.698878
0.00291447 1 0.68275
0.101549 1 0.659358
0.258 1 0.629786
0.435904 0.997803 0.596643
0.616602 0.983246 0.563149
0.778805 0.952453 0.53257
0.00875868 0.0344701 0.665431
0.036759 0.0261845 0.660243
0.0909285 0.0106813 0.650416
0.178286 0.00129702 0.634653
0.30602 0 0.611246
0.466377 0 0.582177
0.645823 0 0.549218
0.826963 0 0.516182
0.971572 0 0.486717
0.00135805 0.0891432 0.673014
0.0274968 0.0809491 0.667872
0.0812695 0.065156 0.658122
0.167895 0.0398871 0.642222
0.294987 0.0132448 0.618814
0.454826 0.0015259 0.589487
0.634058 1.5259e-05 0.556817
0.815015 0 0.523644
0.963104 0 0.493858
0 0.180453 0.687404
0.0131075 0.172213 0.682002
0.0657664 0.156527 0.672114
0.152163 0.130983 0.656184
0.278508 0.0938735 0.632975
0.437675 0.0486763 0.603769
0.616495 0.0158541 0.570687
0.797513 0.000579843 0.537575
0.948394 0 0.507988
0 0.319387 0.710048
0.002121 0.311223 0.704707
0.0428473 0.295445 0.694759
0.128923 0.270024 0.678721
0.254368 0.233082 0.655604
0.413336 0.186419 0.62623
0.592004 0.133928 0.593149
0.772961 0.0809339 0.55993
0.926146 0.033051 0.530053
0 0.505913 0.740887
0.000137331 0.497734 0.73579
0.0182498 0.481697 0.725444
0.0978408 0.456367 0.709606
0.22327 0.419272 0.686061
0.381521 0.372808 0.656962
0.560067 0.320348 0.623911
0.740887 0.26717 0.590433
0.897169 0.219226 0.56054
0 0.714763 0.775845
0 0.706294 0.770306
0.00378424 0.690333 0.760174
0.0640574 0.66508 0.744213
0.188251 0.628153 0.720928
0.346151 0.581445 0.691417
0.524666 0.529 0.658412
0.705455 0.475868 0.624979
0.864988 0.427878 0.594736
0 0.924132 0.810956
0 0.915785 0.805554
0 0.899855 0.795163
0.0344091 0.874327 0.778958
0.153674 0.837064 0.755642
0.310918 0.79086 0.726299
0.489418 0.73814 0.693248
0.669947 0.685039 0.659586
0.831861 0.636942 0.629328
0 0.984863 0.841596
0 0.981933 0.836133
0 0.976257 0.825849
0.0109102 0.966995 0.809644
0.122835 0.95346 0.786496
0.28011 0.93637 0.756817
0.458091 0.912551 0.723873
0.638727 0.863005 0.690257
0.800778 0.814588 0.659953
0 1 0.86424
0 1 0.858701
0 1 0.848615
0.00285344 1 0.832273
0.100175 1 0.808865
0.256596 1 0.779614
0.43447 0.998032 0.746441
0.615198 0.984253 0.712703
0.777371 0.955398 0.682399
0.00733959 0.0376593 0.80293
0.0356146 0.0293278 0.79765
0.0897383 0.0134585 0.788006
0.177066 0.00201419 0.771847
0.304997 0 0.748455
0.465278 0 0.719112
0.644816 0 0.68603
0.825956 0 0.652934
0.970504 0 0.623331
0.00102235 0.0924392 0.811093
0.0263066 0.0842298 0.805676
0.0800488 0.0683146 0.79588
0.166812 0.0429847 0.779858
0.293828 0.014786 0.756405
0.453559 0.00187686 0.727031
0.632853 3.0518e-05 0.694072
0.814069 0 0.660868
0.962036 0 0.630976
0 0.183703 0.825483
0.0117952 0.175509 0.820325
0.064622 0.159655 0.810193
0.150927 0.134279 0.794354
0.277119 0.0972305 0.770993
0.436774 0.0515908 0.741558
0.615549 0.0174258 0.708614
0.796551 0.0010071 0.675258
0.947311 0 0.645335
0 0.322835 0.848463
0.00202945 0.314534 0.843122
0.0415808 0.298558 0.833204
0.127443 0.273396 0.817136
0.253361 0.236225 0.793729
0.412222 0.189548 0.764279
0.59089 0.137179 0.731395
0.771664 0.0839551 0.698024
0.925216 0.0363775 0.668025
0 0.509438 0.879606
9.15541e-05 0.500862 0.874037
0.0174258 0.484855 0.863905
0.0967117 0.45948 0.847852
0.221973 0.422431 0.824704
0.380224 0.375906 0.795178
0.55877 0.323461 0.762158
0.73991 0.270191 0.728618
0.896178 0.222644 0.69868
0 0.717968 0.914336
0 0.709804 0.908904
0.00341802 0.693446 0.898772
0.0629282 0.668177 0.882551
0.187243 0.631174 0.859297
0.345159 0.584497 0.829999
0.523262 0.532158 0.796811
0.704128 0.478981 0.763424
0.863828 0.430991 0.733166
0 0.927535 0.94905
0 0.918929 0.943618
0 0.902937 0.9337
0.033341 0.877379 0.917632
0.152407 0.840574 0.89424
0.310002 0.793988 0.864775
0.488075 0.741344 0.831769
0.668971 0.688136 0.798383
0.830457 0.640085 0.767926
0 0.985977 0.9794
0 0.983139 0.974014
0 0.977401 0.963973
0.0101778 0.968078 0.947921
0.121492 0.954604 0.924941
0.278843 0.937575 0.895766
0.456825 0.914214 0.862577
0.637476 0.866224 0.828855
0.799496 0.817746 0.79855
0 1 0.967498
0 1 0.964294
0 1 0.957687
0.00280766 1 0.947066
0.0989242 1 0.931762
0.255161 1 0.911406
0.433082 0.998215 0.880644
0.613855 0.985168 0.847013
0.776135 0.958099 0.816709
