luts/varicam_official/Matrix_1.cube
TITLE "Generated by Resolve"
LUT_3D_SIZE 33
0.0149996 0.0193942 0.0162509
0.0191806 0.018143 0.0154574
0.024445 0.0165713 0.0144656
0.0329137 0.0141146 0.0128786
0.0426032 0.0113985 0.0110475
0.0539101 0.0084535 0.00888075
0.0664836 0.00595102 0.00674449
0.0797131 0.00355535 0.00460822
0.0965133 0.00271611 0.00271611
0.114397 0.00196841 0.00102235
0.136141 0.00135805 0.000396735
0.158984 0.000747692 1.5259e-05
0.183658 0.000198367 0
0.212177 0 0
0.242893 0 0
0.276661 0 0
0.311177 0 0
0.348058 0 0
0.386831 0 0
0.428641 0 0
0.471229 0 0
0.514443 0 0
0.559457 0 0
0.604959 0 0
0.650965 0 0
0.696925 0 0
0.742428 0 0
0.787778 0 0
0.832197 0 0
0.875013 0 0
0.916548 0 0
0.948486 0 0
0.976989 0 0
0.0131228 0.0307469 0.0181277
0.0172732 0.0295262 0.0173648
0.0224918 0.0280766 0.0164034
0.0309911 0.0255741 0.014847
0.0405737 0.0228122 0.0130465
0.051957 0.0196078 0.0108797
0.0645304 0.0165103 0.00862135
0.07776 0.0133364 0.00630198
0.0945602 0.0104677 0.00376898
0.112306 0.00764477 0.00148013
0.134051 0.00515755 0.000610361
0.156817 0.00285344 6.10361e-05
0.181445 0.000793469 1.5259e-05
0.209873 0 0
0.240604 0 0
0.274342 0 0
0.308827 0 0
0.345754 0 0
0.384482 0 0
0.426291 0 0
0.468879 0 0
0.512093 0 0
0.557046 0 0
0.602564 0 0
0.648539 0 0
0.694148 0 0
0.739956 0 0
0.785 0 0
0.829786 0 0
0.872358 0 0
0.913863 0 0
0.946319 0 0
0.975265 0 0
0.0110628 0.0433661 0.0202487
0.0151675 0.0422675 0.0195163
0.0203708 0.0407416 0.0185702
0.028809 0.0382696 0.0170291
0.0384375 0.0354467 0.0152285
0.0497444 0.0321355 0.0130922
0.0622721 0.0286717 0.0107729
0.0755169 0.0249943 0.00833143
0.0923018 0.020737 0.00540169
0.11014 0.0165408 0.00265507
0.131716 0.0125734 0.00141909
0.154421 0.00881971 0.000503548
0.179232 0.00517281 0.000137331
0.207584 0.00300603 0
0.238102 0.00167849 0
0.271794 0.000900282 0
0.306279 0.000228885 0
0.343206 0.000106813 0
0.381872 0 0
0.423697 0 0
0.466255 0 0
0.509468 0 0
0.554406 0 0
0.599908 0 0
0.645838 0 0
0.691463 0 0
0.737255 0 0
0.782315 0 0
0.8271 0 0
0.869734 0 0
0.911223 0 0
0.943679 0 0
0.973281 0 0
0.00877394 0.0575418 0.0227054
0.0128176 0.0563516 0.0219577
0.0179599 0.0549477 0.0210117
0.0264439 0.05243 0.01944
0.0360571 0.0495918 0.0176547
0.047364 0.0462348 0.0155337
0.0599069 0.0425574 0.0131991
0.0731365 0.0387884 0.0107424
0.0899062 0.0340124 0.00764477
0.107576 0.0291142 0.00466926
0.12929 0.0240635 0.00289921
0.15198 0.0189364 0.00140383
0.176593 0.0138399 0.000396735
0.204883 0.009308 0
0.235599 0.00521859 0
0.269047 0.00276188 0
0.303471 0.000701915 0
0.340429 0.00030518 0
0.379049 1.5259e-05 0
0.420874 0 0
0.463401 0 0
0.506615 0 0
0.551522 0 0
0.597025 0 0
0.642618 0 0
0.688563 0 0
0.734356 0 0
0.779431 0 0
0.823911 0 0
0.866896 0 0
0.90837 0 0
0.94107 0 0
0.971145 0 0
0.00642405 0.0740063 0.0255436
0.0104067 0.0728161 0.0247959
0.0154574 0.0712902 0.0238346
0.0238346 0.0687724 0.0222477
0.0332799 0.0659495 0.0204623
0.0446174 0.0626841 0.0183719
0.057145 0.0589914 0.0160372
0.0704051 0.0550851 0.0135653
0.0870222 0.0502022 0.0104677
0.104768 0.0451667 0.00737011
0.126345 0.0393378 0.00500496
0.148974 0.033463 0.00285344
0.173602 0.0271611 0.00105287
0.201816 0.0206455 0.000244144
0.232532 0.0140841 0.000122072
0.266163 0.00956741 4.57771e-05
0.300313 0.00569161 0
0.337514 0.00396735 0
0.375799 0.00247196 0
0.417609 0.00149538 0
0.460136 0.000717174 0
0.503349 0.00015259 0
0.548226 0 0
0.593713 0 0
0.639628 0 0
0.685237 0 0
0.731029 0 0
0.776135 0 0
0.820615 0 0
0.86363 0 0
0.905104 0 0
0.938079 0 0
0.968643 0 0
0.00407416 0.0913863 0.0285496
0.00794995 0.0901808 0.0278019
0.0128939 0.0886397 0.0268254
0.0211032 0.0861067 0.0252232
0.0304265 0.0832837 0.0234379
0.0416876 0.079942 0.0213626
0.0541848 0.0762646 0.0190433
0.0674296 0.0723735 0.0165866
0.0841077 0.0675822 0.0135042
0.101686 0.0624094 0.0103304
0.123415 0.0559701 0.00733959
0.146014 0.0493782 0.00448615
0.170642 0.0420691 0.00184634
0.198825 0.0337377 0.000564584
0.229557 0.0247959 0.000289921
0.262928 0.0181735 0.000122072
0.297292 0.0122988 0
0.334218 0.00889601 0
0.372427 0.00585946 0
0.414252 0.00354009 0
0.456733 0.00172427 0
0.499962 0.000396735 0
0.544778 0 0
0.59028 0 0
0.636194 0 0
0.681788 0 0
0.727565 0 0
0.772702 0 0
0.817166 0 0
0.859922 0 0
0.901701 0 0
0.934936 0 0
0.965972 0 0
0.00187686 0.112856 0.0322271
0.00550851 0.111666 0.0314794
0.0101625 0.11014 0.030518
0.0179294 0.107591 0.0289006
0.0269322 0.104768 0.0271305
0.0381476 0.101442 0.0250553
0.0506142 0.0977646 0.0227359
0.0638437 0.0940108 0.0203098
0.0805066 0.0890669 0.0171969
0.0980545 0.0838788 0.0139773
0.119631 0.0775006 0.0104219
0.142199 0.0709697 0.00691234
0.166827 0.0636912 0.00344854
0.194934 0.0553597 0.0015259
0.225711 0.0463874 0.00077821
0.259266 0.0379187 0.000335698
0.293355 0.0298009 0
0.330251 0.0223087 0
0.368643 0.0152132 0
0.410468 0.00924697 0
0.452934 0.00450141 0
0.496162 0.00103761 0
0.540978 0 0
0.586175 0 0
0.632074 0 0
0.677684 0 0
0.723476 0 0
0.768597 0 0
0.813077 0 0
0.856168 0 0
0.897627 0 0
0.931182 0 0
0.962402 0 0
0.000198367 0.136217 0.0362402
0.00344854 0.135042 0.0354925
0.00764477 0.133532 0.0345312
0.0146487 0.130999 0.032929
0.0231785 0.128176 0.0311437
0.0343328 0.124849 0.0290684
0.0467384 0.121157 0.0267643
0.0599985 0.11725 0.0243076
0.0764782 0.112535 0.0212558
0.0941176 0.107286 0.0179751
0.115694 0.100908 0.0139773
0.138262 0.094255 0.00993362
0.16286 0.0872053 0.00584421
0.190951 0.0788891 0.00315862
0.221775 0.0697185 0.00161746
0.255039 0.0601968 0.000717174
0.289357 0.0502327 0
0.326192 0.0398718 0
0.364279 0.0296941 0
0.406073 0.0208591 0
0.448539 0.0133059 0
0.491722 0.00764477 0
0.536538 0.00480659 0
0.581704 0.00343328 0
0.627619 0.00227359 0
0.673518 0.00122072 0
0.71902 0.000488289 0
0.764141 0 0
0.808591 0 0
0.851743 0 0
0.893202 0 0
0.927047 0 0
0.95848 0 0
6.10361e-05 0.16527 0.0412146
0.00257877 0.164111 0.0404822
0.00579843 0.1626 0.0395209
0.0112306 0.160082 0.0379187
0.0186465 0.157244 0.0361334
0.029633 0.153918 0.0340429
0.0419776 0.15024 0.031754
0.0551308 0.146349 0.0293126
0.0717021 0.141421 0.0262303
0.089128 0.136416 0.0229953
0.110872 0.130007 0.0189364
0.13341 0.123354 0.0148165
0.158053 0.116106 0.0104677
0.185855 0.108049 0.00675975
0.216663 0.0988937 0.0034638
0.250172 0.0890059 0.00154116
0.284184 0.0791791 0
0.32105 0.0683909 0
0.359304 0.0577707 0
0.401129 0.0472572 0
0.44358 0.0375219 0
0.486473 0.0289158 0
0.531258 0.021622 0
0.576745 0.0151369 0
0.622339 0.0100252 0
0.668238 0.00529488 0
0.713695 0.00215152 0
0.758862 0 0
0.803632 0 0
0.84651 0 0
0.887984 0 0
0.922118 0 0
0.953811 0 0
0 0.196567 0.0465858
0.00178531 0.195407 0.0458534
0.00410468 0.193912 0.0449073
0.00802625 0.191379 0.0432898
0.0142672 0.188556 0.0415198
0.0249332 0.185229 0.0394293
0.0370184 0.181552 0.0371405
0.0500343 0.177661 0.034699
0.0665446 0.172732 0.0316167
0.0839704 0.167544 0.0283665
0.105547 0.161181 0.0243229
0.128054 0.154543 0.0201419
0.152651 0.147524 0.015671
0.180606 0.139239 0.0111238
0.211429 0.130083 0.00656138
0.244633 0.120439 0.00363165
0.278889 0.110292 0.00112917
0.315755 0.099382 0.000518807
0.353689 0.0885481 3.0518e-05
0.395514 0.076997 1.5259e-05
0.437919 0.0659037 0
0.481132 0.054902 0
0.525856 0.0445563 0
0.571069 0.0343175 0
0.616938 0.0260319 0
0.662562 0.0181277 0
0.708339 0.0124971 0
0.753506 0.00808728 0
0.797955 0.00665293 0
0.840879 0.00517281 0
0.882353 0.00378424 0
0.916854 0.002533 0
0.948775 0.00137331 0
0 0.23006 0.0523384
0.00111391 0.228687 0.0515755
0.00256352 0.227207 0.0506294
0.00502022 0.224674 0.0490272
0.010071 0.221851 0.0472572
0.0202335 0.218524 0.0451667
0.0319371 0.214847 0.0428779
0.0446632 0.210956 0.0404364
0.0610819 0.206043 0.0373541
0.0784466 0.20087 0.0341039
0.0999771 0.19472 0.0301061
0.122454 0.188083 0.0259098
0.147097 0.180835 0.0213169
0.175006 0.172564 0.0162661
0.205585 0.163699 0.0108797
0.239002 0.15378 0.00686656
0.27303 0.143694 0.00334173
0.310124 0.132723 0.00151064
0.348028 0.121767 7.62951e-05
0.389838 0.10956 3.0518e-05
0.432242 0.0974746 0
0.475166 0.0851148 0
0.519844 0.0725719 0
0.565362 0.059678 0
0.610971 0.048661 0
0.656886 0.0381781 0
0.702388 0.0297704 0
0.747539 0.0227207 0
0.791974 0.018555 0
0.834928 0.014435 0
0.876417 0.0105135 0
0.911254 0.00703441 0
0.943481 0.0037995 0
0 0.266636 0.0586404
0.000534066 0.265492 0.0579232
0.00123598 0.264027 0.0569924
0.00241093 0.261494 0.0553902
0.00631724 0.258412 0.0535744
0.0156558 0.255085 0.0514992
0.0265812 0.251438 0.0492103
0.038819 0.247532 0.0467536
0.0550851 0.242618 0.0436866
0.072343 0.237705 0.0404822
0.093904 0.231342 0.0364385
0.116365 0.22472 0.0322423
0.140993 0.217456 0.0276341
0.168872 0.209201 0.0224613
0.199435 0.200366 0.016846
0.232837 0.190463 0.0119173
0.266865 0.180377 0.00727855
0.30367 0.169482 0.00355535
0.341497 0.158541 0.000564584
0.383322 0.146197 0.00030518
0.425696 0.133928 0.000122072
0.468925 0.121157 3.0518e-05
0.513619 0.107958 0
0.558785 0.0948653 0
0.604715 0.0823377 0
0.650355 0.0703746 0
0.695857 0.0593729 0
0.741329 0.0491951 0
0.785763 0.040589 0
0.828702 0.0323949 0
0.870237 0.0243076 0
0.905333 0.0173495 0
0.937682 0.0107271 0
0 0.304295 0.0651408
0 0.303166 0.0644236
0 0.301701 0.0634928
0 0.299168 0.0619059
0.00270085 0.296361 0.0601358
0.0111086 0.293019 0.0580453
0.0212253 0.289387 0.0557717
0.0327764 0.285481 0.053315
0.0488594 0.280583 0.050248
0.0661021 0.275425 0.047013
0.0876631 0.269047 0.0429694
0.110094 0.262425 0.0387732
0.134737 0.255177 0.0341497
0.162356 0.246998 0.0290074
0.193118 0.238148 0.023331
0.226261 0.228321 0.0175937
0.260517 0.218158 0.0117952
0.297307 0.207279 0.0059968
0.335088 0.196384 0.0012665
0.376913 0.184039 0.000717174
0.419318 0.171511 0.00030518
0.462196 0.159136 9.15541e-05
0.506874 0.145937 0
0.552346 0.132799 0
0.597971 0.119326 0
0.643671 0.105821 0
0.689448 0.0925612 0
0.734661 0.0791791 0
0.779019 0.0663157 0
0.822019 0.0535744 0
0.863523 0.0415808 0
0.899046 0.0307774 0
0.931914 0.0209201 0
0 0.348943 0.072755
0 0.347509 0.0720073
0 0.346059 0.0710918
0 0.343511 0.0695201
0.0019379 0.340734 0.0677958
0.00808728 0.337392 0.0656748
0.0161746 0.333776 0.0633707
0.0258946 0.32987 0.0608988
0.0414588 0.325048 0.057847
0.058793 0.31989 0.0545968
0.0803693 0.313512 0.0505684
0.102815 0.306874 0.0464027
0.127474 0.299596 0.041825
0.155047 0.291432 0.0366827
0.185824 0.282307 0.0309148
0.218875 0.272816 0.0250248
0.252872 0.26276 0.0190127
0.289876 0.251804 0.012726
0.327672 0.24062 0.00714122
0.369451 0.228565 0.0043946
0.411551 0.216129 0.00213626
0.45478 0.203342 0.000579843
0.499428 0.190433 0
0.544686 0.17705 0
0.590555 0.16376 0
0.636225 0.150256 0
0.681727 0.136797 0
0.726879 0.12372 0
0.771588 0.11046 0
0.814557 0.098024 0
0.855833 0.085832 0
0.891676 0.0749218 0
0.924956 0.0641794 0
0 0.394217 0.0804761
0 0.392767 0.0797436
0 0.391318 0.0788586
0 0.388769 0.0773022
0.00125124 0.385992 0.0755779
0.0053254 0.382345 0.0733959
0.0115206 0.378729 0.0710765
0.0194858 0.374823 0.068574
0.0344549 0.370031 0.0655222
0.0515297 0.364904 0.0622721
0.0730602 0.358511 0.0582742
0.0953689 0.352209 0.0541848
0.11989 0.344945 0.0496681
0.14757 0.336751 0.0444953
0.178332 0.327657 0.0386969
0.211383 0.317891 0.0326085
0.245365 0.307836 0.0263676
0.282063 0.297292 0.0198215
0.319799 0.286137 0.0135195
0.361608 0.273777 0.00877394
0.403937 0.26157 0.00480659
0.447196 0.248783 0.00190738
0.491569 0.235645 0.000549325
0.537118 0.222461 0.00015259
0.582712 0.208972 4.57771e-05
0.628672 0.195377 0
0.674098 0.182239 0
0.719295 0.168856 0
0.763638 0.156008 0
0.806714 0.143267 0
0.848203 0.131334 0
0.884413 0.119783 0
0.9178 0.10898 0
0 0.441779 0.0886091
0 0.440665 0.0879377
0 0.439216 0.087068
0 0.436667 0.0855268
0.000747692 0.433585 0.0837568
0.00325017 0.430243 0.0816205
0.00790417 0.426612 0.0792859
0.0142824 0.422736 0.0767987
0.0281224 0.417929 0.0737469
0.0442359 0.412818 0.0704967
0.0654459 0.406424 0.0665141
0.0875563 0.399802 0.0623789
0.112047 0.392554 0.0578622
0.139696 0.384375 0.0526894
0.17023 0.375341 0.0469215
0.203418 0.36582 0.0407721
0.237415 0.355764 0.0344701
0.274159 0.3449 0.0277104
0.311879 0.333745 0.0210422
0.353643 0.321721 0.0150607
0.396017 0.309194 0.00970474
0.438956 0.296498 0.00546273
0.483558 0.283604 0.00263981
0.529137 0.270115 0.000732433
0.574716 0.256626 0.000213626
0.620295 0.243442 0
0.665766 0.229984 0
0.711299 0.216495 0
0.755673 0.203662 0
0.798489 0.190997 0
0.839979 0.179065 0
0.876539 0.167346 0
0.910536 0.156237 0
0 0.491051 0.0970626
0 0.489952 0.0964065
0 0.488487 0.0955215
0 0.485618 0.0939345
0.000366217 0.482856 0.0922255
0.00158694 0.47953 0.0900893
0.00485237 0.475883 0.0877394
0.00982681 0.472007 0.0852522
0.0222324 0.467201 0.0822156
0.0369573 0.462074 0.0789654
0.0577096 0.455695 0.0749828
0.0794537 0.449088 0.0708629
0.103944 0.441855 0.0663462
0.131533 0.433692 0.0611887
0.162066 0.424628 0.0554208
0.195285 0.414786 0.0491798
0.229297 0.404715 0.0428168
0.266026 0.393851 0.0359808
0.30367 0.383062 0.0291447
0.345495 0.370703 0.0221714
0.387854 0.35819 0.0157168
0.430793 0.345495 0.0101778
0.475364 0.332647 0.00576791
0.520607 0.319249 0.002121
0.566491 0.305684 0.000900282
0.61207 0.292531 0.000274662
0.657542 0.279057 0.000122072
0.702724 0.266011 0
0.747173 0.252842 0
0.790326 0.24007 0
0.831785 0.228153 0
0.868666 0.216342 0
0.902831 0.205234 0
0 0.541711 0.10576
0 0.540261 0.105043
0 0.538827 0.104173
0 0.536294 0.102647
7.62951e-05 0.533532 0.100938
0.000335698 0.52987 0.0987259
0.0024567 0.526223 0.0963912
0.00616464 0.522332 0.0939193
0.0168307 0.517525 0.0908827
0.0297551 0.512383 0.0876478
0.0499123 0.50602 0.08365
0.0710002 0.499474 0.0795605
0.0956436 0.49221 0.0749981
0.123171 0.484047 0.0698558
0.153719 0.474968 0.0640879
0.186694 0.465187 0.057908
0.220951 0.455039 0.0514992
0.257633 0.444541 0.0447242
0.295308 0.433402 0.0377356
0.337133 0.421057 0.0301213
0.379187 0.408637 0.0228733
0.422354 0.396201 0.0161135
0.466621 0.383124 0.00996414
0.512154 0.36965 0.00422675
0.557656 0.356527 0.00209049
0.603296 0.343023 0.000808728
0.649104 0.329473 0.000350958
0.694301 0.316426 0
0.738781 0.303258 0
0.781949 0.290471 0
0.823102 0.278614 0
0.860349 0.266789 0
0.895155 0.255573 0
0 0.593851 0.114763
0 0.592767 0.114092
0 0.591333 0.113222
0 0.588449 0.111604
0 0.585687 0.109895
0 0.582361 0.107759
0.00146487 0.578729 0.105455
0.00422675 0.574487 0.102922
0.0126192 0.569665 0.0998703
0.0227207 0.564599 0.0966659
0.0420081 0.558206 0.092668
0.0623941 0.551659 0.0885481
0.0870222 0.544381 0.0839704
0.114534 0.536233 0.0788434
0.145098 0.527169 0.073106
0.178012 0.517769 0.0669871
0.212268 0.507637 0.0605783
0.248966 0.496788 0.0537118
0.286595 0.485679 0.0466926
0.32813 0.473411 0.0389715
0.370459 0.460899 0.0313268
0.413611 0.448478 0.0239567
0.457862 0.435386 0.0168154
0.503395 0.421912 0.00979629
0.548959 0.408423 0.00596628
0.594568 0.395285 0.00296025
0.64007 0.381826 0.00129702
0.685344 0.368429 0
0.729732 0.355627 0
0.772946 0.342824 0
0.814404 0.330922 0
0.851987 0.319112 0
0.887053 0.307637 0
0 0.646998 0.123964
0 0.645548 0.123217
0 0.644129 0.122332
0 0.641611 0.120729
0 0.638498 0.118944
0 0.635157 0.116854
0.0010071 0.63154 0.11458
0.00292973 0.62768 0.112123
0.00874342 0.622889 0.109087
0.0157626 0.617502 0.105821
0.0340581 0.611093 0.101793
0.0536812 0.604547 0.0976577
0.078294 0.597223 0.0930648
0.105776 0.58909 0.0879377
0.136385 0.580072 0.0822309
0.169268 0.570703 0.0761273
0.203296 0.560647 0.069749
0.239918 0.549813 0.0628672
0.277455 0.53872 0.0558328
0.31928 0.52636 0.0480507
0.361593 0.513848 0.0402686
0.404456 0.501503 0.0325322
0.448997 0.488304 0.0245823
0.494194 0.474891 0.0166018
0.540108 0.461311 0.0108034
0.585748 0.448157 0.00567636
0.631266 0.434699 0.00250248
0.676539 0.421286 0
0.720897 0.408484 0
0.764111 0.395697 0
0.805661 0.383459 0
0.843275 0.372107 0
0.879072 0.360601 0
0 0.700236 0.133104
0 0.699168 0.132433
0 0.697383 0.131472
0 0.69485 0.12987
0 0.691737 0.128069
0 0.688426 0.126009
0.000656138 0.684794 0.12372
0.00192264 0.680934 0.121279
0.00572213 0.676143 0.118257
0.0103304 0.671092 0.115053
0.0273442 0.664347 0.110964
0.0460059 0.657755 0.106783
0.0698711 0.650507 0.10222
0.0970016 0.64239 0.0970932
0.127596 0.633341 0.0914015
0.16054 0.623606 0.0852522
0.194491 0.613916 0.0789654
0.231098 0.603082 0.0720989
0.268589 0.591989 0.0650645
0.310414 0.579644 0.0572824
0.352712 0.567147 0.049424
0.395636 0.554437 0.0415045
0.440085 0.541619 0.033402
0.485298 0.528206 0.0251469
0.530877 0.514733 0.0183413
0.576883 0.501137 0.0119173
0.622324 0.488029 0.00730907
0.667628 0.474617 0.00326543
0.712062 0.461448 0.00157168
0.755245 0.449027 0.000442512
0.796506 0.436851 0.000122072
0.834791 0.425055 0
0.870985 0.413886 0
0 0.753429 0.142229
0 0.752361 0.141558
0 0.750576 0.140597
0 0.748058 0.138994
0 0.745312 0.13727
0 0.741619 0.135119
0.000335698 0.738018 0.132876
0.0010071 0.734112 0.130419
0.00297551 0.729351 0.127413
0.00540169 0.723918 0.124147
0.0210117 0.717556 0.120119
0.0384527 0.710979 0.115953
0.0615702 0.703746 0.111376
0.0882277 0.695628 0.106264
0.118837 0.68658 0.100572
0.151736 0.676844 0.0944381
0.185763 0.666773 0.0881056
0.222278 0.656306 0.0813153
0.259739 0.645228 0.0742962
0.301549 0.632883 0.0664836
0.343847 0.620386 0.0585794
0.38677 0.607675 0.0505684
0.431266 0.594507 0.042237
0.476417 0.581491 0.0338445
0.521981 0.568017 0.026154
0.567636 0.554513 0.018677
0.613458 0.540948 0.0125734
0.658701 0.527901 0.00706493
0.702846 0.514824 0.00364691
0.746151 0.502022 0.0012665
0.787655 0.49012 0.000488289
0.826246 0.478294 0.000122072
0.862684 0.46685 1.5259e-05
0 0.806424 0.151324
0 0.805356 0.150652
0 0.803586 0.149706
0 0.801053 0.148104
0 0.797955 0.146304
0 0.794629 0.144213
0.000122072 0.791028 0.141955
0.000366217 0.787121 0.139513
0.00106813 0.781979 0.136446
0.00195315 0.776898 0.133257
0.0159609 0.77055 0.129229
0.0318761 0.763989 0.125063
0.0536355 0.756771 0.1205
0.0794842 0.748669 0.115389
0.110094 0.739605 0.109697
0.142977 0.729854 0.103578
0.176989 0.719783 0.0972457
0.21355 0.708965 0.090425
0.25098 0.697902 0.0834211
0.29279 0.685542 0.0755932
0.335012 0.673396 0.0677501
0.377935 0.660716 0.0597086
0.42211 0.647654 0.0514534
0.467643 0.634195 0.0429389
0.513176 0.620737 0.0347295
0.558755 0.607599 0.0266728
0.604257 0.594125 0.0194553
0.649561 0.580713 0.0125887
0.694041 0.567544 0.00724804
0.737331 0.555093 0.00334173
0.778881 0.542809 0.00167849
0.817502 0.531044 0.000671397
0.854536 0.519875 0.000106813
0 0.858656 0.160311
0 0.857603 0.15964
0 0.855848 0.158694
0 0.853315 0.157092
0 0.850233 0.155306
0 0.846906 0.153185
0 0.84329 0.150912
0 0.839063 0.148394
0 0.834302 0.145418
0 0.829221 0.14226
0.0122225 0.822873 0.138247
0.0263218 0.816312 0.134081
0.0461585 0.809094 0.129503
0.0708476 0.801007 0.124407
0.101472 0.791943 0.11873
0.134325 0.782208 0.112612
0.168338 0.772137 0.106264
0.204883 0.761334 0.0994278
0.242267 0.750271 0.0924392
0.284077 0.737881 0.0846265
0.326055 0.72546 0.0767681
0.369284 0.712673 0.0686961
0.413443 0.699641 0.0604257
0.4589 0.686549 0.0519722
0.504433 0.673075 0.0434882
0.550057 0.659586 0.0349737
0.59556 0.646113 0.0269932
0.640818 0.633051 0.0192874
0.685313 0.619883 0.0124819
0.728664 0.60705 0.0071107
0.769924 0.594858 0.0040589
0.809003 0.583383 0.00189212
0.846448 0.571847 0.000320439
0 0.909987 0.169146
0 0.908583 0.168429
0 0.907179 0.167529
0 0.904646 0.165942
0 0.901564 0.164141
0 0.898253 0.162005
0 0.894301 0.15964
0 0.890425 0.157183
0 0.88571 0.154223
0 0.880659 0.151095
0.0102083 0.874311 0.147097
0.0221561 0.867384 0.142901
0.0393378 0.860136 0.138308
0.0624247 0.852064 0.133227
0.0930343 0.84303 0.12755
0.125872 0.833341 0.121416
0.159899 0.823285 0.115053
0.196414 0.812482 0.108202
0.233768 0.801419 0.101183
0.275578 0.788998 0.0933852
0.317494 0.776913 0.0856336
0.360708 0.764111 0.0775769
0.404852 0.751064 0.069337
0.45037 0.737621 0.0608225
0.495888 0.724147 0.0523079
0.541527 0.710658 0.0437629
0.586969 0.697536 0.0355077
0.632288 0.684123 0.0273136
0.676783 0.670954 0.0196231
0.72015 0.658137 0.0129244
0.761318 0.646326 0.00788891
0.800641 0.634501 0.00387579
0.838102 0.623056 0.000701915
0 0.938827 0.177539
0 0.937774 0.176837
0 0.936522 0.175952
0 0.934127 0.174289
0 0.931685 0.172549
0 0.928573 0.170367
0 0.925368 0.168078
0 0.921904 0.165606
0 0.917693 0.162661
0 0.913039 0.159472
0.00831617 0.907362 0.155474
0.0181735 0.901457 0.151339
0.0328069 0.894942 0.146761
0.0543069 0.887724 0.14168
0.0849012 0.879652 0.135988
0.117708 0.870985 0.12987
0.15172 0.861982 0.123522
0.188235 0.852308 0.11667
0.225574 0.842405 0.109651
0.267384 0.831266 0.101869
0.309346 0.82005 0.0940414
0.352575 0.808408 0.0859846
0.396689 0.796475 0.0777447
0.441901 0.784161 0.0692912
0.487739 0.770977 0.0607156
0.533318 0.7579 0.0522316
0.578805 0.744442 0.0437934
0.62414 0.731029 0.0354162
0.668635 0.717861 0.0273289
0.711681 0.705425 0.0200046
0.753185 0.693187 0.0137026
0.792599 0.681361 0.00840772
0.830182 0.669932 0.00387579
0 0.957412 0.185687
0 0.956649 0.185031
0 0.955489 0.184085
0 0.953628 0.182498
0 0.951476 0.180713
0 0.949035 0.178592
0 0.946395 0.176318
0 0.943374 0.173785
0 0.93991 0.170825
0 0.936202 0.167681
0.00648508 0.931533 0.163714
0.0143435 0.926482 0.159518
0.0265965 0.92105 0.15491
0.0464179 0.915129 0.149859
0.076997 0.908476 0.144167
0.109773 0.901335 0.138064
0.143786 0.893919 0.131716
0.180301 0.885939 0.124895
0.217624 0.87776 0.117922
0.259449 0.868528 0.110094
0.301396 0.859174 0.102266
0.34461 0.849317 0.0941787
0.388724 0.839033 0.0859388
0.433875 0.82858 0.0775464
0.479713 0.815961 0.068986
0.525353 0.802777 0.0604562
0.57084 0.789334 0.0519875
0.616175 0.775906 0.0435492
0.660349 0.762829 0.0353552
0.703731 0.750317 0.0275731
0.745235 0.738064 0.0204776
0.784421 0.726329 0.0141756
0.822278 0.715129 0.00843824
0 0.968948 0.193301
0 0.968307 0.192599
0 0.967559 0.191714
0 0.966079 0.190066
0 0.964599 0.188357
0 0.962676 0.186206
0 0.960708 0.183948
0 0.958572 0.181491
0 0.955886 0.17847
