luts/varicam_official/Matrix_1.cube
TITLE "Generated by Resolve"
LUT_3D_SIZE 5
0.0149996 0.0193942 0.0162509
0.0965133 0.00271611 0.00271611
0.311177 0 0
0.650965 0 0
0.976989 0 0
6.10361e-05 0.16527 0.0412146
0.0717021 0.141421 0.0262303
0.284184 0.0791791 0
0.622339 0.0100252 0
0.953811 0 0
0 0.491051 0.0970626
0.0222324 0.467201 0.0822156
0.229297 0.404715 0.0428168
0.566491 0.305684 0.000900282
0.902831 0.205234 0
0 0.909987 0.169146
0 0.88571 0.154223
0.159899 0.823285 0.115053
0.495888 0.724147 0.0523079
0.838102 0.623056 0.000701915
0 1 0.22414
0 1 0.209522
0.106584 0.997131 0.170459
0.441398 0.977661 0.108003
0.78439 0.924025 0.0436255
0.0143435 0.020737 0.0768292
0.0960098 0.00299077 0.061799
0.310597 0 0.0231327
0.650431 0 0.000183108
0.976425 0 0
6.10361e-05 0.166567 0.100893
0.071107 0.142794 0.0858778
0.283558 0.0804456 0.0464942
0.621759 0.0104829 0.00419623
0.953216 0 0
0 0.492287 0.156237
0.0218509 0.468208 0.141146
0.228595 0.405798 0.101793
0.565316 0.306874 0.0395361
0.902174 0.205921 0.00242618
0 0.910887 0.22739
0 0.886656 0.212314
0.159121 0.824292 0.173022
0.494804 0.725231 0.11046
0.837415 0.624079 0.0465248
0 1 0.282124
0 1 0.267124
0.105699 1 0.227893
0.440223 0.995499 0.165331
0.783383 0.943786 0.10103
0.0126802 0.0245823 0.241642
0.0946059 0.00503548 0.226795
0.309316 0 0.187549
0.649149 0 0.12546
0.975097 0 0.0626078
4.57771e-05 0.170428 0.26453
0.0695964 0.14667 0.249332
0.281926 0.0843519 0.210178
0.620249 0.01178 0.148013
0.95172 0 0.0847334
0 0.496056 0.318868
0.0208743 0.471855 0.303441
0.227054 0.409461 0.264118
0.563775 0.310521 0.20174
0.900816 0.209689 0.138247
0 0.914153 0.389242
0 0.889952 0.373922
0.157488 0.827634 0.334524
0.493339 0.728649 0.271839
0.835615 0.627436 0.208026
0 1 0.443244
0 1 0.427955
0.10399 1 0.388632
0.438331 0.99649 0.325978
0.781659 0.94696 0.261845
0.0102235 0.0309148 0.515511
0.092195 0.0087129 0.500771
0.307164 0 0.461723
0.646952 0 0.399634
0.972824 0 0.337224
1.5259e-05 0.176822 0.537621
0.0670634 0.153033 0.522377
0.279683 0.0906081 0.483268
0.617899 0.0141299 0.421042
0.949554 0 0.358022
0 0.502144 0.591241
0.0191348 0.478019 0.575799
0.22446 0.416007 0.536492
0.561227 0.316732 0.474174
0.898421 0.215793 0.410773
0 0.920714 0.661204
0 0.896101 0.645319
0.154879 0.833783 0.605905
0.49044 0.734798 0.543526
0.833265 0.63357 0.479896
0 1 0.714549
0 1 0.698878
0.101549 1 0.659358
0.435904 0.997803 0.596643
0.778805 0.952453 0.53257
0.00733959 0.0376593 0.80293
0.0897383 0.0134585 0.788006
0.304997 0 0.748455
0.644816 0 0.68603
0.970504 0 0.623331
0 0.183703 0.825483
0.064622 0.159655 0.810193
0.277119 0.0972305 0.770993
0.615549 0.0174258 0.708614
0.947311 0 0.645335
0 0.509438 0.879606
0.0174258 0.484855 0.863905
0.221973 0.422431 0.824704
0.55877 0.323461 0.762158
0.896178 0.222644 0.69868
0 0.927535 0.94905
0 0.902937 0.9337
0.152407 0.840574 0.89424
0.488075 0.741344 0.831769
0.830457 0.640085 0.767926
0 1 0.967498
0 1 0.957687
0.0989242 1 0.931762
0.433082 0.998215 0.880644
0.776135 0.958099 0.816709
