luts/varicam_official/Matrix_2.cube
TITLE "Generated by Resolve"
LUT_3D_SIZE 5
0.01561 0.0390173 0.01944
0.0926833 0.0228275 0.0117952
0.230381 0.0056611 0.00292973
0.427939 0.000427253 6.10361e-05
0.65594 0 0
0.0122835 0.196582 0.0619364
0.0925765 0.180056 0.0513161
0.233417 0.152728 0.0327764
0.430182 0.111467 0.0102083
0.651423 0.0682231 0
0.00296025 0.46833 0.125216
0.0840314 0.448264 0.111559
0.236042 0.418036 0.0899825
0.433921 0.378408 0.0626993
0.650309 0.336538 0.0340429
0.000411994 0.786435 0.199161
0.0736858 0.760845 0.183505
0.235828 0.724743 0.160067
0.438163 0.681086 0.131044
0.648997 0.637507 0.101732
0.00187686 0.968719 0.268864
0.0764935 0.958389 0.250416
0.248951 0.947692 0.225208
0.452262 0.932708 0.19646
0.658289 0.885893 0.168505
0.0173648 0.0421302 0.0754711
0.0945602 0.0260014 0.0682231
0.2327 0.00694286 0.0534066
0.43032 0.000503548 0.0301823
0.658152 0 0.00970474
0.0129244 0.200809 0.12192
0.0937819 0.184268 0.112047
0.235126 0.156466 0.0954757
0.432441 0.115541 0.0713054
0.653498 0.0715496 0.0449531
0.00267033 0.47335 0.194385
0.0851911 0.452949 0.181842
0.23769 0.422492 0.162585
0.435401 0.382956 0.13756
0.65182 0.340871 0.111696
0.000427253 0.790967 0.277562
0.0748913 0.765301 0.262348
0.237263 0.729152 0.240803
0.439704 0.685298 0.21503
0.650233 0.6421 0.190036
0.00202945 0.970047 0.358709
0.0776989 0.95993 0.34052
0.250523 0.949828 0.31603
0.453635 0.936446 0.288655
0.659449 0.889494 0.263142
0.0196231 0.0475013 0.171679
0.0975967 0.0311284 0.166491
0.237461 0.00918593 0.155901
0.435981 0.000610361 0.136278
0.663005 0 0.112627
0.0140536 0.208453 0.226886
0.0958114 0.191669 0.217685
0.238743 0.163272 0.203433
0.4365 0.122087 0.18201
0.657069 0.0772412 0.160037
0.00285344 0.482063 0.307683
0.0868544 0.461051 0.296025
0.240787 0.43006 0.279133
0.439002 0.390387 0.257343
0.65481 0.348241 0.234562
0.000411994 0.798062 0.401434
0.0768902 0.772198 0.386404
0.240192 0.735729 0.365774
0.442481 0.692042 0.341222
0.652674 0.648661 0.318257
0.0021973 0.97229 0.489281
0.0798199 0.962753 0.471443
0.253422 0.95346 0.448157
0.456458 0.942336 0.422614
0.661692 0.89485 0.39881
0.0215152 0.0551003 0.315358
0.101015 0.0378271 0.31014
0.243305 0.0122683 0.301167
0.442588 0.000686656 0.284749
0.668971 0 0.264881
0.0151827 0.218616 0.373434
0.098497 0.2009 0.364782
0.243732 0.171466 0.352193
0.441901 0.130327 0.333272
0.662257 0.0848554 0.312612
0.00289921 0.493034 0.460472
0.0889601 0.471489 0.448203
0.244388 0.439948 0.431647
0.443259 0.399817 0.410651
0.658335 0.358053 0.389883
0.000335698 0.808209 0.557214
0.0796063 0.781521 0.54197
0.243671 0.744717 0.522194
0.446128 0.700786 0.498787
0.656001 0.657481 0.476661
0.00230411 0.974914 0.647944
0.0827955 0.96611 0.629511
0.25713 0.9579 0.606119
0.460258 0.948104 0.580438
0.664805 0.901564 0.556985
0.0231785 0.0636301 0.488716
0.10547 0.0453193 0.482246
0.249653 0.0161898 0.472755
0.450355 0.000976577 0.455985
0.675898 0 0.436545
0.016495 0.229969 0.544976
0.101854 0.211597 0.5355
0.249485 0.181613 0.522316
0.448371 0.139742 0.503456
0.667903 0.0944991 0.483116
0.00485237 0.505562 0.631479
0.0916152 0.483497 0.618448
0.248981 0.450965 0.601373
0.4486 0.410422 0.579858
0.662943 0.36907 0.558511
0.000259403 0.819516 0.726574
0.0828717 0.792126 0.710475
0.248417 0.754803 0.689143
0.45098 0.71046 0.664866
0.660075 0.667277 0.641733
0.00234989 0.97792 0.812757
0.0864881 0.970047 0.793667
0.261677 0.962783 0.769238
0.464805 0.953613 0.742626
0.668696 0.908507 0.718288
