luts/varicam_official/Matrix_2.cube
TITLE "Generated by Resolve"
LUT_3D_SIZE 33
0.01561 0.0390173 0.01944
0.0231937 0.0371557 0.018204
0.0314336 0.0351873 0.0170138
0.0400397 0.0334478 0.0164797
0.0489509 0.0315709 0.0158389
0.0582284 0.0296635 0.0150759
0.0688029 0.0275731 0.0141604
0.0800488 0.0252384 0.013077
0.0926833 0.0228275 0.0117952
0.10576 0.0203403 0.0104982
0.120363 0.018143 0.00956741
0.135851 0.0158694 0.00862135
0.152804 0.0136416 0.00775158
0.170382 0.0114137 0.00663767
0.188327 0.00929274 0.00543221
0.20914 0.00746166 0.00421149
0.230381 0.0056611 0.00292973
0.251179 0.00335698 0.0012665
0.273472 0.00172427 0.000122072
0.298268 0.00151064 7.62951e-05
0.322988 0.00128176 6.10361e-05
0.347646 0.000991836 4.57771e-05
0.373846 0.00077821 4.57771e-05
0.400504 0.000595102 4.57771e-05
0.427939 0.000427253 6.10361e-05
0.455467 0.000259403 6.10361e-05
0.483131 9.15541e-05 1.5259e-05
0.511559 0 0
0.54049 0 0
0.569467 0 0
0.598138 0 0
0.627024 0 0
0.65594 0 0
0.016144 0.0531014 0.024094
0.0234531 0.0512551 0.0230411
0.031281 0.0494698 0.022034
0.0400702 0.0475319 0.0211795
0.0489357 0.0456397 0.0203555
0.0580606 0.0437934 0.0195163
0.0687419 0.0416571 0.0184176
0.0802777 0.0392004 0.0171969
0.0927901 0.0366979 0.0157931
0.105638 0.0340581 0.0144198
0.120531 0.03122 0.013138
0.136095 0.028336 0.0118715
0.152895 0.0252079 0.0104524
0.170535 0.0217899 0.00894179
0.188708 0.0182956 0.00733959
0.209354 0.0142061 0.00556954
0.230411 0.0101015 0.00373846
0.251255 0.0065156 0.00167849
0.273472 0.00410468 0.000259403
0.298192 0.00427253 0.000259403
0.322713 0.00415045 0.000213626
0.347066 0.00383001 0.000122072
0.373144 0.00337224 0.000137331
0.399771 0.00288396 0.000183108
0.427008 0.00205997 0.000183108
0.4542 0.00125124 0.000167849
0.482078 0.000457771 6.10361e-05
0.510216 0 0
0.539178 0 0
0.567758 0 0
0.596231 0 0
0.625254 0 0
0.654124 0 0
0.0164492 0.0681773 0.0288548
0.0236362 0.0663767 0.027863
0.0311437 0.0645609 0.0268864
0.0399939 0.0626078 0.0258793
0.0489357 0.0607309 0.024918
0.0578317 0.0590066 0.024033
0.0686198 0.0568856 0.0228428
0.0804608 0.0543832 0.0214389
0.0928359 0.0517891 0.0199893
0.105653 0.0492103 0.0185092
0.12079 0.0460212 0.016968
0.136477 0.0428016 0.0153811
0.153216 0.0391852 0.0135653
0.170947 0.0352941 0.0117342
0.189242 0.0310674 0.00981155
0.20972 0.0261387 0.00764477
0.230594 0.0210117 0.00538643
0.251591 0.0168917 0.00306706
0.273823 0.0137636 0.00140383
0.298375 0.0128786 0.00125124
0.322759 0.0117037 0.0010071
0.346975 0.0101625 0.000671397
0.373037 0.00846876 0.000579843
0.39971 0.00677501 0.000595102
0.426795 0.00457771 0.00047303
0.453834 0.00247196 0.000335698
0.481666 0.000915541 0.000122072
0.509697 0 0
0.538491 0 0
0.566949 0.000167849 0
0.595331 0.000442512 0
0.624033 0.000534066 0
0.652796 0.000564584 0
0.0165255 0.0844282 0.0336919
0.0236667 0.0824445 0.0326085
0.0309911 0.0807355 0.0316014
0.0399176 0.0788739 0.0305638
0.0488289 0.0771191 0.029572
0.0576181 0.0755016 0.0286259
0.0685893 0.0733196 0.0273442
0.0807813 0.0709239 0.0259251
0.0929885 0.0684825 0.0244144
0.105547 0.0659648 0.0228733
0.121233 0.0626993 0.021088
0.137118 0.0593118 0.0191958
0.153521 0.0560311 0.0172274
0.171344 0.0521248 0.0150912
0.190097 0.0480049 0.0129091
0.210254 0.0433661 0.0104067
0.23093 0.0387579 0.00787366
0.252201 0.0345006 0.00543221
0.27451 0.0306249 0.00355535
0.298817 0.0273289 0.00302129
0.323079 0.0237583 0.00239567
0.347311 0.019791 0.00164797
0.373434 0.0159152 0.00135805
0.400259 0.0121462 0.00125124
0.427039 0.00790417 0.000900282
0.454124 0.00390631 0.000549325
0.481819 0.00148013 0.000198367
0.509682 0 0
0.538125 0 0
0.566705 0.00047303 0
0.595056 0.00123598 0
0.623606 0.00146487 0
0.652201 0.00154116 0
0.0164187 0.102617 0.0387121
0.0235447 0.100618 0.0375677
0.0308843 0.0987564 0.0364996
0.0397192 0.09691 0.0354772
0.0486305 0.0950942 0.0344244
0.0578164 0.0934462 0.0333867
0.0688792 0.0911727 0.0320134
0.0810864 0.0886091 0.030457
0.0931868 0.0863355 0.0289921
0.105821 0.0840772 0.0274662
0.121721 0.0807507 0.0254215
0.137743 0.0775769 0.0234073
0.153948 0.0743725 0.0212863
0.171847 0.070634 0.0189975
0.190967 0.0666667 0.0165713
0.211185 0.0622263 0.013962
0.231556 0.0578927 0.011368
0.2533 0.0535134 0.00906386
0.275593 0.0492561 0.0071107
0.299718 0.0449073 0.00598154
0.323827 0.0402991 0.00471504
0.347936 0.0356451 0.00334173
0.374014 0.0310826 0.00273136
0.400885 0.0267185 0.00242618
0.42768 0.022034 0.00178531
0.454444 0.0175326 0.00114443
0.482216 0.0146487 0.000701915
0.510048 0.0123598 0.000396735
0.538293 0.0109102 0.000289921
0.566751 0.00962844 0.000167849
0.59501 0.00839246 3.0518e-05
0.623423 0.00686656 0
0.65185 0.00531014 0
0.0162356 0.121553 0.0438087
0.023331 0.119585 0.0426795
0.0307927 0.117662 0.0415656
0.0394598 0.115801 0.0404974
0.0484627 0.113863 0.0393683
0.0580911 0.111818 0.0381781
0.0692302 0.109407 0.0367132
0.0813001 0.106798 0.0350958
0.0935073 0.104753 0.0336156
0.106065 0.102541 0.032105
0.122377 0.0993057 0.0298619
0.138506 0.0962692 0.0276799
0.154513 0.0932631 0.0255283
0.172534 0.0897078 0.0230564
0.19202 0.0859388 0.0204166
0.212039 0.0817273 0.0177768
0.232441 0.0775464 0.0151675
0.254337 0.0730602 0.0130922
0.276799 0.0685283 0.0110933
0.300755 0.0632792 0.00926223
0.324712 0.05832 0.00733959
0.348653 0.0533303 0.0052491
0.37467 0.0486458 0.00430304
0.401541 0.0440223 0.00376898
0.428168 0.0391089 0.00280766
0.454795 0.0345769 0.00187686
0.482673 0.03122 0.00132753
0.510506 0.0278325 0.000900282
0.538567 0.0246891 0.000640879
0.56669 0.0212253 0.000366217
0.595056 0.0173648 6.10361e-05
0.623301 0.013901 0
0.651576 0.0104829 0
0.0147707 0.145876 0.0497597
0.0220188 0.143832 0.0485695
0.0298009 0.141817 0.0473945
0.0382544 0.140047 0.0463417
0.0473182 0.138155 0.045182
0.0575113 0.136004 0.0438392
0.0687572 0.133684 0.042359
0.0806592 0.131441 0.0408026
0.09337 0.129 0.0391546
0.106447 0.126513 0.0374762
0.122469 0.123308 0.0353857
0.138476 0.120287 0.0332952
0.154437 0.117098 0.0311894
0.172641 0.113359 0.0287633
0.192615 0.109377 0.0260777
0.212787 0.105058 0.0233616
0.232944 0.100893 0.020737
0.255131 0.0962234 0.0181888
0.277913 0.0915236 0.0156558
0.301762 0.0862287 0.0129854
0.32578 0.0811475 0.0104829
0.34995 0.0759442 0.00802625
0.375937 0.0706798 0.00665293
0.402472 0.0652018 0.00567636
0.428946 0.0600443 0.0043183
0.45539 0.0548562 0.00300603
0.483284 0.0502174 0.00236515
0.511086 0.045594 0.00175479
0.539101 0.0408789 0.0011902
0.56733 0.036347 0.000640879
0.595346 0.0319371 0.000122072
0.623423 0.027924 0
0.651499 0.024155 0
0.0133822 0.170642 0.0557717
0.0207218 0.168566 0.0545663
0.028748 0.166491 0.0533455
0.0369268 0.164858 0.0523079
0.0460822 0.162982 0.051133
0.0568246 0.160739 0.0496834
0.0681926 0.158495 0.0481727
0.079942 0.156268 0.0466468
0.0930495 0.153857 0.0449378
0.106737 0.15111 0.043122
0.122621 0.147951 0.0410773
0.138552 0.144747 0.0390478
0.15462 0.141619 0.0370031
0.173022 0.137789 0.0345464
0.193271 0.133562 0.0318303
0.213275 0.129473 0.02916
0.233448 0.125154 0.0264286
0.25597 0.120546 0.0235447
0.278782 0.115633 0.0205234
0.30251 0.110582 0.0173495
0.326543 0.105303 0.0143435
0.350958 0.100191 0.0116884
0.376883 0.0944228 0.00981155
0.403296 0.0886854 0.00836194
0.429664 0.0830701 0.00646983
0.456199 0.0776837 0.00469978
0.483894 0.0719921 0.00381476
0.511666 0.0664836 0.00289921
0.539559 0.0609445 0.00184634
0.567681 0.0555123 0.000946059
0.595636 0.0505989 0.000183108
0.623545 0.0460975 0
0.651438 0.0419623 0
0.0122835 0.196582 0.0619364
0.0195468 0.194553 0.0607767
0.027512 0.192538 0.0596323
0.035462 0.191043 0.0586252
0.0446326 0.189242 0.0574502
0.0559091 0.186892 0.0559854
0.0673991 0.18471 0.0545052
0.0789349 0.182635 0.0530556
0.0925765 0.180056 0.0513161
0.106645 0.177554 0.0495155
0.122545 0.174426 0.0474403
0.138613 0.171267 0.0453498
0.155261 0.168017 0.0431525
0.173617 0.164553 0.0407721
0.193622 0.160555 0.0380407
0.213581 0.156542 0.0353552
0.233417 0.152728 0.0327764
0.256352 0.147875 0.0295872
0.279591 0.14316 0.0264134
0.30312 0.138247 0.0231479
0.327169 0.133196 0.0201419
0.351644 0.128206 0.0174563
0.377508 0.122637 0.0150454
0.403952 0.117082 0.0127718
0.430182 0.111467 0.0102083
0.456779 0.106004 0.00770581
0.48452 0.100404 0.00628672
0.512215 0.0946059 0.00468452
0.540032 0.0889906 0.00276188
0.567849 0.0833906 0.00131228
0.595865 0.0781262 0.000259403
0.623682 0.0732128 0
0.651423 0.0682231 0
0.0113375 0.224903 0.0687572
0.0183871 0.222919 0.0676127
0.0260777 0.220951 0.0664836
0.0340581 0.219394 0.0654307
0.0433051 0.217548 0.06421
0.0548104 0.215152 0.0626993
0.0663157 0.212955 0.0612345
0.0777295 0.21091 0.0598154
0.0918441 0.208225 0.0579843
0.106477 0.205417 0.0560464
0.122164 0.202365 0.0540322
0.138308 0.199222 0.0518959
0.15555 0.196033 0.0496376
0.174182 0.192355 0.0471046
0.194018 0.188418 0.0444038
0.21384 0.18468 0.0417639
0.233829 0.180697 0.0390631
0.257008 0.175799 0.0357824
0.280232 0.171145 0.032517
0.303609 0.166445 0.0292668
0.327657 0.161746 0.0261997
0.352575 0.156588 0.0233005
0.378408 0.151415 0.0204166
0.404501 0.145983 0.0175021
0.430961 0.140581 0.0144961
0.457404 0.134997 0.0115053
0.485237 0.129488 0.00943008
0.51284 0.123796 0.00715648
0.540322 0.118303 0.00447089
0.568048 0.112642 0.00256352
0.596002 0.10724 0.00135805
0.623743 0.101839 0.000839246
0.651423 0.0967422 0.000564584
0.0105592 0.255589 0.0762188
0.0172427 0.253437 0.0749981
0.0244144 0.251514 0.0738537
0.0327153 0.249699 0.0726635
0.0421149 0.247669 0.0713359
0.0535439 0.245274 0.0697795
0.0649424 0.243015 0.0682841
0.0762646 0.240879 0.0668803
0.0908827 0.237949 0.0649119
0.106126 0.234867 0.0628519
0.12166 0.232074 0.060853
0.137881 0.228885 0.058732
0.155734 0.225223 0.0562905
0.174578 0.221347 0.0536812
0.194171 0.217548 0.0509651
0.214298 0.213397 0.0482032
0.234409 0.209232 0.0454261
0.257801 0.204288 0.0420844
0.281056 0.199649 0.0388495
0.30428 0.195071 0.035584
0.328374 0.190448 0.0324102
0.353384 0.185367 0.0291905
0.379187 0.180407 0.0258793
0.40528 0.175219 0.0225223
0.431601 0.169787 0.0191958
0.458259 0.164477 0.0159609
0.48571 0.159121 0.013138
0.513161 0.153918 0.0101625
0.540612 0.148562 0.00677501
0.568246 0.142962 0.00447089
0.596078 0.137545 0.00323491
0.623774 0.132097 0.00231937
0.651423 0.12694 0.00155642
0.00991836 0.287938 0.0838788
0.0158236 0.286061 0.0827039
0.0221256 0.284199 0.0815747
0.0308843 0.282246 0.0802625
0.0405585 0.279927 0.0788281
0.0518654 0.277546 0.0772717
0.0634165 0.275273 0.0757458
0.0752575 0.27306 0.0742351
0.0900587 0.270085 0.072221
0.10544 0.267201 0.0701762
0.120821 0.264286 0.0681315
0.137087 0.261128 0.0659495
0.155535 0.257374 0.0634165
0.174578 0.253513 0.0607614
0.194049 0.24979 0.0580911
0.214466 0.245655 0.0552377
0.234989 0.241489 0.0523995
0.258106 0.236683 0.0490883
0.28127 0.232136 0.0458228
0.304387 0.227543 0.0426032
0.328511 0.222919 0.0393072
0.353994 0.217731 0.035874
0.379858 0.212512 0.0323033
0.405737 0.207553 0.028748
0.432319 0.20209 0.0252384
0.458854 0.196857 0.0218051
0.486152 0.191485 0.0184634
0.513664 0.186267 0.0149996
0.540978 0.180774 0.0112306
0.568505 0.175448 0.00856031
0.596246 0.169833 0.00694286
0.623911 0.164538 0.00540169
0.651362 0.159091 0.00386053
0.00933852 0.320867 0.0916152
0.014313 0.319097 0.090486
0.0196536 0.317296 0.0893263
0.0289158 0.315267 0.0879225
0.0388647 0.313115 0.0864881
0.0500649 0.310765 0.084947
0.0618906 0.308476 0.0833753
0.0743572 0.306203 0.0817426
0.0892805 0.303243 0.0797131
0.104662 0.300175 0.0776074
0.119875 0.297337 0.0755779
0.136172 0.294255 0.0733501
0.1552 0.290486 0.0706645
0.174334 0.286702 0.0680247
0.193805 0.283055 0.0653849
0.214374 0.279026 0.062501
0.235508 0.274891 0.0595407
0.258488 0.270222 0.05626
0.281514 0.265782 0.0530098
0.30454 0.261097 0.0497597
0.32871 0.256168 0.0463722
0.354314 0.251164 0.042771
0.38027 0.245838 0.0390631
0.406348 0.240726 0.0353399
0.432807 0.235279 0.0316625
0.459403 0.229786 0.0280308
0.486793 0.224521 0.0242313
0.51397 0.219074 0.0203708
0.541146 0.21387 0.0163577
0.568551 0.208362 0.0132906
0.596185 0.203021 0.0112764
0.623819 0.197421 0.00900282
0.651453 0.192065 0.00665293
0.00794995 0.356222 0.0997787
0.0118257 0.354162 0.0986038
0.0161746 0.352361 0.0974441
0.0264286 0.350164 0.0959487
0.0369116 0.347936 0.0944381
0.0480507 0.345586 0.0928817
0.0602426 0.343114 0.0912184
0.0734112 0.340505 0.0894331
0.0881971 0.337545 0.0873732
0.103548 0.334493 0.0852522
0.119158 0.331548 0.0831311
0.135744 0.328328 0.0808423
0.15494 0.324407 0.0780804
0.174075 0.320623 0.0754253
0.193423 0.316915 0.0727398
0.214313 0.313069 0.0698558
0.235798 0.308827 0.0668193
0.258808 0.304173 0.0635233
0.281788 0.29955 0.0602579
0.305058 0.295171 0.0569924
0.329183 0.290349 0.0535286
0.354971 0.285115 0.0497902
0.380835 0.280171 0.0460822
0.406561 0.275074 0.0423896
0.433234 0.269978 0.0387274
0.459892 0.264652 0.03505
0.487053 0.259236 0.0313573
0.514199 0.254063 0.0276799
0.541466 0.248661 0.0239567
0.568795 0.243519 0.0208286
0.596216 0.238163 0.0182803
0.623728 0.232929 0.0155642
0.651194 0.22742 0.0127565
0.00650034 0.392111 0.108019
0.00972 0.389975 0.106813
0.0135348 0.388128 0.105669
0.0243229 0.385809 0.104067
0.0350958 0.383505 0.10251
0.0460212 0.380926 0.100893
0.0584573 0.378332 0.0991379
0.072282 0.375448 0.0972152
0.0870985 0.372488 0.0951247
0.102327 0.369467 0.0929885
0.118364 0.366384 0.0907759
0.135271 0.363317 0.0884565
0.154452 0.359335 0.0856794
0.173739 0.35552 0.0829328
0.192966 0.351919 0.080293
0.214145 0.347753 0.0772869
0.236103 0.343389 0.0741588
0.258869 0.339055 0.0709544
0.281819 0.334462 0.0676738
0.305348 0.329839 0.064332
0.329778 0.325246 0.060853
0.355535 0.320043 0.057084
0.381109 0.314992 0.0534218
0.406851 0.310246 0.0497902
0.433417 0.305013 0.0461128
0.460365 0.299687 0.0423896
0.48748 0.294575 0.0387884
0.514565 0.289219 0.0352026
0.541588 0.284123 0.031754
0.568841 0.278828 0.0284886
0.596338 0.273808 0.0254673
0.623743 0.268421 0.0223239
0.650919 0.263249 0.0191653
0.00486763 0.429953 0.116548
0.00872816 0.42797 0.115312
0.0134432 0.425986 0.114061
0.0235904 0.423606 0.112428
0.0336919 0.421042 0.110811
0.0438239 0.418845 0.109316
0.0563211 0.41622 0.107515
0.0706493 0.41326 0.105455
0.0855573 0.410346 0.103349
0.10074 0.407416 0.101228
0.117342 0.404135 0.0988632
0.134661 0.400702 0.0964065
0.153841 0.396826 0.0936294
0.173083 0.393027 0.090898
0.192126 0.389319 0.0882429
0.213672 0.38529 0.0852216
0.236027 0.380804 0.0819409
0.258793 0.376211 0.0786755
0.281773 0.371572 0.0753796
0.305653 0.366979 0.0720531
0.33022 0.36199 0.0686198
0.355673 0.356817 0.0650492
0.381277 0.351934 0.0615549
0.406882 0.346822 0.0580758
0.433616 0.34139 0.0543526
0.460655 0.336141 0.0506752
0.487602 0.330816 0.0470283
0.514778 0.325429 0.0433814
0.541863 0.320333 0.0399176
0.568826 0.315022 0.0364538
0.596078 0.309941 0.0331273
0.623392 0.30454 0.0296483
0.650736 0.299336 0.0262303
0.00296025 0.46833 0.125216
0.0075227 0.466224 0.123857
0.0132753 0.464057 0.122469
0.0225986 0.461418 0.120836
0.0320745 0.459098 0.119219
0.0419165 0.456901 0.117693
0.0544289 0.454215 0.115816
0.0691081 0.451148 0.113664
0.0840314 0.448264 0.111559
0.0991531 0.445411 0.109453
0.116365 0.441962 0.106966
0.134096 0.438422 0.104417
0.153185 0.434607 0.101701
0.172488 0.430777 0.0989853
0.19173 0.426993 0.0963302
0.213474 0.422614 0.0932174
0.236042 0.418036 0.0899825
0.258732 0.413489 0.0867933
0.281682 0.40914 0.0836042
0.305974 0.404135 0.0802014
0.330724 0.399054 0.0767681
0.356023 0.393881 0.0732586
0.381567 0.388983 0.0698405
0.406958 0.383902 0.0664073
0.433921 0.378408 0.0626993
0.461006 0.373129 0.0589914
0.487831 0.367803 0.0554208
0.514717 0.362737 0.0518502
0.541863 0.357336 0.0482185
0.568978 0.35198 0.0446479
0.596094 0.346929 0.0411231
0.62327 0.341588 0.0375677
0.650309 0.336538 0.0340429
0.000808728 0.506966 0.133883
0.00611887 0.504463 0.132403
0.0129091 0.502098 0.130877
0.0213474 0.499763 0.129305
0.0302586 0.497429 0.127718
0.0402991 0.494804 0.125963
0.0529183 0.491997 0.123995
0.0676738 0.488807 0.121782
0.0825208 0.485969 0.119677
0.0975509 0.483192 0.117601
0.115434 0.479622 0.114992
0.133471 0.476005 0.112398
0.152499 0.472145 0.109743
0.171939 0.468284 0.107073
0.191669 0.464439 0.104433
0.213397 0.460014 0.101457
0.236133 0.455314 0.0983139
0.258686 0.451148 0.0953536
0.281575 0.446632 0.0922255
0.306294 0.441566 0.0887617
0.331075 0.436484 0.0852827
0.35642 0.431525 0.0818036
0.381781 0.426444 0.0783093
0.407446 0.421393 0.074815
0.434119 0.416312 0.0711986
0.461051 0.410895 0.0675059
0.487938 0.405539 0.06392
0.514763 0.400458 0.0604105
0.541955 0.39501 0.0566873
0.5691 0.389654 0.0530098
0.595987 0.384741 0.049546
0.623011 0.379553 0.0459907
0.650004 0.374624 0.0425574
0.00112917 0.546761 0.142626
0.00627146 0.544427 0.141161
0.0126345 0.542016 0.13959
0.0197299 0.539452 0.138033
0.0278019 0.537087 0.136477
0.038407 0.534554 0.134707
0.0512398 0.531655 0.132738
0.06598 0.528176 0.13051
0.0809796 0.525231 0.128435
0.0959487 0.522377 0.12639
0.114382 0.518547 0.123751
0.132799 0.514748 0.121141
0.151705 0.510887 0.118532
0.171298 0.506966 0.115862
0.191546 0.502968 0.113146
0.213352 0.498772 0.110216
0.235996 0.494087 0.107103
0.258503 0.489586 0.104067
0.281376 0.484993 0.100999
0.306233 0.479896 0.0974746
0.33135 0.474739 0.0939345
0.356649 0.46981 0.0904707
0.382071 0.464652 0.0869764
0.407889 0.459464 0.0834211
0.434531 0.454124 0.0797589
0.461448 0.448997 0.076112
0.488136 0.443565 0.0725567
0.5149 0.438132 0.0689403
0.541955 0.432975 0.0653086
0.568994 0.427634 0.0616159
0.596063 0.422705 0.0580301
0.622919 0.417502 0.0545052
0.649485 0.412329 0.0509957
0.00227359 0.587304 0.151461
0.00691234 0.584634 0.14992
0.0124361 0.582208 0.148318
0.0179751 0.579965 0.146929
0.0251011 0.577325 0.145357
0.0364233 0.574609 0.143572
0.0495308 0.571633 0.141604
0.0641947 0.568444 0.139528
0.0792706 0.565377 0.137484
0.0943465 0.562112 0.135409
0.113298 0.557961 0.132769
0.132097 0.553918 0.130159
0.150866 0.550088 0.127581
0.170626 0.546075 0.124895
0.191409 0.541894 0.122072
0.213275 0.537682 0.119097
0.23563 0.533059 0.115984
0.258106 0.52842 0.112917
0.280949 0.523705 0.109834
0.306249 0.518502 0.106203
0.331533 0.513313 0.102632
0.356634 0.508446 0.0992599
0.382315 0.503151 0.0956893
0.408133 0.497795 0.0921187
0.434974 0.492363 0.088426
0.461875 0.487236 0.0848249
0.488579 0.481651 0.0812085
0.515312 0.476097 0.0775464
0.542153 0.47097 0.0738994
0.56907 0.465675 0.0702525
0.596109 0.460472 0.0665446
0.622644 0.455512 0.0630198
0.649165 0.450217 0.0595102
0.00280766 0.627314 0.161028
0.00639353 0.624949 0.159533
0.0104829 0.622278 0.157977
0.014725 0.619883 0.156466
0.0213626 0.61709 0.154803
0.034226 0.614191 0.152911
0.0480507 0.611154 0.150927
0.0625925 0.608011 0.148852
0.0781109 0.6047 0.1467
0.0938125 0.601358 0.144549
0.112657 0.597101 0.141848
0.131472 0.593133 0.139223
0.150027 0.589227 0.136675
0.16997 0.585107 0.133928
0.191272 0.580789 0.130968
0.213306 0.576165 0.127901
0.235676 0.571679 0.124834
0.258457 0.566949 0.121691
0.281575 0.562158 0.118486
0.306737 0.557031 0.114977
0.331899 0.551858 0.111421
0.356893 0.546609 0.107912
0.382666 0.541497 0.104372
0.408743 0.53608 0.100755
0.435355 0.530617 0.0971237
0.462318 0.525093 0.0933852
0.488899 0.519951 0.0897841
0.515541 0.514519 0.0861524
0.542412 0.50901 0.082414
0.569299 0.503853 0.0787518
0.596033 0.498619 0.0751202
0.622614 0.493462 0.071519
0.648966 0.488655 0.0680247
0.00311284 0.667323 0.170565
0.00569161 0.664958 0.1691
0.00848402 0.662287 0.167575
0.0119783 0.659785 0.166033
0.0183261 0.657115 0.164324
0.0325017 0.653742 0.162249
0.0467079 0.65066 0.160235
0.0611124 0.647532 0.15816
0.0769513 0.644022 0.155932
0.0933089 0.640101 0.153567
0.112001 0.636225 0.150942
0.130724 0.632334 0.148302
0.149294 0.628351 0.145754
0.169421 0.624109 0.142947
0.191196 0.619654 0.139879
0.213352 0.614908 0.136767
0.235691 0.610056 0.133639
0.258808 0.605493 0.130465
0.282231 0.600626 0.127199
0.307256 0.595529 0.123705
0.332296 0.590341 0.120211
0.357214 0.585 0.116609
0.383078 0.579553 0.112993
0.409354 0.574365 0.109438
0.43592 0.568841 0.10573
0.462577 0.563302 0.102037
0.48925 0.557961 0.0983291
0.515831 0.55285 0.0946975
0.54255 0.54728 0.0910048
0.569406 0.541772 0.0872663
0.596216 0.536706 0.0836042
0.622644 0.531624 0.0800488
0.648661 0.526726 0.0765393
0.00260929 0.707454 0.180148
0.00436408 0.704952 0.178668
0.00624094 0.702144 0.17705
0.0112612 0.69958 0.175448
0.0185245 0.696574 0.173632
0.032166 0.693324 0.171588
0.0458076 0.690181 0.169574
0.0596475 0.687083 0.167575
0.0757916 0.683146 0.165148
0.0927443 0.679286 0.162737
0.111284 0.675334 0.160113
0.129946 0.671366 0.157458
0.148882 0.667399 0.154803
0.169329 0.663081 0.151919
0.191363 0.658396 0.148791
0.213474 0.653635 0.145678
0.235599 0.648829 0.14258
0.259098 0.643885 0.139284
0.282918 0.638895 0.135927
0.307836 0.633646 0.132387
0.33283 0.628626 0.128923
0.357778 0.62327 0.125322
0.38349 0.617838 0.121691
0.41004 0.612329 0.117998
0.4365 0.606836 0.11429
0.463004 0.601587 0.110674
0.489586 0.596124 0.106935
0.516228 0.590631 0.103197
0.543114 0.585031 0.099443
0.569924 0.579797 0.0957961
0.596597 0.574487 0.0920577
0.622721 0.569375 0.0884718
0.648798 0.564599 0.0850538
0.00172427 0.747189 0.189715
0.00268559 0.744686 0.18819
0.0037232 0.741878 0.186587
0.0104219 0.739116 0.184863
0.0187228 0.735943 0.183001
0.0317845 0.732631 0.180896
0.0449836 0.729397 0.178851
0.0582589 0.726024 0.176806
0.0746929 0.72221 0.174395
0.0922408 0.718151 0.171817
0.110628 0.714153 0.169192
0.129274 0.710124 0.166537
0.148684 0.70602 0.16376
0.169421 0.701579 0.1608
0.191562 0.696757 0.157626
0.213626 0.691966 0.154513
0.23563 0.68719 0.151431
0.259495 0.682063 0.148028
0.28368 0.676875 0.144579
0.308553 0.671519 0.141009
0.333349 0.666178 0.137438
0.358572 0.660746 0.133852
0.384314 0.655299 0.13019
0.410849 0.650019 0.126497
0.437247 0.644465 0.122774
0.463661 0.63888 0.119051
0.490257 0.633326 0.115328
0.516899 0.628 0.11162
0.543725 0.622385 0.107851
0.570459 0.616861 0.104097
0.596841 0.611536 0.10042
0.623041 0.606577 0.0968795
0.648966 0.601465 0.0934005
0.000411994 0.786435 0.199161
0.000656138 0.78381 0.197635
0.000946059 0.781445 0.196201
0.00949111 0.778302 0.194263
0.0189975 0.774853 0.192264
0.031342 0.771557 0.190204
0.0440528 0.768017 0.188037
0.0569619 0.764797 0.186007
0.0736858 0.760845 0.183505
0.0917983 0.756619 0.180819
0.110094 0.752621 0.178164
0.128771 0.748257 0.175433
0.14876 0.743816 0.172519
0.169772 0.739178 0.169482
0.191806 0.734356 0.166339
0.213825 0.729549 0.163195
0.235828 0.724743 0.160067
0.260029 0.719356 0.156573
0.284566 0.713893 0.153033
0.309422 0.708492 0.149432
0.334279 0.703334 0.145907
0.35967 0.69781 0.142275
0.385397 0.692317 0.138567
0.41178 0.686793 0.134798
0.438163 0.681086 0.131044
0.464622 0.675288 0.127275
0.491142 0.669947 0.123568
0.517693 0.664347 0.119844
0.544396 0.658701 0.11606
0.571023 0.653101 0.112291
0.597375 0.647868 0.108629
0.623438 0.642588 0.105119
0.648997 0.637507 0.101732
0 0.824735 0.208469
0.000442512 0.822126 0.206973
0.00102235 0.81976 0.205493
0.0102846 0.816144 0.203418
0.0200351 0.812818 0.201343
0.0312352 0.809262 0.199222
0.0433204 0.805936 0.197086
0.0563668 0.802563 0.194919
0.073167 0.79855 0.192355
0.0914015 0.794034 0.189578
0.109667 0.789944 0.186969
0.12842 0.785748 0.184222
0.148974 0.781079 0.181216
0.170291 0.776303 0.178119
0.192294 0.771466 0.17496
0.214405 0.766613 0.171801
0.236561 0.761761 0.168627
0.260884 0.756268 0.165057
0.285527 0.750683 0.16144
0.310292 0.745205 0.157809
0.335134 0.739712 0.154192
0.360678 0.734112 0.150469
0.386526 0.728511 0.146777
0.412772 0.722881 0.142977
0.439277 0.717159 0.139193
0.465629 0.711681 0.1355
0.492088 0.705989 0.131792
0.518593 0.700298 0.128145
0.54522 0.694652 0.124437
0.571588 0.689326 0.120851
0.598001 0.683772 0.117235
0.623941 0.678431 0.113848
0.649378 0.673289 0.110567
0 0.862348 0.21767
0.00108339 0.859922 0.216159
0.00251774 0.857206 0.214572
0.0119326 0.853742 0.212467
0.0214694 0.85005 0.210269
