luts/varicam_official/Matrix_2.cube
TITLE "Generated by Resolve"
LUT_3D_SIZE 9
0.01561 0.0390173 0.01944
0.0489509 0.0315709 0.0158389
0.0926833 0.0228275 0.0117952
0.152804 0.0136416 0.00775158
0.230381 0.0056611 0.00292973
0.322988 0.00128176 6.10361e-05
0.427939 0.000427253 6.10361e-05
0.54049 0 0
0.65594 0 0
0.0164187 0.102617 0.0387121
0.0486305 0.0950942 0.0344244
0.0931868 0.0863355 0.0289921
0.153948 0.0743725 0.0212863
0.231556 0.0578927 0.011368
0.323827 0.0402991 0.00471504
0.42768 0.022034 0.00178531
0.538293 0.0109102 0.000289921
0.65185 0.00531014 0
0.0122835 0.196582 0.0619364
0.0446326 0.189242 0.0574502
0.0925765 0.180056 0.0513161
0.155261 0.168017 0.0431525
0.233417 0.152728 0.0327764
0.327169 0.133196 0.0201419
0.430182 0.111467 0.0102083
0.540032 0.0889906 0.00276188
0.651423 0.0682231 0
0.00933852 0.320867 0.0916152
0.0388647 0.313115 0.0864881
0.0892805 0.303243 0.0797131
0.1552 0.290486 0.0706645
0.235508 0.274891 0.0595407
0.32871 0.256168 0.0463722
0.432807 0.235279 0.0316625
0.541146 0.21387 0.0163577
0.651453 0.192065 0.00665293
0.00296025 0.46833 0.125216
0.0320745 0.459098 0.119219
0.0840314 0.448264 0.111559
0.153185 0.434607 0.101701
0.236042 0.418036 0.0899825
0.330724 0.399054 0.0767681
0.433921 0.378408 0.0626993
0.541863 0.357336 0.0482185
0.650309 0.336538 0.0340429
0.00280766 0.627314 0.161028
0.0213626 0.61709 0.154803
0.0781109 0.6047 0.1467
0.150027 0.589227 0.136675
0.235676 0.571679 0.124834
0.331899 0.551858 0.111421
0.435355 0.530617 0.0971237
0.542412 0.50901 0.082414
0.648966 0.488655 0.0680247
0.000411994 0.786435 0.199161
0.0189975 0.774853 0.192264
0.0736858 0.760845 0.183505
0.14876 0.743816 0.172519
0.235828 0.724743 0.160067
0.334279 0.703334 0.145907
0.438163 0.681086 0.131044
0.544396 0.658701 0.11606
0.648997 0.637507 0.101732
0 0.92282 0.235599
0.0211337 0.90985 0.227665
0.0733654 0.893874 0.217838
0.150942 0.875685 0.206287
0.240726 0.855817 0.192889
0.338857 0.835676 0.178592
0.443336 0.815351 0.164187
0.548867 0.791913 0.14995
0.651759 0.769131 0.136614
0.00187686 0.968719 0.268864
0.0137484 0.963867 0.260777
0.0764935 0.958389 0.250416
0.157702 0.952789 0.238468
0.248951 0.947692 0.225208
0.348104 0.942611 0.210986
0.452262 0.932708 0.19646
0.55697 0.908904 0.181994
0.658289 0.885893 0.168505
0.0162509 0.0401007 0.0444343
0.0494087 0.0326696 0.0406348
0.0931868 0.0241398 0.036408
0.153399 0.0145724 0.0295262
0.230976 0.00616464 0.0206455
0.323644 0.00155642 0.0106508
0.428672 0.000457771 0.00421149
0.54107 0 0.00161746
0.656657 0 0.000259403
0.016846 0.103838 0.0629435
0.0488899 0.0964675 0.0584726
0.0936599 0.0877699 0.0532082
0.154513 0.075761 0.0458381
0.232288 0.0594339 0.0357366
0.32462 0.041474 0.023743
0.42826 0.0225681 0.0123598
0.539132 0.0115816 0.00689708
0.652369 0.0055848 0.0031281
0.0125429 0.198108 0.0872206
0.0447395 0.190967 0.0824598
0.09308 0.181704 0.0764172
0.15581 0.169665 0.0683909
0.23415 0.154116 0.0584726
0.327764 0.134768 0.0463264
0.431037 0.113146 0.0328374
0.54052 0.0905165 0.0212711
0.651957 0.0697185 0.0118868
0.00958267 0.322774 0.117739
0.0392462 0.314458 0.112825
0.0896162 0.304875 0.106462
0.155718 0.292302 0.0981003
0.23592 0.276783 0.0877394
0.329198 0.258045 0.0755322
0.433341 0.236957 0.0613718
0.541527 0.215518 0.0470283
0.651759 0.193713 0.033753
0.00283818 0.470451 0.154284
0.0323033 0.460929 0.148394
0.084535 0.450034 0.141146
0.153628 0.436362 0.131914
0.236637 0.420005 0.120806
0.33138 0.400732 0.107988
0.434379 0.380453 0.0940871
0.542367 0.359197 0.0798505
0.65095 0.338323 0.0662547
0.00300603 0.628977 0.19234
0.021622 0.619058 0.186191
0.0786145 0.60618 0.177859
0.1505 0.591333 0.167926
0.236515 0.573297 0.156329
0.332738 0.553323 0.143389
0.436072 0.532387 0.130053
0.543038 0.510796 0.116518
0.649699 0.490272 0.103395
0.000427253 0.787976 0.231907
0.0196689 0.776333 0.224979
0.0741741 0.762509 0.216556
0.149477 0.745693 0.206348
0.2365 0.726253 0.194629
0.334722 0.705226 0.181399
0.438819 0.682719 0.167361
0.544991 0.660502 0.153475
0.649393 0.639155 0.140215
1.5259e-05 0.923766 0.271977
0.0213626 0.910704 0.264103
0.0738689 0.89482 0.254719
0.151522 0.876829 0.243656
0.241154 0.856947 0.230991
0.339178 0.837156 0.217197
0.443717 0.8168 0.202823
0.54931 0.793454 0.188724
0.652338 0.770489 0.175525
0.0019379 0.969284 0.307729
0.0135195 0.964508 0.299565
0.0770123 0.958984 0.289174
0.158312 0.953445 0.277165
0.24979 0.948455 0.263874
0.348882 0.943633 0.249821
0.452735 0.934279 0.235492
0.55758 0.910201 0.221759
0.6589 0.887327 0.209369
0.0173648 0.0421302 0.0754711
0.0504158 0.0345464 0.0717632
0.0945602 0.0260014 0.0682231
0.154849 0.0159762 0.0623331
0.2327 0.00694286 0.0534066
0.325353 0.0019379 0.0419776
0.43032 0.000503548 0.0301823
0.542702 0 0.0176699
0.658152 0 0.00970474
0.0173953 0.105943 0.095491
0.0495766 0.0987106 0.0912795
0.0945449 0.0901656 0.0865339
0.155657 0.0779431 0.0797589
0.233707 0.0612802 0.0703441
0.326101 0.0429694 0.0592203
0.429847 0.0233768 0.0467689
0.540734 0.0126345 0.0332647
0.653696 0.00598154 0.0223087
0.0129244 0.200809 0.12192
0.0454566 0.193637 0.117479
0.0937819 0.184268 0.112047
0.15697 0.172213 0.104814
0.235126 0.156466 0.0954757
0.329168 0.13698 0.0838788
0.432441 0.115541 0.0713054
0.54197 0.0929732 0.0581521
0.653498 0.0715496 0.0449531
0.00982681 0.325567 0.15523
0.0397498 0.317433 0.150134
0.090486 0.30753 0.143893
0.156542 0.294774 0.136233
0.237278 0.279042 0.12668
0.330678 0.260441 0.115312
0.434455 0.239658 0.10248
0.543023 0.217853 0.0890822
0.652918 0.196109 0.0759289
0.00267033 0.47335 0.194385
0.0327001 0.463935 0.188663
0.0851911 0.452949 0.181842
0.154559 0.439094 0.173159
0.23769 0.422492 0.162585
0.332433 0.403464 0.150561
0.435401 0.382956 0.13756
0.543404 0.361883 0.1243
0.65182 0.340871 0.111696
0.00331121 0.632029 0.235431
0.0221561 0.621576 0.229267
0.0793469 0.60882 0.221302
0.151156 0.593942 0.212085
0.237217 0.575784 0.200931
0.333532 0.556252 0.188693
0.437034 0.535042 0.175708
0.543954 0.513756 0.162631
0.650309 0.492973 0.150256
0.000427253 0.790967 0.277562
0.0204166 0.779324 0.27068
0.0748913 0.765301 0.262348
0.150347 0.748119 0.252201
0.237263 0.729152 0.240803
0.335927 0.7075 0.228107
0.439704 0.685298 0.21503
0.545754 0.662959 0.202136
0.650233 0.6421 0.190036
6.10361e-05 0.924926 0.3196
0.0215 0.912032 0.311955
0.0745403 0.896101 0.302724
0.152483 0.878202 0.292165
0.242237 0.858701 0.279988
0.340444 0.839063 0.267109
0.444999 0.818784 0.253452
0.550088 0.795819 0.240238
0.652934 0.772976 0.227787
0.00202945 0.970047 0.358709
0.0132753 0.965393 0.350607
0.0776989 0.95993 0.34052
0.158999 0.954543 0.328878
0.250523 0.949828 0.31603
0.349996 0.945266 0.302373
0.453635 0.936446 0.288655
0.558419 0.912474 0.275349
0.659449 0.889494 0.263142
0.0185397 0.0442817 0.117601
0.0517433 0.0371099 0.114137
0.095964 0.0284733 0.111299
0.156817 0.0176699 0.106416
0.234867 0.00799573 0.0987564
0.327916 0.00236515 0.0886702
0.432624 0.000549325 0.0765698
0.545022 0 0.0632181
0.660029 0 0.0511025
0.0179599 0.108965 0.139406
0.0504311 0.101762 0.135302
0.0957809 0.0929122 0.131182
0.157229 0.0805676 0.125368
0.23537 0.0639048 0.116899
0.328298 0.0449378 0.106172
0.431968 0.0244144 0.0943008
0.54284 0.014023 0.0821241
0.655818 0.00636301 0.0701915
0.0135195 0.204273 0.168399
0.0462654 0.197055 0.163958
0.094728 0.187564 0.158618
0.15848 0.175311 0.151675
0.236789 0.159442 0.143359
0.330953 0.139742 0.132784
0.434165 0.118563 0.121416
0.54377 0.0958572 0.109224
0.655268 0.0740978 0.0972
0.0101472 0.329274 0.203967
0.0403143 0.321111 0.199039
0.0914168 0.311177 0.193408
0.157763 0.298238 0.186252
0.239033 0.282353 0.177142
0.332311 0.263645 0.16643
0.436072 0.242924 0.154726
0.544656 0.221027 0.142489
0.654444 0.199451 0.130541
0.00273136 0.477195 0.245792
0.0332494 0.467552 0.240162
0.0858625 0.456657 0.23357
0.155612 0.442786 0.225528
0.239277 0.425742 0.215641
0.333898 0.407065 0.204578
0.436942 0.386511 0.192523
0.545007 0.36492 0.17998
0.65304 0.344167 0.167803
0.00357061 0.635721 0.290013
0.0224918 0.625452 0.283925
0.0800793 0.612528 0.27631
0.152377 0.597314 0.267353
0.23859 0.579278 0.256718
0.335012 0.559625 0.244648
0.438422 0.538201 0.231983
0.545251 0.516838 0.219623
0.651652 0.496254 0.208118
0.000411994 0.794308 0.334112
0.0214694 0.782498 0.327153
0.0759594 0.768139 0.318761
0.151629 0.751293 0.30927
0.238499 0.732036 0.298329
0.33695 0.710719 0.286213
0.441016 0.688258 0.273564
0.547112 0.666026 0.261234
0.65124 0.644984 0.249699
9.15541e-05 0.926482 0.37847
0.0216526 0.913542 0.370642
0.0754559 0.897917 0.361791
0.153689 0.880003 0.351354
0.243183 0.860777 0.339452
0.341543 0.841321 0.327031
0.446128 0.821515 0.314122
0.551385 0.798306 0.301534
0.653895 0.775525 0.290013
0.00210575 0.971038 0.419638
0.0135042 0.966552 0.411597
0.0787518 0.961288 0.401709
0.160128 0.956085 0.390417
0.252079 0.951431 0.377966
0.35111 0.94754 0.36495
0.455009 0.939208 0.351705
0.559411 0.915007 0.33875
0.660533 0.892164 0.326848
0.0196231 0.0475013 0.171679
0.0529183 0.0402838 0.168505
0.0975967 0.0311284 0.166491
0.158907 0.0196078 0.162493
0.237461 0.00918593 0.155901
0.330632 0.00288396 0.147066
0.435981 0.000610361 0.136278
0.548241 0 0.124514
0.663005 0 0.112627
0.0184176 0.112734 0.195163
0.0513008 0.105409 0.191485
0.0972305 0.0962387 0.187732
0.158877 0.083772 0.182712
0.237522 0.0667582 0.17528
0.330892 0.0474098 0.165743
0.434775 0.0256962 0.154894
0.545205 0.0158083 0.14316
0.658045 0.00679026 0.131655
0.0140536 0.208453 0.226886
0.0470283 0.200977 0.222583
0.0958114 0.191669 0.217685
0.160281 0.178927 0.211322
0.238743 0.163272 0.203433
0.333059 0.143404 0.193118
0.4365 0.122087 0.18201
0.545953 0.0991989 0.170916
0.657069 0.0772412 0.160037
0.0104067 0.334005 0.264408
0.0411231 0.325338 0.259281
0.0925154 0.315511 0.253483
0.159274 0.302449 0.246326
0.240574 0.286336 0.237873
0.334218 0.267765 0.228229
0.437842 0.24686 0.217502
0.546349 0.22504 0.206348
0.656214 0.203052 0.195193
0.00285344 0.482063 0.307683
0.0337835 0.472313 0.302113
0.0868544 0.461051 0.296025
0.157015 0.44686 0.288365
0.240787 0.43006 0.279133
0.33579 0.411017 0.268696
0.439002 0.390387 0.257343
0.546777 0.368887 0.245716
0.65481 0.348241 0.234562
0.00389105 0.640009 0.354452
0.0229953 0.629648 0.348501
0.0810559 0.616602 0.341039
0.153674 0.601541 0.332692
0.239872 0.58352 0.322515
0.336629 0.563363 0.311131
0.440162 0.542336 0.299229
0.546822 0.520729 0.287327
0.652903 0.500511 0.276188
0.000411994 0.798062 0.401434
0.0224765 0.786313 0.394583
0.0768902 0.772198 0.386404
0.152743 0.755138 0.376761
0.240192 0.735729 0.365774
0.338704 0.714427 0.353765
0.442481 0.692042 0.341222
0.548424 0.669764 0.329229
0.652674 0.648661 0.318257
0.000122072 0.928298 0.446494
0.0218814 0.915511 0.438651
0.076524 0.899962 0.429603
0.155261 0.88217 0.418982
0.244984 0.863172 0.407721
0.343145 0.844007 0.395666
0.44773 0.824414 0.383322
0.55285 0.80145 0.371206
0.655421 0.778683 0.360296
0.0021973 0.97229 0.489281
0.0137179 0.967865 0.481163
0.0798199 0.962753 0.471443
0.16141 0.957656 0.460243
0.253422 0.95346 0.448157
0.352834 0.949676 0.43534
0.456458 0.942336 0.422614
0.560693 0.918257 0.410224
0.661692 0.89485 0.39881
0.0205997 0.0512398 0.238209
0.0540475 0.0437476 0.234806
0.0991836 0.0343023 0.233051
0.161212 0.0219425 0.229786
0.240253 0.0105898 0.224094
0.333822 0.00344854 0.216205
0.439048 0.000656138 0.206455
0.551278 0 0.195575
0.665568 0 0.185061
0.0186923 0.11696 0.262348
0.0520027 0.109468 0.258625
0.0988785 0.10016 0.255344
0.160876 0.0872969 0.250706
0.239811 0.0702831 0.244007
0.333654 0.0502937 0.235431
0.437613 0.0277714 0.225254
0.54815 0.0179751 0.214847
0.660792 0.00721752 0.204318
0.0146334 0.21326 0.295781
0.0479438 0.205646 0.291493
0.0970626 0.195987 0.287037
0.162051 0.183139 0.281147
0.241016 0.167071 0.273823
0.335439 0.147585 0.264637
0.439017 0.125887 0.254154
0.548531 0.10312 0.243275
0.659388 0.0810101 0.232563
0.0103761 0.339345 0.335607
0.0416724 0.330602 0.330739
0.0937209 0.320531 0.325261
0.161151 0.307088 0.318379
0.242878 0.291142 0.310155
0.336568 0.272221 0.300481
0.440238 0.250935 0.289464
0.548684 0.229068 0.278843
0.658381 0.207401 0.268467
0.0028687 0.487144 0.380346
0.0342107 0.477516 0.374701
0.0879072 0.46598 0.368124
0.158373 0.451682 0.360464
0.242557 0.434607 0.351232
0.337652 0.415595 0.341405
0.441016 0.394812 0.330571
0.54876 0.37348 0.319799
0.656367 0.353094 0.3093
0.00411994 0.64509 0.428
0.023621 0.634699 0.421958
0.0821088 0.621576 0.414664
0.155062 0.606241 0.406271
0.241642 0.588159 0.396292
0.33843 0.567773 0.385519
0.442145 0.546685 0.374258
0.548791 0.5252 0.362844
0.654459 0.504829 0.352148
0.000381476 0.803098 0.476478
0.023743 0.790799 0.469505
0.0781415 0.776684 0.461479
0.154177 0.759533 0.452094
0.241932 0.740017 0.441535
0.340505 0.718334 0.429694
0.444205 0.696391 0.417899
0.550164 0.674128 0.406134
0.654139 0.653071 0.395438
0.00015259 0.930541 0.523339
0.0220493 0.917769 0.515526
0.0779126 0.902129 0.506294
0.15668 0.884489 0.49601
0.24683 0.865736 0.484596
0.345129 0.846799 0.472404
0.449271 0.828199 0.459937
0.554437 0.804913 0.447852
0.656733 0.782055 0.436973
0.00225834 0.973648 0.566201
0.0140688 0.969284 0.558175
0.0812695 0.964401 0.548104
0.163012 0.959609 0.536812
0.255314 0.955444 0.524804
0.354681 0.952514 0.512078
0.458198 0.94551 0.499428
0.562173 0.921416 0.487297
0.663157 0.898085 0.47631
0.0215152 0.0551003 0.315358
0.0554055 0.0474861 0.311925
0.101015 0.0378271 0.31014
0.163577 0.0245975 0.306569
0.243305 0.0122683 0.301167
0.337392 0.00407416 0.293858
0.442588 0.000686656 0.284749
0.554665 0 0.274846
0.668971 0 0.264881
0.0191958 0.121569 0.339254
0.052842 0.11397 0.335393
0.100542 0.104356 0.332052
0.16318 0.0913252 0.327825
0.242496 0.0740063 0.321462
0.336736 0.0532082 0.313375
0.440589 0.0307469 0.304051
0.551247 0.0201724 0.29395
0.663767 0.00759899 0.283818
0.0151827 0.218616 0.373434
0.0488746 0.210849 0.369192
0.098497 0.2009 0.364782
0.164187 0.187747 0.359121
0.243732 0.171466 0.352193
0.337804 0.152041 0.343236
0.441901 0.130327 0.333272
0.551324 0.107591 0.322652
0.662257 0.0848554 0.312612
0.0103456 0.344823 0.414633
0.0423133 0.336248 0.409522
0.0950179 0.325704 0.40412
0.162936 0.312261 0.39736
0.245167 0.295766 0.389273
0.339254 0.276722 0.379812
0.442878 0.255665 0.369543
0.551263 0.233707 0.358984
0.660685 0.212192 0.348821
0.00289921 0.493034 0.460472
0.034638 0.483284 0.454688
0.0889601 0.471489 0.448203
0.160006 0.457023 0.440574
0.244388 0.439948 0.431647
0.340139 0.420401 0.42153
0.443259 0.399817 0.410651
0.550805 0.378653 0.399786
0.658335 0.358053 0.389883
0.0043183 0.650416 0.50837
0.0245975 0.640345 0.502251
0.0833448 0.627192 0.49482
0.156512 0.611399 0.486305
0.243366 0.593179 0.476616
0.340414 0.572976 0.465766
0.444129 0.551522 0.45452
0.550774 0.530144 0.443488
0.656352 0.509819 0.433051
0.000335698 0.808209 0.557214
0.0248722 0.796231 0.55024
0.0796063 0.781521 0.54197
0.155993 0.764446 0.532723
0.243671 0.744717 0.522194
0.342199 0.723003 0.51043
0.446128 0.700786 0.498787
0.552239 0.678462 0.487282
0.656001 0.657481 0.476661
0.000457771 0.932723 0.604944
0.022385 0.919921 0.596719
0.0793011 0.904463 0.587457
0.158373 0.887037 0.576959
0.248554 0.868635 0.565774
0.347097 0.85008 0.553628
0.451316 0.831464 0.541131
0.556512 0.808408 0.529107
0.658274 0.786084 0.518517
0.00230411 0.974914 0.647944
0.0144656 0.97084 0.63978
0.0827955 0.96611 0.629511
0.164675 0.9617 0.618372
0.25713 0.9579 0.606119
0.356725 0.955459 0.593286
0.460258 0.948104 0.580438
0.564141 0.924727 0.568276
0.664805 0.901564 0.556985
0.022385 0.0592966 0.399329
0.0565805 0.0514229 0.39559
0.103136 0.041474 0.393729
0.166064 0.027451 0.390646
0.246296 0.0141756 0.385092
0.341085 0.004654 0.37789
0.446418 0.000747692 0.368963
0.558404 4.57771e-05 0.359365
0.672297 0 0.349691
0.0196231 0.126421 0.423163
0.0536507 0.118868 0.419196
0.102358 0.108766 0.415778
0.165652 0.0953384 0.411368
0.245182 0.0779431 0.405097
0.340047 0.056611 0.39704
0.444053 0.0343633 0.388128
0.55462 0.022797 0.378424
0.667018 0.00790417 0.368505
0.0158236 0.22417 0.457481
0.049958 0.216144 0.452796
0.10013 0.206271 0.448432
0.16643 0.192706 0.442771
0.246586 0.176303 0.435676
0.340673 0.156939 0.427329
0.444938 0.13489 0.417319
0.554147 0.112093 0.407172
0.664927 0.0892805 0.397421
0.0100862 0.350912 0.498863
0.0430762 0.342214 0.493721
0.0964065 0.331502 0.488258
0.16495 0.317784 0.48159
0.247227 0.301198 0.473396
0.341833 0.281941 0.464179
0.445533 0.260716 0.453712
0.55407 0.238788 0.443214
0.66302 0.217838 0.433249
0.00376898 0.499077 0.545068
0.0351263 0.489357 0.539254
0.0902266 0.47747 0.532631
0.161639 0.462898 0.524971
0.246769 0.445563 0.515831
0.342428 0.42591 0.505638
0.44596 0.405173 0.494789
0.55317 0.383871 0.484001
0.660548 0.363256 0.473793
0.00442512 0.65684 0.593057
0.0259098 0.645975 0.586603
0.084535 0.632975 0.579156
0.158267 0.617182 0.570672
0.245121 0.598856 0.560723
0.34255 0.578378 0.549584
0.446448 0.556954 0.538354
0.552972 0.535531 0.527245
0.658427 0.514855 0.51664
0.00030518 0.813733 0.641581
0.0259403 0.801495 0.634333
0.0811322 0.786786 0.625879
0.157748 0.769406 0.616159
0.246006 0.749645 0.605478
0.344305 0.728267 0.593866
0.4486 0.705501 0.58204
0.55433 0.683345 0.570275
0.657969 0.662043 0.55964
0.00129702 0.934691 0.688304
0.0225986 0.922164 0.680217
0.0806744 0.907073 0.670939
0.160403 0.889876 0.660365
0.25066 0.871626 0.648844
0.349477 0.853437 0.6365
0.453544 0.83537 0.624033
0.558511 0.812634 0.611856
0.660227 0.789914 0.601022
0.00233463 0.97644 0.731014
0.0153506 0.972549 0.72256
0.0845808 0.967956 0.712337
0.166644 0.963836 0.700786
0.259327 0.960372 0.688319
0.358846 0.958312 0.675608
0.462394 0.951003 0.662654
0.566201 0.928069 0.650126
0.666651 0.905119 0.638819
0.0231785 0.0636301 0.488716
0.057847 0.0556802 0.484733
0.10547 0.0453193 0.482246
0.168521 0.0310521 0.478645
0.249653 0.0161898 0.472755
0.345083 0.00529488 0.465217
0.450355 0.000976577 0.455985
0.562219 0.000167849 0.446403
0.675898 0 0.436545
0.0204776 0.131579 0.51165
0.0547646 0.123735 0.507149
0.104128 0.113451 0.50341
0.168383 0.0995956 0.498711
0.248142 0.0820325 0.492226
0.343252 0.0610666 0.483879
0.447562 0.0385595 0.474586
0.558236 0.0255589 0.464714
0.670283 0.00863661 0.454734
0.016495 0.229969 0.544976
0.0510719 0.221759 0.540139
0.101854 0.211597 0.5355
0.168521 0.198062 0.529503
0.249485 0.181613 0.522316
0.343648 0.161776 0.513375
0.448371 0.139742 0.503456
0.55758 0.116716 0.493248
0.667903 0.0944991 0.483116
0.00962844 0.357458 0.585977
0.0438544 0.348608 0.580682
0.0978256 0.337438 0.574792
0.166827 0.323751 0.567788
0.250141 0.3066 0.559167
0.344976 0.287053 0.549737
0.448615 0.265995 0.539406
0.556832 0.243915 0.528649
0.666041 0.223163 0.518334
0.00485237 0.505562 0.631479
0.0354314 0.495598 0.625452
0.0916152 0.483497 0.618448
0.16347 0.468711 0.610483
0.248981 0.450965 0.601373
0.344945 0.431495 0.590829
0.4486 0.410422 0.579858
0.556115 0.389242 0.568811
0.662943 0.36907 0.558511
0.00450141 0.662852 0.678904
0.0273136 0.652171 0.672267
0.0860151 0.638697 0.664576
0.16054 0.62269 0.655665
0.24744 0.60444 0.645411
0.34519 0.583581 0.634211
0.449012 0.562356 0.62266
0.555428 0.540795 0.611109
0.660578 0.520302 0.600305
0.000259403 0.819516 0.726574
0.0271305 0.807126 0.719097
0.0828717 0.792126 0.710475
0.159625 0.774639 0.700542
0.248417 0.754803 0.689143
0.346868 0.733135 0.677211
0.45098 0.71046 0.664866
0.556924 0.688151 0.653056
0.660075 0.667277 0.641733
0.00210575 0.936767 0.771832
0.0226902 0.924636 0.763577
0.0822766 0.909621 0.753841
0.162448 0.892576 0.742916
0.253101 0.874693 0.731029
0.351827 0.856916 0.718364
0.455909 0.839109 0.705516
0.560845 0.81651 0.692897
0.662089 0.79411 0.681727
0.00234989 0.97792 0.812757
0.0175174 0.974258 0.804242
0.0864881 0.970047 0.793667
0.168658 0.966018 0.781842
0.261677 0.962783 0.769238
0.361227 0.961288 0.756008
0.464805 0.953613 0.742626
0.568307 0.931197 0.729763
0.668696 0.908507 0.718288
