luts/varicam_official/Morning Light 33 E-E.cube
TITLE "Generated by Resolve"
LUT_3D_SIZE 5
0.021149 0.0169985 0.0150149
0.189242 0.000213626 1.5259e-05
0.667247 0 0
0.999252 0 0
1 0 0
0.00384527 0.187366 0.0439307
0.1691 0.135225 0.0121004
0.653025 0.0128634 0
1 0 0
1 0 0
0 0.695872 0.13106
0.094789 0.641123 0.0972457
0.584665 0.495018 0.00955215
0.988113 0.354696 0
1 0.336019 0
0 1 0.223713
0.0248417 0.999603 0.188983
0.51014 0.973205 0.0964981
0.953841 0.884733 0.0110018
1 0.868086 0.00292973
0 1 0.239551
0.0231632 1 0.203891
0.50811 1 0.110384
0.947677 0.989364 0.0257115
1 0.975341 0.016846
0.0204623 0.0182498 0.0740826
0.188418 0.000244144 0.0423438
0.666026 0 7.62951e-05
0.999207 0 0
1 0 0
0.00369268 0.18851 0.10634
0.168322 0.136477 0.0735027
0.652125 0.0132601 0.00369268
1 0 0
1 0 0
0 0.696956 0.19649
0.0941176 0.642283 0.162356
0.583398 0.496361 0.0706645
1 0.355856 0.00268559
1 0.336721 0.000900282
0 1 0.292622
0.024445 1 0.257572
0.509117 0.99202 0.16466
0.969589 0.898848 0.0781262
1 0.882155 0.067689
0 1 0.311604
0.0228275 1 0.275639
0.506615 1 0.181857
0.96022 0.99266 0.0969406
1 0.979446 0.0874342
0.0181582 0.0236973 0.314641
0.185748 0.000350958 0.282536
0.663355 0 0.192523
0.999115 0 0.101595
1 0 0.0873426
0.00296025 0.193851 0.351263
0.165911 0.141588 0.317876
0.649546 0.015198 0.226886
1 0 0.136767
1 0 0.123766
0 0.702251 0.446204
0.0914321 0.647593 0.411627
0.580774 0.501183 0.319219
1 0.361089 0.230671
1 0.341985 0.218448
0 1 0.546868
0.0233768 1 0.511299
0.506401 0.993332 0.418097
0.9673 0.904479 0.330953
1 0.887663 0.319829
0 1 0.571145
0.0217136 1 0.534676
0.503838 1 0.440345
0.957748 0.996155 0.35491
1 0.985336 0.345022
0.0143893 0.0325933 0.704784
0.181888 0.00108339 0.672526
0.659358 0 0.58265
0.998978 0 0.491295
1 0 0.476997
0.00187686 0.202518 0.742504
0.16199 0.150301 0.709072
0.645167 0.020264 0.61799
1 0 0.527901
1 0 0.514733
0 0.710704 0.837705
0.0876936 0.656123 0.803098
0.576837 0.509789 0.710872
1 0.369543 0.622019
1 0.350484 0.609857
0 1 0.928649
0.0220645 1 0.897002
0.502068 0.994919 0.808789
0.963989 0.912947 0.721813
1 0.89633 0.710719
0 1 0.943145
0.0202029 1 0.913375
0.499825 1 0.830213
0.953964 0.999863 0.744671
1 0.994095 0.734722
0.0118563 0.0385748 0.974197
0.179187 0.00256352 0.94284
0.656519 0 0.853452
0.998871 0 0.762966
1 0 0.749203
0.00111391 0.208194 0.997086
0.159197 0.156161 0.972274
0.642359 0.0243687 0.882002
1 0 0.792401
1 0 0.780041
0 0.71574 1
0.0851453 0.661646 0.999985
0.574105 0.515358 0.968246
1 0.374655 0.880385
1 0.35581 0.868803
0 1 1
0.0211185 1 1
0.499397 0.995834 0.999619
0.961532 0.918456 0.969223
1 0.901915 0.958953
0 1 1
0.0192569 1 1
0.497185 1 1
0.951431 1 0.990509
1 0.999695 0.983551
