luts/varicam_official/Morning Light 33 E-E.cube
TITLE "Generated by Resolve"
LUT_3D_SIZE 33
0.021149 0.0169985 0.0150149
0.0305333 0.0141909 0.0132448
0.042359 0.0108644 0.0109865
0.0564736 0.00714122 0.00830091
0.0735637 0.00389105 0.00546273
0.0947433 0.0021973 0.00283818
0.119814 0.00138857 0.000595102
0.151705 0.000686656 1.5259e-05
0.189242 0.000213626 1.5259e-05
0.231312 0 0
0.27834 0 0
0.333211 0 0
0.39324 0 0
0.456886 0 0
0.523659 0 0
0.594446 0 0
0.667247 0 0
0.739742 0 0
0.811521 0 0
0.882094 0 0
0.948501 0 0
0.977127 0 0
0.986938 0 0
0.994293 0 0
0.999252 0 0
1 0 0
1 0 0
1 0 0
1 0 0
1 0 0
1 0 0
1 0 0
1 0 0
0.0197604 0.0267491 0.0166018
0.0291447 0.0239872 0.0148775
0.041062 0.0205234 0.0126192
0.0551614 0.0166018 0.00994888
0.0723735 0.0125887 0.0069276
0.0937972 0.00895705 0.00373846
0.118914 0.00564584 0.00077821
0.151003 0.00277714 6.10361e-05
0.188464 0.000869764 3.0518e-05
0.230655 0 0
0.277928 0 0
0.333074 0 0
0.392981 0 0
0.456718 0 0
0.523934 0 0
0.59472 0 0
0.667185 0 0
0.739635 0 0
0.811749 0 0
0.882353 0 0
0.948608 0 0
0.976104 0 0
0.986297 0 0
0.994079 0 0
0.999344 0 0
1 0 0
1 0 0
1 0 0
1 0 0
1 0 0
1 0 0
1 0 0
1 0 0
0.0180056 0.038529 0.0185702
0.0274052 0.0357824 0.0168612
0.0393683 0.0322271 0.0146181
0.0536049 0.0280766 0.0119173
0.070985 0.0232853 0.00872816
0.0924086 0.0180056 0.00505074
0.117556 0.0123751 0.00141909
0.149966 0.00727855 0.000381476
0.187579 0.00349432 0.000122072
0.229908 0.00122072 0
0.276951 0.000228885 0
0.332296 7.62951e-05 0
0.39266 1.5259e-05 0
0.456535 0 0
0.523491 0 0
0.594308 0 0
0.667124 0 0
0.739559 0 0
0.811276 0 0
0.88188 0 0
0.948363 0 0
0.974884 0 0
0.985534 0 0
0.993774 0 0
0.999405 0 0
1 0 0
1 0 0
1 0 0
1 0 0
1 0 0
1 0 0
1 0 0
1 0 0
0.0159304 0.0526436 0.0209506
0.0253452 0.0498054 0.0192111
0.0373846 0.0462348 0.0169833
0.0516213 0.0419013 0.0142977
0.0691081 0.0367132 0.0110018
0.0907607 0.0303807 0.00701915
0.115923 0.02327 0.00291447
0.148379 0.0161593 0.00117494
0.186114 0.00982681 0.000366217
0.228794 0.00469978 0
0.275853 0.00077821 0
0.331441 0.00030518 0
0.391684 7.62951e-05 0
0.455955 0 0
0.523033 0 0
0.593835 0 0
0.666316 0 0
0.738735 0 0
0.810803 0 0
0.8813 0 0
0.947417 0 0
0.973342 0 0
0.984649 0 0
0.993439 0 0
0.999512 0 0
1 0 0
1 0 0
1 0 0
1 0 0
1 0 0
1 0 0
1 0 0
1 0 0
0.0134279 0.0696117 0.0238651
0.0228122 0.0666972 0.0220798
0.0349432 0.0630961 0.0198215
0.0492714 0.0587472 0.0171359
0.0668956 0.0535439 0.0138552
0.0885328 0.0471046 0.00985733
0.113695 0.0398413 0.0055848
0.146517 0.0308537 0.00260929
0.184405 0.0213321 0.000823987
0.227024 0.0115816 1.5259e-05
0.274113 0.00244144 0
0.330098 0.00120546 0
0.390509 0.000442512 0
0.454566 0.000106813 0
0.521737 0 0
0.592889 0 0
0.665431 0 0
0.737835 0 0
0.809522 0 0
0.879911 0 0
0.946395 0 0
0.971572 0 0
0.983536 0 0
0.992996 0 0
0.999634 0 0
1 0 0
1 0 0
1 0 0
1 0 0
1 0 0
1 0 0
1 0 0
1 0 0
0.0107271 0.091783 0.0276341
0.0197299 0.0889754 0.025864
0.0316472 0.0852522 0.0235752
0.0459602 0.0810101 0.0209049
0.0638285 0.075639 0.0175784
0.0855573 0.0692454 0.0135805
0.110704 0.0618601 0.00914015
0.143572 0.0521706 0.00489815
0.181827 0.0411841 0.00198367
0.224628 0.0293278 0.000442512
0.271946 0.0175326 0
0.327642 0.01149 0
0.388144 0.00639353 0
0.452628 0.00241093 0
0.51989 0 0
0.590707 0 0
0.663279 0 0
0.736034 0 0
0.80766 0 0
0.877943 0 0
0.944091 0 0
0.969055 0 0
0.982071 0 0
0.992447 0 0
0.999741 0 0
1 0 0
1 0 0
1 0 0
1 0 0
1 0 0
1 0 0
1 0 0
1 0 0
0.0078584 0.117571 0.0320287
0.0162356 0.114748 0.0302434
0.0278782 0.110964 0.027924
0.0421607 0.106706 0.0252689
0.06009 0.101289 0.0219272
0.0818799 0.0948348 0.0178836
0.107179 0.0872053 0.0132143
0.140261 0.0774395 0.00772107
0.1785 0.0659953 0.00363165
0.221454 0.0534524 0.00115969
0.269291 0.0398566 0
0.32491 0.0273594 0
0.385565 0.0159762 0
0.44979 0.00683604 0
0.517143 0.00102235 0
0.588312 0.000595102 0
0.660929 0.000274662 0
0.733318 7.62951e-05 0
0.804929 0 0
0.875471 0 0
0.941588 0 0
0.966278 0 0
0.980362 0 0
0.991791 0 0
0.999924 0 0
1 0 0
1 0 0
1 0 0
1 0 0
1 0 0
1 0 0
1 0 0
1 0 0
0.00555428 0.149233 0.0374151
0.0125887 0.146197 0.035584
0.0232395 0.14258 0.0333104
0.0373846 0.138109 0.0305943
0.0555123 0.132753 0.0272374
0.0774395 0.126055 0.0231327
0.102586 0.118578 0.0184176
0.135866 0.108598 0.0121614
0.174441 0.0972 0.0068513
0.217563 0.0844129 0.0027924
0.26537 0.0700389 0
0.320958 0.0536049 0
0.38204 0.0375677 0
0.446372 0.0237125 0
0.513863 0.0129702 0
0.584665 0.00756847 0
0.657343 0.00341802 0
0.730068 0.000991836 0
0.801663 0 0
0.871733 0 0
0.937865 0 0
0.96286 0 0
0.978363 0 0
0.991028 0 0
1 0 0
1 0 0
1 0 0
1 0 0
1 0 0
1 0 0
1 0 0
1 0 0
1 0 0
0.00384527 0.187366 0.0439307
0.00874342 0.184497 0.0420996
0.0179141 0.180652 0.0397955
0.0317082 0.176333 0.0370947
0.0497749 0.170962 0.0337377
0.0718853 0.164187 0.029572
0.0970321 0.156695 0.0248722
0.130541 0.146624 0.018555
0.1691 0.135225 0.0121004
0.212375 0.122179 0.00584421
0.260594 0.107866 0.000579843
0.316213 0.0912032 0.000198367
0.377127 0.0740063 4.57771e-05
0.441581 0.056672 0
0.509483 0.0400854 0
0.580285 0.0248112 0
0.653025 0.0128634 0
0.725368 0.0056611 0
0.796933 0.00216678 0
0.867262 0.00138857 0
0.933425 0.00062562 0
0.958572 0.000259403 0
0.975845 7.62951e-05 0
0.990112 0 0
1 0 0
1 0 0
1 0 0
1 0 0
1 0 0
1 0 0
1 0 0
1 0 0
1 0 0
0.00215152 0.231617 0.0515145
0.00503548 0.228748 0.0496986
0.0125429 0.224903 0.0473793
0.0256046 0.220554 0.0446632
0.0433967 0.214908 0.0412299
0.0652476 0.208347 0.0371099
0.0904097 0.200641 0.0323644
0.124224 0.190692 0.0260166
0.162982 0.179019 0.0188907
0.206378 0.166155 0.0114443
0.254536 0.151858 0.00451667
0.310155 0.13518 0.00158694
0.371496 0.117174 0.000381476
0.436057 0.0981613 0
0.503731 0.0786755 0
0.574578 0.0583963 0
0.647715 0.0412451 0
0.720088 0.0283513 0
0.791562 0.0190738 0
0.861463 0.0121462 0
0.927642 0.0056611 0
0.953735 0.00234989 0
0.973007 0.000640879 0
0.988983 0 0
1 0 0
1 0 0
1 0 0
1 0 0
1 0 0
1 0 0
1 0 0
1 0 0
1 0 0
0.000656138 0.281697 0.0601205
0.00189212 0.278538 0.0582437
0.00759899 0.274907 0.0559701
0.0192111 0.270314 0.053193
0.0361181 0.264866 0.0497902
0.0578164 0.258244 0.0456245
0.0829175 0.250523 0.0408789
0.116793 0.240543 0.0345312
0.155703 0.228794 0.0272526
0.199466 0.215824 0.0193179
0.247868 0.201205 0.0112306
0.303441 0.184756 0.00437934
0.364675 0.166415 0.00138857
0.429297 0.147326 0.000213626
0.497444 0.126955 0
0.568307 0.106065 0
0.641138 0.0858167 0
0.713512 0.0670024 0
0.78529 0.0497292 0
0.85507 0.0335851 0
0.921309 0.0184176 0
0.948226 0.0104829 0
0.969787 0.00607309 0
0.987839 0.00401312 0
1 0.0034638 0
1 0.00302129 0
1 0.00276188 0
1 0.00260929 0
1 0.002533 0
1 0.00251774 0
1 0.00250248 0
1 0.00250248 0
1 0.00248722 0
0 0.338445 0.0698405
0.000442512 0.335225 0.0679637
0.00434882 0.331579 0.0656748
0.013077 0.326909 0.0628672
0.0281834 0.321431 0.0593881
0.0492103 0.314534 0.0551919
0.0742657 0.307088 0.0504921
0.108583 0.296666 0.0440681
0.147616 0.285115 0.0367895
0.191333 0.271885 0.0286412
0.239826 0.257511 0.0198978
0.295674 0.240986 0.0105745
0.357092 0.222538 0.00495918
0.42182 0.203403 0.00154116
0.489769 0.183032 0
0.560708 0.162036 0
0.633936 0.140093 0
0.706233 0.1187 0
0.777661 0.0972457 0
0.847303 0.0766308 0
0.913939 0.0566567 0
0.942153 0.0444038 0
0.966323 0.0357061 0
0.986496 0.0294499 0
1 0.0253452 0
1 0.0220798 0
1 0.0202029 0
1 0.0190127 0
1 0.0185855 0
1 0.0183108 0
1 0.0183108 0
1 0.0181582 0
1 0.0181582 0
0 0.401068 0.0805219
0.00030518 0.398138 0.0787366
0.00250248 0.394156 0.0764019
0.00750744 0.389776 0.0735943
0.0202487 0.383917 0.0699931
0.0401465 0.377325 0.0657969
0.0649729 0.369848 0.0610666
0.0991836 0.359396 0.0547341
0.138338 0.347799 0.0474403
0.182391 0.334447 0.0391394
0.231052 0.320043 0.0300908
0.286702 0.303258 0.0199893
0.348196 0.285084 0.0114443
0.413413 0.265476 0.00476081
0.481437 0.24535 0.000854505
0.552529 0.223957 6.10361e-05
0.625299 0.202426 1.5259e-05
0.697551 0.181033 0
0.769299 0.159457 0
0.838834 0.138888 0
0.905135 0.119036 0
0.935286 0.103273 0
0.962402 0.0893873 0
0.984802 0.0780346 0
0.999619 0.0684062 0
0.999954 0.0612955 0
1 0.0566873 0
1 0.0543679 0
1 0.0531014 0
1 0.0527962 0
1 0.0527962 0
1 0.052491 0
1 0.052491 0
0 0.469078 0.0921492
0.00015259 0.466117 0.0903639
0.00108339 0.462135 0.0880293
0.00326543 0.45774 0.0851759
0.0135805 0.451835 0.0815595
0.0314336 0.445212 0.0773632
0.054963 0.437263 0.0725109
0.0890822 0.427192 0.0662547
0.12845 0.415198 0.0588693
0.172335 0.402197 0.0506142
0.221241 0.387381 0.0413825
0.277165 0.370855 0.0309911
0.338842 0.352621 0.0206607
0.40383 0.333089 0.0114443
0.471931 0.312947 0.00444038
0.543389 0.291478 0.000366217
0.616129 0.269947 6.10361e-05
0.688426 0.248203 0
0.759747 0.2271 0
0.829602 0.206104 0
0.895796 0.186557 0
0.928084 0.169238 0
0.957488 0.154101 0
0.98172 0.140627 0
0.997864 0.129534 0
0.999756 0.121035 0
1 0.115648 0
1 0.112932 0
1 0.111513 0
1 0.111177 0
1 0.110887 0
1 0.110887 0
1 0.110597 0
0 0.542107 0.104662
4.57771e-05 0.538766 0.102785
0.000274662 0.535134 0.100511
0.000823987 0.530358 0.0975967
0.00875868 0.524727 0.0940261
0.0235142 0.517678 0.0897383
0.0439002 0.510048 0.084947
0.0779736 0.499992 0.0786603
0.117662 0.487877 0.0711986
0.161715 0.474815 0.0629282
0.210864 0.459907 0.0536507
0.266529 0.443442 0.0432898
0.328405 0.424811 0.0320287
0.393759 0.405509 0.0211032
0.461997 0.384985 0.0111849
0.533043 0.363958 0.00334173
0.605859 0.342061 0.00122072
0.678477 0.320577 0.00030518
0.749844 0.299092 0
0.819196 0.278553 0
0.885206 0.259007 0
0.920485 0.241489 0
0.951995 0.226291 0
0.977661 0.212696 0
0.995056 0.201556 0
0.999512 0.192554 0
1 0.187427 0
1 0.18436 0
1 0.183276 0
1 0.182589 0
1 0.182589 0
1 0.182589 0
1 0.182208 0
0 0.617685 0.117647
0 0.614679 0.115785
0 0.611048 0.113497
0 0.606226 0.110613
0.00537118 0.600595 0.107057
0.0159915 0.59353 0.102754
0.0324712 0.585824 0.0978866
0.0665904 0.575341 0.0914778
0.106203 0.563607 0.0840925
0.150484 0.550134 0.075761
0.200031 0.535485 0.0664836
0.255726 0.518639 0.0559854
0.317693 0.500328 0.0444495
0.382879 0.48069 0.0325933
0.451133 0.460487 0.0208133
0.522576 0.439307 0.00991836
0.595453 0.417395 0.00384527
0.667704 0.396002 0.000976577
0.739025 0.374517 0
0.808621 0.353933 0
0.874052 0.334081 0
0.912581 0.317037 0
0.945998 0.301472 0
0.972961 0.288228 0
0.99173 0.276753 0
0.999359 0.268116 0
1 0.263142 0
1 0.260121 0
1 0.259037 0
1 0.25832 0
1 0.25832 0
1 0.257923 0
1 0.257923 0
0 0.695872 0.13106
0 0.692866 0.129168
0 0.688823 0.126818
0 0.684352 0.12401
0.00296025 0.678279 0.120363
0.00936904 0.671595 0.116121
0.0216831 0.663478 0.111162
0.0550698 0.653361 0.104768
0.094789 0.641123 0.0972457
0.139071 0.628016 0.0889906
0.188571 0.613397 0.0797436
0.244205 0.596551 0.0692149
0.306615 0.578119 0.0575723
0.371893 0.558419 0.0453498
0.440253 0.538155 0.0326085
0.511467 0.516655 0.0198367
0.584665 0.495018 0.00955215
0.656962 0.473228 0.0037232
0.728176 0.452155 0.000885023
0.797406 0.431312 0
0.862455 0.411933 0
0.904753 0.394827 0
0.939834 0.379309 0
0.967803 0.366155 0
0.988113 0.354696 0
0.999329 0.346029 0
1 0.34081 0
1 0.338247 0
1 0.336767 0
1 0.336431 0
1 0.336019 0
1 0.336019 0
1 0.336019 0
0 0.775509 0.144686
0 0.772076 0.142702
0 0.76846 0.140414
0 0.763561 0.137545
0.000946059 0.757839 0.133944
0.00401312 0.751049 0.129671
0.0131075 0.74284 0.124666
0.0444495 0.732784 0.118273
0.0831311 0.720562 0.110765
0.127199 0.707378 0.10248
0.177203 0.69218 0.0931106
0.232944 0.675685 0.0827039
0.295094 0.656947 0.0710155
0.360403 0.637644 0.058793
0.429282 0.616892 0.0458534
0.50045 0.59585 0.0327611
0.57322 0.574319 0.0202487
0.645502 0.552529 0.0104982
0.717067 0.53135 0.00360113
0.786236 0.510506 6.10361e-05
0.850965 0.491127 0
0.896666 0.473762 0
0.933394 0.458747 0
0.962737 0.445197 0
0.984695 0.434226 0
0.999405 0.425193 0
1 0.420478 0
1 0.417975 0
1 0.416495 0
1 0.416159 0
1 0.415763 0
1 0.415763 0
1 0.415351 0
0 0.854582 0.158251
0 0.851148 0.156252
0 0.847517 0.153948
0 0.842603 0.151003
0.000198367 0.836851 0.147387
0.00189212 0.829679 0.143069
0.0090486 0.821805 0.13814
0.0356451 0.811292 0.131655
0.0721599 0.79942 0.124178
0.115694 0.785794 0.115785
0.165576 0.771038 0.106493
0.221759 0.754406 0.095964
0.283894 0.735622 0.0843061
0.349325 0.716258 0.0720836
0.417945 0.695583 0.0591897
0.489143 0.67454 0.0459297
0.56231 0.652522 0.0324559
0.634531 0.631144 0.0206149
0.705791 0.609674 0.0107118
0.774777 0.589273 0.00373846
0.839628 0.569482 0.000274662
0.888197 0.552499 4.57771e-05
0.926513 0.537514 0
0.957107 0.524102 0
0.98085 0.513191 0
0.998596 0.504112 0
0.999603 0.499504 0
0.999924 0.496681 0
1 0.495644 0
1 0.494911 0
1 0.494911 0
1 0.494514 0
1 0.494514 0
0 0.916915 0.171389
0 0.914107 0.169436
0 0.910445 0.167056
0 0.906294 0.164157
0 0.900679 0.160464
0.00112917 0.894392 0.156191
0.00689708 0.887098 0.151232
0.0273899 0.87744 0.144793
0.061387 0.866453 0.137285
0.104417 0.853849 0.128832
0.154513 0.840192 0.119478
0.21062 0.824521 0.108904
0.272709 0.807492 0.0973068
0.338598 0.788983 0.084947
0.407279 0.76994 0.0721294
0.478584 0.749432 0.058732
0.551324 0.727993 0.0451362
0.623529 0.706615 0.0321355
0.695094 0.685084 0.0200961
0.763943 0.664744 0.010071
0.828305 0.645167 0.00283818
0.87892 0.628138 0.000976577
0.919097 0.612726 0.000228885
0.951232 0.599786 0
0.976715 0.588571 0
0.996414 0.579965 0
0.998825 0.575021 0
0.999771 0.572656 0
1 0.571267 0
1 0.570947 0
1 0.570947 0
1 0.570565 0
1 0.570565 0
0 0.956359 0.1841
0 0.954116 0.182147
0 0.951324 0.179751
0 0.948043 0.176883
0 0.943679 0.173159
0.000823987 0.938735 0.168887
0.00518807 0.932723 0.16379
0.0195315 0.925261 0.157397
0.0511635 0.916304 0.149798
0.0932937 0.906538 0.141436
0.143618 0.895354 0.131991
0.200153 0.882918 0.121416
0.262242 0.869169 0.109819
0.327932 0.854047 0.0974899
0.396689 0.837995 0.0846418
0.468406 0.819593 0.0711833
0.541131 0.798505 0.0576028
0.613382 0.776959 0.0440986
0.684489 0.756039 0.0310826
0.753292 0.735485 0.0189364
0.817639 0.716258 0.00866712
0.869261 0.698863 0.00326543
0.910796 0.683955 0.000915541
0.944808 0.671061 9.15541e-05
0.972061 0.659907 1.5259e-05
0.992599 0.651408 0
0.997665 0.646494 0
0.999557 0.644221 0
1 0.642893 0
1 0.642573 0
1 0.642237 0
1 0.642237 0
1 0.641901 0
0 0.974334 0.196124
0 0.972915 0.194125
0 0.971328 0.191806
0 0.969268 0.188937
0 0.966735 0.185214
0.000518807 0.963668 0.180835
0.00325017 0.960189 0.175753
0.0117647 0.955718 0.16936
0.0413519 0.950118 0.161715
0.0830243 0.943969 0.153323
0.133547 0.936614 0.143877
0.189975 0.928267 0.133364
0.25214 0.918807 0.121691
0.318181 0.90837 0.109316
0.387121 0.896361 0.096376
0.458457 0.881636 0.0830549
0.531243 0.861662 0.0694896
0.603784 0.841413 0.0560006
0.674846 0.821347 0.0427558
0.743526 0.801266 0.0299077
0.807248 0.782177 0.0179141
0.858793 0.764797 0.00766003
0.902281 0.749874 0.00273136
0.938338 0.736751 0.000656138
0.966857 0.726055 0.000167849
0.987594 0.717327 0
0.996231 0.712734 0
0.999283 0.710216 0
1 0.70927 0
1 0.708659 0
1 0.708659 0
1 0.708659 0
1 0.708354 0
0 0.992309 0.206806
0 0.991913 0.204852
0 0.991424 0.202502
0 0.990738 0.199634
0 0.989975 0.195911
0.000213626 0.988968 0.191516
0.00137331 0.9879 0.186358
0.00477607 0.986374 0.179919
0.032578 0.983505 0.172335
0.0739757 0.979278 0.163851
0.124849 0.973144 0.154345
0.18143 0.964584 0.143679
0.243503 0.955322 0.132082
0.309346 0.945312 0.119814
0.378424 0.934386 0.106874
0.450248 0.922438 0.093492
0.523018 0.90866 0.0799268
0.595148 0.894728 0.066453
0.666178 0.879316 0.0531014
0.735073 0.861784 0.0402228
0.79855 0.842374 0.0281682
0.85005 0.825315 0.0176242
0.894865 0.810208 0.00975052
0.932601 0.797467 0.00427253
0.962417 0.786542 0.00108339
0.983383 0.778286 0
0.995087 0.773617 0
0.999054 0.771191 0
1 0.770321 0
1 0.769757 0
1 0.769757 0
1 0.769436 0
1 0.769436 0
0 0.998276 0.21593
0 0.998184 0.213947
0 0.998047 0.211566
0 0.997909 0.208743
0 0.997726 0.204944
7.62951e-05 0.997513 0.20058
0.000503548 0.997253 0.195361
0.00169375 0.996933 0.188983
0.0278477 0.995621 0.181323
0.0676127 0.993469 0.172839
0.117296 0.989944 0.163348
0.173968 0.984817 0.152697
0.236362 0.979217 0.141024
0.302342 0.972839 0.128695
0.371511 0.965774 0.115816
0.443076 0.956909 0.102464
0.515785 0.945769 0.0889143
0.588296 0.933989 0.0753185
0.65922 0.921508 0.0620432
0.727733 0.907027 0.0492103
0.79089 0.891432 0.0372015
0.842649 0.876616 0.0264439
0.888411 0.862516 0.0174563
0.927275 0.850111 0.0104067
0.957916 0.839353 0.00544747
0.979614 0.831159 0.00267033
0.993393 0.82623 0.00154116
0.99826 0.824186 0.00103761
0.999771 0.823072 0.000808728
1 0.822812 0.000732433
1 0.822553 0.000732433
1 0.822553 0.000732433
1 0.822553 0.000732433
0 1 0.223713
0 1 0.221668
0 1 0.219318
0 1 0.21651
0 1 0.212696
1.5259e-05 1 0.208301
0.000106813 1 0.203052
0.000839246 0.999985 0.196643
0.0248417 0.999603 0.188983
0.062501 0.998886 0.180514
0.111299 0.997574 0.170932
0.168109 0.995712 0.160327
0.230228 0.993606 0.148669
0.296269 0.990967 0.136355
0.365896 0.987396 0.123384
0.437446 0.981811 0.110094
0.51014 0.973205 0.0964981
0.582284 0.964065 0.0829786
0.653193 0.954345 0.0697337
0.721935 0.943114 0.0568856
0.78471 0.931044 0.044892
0.83624 0.918822 0.0340734
0.882551 0.906569 0.0247959
0.922423 0.894835 0.0169985
0.953841 0.884733 0.0110018
0.976455 0.876417 0.00677501
0.991348 0.871794 0.00456245
0.997192 0.86981 0.00355535
0.999435 0.868757 0.00309758
1 0.868498 0.00296025
1 0.868299 0.00294499
1 0.868299 0.00294499
1 0.868086 0.00292973
0 1 0.230121
0 1 0.228092
0 1 0.225727
0 1 0.222873
0 1 0.219059
0 1 0.214649
0 1 0.2094
0.000991836 1 0.202914
0.0231022 1 0.195285
0.058793 1 0.18677
0.106294 1 0.177234
0.163272 1 0.166629
0.225696 1 0.154925
0.291844 0.999649 0.142565
0.361181 0.998688 0.129686
0.432731 0.996078 0.116381
0.505806 0.991089 0.102663
0.577951 0.985748 0.089189
0.648859 0.97937 0.0759442
0.717098 0.971283 0.0632181
0.779568 0.961685 0.0512398
0.831327 0.952041 0.0403601
0.877821 0.941924 0.0311284
0.917952 0.931853 0.023209
0.950134 0.922545 0.0167239
0.973831 0.914366 0.0116884
0.989273 0.909728 0.00880446
0.996002 0.907683 0.00753796
0.999039 0.906874 0.00697337
1 0.906477 0.00677501
1 0.906477 0.00677501
1 0.906325 0.00674449
1 0.906325 0.00674449
0 1 0.235004
0 1 0.233005
0 1 0.230594
0 1 0.227756
0 1 0.223911
0 1 0.219471
0 1 0.214191
0.00134279 1 0.207721
0.021973 1 0.200107
0.0561837 1 0.191501
0.103044 1 0.181918
0.16025 1 0.171252
0.22237 1 0.15964
0.288594 0.999969 0.147265
0.358312 0.999893 0.13431
0.429892 0.99968 0.120943
0.502556 0.999252 0.107332
0.574746 0.998535 0.0938582
0.646021 0.996109 0.0805676
0.714137 0.990631 0.0678569
0.776196 0.982895 0.0559243
0.827695 0.975448 0.0451209
0.874357 0.967636 0.0358587
0.914626 0.95964 0.0280003
0.947356 0.951217 0.0215152
0.971817 0.943389 0.0165713
0.987289 0.938567 0.0136568
0.994919 0.936736 0.0124361
0.998672 0.935973 0.011902
1 0.935592 0.0117037
1 0.935592 0.0117037
1 0.935439 0.0116884
1 0.935439 0.0116884
0 1 0.237934
0 1 0.23595
0 1 0.233524
0 1 0.230625
0 1 0.226719
0 1 0.222293
0 1 0.217014
0.00177005 1 0.210559
0.0215305 1 0.202914
