luts/varicam_official/Morning Light 33 E-E.cube
TITLE "Generated by Resolve"
LUT_3D_SIZE 9
0.021149 0.0169985 0.0150149
0.0735637 0.00389105 0.00546273
0.189242 0.000213626 1.5259e-05
0.39324 0 0
0.667247 0 0
0.948501 0 0
0.999252 0 0
1 0 0
1 0 0
0.0134279 0.0696117 0.0238651
0.0668956 0.0535439 0.0138552
0.184405 0.0213321 0.000823987
0.390509 0.000442512 0
0.665431 0 0
0.946395 0 0
0.999634 0 0
1 0 0
1 0 0
0.00384527 0.187366 0.0439307
0.0497749 0.170962 0.0337377
0.1691 0.135225 0.0121004
0.377127 0.0740063 4.57771e-05
0.653025 0.0128634 0
0.933425 0.00062562 0
1 0 0
1 0 0
1 0 0
0 0.401068 0.0805219
0.0202487 0.383917 0.0699931
0.138338 0.347799 0.0474403
0.348196 0.285084 0.0114443
0.625299 0.202426 1.5259e-05
0.905135 0.119036 0
0.999619 0.0684062 0
1 0.0531014 0
1 0.052491 0
0 0.695872 0.13106
0.00296025 0.678279 0.120363
0.094789 0.641123 0.0972457
0.306615 0.578119 0.0575723
0.584665 0.495018 0.00955215
0.862455 0.411933 0
0.988113 0.354696 0
1 0.336767 0
1 0.336019 0
0 0.956359 0.1841
0 0.943679 0.173159
0.0511635 0.916304 0.149798
0.262242 0.869169 0.109819
0.541131 0.798505 0.0576028
0.817639 0.716258 0.00866712
0.972061 0.659907 1.5259e-05
1 0.642893 0
1 0.641901 0
0 1 0.223713
0 1 0.212696
0.0248417 0.999603 0.188983
0.230228 0.993606 0.148669
0.51014 0.973205 0.0964981
0.78471 0.931044 0.044892
0.953841 0.884733 0.0110018
0.999435 0.868757 0.00309758
1 0.868086 0.00292973
0 1 0.239246
0 1 0.228031
0.0214847 1 0.204135
0.221012 1 0.163546
0.501701 1 0.111116
0.77435 0.999496 0.0599069
0.945464 0.98201 0.0257725
0.998398 0.967391 0.0164034
1 0.967071 0.0162509
0 1 0.239551
0 1 0.228214
0.0231632 1 0.203891
0.226734 1 0.16286
0.50811 1 0.110384
0.778546 1 0.0594949
0.947677 0.989364 0.0257115
0.998611 0.97554 0.0169528
1 0.975341 0.016846
0.0209506 0.0171817 0.0266423
0.0733196 0.00396735 0.0168612
0.188891 0.000228885 0.00303655
0.392828 0 0
0.666819 0 0
0.948394 0 0
0.999252 0 0
1 0 0
1 0 0
0.0132906 0.0697948 0.0363317
0.0666667 0.0537575 0.0262608
0.1841 0.0214847 0.00798047
0.390082 0.000427253 0
0.664927 0 0
0.945907 0 0
0.999603 0 0
1 0 0
1 0 0
0.00384527 0.18761 0.0571603
0.0497902 0.170993 0.0468452
0.168978 0.135256 0.0246433
0.377005 0.0740673 0.00131228
0.652552 0.0128939 0
0.933074 0.000640879 0
1 0 0
1 0 0
1 0 0
0 0.401389 0.0944381
0.0200198 0.384268 0.0838636
0.138247 0.347784 0.0610819
0.348226 0.285039 0.0230259
0.625208 0.202411 0.000396735
0.904982 0.119371 0
0.999878 0.0686961 0
1 0.0533608 0
1 0.0524758 0
0 0.696208 0.145678
0.00289921 0.678676 0.134874
0.0945296 0.64155 0.111833
0.306233 0.578103 0.0720531
0.584268 0.495079 0.0211032
0.862348 0.411887 7.62951e-05
0.996582 0.355047 0
1 0.337102 0
1 0.335958 0
0 0.956542 0.199496
0 0.943938 0.188571
0.0508583 0.916579 0.165087
0.261814 0.869474 0.125063
0.540703 0.799023 0.0727855
0.817349 0.716335 0.021561
0.986267 0.660105 0.00122072
1 0.643381 9.15541e-05
1 0.64239 7.62951e-05
0 1 0.239902
0 1 0.228794
0.0247654 0.999924 0.205066
0.230198 0.998718 0.164675
0.509621 0.988006 0.112367
0.784298 0.946151 0.0607919
0.966522 0.894942 0.0261082
0.999878 0.878935 0.0165866
1 0.878447 0.0163272
0 1 0.256184
0 1 0.244938
0.0214542 1 0.220905
0.22089 1 0.180224
0.501503 1 0.127825
0.774166 0.999908 0.0764324
0.956268 0.988647 0.0422827
0.99971 0.97409 0.0327764
1 0.973816 0.0325475
0 1 0.257298
0 1 0.245884
0.0229801 1 0.22153
0.226398 1 0.180346
0.507561 1 0.127871
0.778332 1 0.0766766
0.958953 0.991562 0.0429999
0.999802 0.978058 0.0339971
1 0.977844 0.0337987
0.0204623 0.0182498 0.0740826
0.0728313 0.0043183 0.0641337
0.188418 0.000244144 0.0423438
0.392081 0 0.0106355
0.666026 0 7.62951e-05
0.94757 0 0
0.999207 0 0
1 0 0
1 0 0
0.0128328 0.0707561 0.0845502
0.0662394 0.0548104 0.0743725
0.183642 0.0223392 0.0523995
0.389578 0.000518807 0.0168765
0.6645 0 0.000228885
0.945159 0 0
0.999557 0 0
1 0 0
1 0 0
0.00369268 0.18851 0.10634
0.0491646 0.171923 0.0958572
0.168322 0.136477 0.0735027
0.376211 0.0752117 0.0347448
0.652125 0.0132601 0.00369268
0.932677 0.000656138 0
1 0 0
1 0 0
1 0 0
0 0.402167 0.144488
0.0195315 0.385107 0.133867
0.137621 0.348638 0.110964
0.347387 0.286244 0.0716259
0.624323 0.203677 0.0224765
0.904265 0.120195 0.000717174
1 0.0692912 0
1 0.0540169 0
1 0.0531319 0
0 0.696956 0.19649
0.00283818 0.679438 0.185611
0.0941176 0.642283 0.162356
0.305516 0.578927 0.122713
0.583398 0.496361 0.0706645
0.861616 0.413062 0.0203403
1 0.355856 0.00268559
1 0.337865 0.000961318
1 0.336721 0.000900282
0 0.957382 0.251209
0 0.944671 0.240116
0.0504921 0.917281 0.216678
0.261387 0.870268 0.176501
0.540261 0.800244 0.124178
0.816617 0.717723 0.0722362
0.990662 0.661265 0.03682
1 0.644266 0.0270848
1 0.64329 0.0266575
0 1 0.292622
0 1 0.281422
0.024445 1 0.257572
0.229404 1 0.217029
0.509117 0.99202 0.16466
0.783871 0.951019 0.112856
0.969589 0.898848 0.0781262
1 0.882826 0.0680858
1 0.882155 0.067689
0 1 0.309697
0 1 0.298344
0.0211795 1 0.274266
0.220035 1 0.233524
0.500664 1 0.180926
0.773465 1 0.129564
0.958099 0.991028 0.0952621
1 0.976638 0.0857252
1 0.976379 0.0854047
0 1 0.311604
0 1 0.299977
0.0228275 1 0.275639
0.225528 1 0.234577
0.506615 1 0.181857
0.777661 1 0.130709
0.96022 0.99266 0.0969406
1 0.979644 0.0877546
1 0.979446 0.0874342
0.0194858 0.0204013 0.166888
0.0718547 0.00601205 0.156832
0.18732 0.000274662 0.134936
0.391257 0 0.0965896
0.665095 0 0.0467231
0.9467 0 0.0108644
0.999191 0 0.00291447
1 0 0.000244144
1 0 0.000198367
0.0118868 0.0729076 0.178531
0.0653239 0.0568551 0.1682
0.182513 0.0240024 0.145937
0.388388 0.000656138 0.107408
0.663294 0 0.0565957
0.94435 0 0.0152285
0.999557 0 0.00529488
1 0 0.00231937
1 0 0.00222782
0.00340276 0.190692 0.201328
0.0483101 0.17409 0.190753
0.167285 0.138445 0.168368
0.375051 0.076997 0.129213
0.65098 0.0139773 0.0775158
0.931411 0.000701915 0.0278782
1 0 0.0111696
1 0 0.00796521
1 0 0.00776684
0 0.404044 0.240818
0.0187991 0.387259 0.23006
0.136706 0.350805 0.20708
0.346563 0.288075 0.167437
0.623102 0.20557 0.115465
0.903029 0.122118 0.0633249
1 0.0711376 0.0298009
1 0.0557717 0.0206912
1 0.0548562 0.0203098
0 0.698802 0.293965
0.00265507 0.681636 0.283055
0.0929732 0.644526 0.259663
0.304646 0.581125 0.21976
0.582528 0.498116 0.167651
0.860777 0.414847 0.115221
1 0.35761 0.0791791
1 0.340032 0.0683146
1 0.338872 0.0677043
0 0.958877 0.349813
0 0.946166 0.338628
0.0495003 0.918975 0.315022
0.260197 0.871946 0.274891
0.53901 0.802319 0.222446
0.815747 0.7196 0.17026
0.990173 0.663188 0.134691
1 0.646097 0.123949
1 0.645472 0.1234
0 1 0.392325
0 1 0.380926
0.0239261 1 0.357229
0.228107 1 0.31664
0.507836 0.992569 0.264027
0.78265 0.952819 0.212161
0.968704 0.900923 0.177172
1 0.884871 0.167025
1 0.884199 0.166461
0 1 0.410819
0 1 0.399283
0.0208438 1 0.375097
0.219089 1 0.334142
0.499382 1 0.281544
0.772259 1 0.229938
0.957046 0.992782 0.195666
1 0.978866 0.185931
1 0.978622 0.185473
0 1 0.414115
0 1 0.402396
0.0223697 1 0.377859
0.224506 1 0.336522
0.505684 1 0.283879
0.776638 1 0.232547
0.959335 0.994049 0.198581
1 0.981933 0.189288
1 0.98172 0.18883
0.0181582 0.0236973 0.314641
0.0703746 0.0090486 0.304463
0.185748 0.000350958 0.282536
0.389532 0 0.244053
0.663355 0 0.192523
0.944976 0 0.139528
0.999115 0 0.101595
1 0 0.0880751
1 0 0.0873426
0.010605 0.0761425 0.327382
0.06392 0.0601205 0.316976
0.181201 0.0267033 0.294606
0.386664 0.000915541 0.255848
0.661585 0 0.204273
0.942611 0 0.151308
0.999496 0 0.113542
1 0 0.10074
1 0 0.100053
0.00296025 0.193851 0.351263
0.0468147 0.177279 0.340612
0.165911 0.141588 0.317876
0.373632 0.0800946 0.278904
0.649546 0.015198 0.226886
0.930007 0.000808728 0.17409
1 0 0.136767
1 0 0.124514
1 0 0.123766
0 0.407477 0.391669
0.0175326 0.390326 0.380743
0.135149 0.353902 0.357839
0.344869 0.291218 0.318166
0.621683 0.208927 0.266072
0.901701 0.125521 0.213291
1 0.0736095 0.176562
1 0.05832 0.164965
1 0.057435 0.164172
0 0.702251 0.446204
0.00238041 0.684672 0.435035
0.0914321 0.647593 0.411627
0.302968 0.584237 0.371542
0.580774 0.501183 0.319219
0.859129 0.418357 0.26659
1 0.361089 0.230671
1 0.343114 0.219211
1 0.341985 0.218448
0 0.96141 0.503059
0 0.94873 0.491737
0.0482185 0.92137 0.467979
0.258473 0.874327 0.427649
0.537285 0.805463 0.375265
0.81413 0.722744 0.322972
0.989334 0.666651 0.287312
1 0.6495 0.276387
1 0.648493 0.275654
0 1 0.546868
0 1 0.535409
0.0233768 1 0.511299
0.226703 1 0.470787
0.506401 0.993332 0.418097
0.781323 0.955566 0.366049
0.9673 0.904479 0.330953
1 0.88835 0.3205
1 0.887663 0.319829
0 1 0.566537
0 1 0.555154
0.0202335 1 0.530755
0.217334 1 0.489784
0.497902 1 0.436957
0.770825 1 0.385168
0.955627 0.994827 0.350561
1 0.982437 0.340978
1 0.982162 0.340368
0 1 0.571145
0 1 0.559396
0.0217136 1 0.534676
0.222721 1 0.493263
0.503838 1 0.440345
0.774975 1 0.3888
0.957748 0.996155 0.35491
1 0.985534 0.345586
1 0.985336 0.345022
0.0163577 0.0280003 0.504097
0.0686198 0.0129244 0.493858
0.183993 0.00062562 0.472038
0.387732 0 0.433555
0.661662 0 0.381888
0.942885 0 0.328984
0.999039 0 0.290578
1 0 0.277302
1 0 0.276539
0.00872816 0.0804761 0.517708
0.0619669 0.0644388 0.50721
0.179171 0.0304723 0.484855
0.38497 0.00122072 0.445914
0.659739 0 0.39408
0.94078 0 0.34107
0.999481 0 0.303563
1 0 0.290578
1 0 0.289784
0.00247196 0.197925 0.542184
0.044892 0.181613 0.531518
0.163882 0.145998 0.508812
0.371588 0.0841382 0.469444
0.647349 0.0168917 0.417639
0.927855 0.000915541 0.364752
1 0 0.327398
1 0 0.314977
1 0 0.314137
0 0.411444 0.583261
0.0160983 0.394293 0.572305
0.133165 0.358358 0.549218
0.342748 0.295644 0.509789
0.619638 0.213138 0.457496
0.899565 0.12961 0.404562
1 0.0768597 0.367803
1 0.0618448 0.355947
1 0.0609598 0.355138
0 0.706172 0.638224
0.00202945 0.688716 0.627314
0.0897078 0.652033 0.603815
0.30106 0.588586 0.563699
0.579065 0.505684 0.511299
0.857267 0.4224 0.45864
1 0.365042 0.422309
1 0.347036 0.411109
1 0.346319 0.410315
0 0.964584 0.696162
0 0.951843 0.684794
0.0464179 0.924468 0.660975
0.256657 0.877546 0.620554
0.535454 0.809628 0.56788
0.812314 0.727108 0.515511
0.988373 0.670649 0.479942
1 0.653651 0.46894
1 0.652674 0.468132
0 1 0.740536
0 1 0.72903
0.0226749 1 0.70489
0.224689 1 0.664073
0.504265 0.994202 0.611673
0.779171 0.959258 0.559487
0.965713 0.908614 0.524285
1 0.8925 0.513756
1 0.891814 0.512993
0 1 0.760708
0 1 0.74902
0.0195315 1 0.724681
0.215213 1 0.683879
0.495689 1 0.630976
0.768658 1 0.579141
0.953674 0.997253 0.544488
0.999985 0.986786 0.534554
1 0.986511 0.533898
0 1 0.765606
0 1 0.753979
0.0209964 1 0.729274
0.220935 1 0.6878
0.502083 1 0.634775
0.772808 1 0.583337
0.955734 0.998886 0.549111
0.999969 0.989929 0.539864
1 0.989731 0.539223
0.0143893 0.0325933 0.704784
0.0666056 0.0170901 0.69456
0.181888 0.00108339 0.672526
0.385626 0 0.63418
0.659358 0 0.58265
0.941009 0 0.529503
0.998978 0 0.491295
1 0 0.477745
1 0 0.476997
0.00753796 0.0849012 0.718013
0.059968 0.0689097 0.70782
0.177081 0.0347906 0.68542
0.382757 0.00154116 0.64654
0.657435 0 0.59472
0.938521 0 0.541802
0.999405 0 0.503853
1 0 0.491157
1 0 0.490394
0.00187686 0.202518 0.742504
0.0431678 0.185946 0.731838
0.16199 0.150301 0.709072
0.369711 0.0883803 0.669841
0.645167 0.020264 0.61799
0.925765 0.00105287 0.565133
1 0 0.527901
1 0 0.515557
1 0 0.514733
0 0.415991 0.783123
0.014435 0.398886 0.772198
0.131319 0.362478 0.749142
0.341009 0.29984 0.709453
0.617792 0.217227 0.65745
0.897673 0.134127 0.604685
1 0.0805676 0.567987
1 0.0652934 0.556023
1 0.0644083 0.555215
0 0.710704 0.837705
0.00167849 0.693172 0.826596
0.0876936 0.656123 0.803098
0.299077 0.592813 0.763317
0.576837 0.509789 0.710872
0.855451 0.42652 0.658152
1 0.369543 0.622019
1 0.351614 0.610636
1 0.350484 0.609857
0 0.967819 0.894789
0 0.955245 0.883803
0.0445869 0.92784 0.859998
0.254505 0.88072 0.819593
0.533272 0.813565 0.767056
0.810285 0.731411 0.714641
0.98732 0.674907 0.678889
1 0.658061 0.668269
1 0.657069 0.667506
0 1 0.928649
0 1 0.918486
0.0220645 1 0.897002
0.222766 1 0.860243
0.502068 0.994919 0.808789
0.777081 0.962829 0.756771
0.963989 0.912947 0.721813
1 0.897002 0.711391
1 0.89633 0.710719
0 1 0.941329
0 1 0.931716
0.0188602 1 0.911177
0.213352 1 0.876326
0.493812 1 0.8271
0.766888 1 0.775418
0.951873 0.99913 0.740841
0.999756 0.991211 0.730907
1 0.990967 0.730343
0 1 0.943145
0 1 0.933654
0.0202029 1 0.913375
0.218723 1 0.879271
0.499825 1 0.830213
0.770947 1 0.77879
0.953964 0.999863 0.744671
0.99971 0.994308 0.735256
1 0.994095 0.734722
0.0127413 0.0363165 0.874327
0.0650797 0.0208438 0.864271
0.180224 0.00199893 0.84242
0.383627 0 0.804059
0.657389 0 0.752895
0.939132 0 0.699916
0.998901 0 0.661799
1 0 0.648325
1 0 0.647684
0.00680552 0.0885634 0.885847
0.0584421 0.0727703 0.875563
0.17554 0.0384833 0.853376
0.381231 0.00184634 0.814832
0.655985 0 0.763165
0.937057 0 0.71046
0.999344 0 0.67277
1 0 0.659953
1 0 0.659373
0.00138857 0.205982 0.908568
0.0414588 0.189441 0.898222
0.160281 0.15407 0.875654
0.367895 0.0923018 0.836606
0.643626 0.0227665 0.784817
0.924147 0.00112917 0.732097
1 0 0.694774
1 0 0.682765
1 0 0.68217
0 0.419425 0.947494
0.0131075 0.402319 0.937072
0.129564 0.365927 0.914397
0.339055 0.303609 0.874891
0.615854 0.221103 0.822797
0.895888 0.137591 0.770123
1 0.0834058 0.733684
1 0.0680247 0.721843
1 0.0670787 0.721187
0 0.714061 0.989746
0.00141909 0.696483 0.982437
0.0862135 0.659434 0.96376
0.297169 0.596551 0.927077
0.574929 0.513649 0.875044
0.853727 0.430243 0.822629
1 0.372961 0.786374
1 0.354894 0.775113
1 0.35375 0.774502
0 0.970474 0.99968
0 0.95787 0.999573
0.0432441 0.930419 0.997803
0.253117 0.883177 0.975265
0.531746 0.816983 0.929717
0.808667 0.735012 0.877546
0.986343 0.678706 0.841978
1 0.661433 0.831205
1 0.660471 0.830594
0 1 0.999725
0 1 0.998825
0.0215 1 0.993713
0.22092 1 0.983413
0.500572 0.995468 0.955856
0.775586 0.965881 0.913573
0.962524 0.916594 0.879133
1 0.90042 0.868925
1 0.899733 0.868376
0 1 0.999741
0 1 0.99971
0.0182498 1 0.999603
0.211521 1 0.999451
0.491997 1 0.979248
0.765103 1 0.937301
0.950179 0.999893 0.902998
0.999496 0.994842 0.893172
1 0.994568 0.892699
0 1 0.999786
0 1 0.999741
0.0196841 1 0.999664
0.216846 1 0.999451
0.497963 1 0.980301
0.769223 1 0.939803
0.952331 0.999969 0.905791
0.999481 0.998016 0.896468
1 0.997803 0.896056
0.0118563 0.0385748 0.974197
0.0639963 0.0232242 0.96437
0.179187 0.00256352 0.94284
0.382666 0 0.904646
0.656519 0 0.853452
0.938155 0 0.800763
0.998871 0 0.762966
1 0 0.749645
1 0 0.749203
0.00633249 0.0908675 0.983597
0.0574197 0.0748608 0.974029
0.174426 0.0405127 0.952056
0.379995 0.00196841 0.913588
0.654658 0 0.862196
0.93576 0 0.809537
0.999329 0 0.772076
1 0 0.759487
1 0 0.759106
0.00111391 0.208194 0.997086
0.0405432 0.19173 0.991928
0.159197 0.156161 0.972274
0.36669 0.0943008 0.933684
0.642359 0.0243687 0.882002
0.922896 0.0011902 0.829587
1 0 0.792401
1 0 0.780392
1 0 0.780041
0 0.42153 0.999863
0.0123293 0.404486 0.999557
0.128756 0.368124 0.99646
0.338201 0.305455 0.96968
0.615045 0.222919 0.918242
0.894682 0.139559 0.865827
1 0.0851759 0.829358
1 0.069749 0.817838
1 0.0688029 0.817365
0 0.71574 1
0.00123598 0.69865 1
0.0851453 0.661646 0.999985
0.296315 0.598306 0.99881
0.574105 0.515358 0.968246
0.852934 0.432044 0.916213
1 0.374655 0.880385
1 0.35697 0.869276
1 0.35581 0.868803
0 0.971984 1
0 0.959289 1
0.0422522 0.932036 1
0.251896 0.884779 1
0.530541 0.818647 0.998901
0.807584 0.736782 0.969543
0.985931 0.68043 0.934249
1 0.663203 0.923583
1 0.662531 0.923232
0 1 1
0 1 1
0.0211185 1 1
0.219837 1 1
0.499397 0.995834 0.999619
0.774472 0.967453 0.990799
0.961532 0.918456 0.969223
1 0.902358 0.959213
1 0.901915 0.958953
0 1 1
0 1 1
0.0179599 1 1
0.210727 1 1
0.491142 1 1
0.763958 1 0.999542
0.949233 0.999939 0.989715
0.999359 0.996765 0.982238
1 0.996582 0.981979
0 1 1
0 1 1
0.0192569 1 1
0.216114 1 1
0.497185 1 1
0.768383 1 0.999634
0.951431 1 0.990509
0.999374 0.999741 0.98378
1 0.999695 0.983551
