luts/varicam_official/Nicest_709.cube
TITLE "Generated by Resolve"
LUT_3D_SIZE 33
0 0 0
0.00195315 0 1.5259e-05
0.0112459 0 7.62951e-05
0.0277714 0 0.000198367
0.051606 0 0.000396735
0.080354 0 0.000656138
0.109926 0 0.000991836
0.139956 0 0.00135805
0.172534 0 0.00198367
0.206134 0 0.00270085
0.246296 0 0.00387579
0.287999 0 0.00514229
0.340734 0 0.00746166
0.395071 0 0.00996414
0.457969 0 0.0141146
0.522911 0 0.0187533
0.591669 0 0.0251774
0.661601 0 0.0324559
0.732464 0 0.0414893
0.80264 0 0.0513466
0.870771 0 0.0619211
0.929641 0 0.072282
0.969268 0 0.0814527
0.992721 0 0.0893111
1 0 0.0954757
1 0 0.100267
1 0 0.103655
1 0 0.106188
1 0 0.107729
1 0 0.108843
1 0 0.109392
1 0 0.10985
1 0 0.109865
0 0.00125124 0
0.00170901 0.00120546 1.5259e-05
0.0104524 0.00108339 6.10361e-05
0.0265965 0.0009308 0.000183108
0.0500191 0.00077821 0.000366217
0.0788281 0.000640879 0.00062562
0.108431 0.000518807 0.000946059
0.138506 0.000381476 0.00131228
0.171038 0.000274662 0.00192264
0.204685 0.000167849 0.00263981
0.244633 7.62951e-05 0.0037995
0.28632 1.5259e-05 0.00508125
0.338689 0 0.00737011
0.392844 0 0.00982681
0.455589 0 0.013962
0.520348 0 0.0185245
0.589075 0 0.024918
0.659068 0 0.0321508
0.729946 0 0.0411536
0.800183 0 0.0509804
0.86836 0 0.0615396
0.927947 0 0.071931
0.9682 0 0.0811627
0.992157 0 0.0890669
1 0 0.0952926
1 0 0.100114
1 0 0.103548
1 0 0.106111
1 0 0.107683
1 0 0.108797
1 0 0.109377
1 0 0.109834
1 0 0.109865
0 0.00749218 0
0.0012665 0.00727855 1.5259e-05
0.00862135 0.00674449 4.57771e-05
0.0232395 0.0059205 0.000122072
0.0457313 0.00515755 0.000274662
0.0748455 0.00440986 0.00047303
0.104662 0.00361639 0.000747692
0.134936 0.00288396 0.00108339
0.167681 0.00209049 0.00166323
0.201617 0.00129702 0.00238041
0.241474 0.000701915 0.00357061
0.283253 0.000183108 0.00494392
0.335103 3.0518e-05 0.007187
0.389319 0 0.00967422
0.451606 0 0.0136721
0.516106 0 0.0181735
0.58471 0 0.0244907
0.654841 0 0.0316777
0.72578 0 0.0405737
0.796094 0 0.0503548
0.864256 0 0.0608682
0.924865 0 0.0713512
0.9664 0 0.0806592
0.991211 0 0.0886549
1 0 0.0949721
1 0 0.099855
1 0 0.103395
1 0 0.105989
1 0 0.107607
1 0 0.108751
1 0 0.109346
1 0 0.109804
1 0 0.10985
0 0.018967 0
0.000823987 0.0186923 0
0.0062562 0.0175937 1.5259e-05
0.0180972 0.0158694 4.57771e-05
0.0390021 0.0141299 0.000106813
0.068574 0.0123445 0.000213626
0.0988479 0.0105135 0.000396735
0.129534 0.00865187 0.000656138
0.162722 0.00660716 0.0011902
0.197375 0.00445563 0.00187686
0.237369 0.00265507 0.00315862
0.279515 0.0010071 0.004654
0.330877 0.000350958 0.0069276
0.385183 9.15541e-05 0.00943008
0.447181 1.5259e-05 0.0133516
0.511772 0 0.0178073
0.58024 0 0.0240635
0.650294 0 0.0311894
0.721386 0 0.0399939
0.791867 0 0.0497292
0.860273 0 0.0602121
0.921767 0 0.0707561
0.964508 0 0.0801404
0.990173 0 0.0882429
1 0 0.094667
1 0 0.0996109
1 0 0.103212
1 0 0.105852
1 0 0.10753
1 0 0.10869
1 0 0.109316
1 0 0.109773
1 0 0.109834
0 0.0363317 0
0.000442512 0.035874 0
0.00376898 0.0345159 0
0.0120699 0.0321355 0
0.0305943 0.0296178 1.5259e-05
0.0603189 0.0270848 6.10361e-05
0.0911879 0.0243076 0.00015259
0.122759 0.0215305 0.000320439
0.156725 0.0182803 0.000701915
0.192248 0.0146792 0.00125124
0.232517 0.0108949 0.00234989
0.275166 0.00700389 0.00375372
0.326345 0.00389105 0.00605783
0.380941 0.00125124 0.00874342
0.442573 0.000289921 0.0127718
0.507286 6.10361e-05 0.0173648
0.575708 0 0.023621
0.645899 0 0.0307012
0.716854 0 0.0393988
0.787533 0 0.0491035
0.856199 0 0.0595407
0.918593 0 0.070161
0.962646 0 0.0796216
0.989059 0 0.0877852
1 0 0.0943313
1 0 0.0993515
1 0 0.103044
1 0 0.10573
1 0 0.107454
1 0 0.108644
1 0 0.109285
1 0 0.109758
1 0 0.109834
0 0.0589456 0
0.000137331 0.0586099 0
0.00135805 0.0573129 0
0.0053254 0.0547036 0
0.0204623 0.0520943 0
0.0500496 0.0491798 1.5259e-05
0.0813306 0.0462043 4.57771e-05
0.114183 0.0430304 0.000106813
0.149248 0.0389258 0.000244144
0.185931 0.0343175 0.000442512
0.226703 0.0279698 0.00108339
0.269886 0.0207828 0.00196841
0.321126 0.0127565 0.00427253
0.376181 0.00451667 0.00727855
0.437858 0.00109865 0.0117037
0.502708 0.000244144 0.0168002
0.571038 0 0.0231174
0.641428 0 0.0301823
0.712535 0 0.038819
0.783307 0 0.0485084
0.852033 0 0.0588846
0.915267 0 0.0695506
0.960815 0 0.0791028
0.98793 0 0.0873274
1 0 0.0939651
1 0 0.0990311
1 0 0.102846
1 0 0.105592
1 0 0.107378
1 0 0.108598
1 0 0.10927
1 0 0.109728
1 0 0.109819
0 0.0826276 0
1.5259e-05 0.0823224 0
0.000244144 0.0809796 0
0.00155642 0.0783856 0
0.0128023 0.0755932 0
0.0391699 0.0726329 0
0.0695048 0.0694896 0
0.104189 0.0660105 0
0.140642 0.0616617 0
0.178805 0.0564126 0
0.220417 0.0488746 0.000274662
0.264393 0.0396124 0.000762951
0.315648 0.0279698 0.00270085
0.371115 0.0150759 0.00556954
0.432837 0.0069276 0.0101167
0.498085 0.00207523 0.0156405
0.566445 0.000137331 0.0222324
0.636805 3.0518e-05 0.0295415
0.70808 0 0.0382239
0.779034 0 0.0478981
0.848051 0 0.0582437
0.912001 0 0.0689403
0.958923 0 0.0785687
0.986725 0 0.0868544
1 0 0.0936141
1 0 0.0987411
1 0 0.102647
1 0 0.10544
1 0 0.107301
1 0 0.108537
1 0 0.109239
1 0 0.109697
1 0 0.109804
0 0.107103 0
0 0.106828 0
7.62951e-05 0.105699 0
0.000640879 0.103029 0
0.00814832 0.100313 0
0.028275 0.0972915 0
0.0554208 0.0942397 0
0.0923323 0.0909743 0
0.130755 0.0867475 0
0.170657 0.0817731 0
0.213397 0.0744793 0.000106813
0.258305 0.0654765 0.000289921
0.309667 0.0523995 0.0015259
0.36582 0.0363928 0.00355535
0.427466 0.0213321 0.00775158
0.493019 0.00724804 0.013489
0.561517 0.000686656 0.0205844
0.632273 0.000137331 0.0286564
0.703288 0 0.0375525
0.774639 0 0.0472572
0.843946 0 0.057557
0.908583 0 0.0682994
0.957061 0 0.0780346
0.985428 0 0.0863813
1 0 0.0932784
1 0 0.0984665
1 0 0.102464
1 0 0.105303
1 0 0.10724
1 0 0.108476
1 0 0.109209
1 0 0.109667
1 0 0.109789
0 0.13492 0
0 0.13463 0
0 0.133486 0
0.000137331 0.131029 0
0.00433356 0.128283 0
0.0174411 0.12549 0
0.0394903 0.122606 0
0.0760357 0.119432 0
0.115816 0.115602 0
0.158953 0.110811 0
0.203922 0.104234 1.5259e-05
0.25037 0.0958267 3.0518e-05
0.30248 0.0827649 0.000686656
0.359426 0.06598 0.00192264
0.42153 0.046067 0.00537118
0.487434 0.0243076 0.0106966
0.556207 0.0100252 0.0179751
0.627375 0.00320439 0.0269017
0.698787 0 0.0363928
0.770321 0 0.0464485
0.83975 0 0.0568704
0.905013 0 0.0676585
0.955169 0 0.0775006
0.984115 0 0.0859236
1 0 0.092958
1 0 0.0981918
1 0 0.102296
1 0 0.105165
1 0 0.107164
1 0 0.108415
1 0 0.109178
1 0 0.109636
1 0 0.109773
0 0.165347 0
0 0.16495 0
0 0.16408 0
1.5259e-05 0.161837 0
0.00143435 0.159594 0
0.00669871 0.157107 0
0.0218814 0.154482 0
0.0552224 0.151843 0
0.0952773 0.148501 0
0.142657 0.144472 0
0.191318 0.138918 0
0.240192 0.131609 0
0.293507 0.120668 0.000244144
0.351644 0.105928 0.00077821
0.41445 0.0849622 0.00306706
0.481224 0.0584268 0.00712596
0.550546 0.0336156 0.0140383
0.622019 0.0121004 0.023743
0.693874 4.57771e-05 0.0341955
0.765759 0 0.0452583
0.835676 0 0.0562295
0.901488 0 0.0670481
0.953246 0 0.0769818
0.982712 0 0.0854658
1 0 0.0926528
1 0 0.0979171
1 0 0.102129
1 0 0.105013
1 0 0.107088
1 0 0.108354
1 0 0.109148
1 0 0.109606
1 0 0.109758
0 0.19913 0
0 0.198825 0
0 0.197879 0
0 0.195972 0
0.000198367 0.193973 0
0.00112917 0.191562 0
0.00949111 0.189364 0
0.0341039 0.186923 0
0.0696727 0.184207 0
0.119783 0.180789 0
0.172625 0.176013 0
0.225406 0.170062 0
0.281559 0.161028 3.0518e-05
0.34165 0.14905 0.000122072
0.405631 0.129824 0.00138857
0.473487 0.103014 0.00401312
0.543587 0.0729686 0.00962844
0.6159 0.0401923 0.0187533
0.688258 0.0162661 0.029572
0.760754 0.00585946 0.0424506
0.831312 0 0.0547646
0.897826 0 0.0661173
0.951354 0 0.076463
0.981216 0 0.0849928
1 0 0.0923323
1 0 0.0976272
1 0 0.101946
1 0 0.10486
1 0 0.107012
1 0 0.108278
1 0 0.109117
1 0 0.109575
1 0 0.109743
0 0.235737 0
0 0.235294 0
0 0.234562 0
0 0.232837 0
1.5259e-05 0.2309 0
0.000137331 0.22884 0
0.00318914 0.226749 0
0.0138399 0.22475 0
0.0395819 0.222324 0
0.0900893 0.21944 0
0.146899 0.215641 0
0.205219 0.210636 0
0.265629 0.203632 0
0.32874 0.193973 0
0.394629 0.17911 0.000503548
0.463813 0.158206 0.00169375
0.535058 0.130632 0.00508125
0.608301 0.0959182 0.011429
0.681804 0.0597238 0.0214389
0.75523 0.0235599 0.0369573
0.826581 0 0.0516976
0.893828 0 0.0644999
0.949371 0 0.0759289
0.979706 0 0.0845045
1 0 0.0920119
1 0 0.0973373
1 0 0.101778
1 0 0.104707
1 0 0.106935
1 0 0.108202
1 0 0.109071
1 0 0.10956
1 0 0.109728
0 0.277958 0
0 0.277607 0
0 0.276661 0
0 0.274998 0
0 0.273289 0
1.5259e-05 0.271229 0
0.000503548 0.269306 0
0.0024567 0.267277 0
0.0170748 0.265217 0
0.0573892 0.26273 0
0.110842 0.259327 0
0.174517 0.255192 0
0.241749 0.249424 0
0.309972 0.241917 0
0.379553 0.231006 9.15541e-05
0.451392 0.215564 0.000335698
0.524498 0.19353 0.00181582
0.599039 0.161685 0.00527962
0.673762 0.121324 0.0128939
0.748302 0.0668803 0.0282139
0.821103 0.0226596 0.0442969
0.889189 0.00955215 0.0601358
0.947143 0.000366217 0.0741283
0.977996 0.00015259 0.0834974
1 0 0.0916915
1 0 0.0970474
1 0 0.10161
1 0 0.10454
1 0 0.106828
1 0 0.108125
1 0 0.109041
1 0 0.109529
1 0 0.109728
0 0.325139 0
0 0.32459 0
0 0.323796 0
0 0.322271 0
0 0.320516 0
0 0.318807 0
1.5259e-05 0.316777 0
0.000106813 0.315038 0
0.00579843 0.313161 0
0.0251011 0.310765 0
0.0637369 0.307942 0
0.130953 0.304143 0
0.20734 0.299489 0
0.28365 0.293355 0
0.359426 0.284688 0
0.43508 0.272877 0
0.510994 0.255726 0.000503548
0.587564 0.230671 0.00199893
0.663828 0.196628 0.00616464
0.739605 0.145418 0.0161288
0.813809 0.0923476 0.0294347
0.883635 0.0404974 0.0506447
0.944503 0.00151064 0.0695964
0.975998 0.000640879 0.081239
1 0 0.0913405
1 0 0.0967422
1 0 0.101442
1 0 0.104356
1 0 0.106722
1 0 0.108049
1 0 0.108995
1 0 0.109499
1 0 0.109712
0 0.377371 0
0 0.376959 0
0 0.375906 0
0 0.374258 0
0 0.372732 0
0 0.370932 0
0 0.369238 0
1.5259e-05 0.367468 0
0.0010071 0.365499 0
0.0047303 0.363455 0
0.0261234 0.360769 0
0.0831617 0.357565 0
0.158892 0.353552 0
0.244038 0.348211 0
0.330068 0.341344 0
0.412573 0.331762 0
0.493217 0.318868 0.000106813
0.572747 0.300465 0.000427253
0.65153 0.27509 0.00180056
0.728923 0.235889 0.00582895
0.804669 0.185534 0.0141451
0.876249 0.102785 0.0368658
0.940658 0.0310063 0.0590829
0.97348 0.0163577 0.0751202
1 0.00456245 0.089189
1 0.00192264 0.0956436
1 6.10361e-05 0.101213
1 0 0.104189
1 0 0.1066
1 0 0.107973
1 0 0.108949
1 0 0.109483
1 0 0.109697
0 0.43418 0
0 0.433738 0
0 0.432395 0
0 0.431022 0
0 0.429374 0
0 0.427878 0
0 0.426337 0
0 0.424384 0
3.0518e-05 0.422766 0
0.000167849 0.420676 0
0.00877394 0.418509 0
0.0383917 0.415702 0
0.0939498 0.411978 0
0.184436 0.407675 0
0.286366 0.401846 0
0.380148 0.394324 0
0.469001 0.383993 0
0.553216 0.369985 0
0.635309 0.351446 0.000320439
0.715023 0.321965 0.00163272
0.792981 0.283146 0.00547799
0.866163 0.209384 0.0199741
0.934371 0.135027 0.0365301
0.96965 0.0747845 0.0601968
1 0.0222171 0.0818799
1 0.00993362 0.0921645
1 0.00047303 0.100801
1 0 0.10399
1 0 0.106462
1 0 0.107881
1 0 0.108904
1 0 0.109453
1 0 0.109682
0 0.493858 0
0 0.493172 0
0 0.491997 0
0 0.490455 0
0 0.489067 0
0 0.487434 0
0 0.485969 0
0 0.484321 0
0 0.482597 0
3.0518e-05 0.480919 0
0.00164797 0.478752 0
0.00781262 0.476295 0
0.0373846 0.473304 0
0.119402 0.469459 0
0.226902 0.464897 0
0.333562 0.45861 0
0.435752 0.450675 0
0.527947 0.439857 0
0.615183 0.425864 6.10361e-05
0.698039 0.404959 0.000350958
0.778637 0.378119 0.00129702
0.853819 0.329686 0.0053254
0.925399 0.274693 0.0116732
0.964538 0.169131 0.0402838
0.999725 0.0700084 0.0680705
1 0.0358892 0.0840925
1 0.00820935 0.0978714
1 0.00288396 0.102754
1 0.000350958 0.106188
1 0 0.10779
1 0 0.108858
1 0 0.109422
1 0 0.109651
0 0.556222 0
0 0.555749 0
0 0.554528 0
0 0.553063 0
0 0.551492 0
0 0.550134 0
0 0.548775 0
0 0.547097 0
0 0.545541 0
0 0.543755 0
0.000122072 0.542031 0
0.000610361 0.539971 0
0.0137484 0.537163 0
0.0623484 0.534005 0
0.143908 0.529961 0
0.259281 0.525032 0
0.38558 0.518807 0
0.491829 0.509957 0
0.587732 0.499397 0
0.675792 0.483604 0
0.760052 0.464775 6.10361e-05
0.837537 0.432059 0.000549325
0.912428 0.393576 0.00207523
0.957473 0.301778 0.0209201
0.998672 0.206378 0.0412451
0.999939 0.122774 0.0633555
0.999985 0.0488136 0.0839704
1 0.0205692 0.0961318
1 0.00296025 0.105104
1 0 0.107698
1 0 0.108797
1 0 0.109392
1 0 0.109636
0 0.619638 0
0 0.618921 0
0 0.617975 0
0 0.616297 0
0 0.615015 0
0 0.613748 0
0 0.612222 0
0 0.61091 0
0 0.60914 0
0 0.607767 0
1.5259e-05 0.606256 0
9.15541e-05 0.604257 0
0.00386053 0.60209 0
0.0196078 0.599145 0
0.0636149 0.596017 0
0.174624 0.592035 0
0.319646 0.586877 0
0.443122 0.580118 0
0.553338 0.57174 0
0.648844 0.560204 0
0.738262 0.546563 1.5259e-05
0.818799 0.523964 0.000122072
0.896986 0.498741 0.000396735
0.948409 0.444343 0.00482185
0.996521 0.385428 0.0103151
0.999634 0.250462 0.036286
0.999954 0.12015 0.0629282
1 0.0568093 0.0844434
1 0.0132296 0.1019
1 0.00239567 0.106996
1 0.000427253 0.108644
1 0 0.109361
1 0 0.109636
0 0.683497 0
0 0.683009 0
0 0.681834 0
0 0.680644 0
0 0.67921 0
0 0.677729 0
0 0.676539 0
0 0.675059 0
0 0.673747 0
0 0.672267 0
0 0.670649 0
0 0.669108 0
0.00105287 0.667094 0
0.00596628 0.66479 0
0.0275273 0.662043 0
0.100923 0.658503 0
0.214878 0.65449 0
0.353658 0.648936 0
0.499107 0.642451 0
0.611215 0.633555 0
0.708995 0.623056 0
0.794491 0.607004 0
0.876753 0.588983 0
0.934661 0.554879 7.62951e-05
0.989273 0.51809 0.000183108
0.99704 0.406531 0.0173648
0.999588 0.287755 0.0369268
1 0.185138 0.0597391
1 0.09514 0.0816052
1 0.0422065 0.0962692
1 0.00903334 0.106264
1 1.5259e-05 0.109331
1 1.5259e-05 0.109621
0 0.747066 0
0 0.746349 0
0 0.745464 0
0 0.744366 0
0 0.742748 0
0 0.741604 0
0 0.740261 0
0 0.739116 0
0 0.737911 0
0 0.736263 0
0 0.735042 0
0 0.733471 0
0.000122072 0.731991 0
0.000823987 0.729854 0
0.00772107 0.72752 0
0.0391089 0.724834 0
0.104219 0.72137 0
0.247501 0.717235 0
0.434012 0.711879 0
0.567788 0.705119 0
0.675822 0.69752 0
0.76733 0.685771 0
0.853666 0.673075 0
0.918532 0.650523 1.5259e-05
0.978515 0.626322 3.0518e-05
0.993027 0.570062 0.00378424
0.998886 0.501595 0.00947585
1 0.366293 0.0284428
1 0.220417 0.051545
1 0.10869 0.0784161
1 0.0250553 0.1019
1 4.57771e-05 0.10927
1 1.5259e-05 0.10959
0 0.808087 0
0 0.807614 0
0 0.806531 0
0 0.805493 0
0 0.804196 0
0 0.802853 0
0 0.801785 0
0 0.800458 0
0 0.799344 0
0 0.798016 0
0 0.796628 0
0 0.795422 0
0 0.793881 0
0 0.792279 0
0.0021973 0.790326 0
0.0156405 0.787869 0
0.051133 0.785183 0
0.167086 0.781552 0
0.338918 0.777386 0
0.488304 0.77203 0
0.625544 0.765789 0
0.73019 0.757198 0
0.823728 0.747341 0
0.89546 0.73196 0
0.960998 0.715053 0
0.984771 0.683024 4.57771e-05
0.997299 0.644541 0.000534066
1 0.536919 0.0119478
1 0.40798 0.0275883
1 0.272587 0.0500801
1 0.145296 0.0741741
1 0.064622 0.0925307
1 0.0254215 0.102998
0 0.868116 0.00155642
0 0.867475 0.00148013
0 0.866712 0.00137331
0 0.865812 0.00120546
0 0.864668 0.00103761
0 0.863539 0.000823987
0 0.862318 0.000656138
0 0.861357 0.000518807
0 0.86041 0.000366217
0 0.859174 0.000228885
0 0.858015 4.57771e-05
0 0.856672 0
0 0.855467 0
0 0.854154 0
0.000274662 0.852354 0
0.00222782 0.850401 0
0.0146639 0.847913 0
0.0968643 0.845121 0
0.237247 0.84181 0
0.396506 0.837232 0
0.566125 0.832395 0
0.688807 0.825727 0
0.790707 0.818555 0
0.869612 0.808103 0
0.940398 0.795865 0
0.973999 0.775967 0
0.994949 0.752392 1.5259e-05
1 0.69688 0.0031281
1 0.623041 0.00799573
1 0.487694 0.0179294
1 0.328222 0.0332647
1 0.174578 0.0640421
1 0.0699779 0.0914473
0 0.916869 0.0191653
0 0.916503 0.019028
0 0.915831 0.0187839
0 0.914855 0.0183871
0 0.914031 0.0180056
0 0.91284 0.0174716
0 0.911971 0.0170138
0 0.911116 0.0165866
0 0.910094 0.0160983
0 0.909224 0.015671
0 0.907988 0.0150759
0 0.907088 0.0145418
0 0.906157 0.0138552
0 0.904952 0.0129702
0 0.903777 0.0119326
6.10361e-05 0.902129 0.0108034
0.0037995 0.900511 0.00978103
0.0474861 0.89839 0.00894179
0.131762 0.895582 0.00823987
0.283131 0.89218 0.00735485
0.481605 0.888121 0.00630198
0.628016 0.88333 0.00456245
0.747066 0.877974 0.00247196
0.837324 0.870466 0.00128176
0.91458 0.862058 0.000549325
0.95903 0.84918 0.000228885
0.989593 0.83447 4.57771e-05
0.99913 0.805615 0.000259403
0.999786 0.766232 0.000839246
1 0.667079 0.00410468
1 0.531395 0.0116579
1 0.36791 0.0360876
1 0.233143 0.0623178
0 0.963943 0.0433356
0 0.963806 0.0423896
0 0.963317 0.0408331
0 0.962768 0.0396124
0 0.962142 0.0378729
0 0.961578 0.0365148
0 0.9608 0.03505
0 0.959976 0.0336156
0 0.959136 0.033051
0 0.958114 0.0323796
0 0.957229 0.0317082
0 0.956222 0.030808
0 0.955184 0.0295567
0 0.954284 0.0280766
0 0.953124 0.0260471
0 0.951995 0.0240024
0.000549325 0.950698 0.0218814
0.00967422 0.948867 0.0201114
0.0294194 0.946715 0.0187991
0.161685 0.943862 0.0169833
0.386221 0.940673 0.0148013
0.559197 0.936736 0.0109407
0.698375 0.932677 0.00610361
0.80145 0.927596 0.00321965
0.886091 0.92166 0.00143435
0.94139 0.913756 0.000579843
0.982269 0.904555 0.00015259
0.997635 0.889128 0
0.999374 0.86865 3.0518e-05
1 0.817578 0.000900282
1 0.740276 0.00317388
1 0.607141 0.0119936
1 0.474662 0.0226596
0 0.982193 0.168582
0 0.98201 0.167117
0 0.981781 0.165438
0 0.981445 0.162783
0 0.98117 0.160525
0 0.98088 0.158251
0 0.980453 0.154971
0 0.980148 0.152575
0 0.979767 0.149783
0 0.979461 0.147417
0 0.979065 0.144518
0 0.978653 0.141604
0 0.978317 0.138872
0 0.977874 0.1355
0 0.977447 0.132082
0 0.976867 0.127947
3.0518e-05 0.976303 0.123842
0.000564584 0.975509 0.120211
0.00198367 0.974273 0.116304
0.0845045 0.972839 0.112596
0.248264 0.970932 0.107973
0.430304 0.968811 0.101915
0.621927 0.966461 0.0946365
0.756756 0.963424 0.0862898
0.85388 0.960113 0.0780957
0.9196 0.955581 0.0661784
0.968307 0.950591 0.0531319
0.991012 0.942763 0.0343633
0.997559 0.932586 0.0123293
1 0.910811 0.00250248
1 0.874693 0.00106813
1 0.78854 0.00144961
1 0.685908 0.00300603
0 0.99762 0.2934
0 0.997604 0.292668
0 0.997497 0.290883
0 0.997345 0.289006
0 0.997177 0.286656
0 0.997024 0.284657
0 0.996796 0.282246
0 0.996612 0.279789
0 0.996429 0.27779
0 0.996246 0.275364
0 0.996048 0.273228
0 0.995819 0.270573
0 0.995621 0.267842
0 0.995422 0.265354
0 0.995056 0.26183
0 0.99472 0.258442
0 0.994354 0.254475
4.57771e-05 0.993896 0.250141
0.00015259 0.993393 0.24596
0.0319829 0.992737 0.241413
0.101701 0.992004 0.237186
0.271794 0.99115 0.231189
0.525811 0.990112 0.223285
0.705028 0.98883 0.211292
0.819394 0.987198 0.195636
0.895384 0.985046 0.170809
0.95021 0.982559 0.139895
0.980835 0.979034 0.0931563
0.994324 0.974823 0.0357519
1 0.966812 0.00674449
1 0.953643 0.0021973
1 0.915114 6.10361e-05
1 0.861463 0.00015259
0 1 0.389944
0 1 0.388907
0 1 0.387549
0 1 0.38555
0 1 0.383978
0 1 0.382391
0 1 0.380468
0 1 0.378576
0 1 0.376593
