luts/varicam_official/Nicest_709.cube
TITLE "Generated by Resolve"
LUT_3D_SIZE 9
0 0 0
0.051606 0 0.000396735
0.172534 0 0.00198367
0.340734 0 0.00746166
0.591669 0 0.0251774
0.870771 0 0.0619211
1 0 0.0954757
1 0 0.107729
1 0 0.109865
0 0.0363317 0
0.0305943 0.0296178 1.5259e-05
0.156725 0.0182803 0.000701915
0.326345 0.00389105 0.00605783
0.575708 0 0.023621
0.856199 0 0.0595407
1 0 0.0943313
1 0 0.107454
1 0 0.109834
0 0.13492 0
0.00433356 0.128283 0
0.115816 0.115602 0
0.30248 0.0827649 0.000686656
0.556207 0.0100252 0.0179751
0.83975 0 0.0568704
1 0 0.092958
1 0 0.107164
1 0 0.109773
0 0.277958 0
0 0.273289 0
0.0170748 0.265217 0
0.241749 0.249424 0
0.524498 0.19353 0.00181582
0.821103 0.0226596 0.0442969
1 0 0.0916915
1 0 0.106828
1 0 0.109728
0 0.493858 0
0 0.489067 0
0 0.482597 0
0.0373846 0.473304 0
0.435752 0.450675 0
0.778637 0.378119 0.00129702
0.999725 0.0700084 0.0680705
1 0.000350958 0.106188
1 0 0.109651
0 0.747066 0
0 0.742748 0
0 0.737911 0
0.000122072 0.731991 0
0.104219 0.72137 0
0.675822 0.69752 0
0.978515 0.626322 3.0518e-05
1 0.220417 0.051545
1 1.5259e-05 0.10959
0 0.963943 0.0433356
0 0.962142 0.0378729
0 0.959136 0.033051
0 0.955184 0.0295567
0.000549325 0.950698 0.0218814
0.386221 0.940673 0.0148013
0.886091 0.92166 0.00143435
0.999374 0.86865 3.0518e-05
1 0.474662 0.0226596
0 1 0.478874
0 1 0.473747
0 1 0.466941
0 1 0.459861
0 1 0.451987
0.00958267 1 0.440024
0.706416 0.999832 0.417166
0.983185 0.99881 0.306371
1 0.988693 0.0496071
0 1 0.752346
0 1 0.75082
0 1 0.748363
0 1 0.745632
0 1 0.742687
0 1 0.738766
0.138018 1 0.732692
0.919844 1 0.718151
0.999435 1 0.638025
0 0 0.03299
0.0492561 0 0.0311437
0.171221 0 0.0299229
0.338918 0 0.0301061
0.58967 0 0.0361486
0.86894 0 0.0627298
1 0 0.0953078
1 0 0.107683
1 0 0.109865
0 0.0334936 0.0281071
0.0274662 0.0268559 0.0267491
0.15491 0.0160525 0.0259556
0.324514 0.00352483 0.0275273
0.573877 0 0.0335393
0.854459 0 0.0601816
1 0 0.0940871
1 0 0.107424
1 0 0.109819
0 0.135088 0.0155947
0.00354009 0.12845 0.014725
0.112902 0.115862 0.0145571
0.300649 0.0830243 0.0175021
0.554421 0.0103304 0.0289311
0.83801 0 0.0573281
1 0 0.0928206
1 0 0.107118
1 0 0.109773
0 0.277043 0.00204471
0 0.272312 0.00173953
0.0163119 0.26421 0.00146487
0.239567 0.248661 0.00167849
0.522469 0.193805 0.00601205
0.819272 0.0229496 0.0441291
1 0 0.0915541
1 0 0.106783
1 0 0.109712
0 0.491768 0
0 0.487205 0
0 0.480827 0
0.0367285 0.471763 0
0.433722 0.449241 0
0.776944 0.377172 0.00137331
0.999359 0.0701152 0.0677653
1 0.000366217 0.106142
1 0 0.109651
0 0.744808 1.5259e-05
0 0.740719 1.5259e-05
0 0.735485 1.5259e-05
0.000137331 0.729778 0
0.103578 0.719234 0
0.673915 0.69543 0
0.977096 0.624262 1.5259e-05
1 0.221256 0.0515755
1 0 0.10959
0 0.962646 0.0741588
0 0.9608 0.0673991
0 0.957336 0.0615091
0 0.953429 0.0551919
0.000518807 0.948775 0.0440375
0.382712 0.93901 0.0256809
0.884489 0.919966 0.00291447
0.999329 0.866972 1.5259e-05
1 0.469352 0.0239719
0 1 0.481086
0 1 0.475532
0 1 0.46894
0 1 0.461997
0 1 0.453758
0.0100099 0.999985 0.441444
0.703487 0.999817 0.418509
0.982635 0.998749 0.306905
1 0.988296 0.051133
0 1 0.75256
0 1 0.751064
0 1 0.74847
0 1 0.745708
0 1 0.742702
0 1 0.73875
0.13669 1 0.732677
0.918502 1 0.718212
0.999405 1 0.636484
0 0 0.128405
0.0401923 0 0.12549
0.167041 0 0.122545
0.336004 0 0.118914
0.587045 0 0.11342
0.866682 0 0.0983291
1 0 0.095552
1 0 0.107652
1 0 0.10985
0 0.0177005 0.122881
0.0192111 0.0133516 0.120348
0.149584 0.00697337 0.1178
0.321401 0.00120546 0.115251
0.571267 0 0.110765
0.852293 0 0.0974746
1 0 0.0944228
1 0 0.107393
1 0 0.109819
0 0.127886 0.113405
0.00195315 0.121187 0.111192
0.104509 0.107713 0.109102
0.296956 0.0723583 0.107683
0.551751 0.00839246 0.106981
0.835966 0 0.0978103
0.999985 0 0.0931716
1 0 0.107088
1 0 0.109758
0 0.273167 0.091249
0 0.268345 0.0891737
0.0144656 0.26041 0.0871748
0.234745 0.244816 0.0861677
0.519478 0.190372 0.0880903
0.816876 0.0226749 0.094728
0.999908 0 0.0919203
1 0 0.106737
1 0 0.109712
0 0.487999 0.0329747
0 0.483604 0.0315862
0 0.477363 0.0298009
0.0350042 0.468101 0.0284886
0.430198 0.445945 0.0275883
0.774075 0.375143 0.0301671
0.998917 0.071519 0.0688182
1 0.000381476 0.106081
1 0 0.109667
0 0.741238 0.00447089
0 0.737209 0.00355535
0 0.73196 0.00256352
0.000122072 0.726223 0.00172427
0.101717 0.715694 0.000991836
0.670726 0.691737 0.000213626
0.975128 0.621607 3.0518e-05
1 0.224048 0.0513008
1 0 0.10959
0 0.960296 0.156008
0 0.958007 0.149248
0 0.954314 0.141482
0 0.95053 0.132708
0.000427253 0.945907 0.118944
0.376028 0.936049 0.0966201
0.882078 0.916793 0.0255283
0.999252 0.863981 0.000198367
1 0.461585 0.0262913
0 1 0.4934
0 1 0.488365
0 1 0.482429
0 1 0.475731
0 0.999985 0.468055
0.0106661 0.999969 0.456718
0.699031 0.999741 0.436927
0.981598 0.998535 0.328435
1 0.987747 0.0623026
0 1 0.755245
0 1 0.753887
0 1 0.751263
0 1 0.748592
0 1 0.745617
0 1 0.741833
0.135622 1 0.736004
0.916243 1 0.722042
0.999344 1 0.641733
0 0 0.278492
0.0172427 0 0.274998
0.151537 0 0.271412
0.329091 0 0.267353
0.582544 0 0.261143
0.863401 0 0.241657
1 0 0.16286
1 0 0.107515
1 0 0.10985
0 0.00123598 0.268772
0.00650034 0.000457771 0.265476
0.130236 0.00015259 0.26215
0.313558 0 0.258625
0.566781 0 0.25333
0.849073 0 0.23508
0.999985 0 0.160555
1 0 0.107317
1 0 0.109804
0 0.0889448 0.256901
0.00015259 0.081239 0.253941
0.0766155 0.0658885 0.250813
0.28751 0.0336614 0.247822
0.546853 0.0033875 0.24445
0.832578 0 0.229358
0.999924 0 0.159609
1 0 0.107073
1 0 0.109758
0 0.259449 0.241505
0 0.254627 0.238651
0.0093843 0.246601 0.235569
0.222339 0.229847 0.2327
0.514244 0.170428 0.230259
0.813184 0.0201114 0.223682
0.999847 0 0.162524
1 0 0.107012
1 0 0.109697
0 0.480858 0.210422
0 0.476738 0.207523
0 0.470405 0.204211
0.0323796 0.461097 0.201114
0.423926 0.438834 0.198856
0.770321 0.366934 0.194842
0.998215 0.0671702 0.166705
1 0.000381476 0.107424
1 0 0.109651
0 0.735729 0.166949
0 0.731746 0.162875
0 0.726543 0.157626
9.15541e-05 0.720913 0.1514
0.0978714 0.710536 0.144701
0.666682 0.68658 0.130632
0.972885 0.616053 0.0827344
1 0.227863 0.0535286
1 0 0.10959
0 0.956436 0.257298
0 0.953765 0.252079
0 0.950149 0.245777
0 0.946456 0.238621
0.000320439 0.941817 0.228397
0.369543 0.93196 0.214496
0.87924 0.912551 0.151003
0.999115 0.860258 0.00958267
1 0.454902 0.0285496
0 1 0.515496
0 1 0.510842
0 1 0.504952
0 0.999985 0.498589
0 0.999969 0.491112
0.0112917 0.999954 0.481025
0.693736 0.999695 0.463416
0.980529 0.99826 0.375601
1 0.986969 0.0748455
0 1 0.760678
0 1 0.759014
0 1 0.756374
0 1 0.753689
0 1 0.750912
0 1 0.747127
0.134859 1 0.741299
0.914305 1 0.72697
0.999252 1 0.650019
0 0 0.503655
6.10361e-05 0 0.49958
0.0765698 0 0.494881
0.30396 0 0.490181
0.571786 0 0.485054
0.856519 0 0.473991
1 0 0.435019
1 0 0.258015
1 0 0.110094
0 0 0.489982
0 0 0.486061
0.0526894 0 0.481514
0.285451 0 0.476967
0.55552 0 0.472282
0.842344 0 0.461891
0.999924 0 0.42385
1 0 0.254704
1 0 0.110246
0 0.00962844 0.474495
0 0.00775158 0.470741
0.0189975 0.00497444 0.4663
0.253315 0.00148013 0.461952
0.533822 4.57771e-05 0.457847
0.826032 0 0.449165
0.999863 0 0.412879
1 0 0.252216
1 0 0.111879
0 0.201938 0.457786
0 0.196536 0.453971
0.00166323 0.186252 0.449882
0.177676 0.164736 0.44567
0.499947 0.0977035 0.441794
0.805646 0.0110933 0.435828
0.999802 0 0.404334
1 0 0.250309
1 0 0.112047
0 0.459586 0.435569
0 0.455116 0.431891
0 0.448997 0.427741
0.022797 0.439536 0.423529
0.405631 0.416205 0.419776
0.762158 0.335958 0.414771
0.997345 0.0393835 0.397482
1 0.000274662 0.255818
1 0 0.11133
0 0.722255 0.409522
0 0.71841 0.405753
0 0.71342 0.401236
3.0518e-05 0.707698 0.396384
0.0854505 0.69749 0.391821
0.657771 0.673014 0.385489
0.969039 0.600504 0.36434
1 0.218235 0.264759
1 0 0.11313
0 0.947234 0.426886
0 0.944396 0.422965
0 0.940719 0.418158
0 0.937148 0.412818
0.000183108 0.932616 0.406241
0.359014 0.922484 0.398932
0.874083 0.902937 0.37554
0.998718 0.850401 0.244495
1 0.450111 0.0459602
0 1 0.576547
0 0.999985 0.572091
0 0.999969 0.566735
0 0.999954 0.560983
0 0.999924 0.554528
0.0115206 0.999893 0.546456
0.686015 0.999466 0.533578
0.978546 0.997452 0.478904
1 0.985672 0.166155
0 1 0.77789
0 1 0.77615
0 1 0.773602
0 1 0.771038
0 1 0.768093
0 1 0.764416
0.133837 1 0.759014
0.911711 1 0.745418
0.999054 1 0.679072
0 0 0.756527
0 0 0.752667
0.00143435 0 0.748272
0.20267 0 0.744274
0.541192 0 0.740612
0.842435 0 0.736278
1 0 0.723659
1 0 0.676555
1 0 0.527062
0 0 0.742855
0 0 0.739162
0.000106813 0 0.734829
0.176837 0 0.730892
0.523049 0 0.727321
0.82797 0 0.723339
0.999878 0 0.711162
1 0 0.664759
1 0 0.510002
0 3.0518e-05 0.727611
0 1.5259e-05 0.72398
1.5259e-05 0 0.719753
0.135134 0 0.715526
0.498833 0 0.712032
0.810407 0 0.708583
0.999832 0 0.697398
1 0 0.652155
1 0 0.48513
0 0.0741894 0.71136
0 0.0664378 0.70782
0 0.0554208 0.703487
0.0615854 0.0408789 0.699367
0.461494 0.0209049 0.695857
0.787381 0.00204471 0.692668
0.999725 0 0.683833
1 0 0.63856
1 0 0.459663
0 0.416709 0.691234
0 0.411612 0.687816
0 0.404685 0.683421
0.00677501 0.393912 0.679164
0.353033 0.365423 0.675608
0.742824 0.272465 0.672419
0.995895 0.021149 0.668208
1 0.000122072 0.627863
1 0 0.438239
0 0.694194 0.665919
0 0.690593 0.662562
0 0.685603 0.658091
0 0.679774 0.65359
0.0617533 0.669245 0.649714
0.637003 0.643488 0.645823
0.960235 0.564477 0.639155
1 0.156085 0.616297
1 0 0.426139
0 0.925811 0.651118
0 0.923247 0.647456
0 0.919676 0.643168
0 0.916243 0.638605
6.10361e-05 0.911788 0.633814
0.335988 0.901762 0.629175
0.863462 0.881331 0.620188
0.997757 0.824933 0.587884
1 0.42771 0.421759
0 0.999115 0.704448
0 0.999023 0.70045
0 0.998901 0.69575
0 0.998779 0.69099
0 0.998611 0.685924
0.0111391 0.998077 0.67982
0.672297 0.996109 0.672328
0.974289 0.992447 0.645823
1 0.977966 0.511681
0 1 0.823285
0 1 0.821607
0 1 0.819059
0 1 0.816464
0 1 0.813672
0 1 0.810269
0.132021 1 0.805554
0.907729 1 0.796155
0.998474 1 0.752071
0 0.134127 0.944152
0 0.12462 0.942077
0 0.113436 0.939895
0.0456397 0.0975052 0.938018
0.465156 0.0620432 0.93669
0.806806 0.0084535 0.937011
0.998169 0 0.938521
1 0 0.930877
1 0 0.911696
0 0.126482 0.937026
0 0.116609 0.935012
0 0.105043 0.93286
0.0345617 0.0906233 0.931029
0.444327 0.061265 0.929686
0.791653 0.0110018 0.929946
0.998062 0 0.931517
1 0 0.923949
1 0 0.903532
0 0.121431 0.928847
0 0.11133 0.927031
0 0.0980545 0.924849
0.0222019 0.0825971 0.922972
0.41503 0.0589456 0.921599
0.772915 0.0143587 0.921645
0.998077 0 0.923659
1 0 0.916228
1 0 0.893965
0 0.213428 0.920012
0 0.201343 0.918196
0 0.18378 0.916045
0.00859083 0.159655 0.914153
0.36791 0.106233 0.912734
0.748699 0.0290227 0.912627
0.997086 0.000137331 0.915053
1 0 0.90837
1 0 0.883299
0 0.432181 0.908354
0 0.425361 0.906661
0 0.416159 0.904494
0.000396735 0.403342 0.902617
0.252995 0.375433 0.900862
0.704616 0.289982 0.899962
0.98497 0.0361181 0.901228
1 0.00015259 0.897704
1 0 0.867811
0 0.67245 0.891386
0 0.668101 0.889357
0 0.66273 0.886702
0 0.65655 0.883513
0.0258183 0.645762 0.880751
0.597116 0.62002 0.878706
0.940505 0.542306 0.877989
1 0.159167 0.878996
1 0 0.854276
0 0.895247 0.86978
0 0.892622 0.867079
0 0.889281 0.863691
0 0.885863 0.86038
1.5259e-05 0.881621 0.85716
0.298177 0.871321 0.85478
0.845197 0.850431 0.852567
0.995407 0.791257 0.846311
1 0.392233 0.83241
0 0.994614 0.867308
0 0.994141 0.864897
0 0.993515 0.861662
0 0.992676 0.858442
0 0.99173 0.855222
0.00975052 0.990005 0.85185
0.649119 0.984787 0.849699
0.965713 0.977218 0.841703
0.999969 0.95494 0.81236
0 1 0.899428
0 1 0.898054
0 1 0.89604
0 1 0.89398
0 1 0.89192
0 1 0.889555
0.129534 1 0.886809
0.90164 1 0.883864
0.996475 0.999985 0.866865
0 0.618784 0.999054
0 0.611566 0.998947
0 0.603281 0.998856
0.000701915 0.593408 0.99881
0.305272 0.575143 0.999054
0.740734 0.529763 0.999832
0.97705 0.351812 0.999939
1 0.0774548 1
1 0 1
0 0.603876 0.998596
0 0.596963 0.998474
0 0.588754 0.998367
0.00047303 0.578882 0.998337
0.281621 0.560769 0.998627
0.726268 0.516625 0.999603
0.974868 0.337438 0.999893
1 0.0717174 1
1 1.5259e-05 1
0 0.591974 0.997925
0 0.585489 0.997803
0 0.577417 0.997681
9.15541e-05 0.567864 0.997635
0.252079 0.550362 0.997909
0.70869 0.50898 0.9991
0.972351 0.339513 0.999786
1 0.0584573 0.999878
1 1.5259e-05 0.999557
0 0.593622 0.996887
0 0.587396 0.996704
0 0.579477 0.996612
1.5259e-05 0.57023 0.996521
0.209583 0.553475 0.996612
0.685893 0.513603 0.997482
0.967971 0.376837 0.99884
1 0.0495308 0.998901
1 4.57771e-05 0.998215
0 0.635584 0.994079
0 0.629984 0.993683
0 0.622721 0.99324
0 0.614496 0.992844
0.106142 0.600519 0.992798
0.646036 0.569589 0.993622
0.950942 0.472786 0.995789
0.999985 0.0674144 0.997452
1 0.000213626 0.996521
0 0.747448 0.986007
0 0.743084 0.98555
0 0.737575 0.984924
0 0.731304 0.984421
0.00929274 0.721645 0.984253
0.544793 0.702434 0.984909
0.908186 0.654383 0.987152
0.999863 0.429679 0.992172
1 0.00436408 0.994461
0 0.894728 0.972946
0 0.89221 0.97232
0 0.889021 0.971496
0 0.885618 0.970733
0 0.881239 0.970108
0.277394 0.871382 0.970504
0.826459 0.852796 0.97174
0.991379 0.806348 0.973587
1 0.470283 0.982315
0 0.983902 0.963577
0 0.983322 0.96289
0 0.982422 0.961852
0 0.981384 0.960769
0 0.980209 0.959533
0.00688182 0.977768 0.958679
0.641917 0.968734 0.959762
0.957061 0.958999 0.959762
0.999374 0.93434 0.957748
0 1 0.964034
0 1 0.963333
0 1 0.962371
0 1 0.961364
0 1 0.960433
0 1 0.959365
0.129244 0.999634 0.958862
0.896422 0.997436 0.960266
0.992386 0.995758 0.957321
0 0.839261 0.999985
0 0.83772 0.999985
0 0.83563 1
0.00297551 0.832776 1
0.226123 0.82768 1
0.688045 0.816419 1
0.937987 0.789761 1
0.999954 0.671855 1
1 0.0099794 1
0 0.836194 0.999985
0 0.83476 0.999985
0 0.832639 1
0.00123598 0.829923 1
0.187579 0.824994 1
0.670207 0.814023 1
0.930724 0.78822 1
1 0.675669 1
1 0.0197757 1
0 0.833188 1
0 0.831708 1
0 0.829648 1
0 0.826703 1
0.147234 0.820951 1
0.650462 0.809445 1
0.922835 0.782452 1
0.999878 0.671702 1
1 0.0527657 1
0 0.832074 1
0 0.830121 1
0 0.82707 1
0 0.823575 1
0.109789 0.817975 1
0.62681 0.806683 1
0.913924 0.780713 1
0.999237 0.674891 1
1 0.0864271 1
0 0.840024 0.999985
0 0.838041 0.999985
0 0.835157 0.999985
0 0.831754 0.999985
0.0547189 0.826307 1
0.591928 0.815656 1
0.898085 0.791669 1
0.998169 0.703868 1
1 0.129809 1
0 0.871214 0.998886
0 0.869398 0.998917
0 0.866758 0.998962
0 0.863935 0.999084
0.00646983 0.859434 0.999359
0.514305 0.850752 0.999771
0.869032 0.832502 1
0.995346 0.779171 1
1 0.382193 1
0 0.931746 0.993912
0 0.930419 0.993957
0 0.928618 0.994003
0 0.926543 0.99411
0 0.923308 0.994507
0.305638 0.916762 0.995651
0.814038 0.905486 0.997375
0.982437 0.883253 0.998734
1 0.747341 0.999878
0 0.985321 0.988891
0 0.984802 0.988876
0 0.983932 0.988861
0 0.982986 0.988815
0 0.981994 0.988815
0.0148165 0.979232 0.989288
0.670253 0.970901 0.991424
0.951888 0.962554 0.992996
0.998367 0.946548 0.994354
0 0.999878 0.987045
0 0.999878 0.986984
0 0.999863 0.986893
0 0.999863 0.986801
0 0.999863 0.986709
0 0.999847 0.986557
0.142702 0.998474 0.987213
0.897551 0.992889 0.989868
0.989792 0.990097 0.990219
