luts/varicam_official/Nicest_709.cube
TITLE "Generated by Resolve"
LUT_3D_SIZE 5
0 0 0
0.172534 0 0.00198367
0.591669 0 0.0251774
1 0 0.0954757
1 0 0.109865
0 0.13492 0
0.115816 0.115602 0
0.556207 0.0100252 0.0179751
1 0 0.092958
1 0 0.109773
0 0.493858 0
0 0.482597 0
0.435752 0.450675 0
0.999725 0.0700084 0.0680705
1 0 0.109651
0 0.963943 0.0433356
0 0.959136 0.033051
0.000549325 0.950698 0.0218814
0.886091 0.92166 0.00143435
1 0.474662 0.0226596
0 1 0.752346
0 1 0.748363
0 1 0.742687
0.138018 1 0.732692
0.999435 1 0.638025
0 0 0.128405
0.167041 0 0.122545
0.587045 0 0.11342
1 0 0.095552
1 0 0.10985
0 0.127886 0.113405
0.104509 0.107713 0.109102
0.551751 0.00839246 0.106981
0.999985 0 0.0931716
1 0 0.109758
0 0.487999 0.0329747
0 0.477363 0.0298009
0.430198 0.445945 0.0275883
0.998917 0.071519 0.0688182
1 0 0.109667
0 0.960296 0.156008
0 0.954314 0.141482
0.000427253 0.945907 0.118944
0.882078 0.916793 0.0255283
1 0.461585 0.0262913
0 1 0.755245
0 1 0.751263
0 1 0.745617
0.135622 1 0.736004
0.999344 1 0.641733
0 0 0.503655
0.0765698 0 0.494881
0.571786 0 0.485054
1 0 0.435019
1 0 0.110094
0 0.00962844 0.474495
0.0189975 0.00497444 0.4663
0.533822 4.57771e-05 0.457847
0.999863 0 0.412879
1 0 0.111879
0 0.459586 0.435569
0 0.448997 0.427741
0.405631 0.416205 0.419776
0.997345 0.0393835 0.397482
1 0 0.11133
0 0.947234 0.426886
0 0.940719 0.418158
0.000183108 0.932616 0.406241
0.874083 0.902937 0.37554
1 0.450111 0.0459602
0 1 0.77789
0 1 0.773602
0 1 0.768093
0.133837 1 0.759014
0.999054 1 0.679072
0 0.134127 0.944152
0 0.113436 0.939895
0.465156 0.0620432 0.93669
0.998169 0 0.938521
1 0 0.911696
0 0.121431 0.928847
0 0.0980545 0.924849
0.41503 0.0589456 0.921599
0.998077 0 0.923659
1 0 0.893965
0 0.432181 0.908354
0 0.416159 0.904494
0.252995 0.375433 0.900862
0.98497 0.0361181 0.901228
1 0 0.867811
0 0.895247 0.86978
0 0.889281 0.863691
1.5259e-05 0.881621 0.85716
0.845197 0.850431 0.852567
1 0.392233 0.83241
0 1 0.899428
0 1 0.89604
0 1 0.89192
0.129534 1 0.886809
0.996475 0.999985 0.866865
0 0.839261 0.999985
0 0.83563 1
0.226123 0.82768 1
0.937987 0.789761 1
1 0.0099794 1
0 0.833188 1
0 0.829648 1
0.147234 0.820951 1
0.922835 0.782452 1
1 0.0527657 1
0 0.840024 0.999985
0 0.835157 0.999985
0.0547189 0.826307 1
0.898085 0.791669 1
1 0.129809 1
0 0.931746 0.993912
0 0.928618 0.994003
0 0.923308 0.994507
0.814038 0.905486 0.997375
1 0.747341 0.999878
0 0.999878 0.987045
0 0.999863 0.986893
0 0.999863 0.986709
0.142702 0.998474 0.987213
0.989792 0.990097 0.990219
