luts/varicam_official/Rose_1.cube
TITLE "Generated by Resolve"
LUT_3D_SIZE 33
0.0156252 0.0156252 0.0156252
0.0224155 0.0135958 0.0143435
0.0326696 0.0106203 0.0123903
0.0465553 0.00669871 0.00975052
0.0623636 0.00271611 0.00671397
0.0809644 0.000396735 0.00404364
0.10277 0 0.00180056
0.128084 0 0.000564584
0.155795 0 0
0.186252 0 0
0.22266 0 0
0.260807 0 0
0.300999 0 0
0.344717 0 0
0.391089 0 0
0.439216 0 0
0.48809 0 0
0.539117 0 0
0.591012 0 0
0.642542 0 0
0.694469 0 0
0.745892 0 0
0.795789 0 0
0.844831 0 0
0.891981 0 0
0.936278 0 0
0.96524 0 0
0.980774 0 0
0.985733 0 0
0.990677 0 0
0.995636 0 0
0.999695 0 0
0.999939 0 0
0.0156252 0.0156252 0.0156252
0.0233921 0.0134585 0.0141756
0.0344701 0.0104982 0.0121004
0.0486915 0.00686656 0.00944533
0.0647593 0.00328069 0.00648508
0.0836957 0.00122072 0.00383001
0.105898 0.0009308 0.00157168
0.132067 0.000656138 0.000503548
0.160296 0.000335698 0
0.191058 0 0
0.227985 0 0
0.266819 0 0
0.307652 0 0
0.351354 0 0
0.398169 0 0
0.446845 0 0
0.496071 0 0
0.547158 0 0
0.599039 0 0
0.650599 0 0
0.70248 0 0
0.75378 0 0
0.803433 0 0
0.851972 0 0
0.898817 0 0
0.942901 0 0
0.967193 0 0
0.980789 0 0
0.985962 0 0
0.99115 0 0
0.996063 0 0
0.999924 0 0
0.999985 0 0
0.0147097 0.0211948 0.0165408
0.0234531 0.018967 0.0149538
0.0353857 0.0159915 0.0127718
0.0499733 0.0124514 0.0100862
0.0664836 0.00885023 0.00712596
0.085771 0.00611887 0.00424201
0.108278 0.00444038 0.00149538
0.135302 0.00280766 0.000503548
0.164218 0.00129702 3.0518e-05
0.195468 0 0
0.232715 1.5259e-05 0
0.272175 1.5259e-05 0
0.313726 1.5259e-05 0
0.357504 0 0
0.404654 0 0
0.453788 0 0
0.503456 0 0
0.554543 0 0
0.606394 0 0
0.658091 0 0
0.709804 0 0
0.760937 0 0
0.810513 0 0
0.858442 0 0
0.904967 0 0
0.948974 0 0
0.968612 0 0
0.980392 0 0
0.985931 0 0
0.991501 0 0
0.996368 0 0
1 0 0
1 0 0
0.0122835 0.0358434 0.018967
0.0220035 0.0336461 0.0172885
0.0348211 0.0305028 0.0150149
0.0498512 0.0266575 0.0122683
0.0670176 0.0222324 0.0091249
0.0867475 0.017319 0.00560006
0.109392 0.0118563 0.00169375
0.137316 0.00721752 0.000610361
0.167102 0.00320439 7.62951e-05
0.19913 0 0
0.236393 6.10361e-05 0
0.276402 6.10361e-05 0
0.31873 4.57771e-05 0
0.362829 1.5259e-05 0
0.410178 0 0
0.459556 0 0
0.509804 0 0
0.560861 0 0
0.612665 0 0
0.664622 0 0
0.715984 0 0
0.766934 0 0
0.816693 0 0
0.863966 0 0
0.91017 0 0
0.954208 0 0
0.96939 0 0
0.979522 0 0
0.985611 0 0
0.991699 0 0
0.996597 0 0
1 0 0
1 0 0
0.00959792 0.0524147 0.0218204
0.0201877 0.0500649 0.0199741
0.0337987 0.0467842 0.0175631
0.0492256 0.0428931 0.0147707
0.0670176 0.0383307 0.0115358
0.0870527 0.0331426 0.00791943
0.109621 0.0272831 0.00386053
0.138293 0.0211337 0.00205997
0.168841 0.0151369 0.00077821
0.201602 0.00929274 0
0.238834 0.00444038 0
0.279286 0.00175479 0
0.322347 0.000534066 0
0.367163 0.000122072 0
0.414755 0 0
0.464195 0 0
0.514626 0 0
0.565866 0 0
0.617761 0 0
0.669612 0 0
0.720958 0 0
0.771847 0 0
0.821424 0 0
0.868391 0 0
0.914443 0 0
0.958373 0 0
0.969848 0 0
0.978668 0 0
0.985351 0 0
0.992035 0 0
0.996902 0 0
1 0 0
1 0 0
0.0069276 0.0704814 0.0249332
0.0182193 0.06804 0.0229343
0.0324712 0.0646982 0.0204013
0.0482338 0.0608682 0.0175937
0.0666056 0.0562905 0.0142977
0.0869764 0.0510872 0.0106203
0.10956 0.0452125 0.00653086
0.138918 0.037995 0.00381476
0.170214 0.030457 0.00172427
0.203677 0.0225834 0.000259403
0.240894 0.0141299 7.62951e-05
0.281788 0.00888075 1.5259e-05
0.325521 0.00573739 0
0.370886 0.00357061 0
0.418677 0.00181582 0
0.468238 0.000503548 0
0.518898 9.15541e-05 0
0.570214 0 0
0.622141 0 0
0.674022 0 0
0.725231 0 0
0.775982 0 0
0.825528 0 0
0.872068 0 0
0.917433 0 0
0.960418 0 0
0.969512 0 0
0.977661 0 0
0.985031 0 0
0.992386 0 0
0.997238 0 0
1 0 0
1 0 0
0.00427253 0.0902571 0.0283513
0.0161288 0.0877852 0.026215
0.030869 0.0844587 0.0235599
0.0468605 0.0807965 0.0207523
0.0657816 0.0762951 0.0174105
0.0865187 0.0711986 0.0137026
0.10927 0.0654459 0.00962844
0.139254 0.057496 0.00579843
0.171237 0.0489509 0.0028687
0.205402 0.0397803 0.000808728
0.242634 0.0296941 0.000259403
0.283955 0.0222782 3.0518e-05
0.328298 0.0164797 0
0.373968 0.0109407 0
0.421958 0.00578317 0
0.471702 0.00164797 0
0.522667 0.000320439 0
0.573938 3.0518e-05 0
0.625818 1.5259e-05 0
0.677913 1.5259e-05 0
0.728771 0 0
0.779355 0 0
0.829068 0 0
0.874968 0 0
0.919036 0 0
0.960098 0 0
0.968261 0 0
0.976455 0 0
0.984619 0 0
0.992767 0 0
0.997589 0 0
1 0 0
1 0 0
0.00291447 0.114076 0.0322576
0.0141451 0.111589 0.0300908
0.0284733 0.108232 0.0274205
0.0448615 0.104463 0.0245518
0.0643778 0.0997482 0.021088
0.0857557 0.0944991 0.0172732
0.109178 0.0886702 0.0130617
0.139132 0.0810254 0.00814832
0.171435 0.0726635 0.00442512
0.20621 0.0635538 0.00181582
0.243992 0.0535286 0.000549325
0.285618 0.0435798 7.62951e-05
0.33019 0.033753 6.10361e-05
0.376379 0.024567 1.5259e-05
0.424338 0.0159915 0
0.47396 0.00906386 0
0.525216 0.00665293 0
0.57673 0.00476081 0
0.628779 0.00303655 0
0.680827 0.00137331 0
0.731517 0.00047303 0
0.781964 0 0
0.831632 0 0
0.877104 0 0
0.919249 0 0
0.956954 0 0
0.966049 0 0
0.975189 0 0
0.984268 0 0
0.993347 0 0
0.998108 0 0
1 0 0
1 0 0
0.00228885 0.14168 0.0368048
0.0121614 0.1393 0.034638
0.0255283 0.136065 0.0319677
0.0421454 0.132403 0.0290837
0.0622416 0.127642 0.0255283
0.0842451 0.122316 0.0216373
0.108324 0.116426 0.01738
0.138247 0.108919 0.0120851
0.170962 0.100542 0.00766003
0.20647 0.0913252 0.00401312
0.24477 0.0812543 0.00148013
0.286656 0.0701305 0.000396735
0.33138 0.058381 0.000213626
0.378058 0.0469825 6.10361e-05
0.426184 0.0359808 1.5259e-05
0.475898 0.0261845 0
0.527459 0.0198367 0
0.579065 0.0139315 0
0.631113 0.00833143 0
0.683162 0.00320439 0
0.733684 0.00102235 0
0.783978 0 0
0.833555 0 0
0.878767 0 0
0.919188 1.5259e-05 0
0.953704 4.57771e-05 0
0.963775 3.0518e-05 0
0.973922 1.5259e-05 0
0.983993 0 0
0.99411 0 0
0.998749 0 0
1 0 0
1 0 0
0.00222782 0.17293 0.0419928
0.0101625 0.170779 0.0398108
0.0221103 0.167803 0.037171
0.0387732 0.164416 0.0343481
0.0594339 0.159762 0.0307469
0.0820478 0.154452 0.0268406
0.106737 0.148486 0.0226291
0.13666 0.140993 0.0175479
0.169833 0.132525 0.0124666
0.20618 0.123064 0.0074464
0.244999 0.112871 0.00323491
0.287068 0.101732 0.00120546
0.331884 0.0898299 0.000549325
0.379065 0.0775006 0.000198367
0.427512 0.0650187 4.57771e-05
0.477485 0.0524605 0
0.529335 0.0401923 0
0.58088 0.0286564 0
0.632853 0.017731 0
0.684916 0.00787366 0
0.735286 0.00395209 0
0.785382 0.00199893 0
0.834775 0.00154116 0
0.879896 0.00109865 0
0.918761 0.000732433 0
0.950286 0.00047303 0
0.961425 0.000244144 0
0.972641 9.15541e-05 0
0.983795 0 0
0.994995 0 0
0.999451 0 0
1 0 0
1 0 0
0.00187686 0.207263 0.047715
0.00822461 0.205341 0.0455787
0.0188602 0.202655 0.0431067
0.03505 0.199573 0.0406043
0.0560769 0.195056 0.037171
0.0792096 0.189853 0.0333867
0.104524 0.183948 0.029221
0.134417 0.17673 0.0241855
0.167941 0.168383 0.018677
0.204944 0.158984 0.0128176
0.244388 0.148867 0.00790417
0.286671 0.137896 0.00437934
0.331518 0.126177 0.00196841
0.379187 0.113588 0.000946059
0.42797 0.100847 0.000335698
0.478141 0.0878157 0
0.529931 0.0743877 0
0.581537 0.0619364 0
0.633555 0.0499123 0
0.685603 0.038468 0
0.735775 0.0313878 0
0.78555 0.0252384 0
0.834455 0.019501 0
0.879362 0.0138552 0
0.916991 0.00885023 0
0.946227 0.00463874 0
0.958694 0.00199893 0
0.971252 0.000503548 0
0.983658 0 0
0.995468 0 0
0.999847 0 0
1 0 0
1 0 0
0.00120546 0.245167 0.0544442
0.00619516 0.243229 0.05243
0.0155642 0.24062 0.0500954
0.0308537 0.237644 0.0476844
0.0522164 0.233097 0.0442817
0.0758831 0.227832 0.0404669
0.101839 0.221836 0.0362097
0.131731 0.214694 0.0312047
0.165606 0.206363 0.0254826
0.203296 0.196887 0.0191806
0.243412 0.186801 0.0134432
0.285924 0.176013 0.00830091
0.330831 0.164508 0.00399786
0.378973 0.151965 0.00225834
0.428031 0.139162 0.000976577
0.478325 0.126024 0.00015259
0.530053 0.112413 7.62951e-05
0.581827 0.0992905 3.0518e-05
0.633967 0.0863355 0
0.685954 0.0737316 0
0.735958 0.063447 0
0.785412 0.0535744 0
0.833829 0.0439155 0
0.87866 0.0346532 0
0.915175 0.0266728 0
0.942275 0.0202029 0
0.9561 0.0158999 0
0.970031 0.0133669 0
0.983703 0.0122988 0
0.995682 0.0116579 0
1 0.0111391 0
1 0.0107271 0
1 0.0104067 0
0.000442512 0.286336 0.0620127
0.0043183 0.284321 0.0601663
0.0123751 0.281697 0.0579232
0.0261997 0.278737 0.0554665
0.0478676 0.274083 0.0520027
0.0720684 0.268696 0.0480812
0.0986648 0.262562 0.0437018
0.12871 0.255436 0.0386816
0.162951 0.247044 0.0328832
0.201205 0.237491 0.0263981
0.242008 0.22739 0.0198672
0.284779 0.216709 0.0132296
0.329732 0.205386 0.00714122
0.378347 0.192996 0.0043946
0.42768 0.18027 0.00218204
0.478111 0.167208 0.000595102
0.529793 0.153903 0.000259403
0.58172 0.140352 9.15541e-05
0.633982 0.126726 0
0.685878 0.113344 0
0.735744 0.100343 0
0.784924 0.087602 0
0.832853 0.0753338 0
0.877668 0.063859 0
0.913207 0.054139 0
0.938354 0.0464179 0
0.953597 0.0406806 0
0.968978 0.0369268 0
0.983948 0.0347448 0
0.995758 0.0327001 0
1 0.0310826 0
1 0.0298161 0
1 0.0289464 0
0.000106813 0.331792 0.0706493
0.00344854 0.330007 0.0687724
0.0100099 0.327596 0.0665141
0.0208438 0.324849 0.0640574
0.04271 0.320211 0.060502
0.0674754 0.314916 0.0565194
0.0947585 0.308995 0.0521248
0.125505 0.301869 0.0470436
0.160037 0.293599 0.0412146
0.19826 0.28423 0.034699
0.239567 0.273991 0.0278782
0.282567 0.263127 0.0208133
0.327703 0.251621 0.013962
0.376699 0.239124 0.00906386
0.42649 0.226368 0.00511177
0.477287 0.21326 0.00207523
0.529046 0.199725 0.000747692
0.58085 0.186297 0.000213626
0.632944 0.172778 0
0.684718 0.159243 0
0.734539 0.146365 0
0.783551 0.13373 0
0.831159 0.121447 0
0.875914 0.109987 0
0.910689 0.0997024 0
0.934401 0.0907607 0
0.951247 0.0825208 0
0.9682 0.0756542 0
0.984497 0.0699931 0
0.995895 0.064744 0
1 0.0607156 0
1 0.0577096 0
1 0.0560006 0
0 0.378775 0.0794995
0.00254826 0.377111 0.0775921
0.00767529 0.374838 0.075288
0.0162661 0.372183 0.0727703
0.0377661 0.367849 0.0692607
0.0626688 0.362676 0.0652628
0.0905165 0.35668 0.0607767
0.12195 0.349523 0.0555886
0.156756 0.341344 0.0497444
0.19498 0.332174 0.0432288
0.236835 0.321904 0.0361486
0.280278 0.311101 0.0288701
0.325704 0.299687 0.0215457
0.374823 0.287266 0.0150149
0.424887 0.274479 0.00965896
0.475959 0.261372 0.0052491
0.527672 0.248035 0.00230411
0.579583 0.234653 0.00106813
0.631662 0.221225 0.000411994
0.683085 0.20798 4.57771e-05
0.732982 0.195163 0
0.781857 0.182666 0
0.828916 0.170733 0
0.873701 0.159365 0
0.907942 0.148943 0
0.93051 0.139605 0
0.948943 0.130907 0
0.967376 0.123308 0
0.984848 0.116732 0
0.995636 0.111025 0
0.99968 0.106508 0
0.999908 0.10309 0
0.999985 0.101305 0
0 0.427955 0.088716
0.00166323 0.426307 0.0867628
0.00550851 0.424079 0.0844129
0.0124666 0.421439 0.0818189
0.0329747 0.417395 0.0783551
0.0576181 0.412314 0.074342
0.0859693 0.406104 0.0697185
0.118059 0.398871 0.0644388
0.153155 0.390738 0.0585336
0.191409 0.381704 0.052018
0.233875 0.371405 0.04477
0.277821 0.360678 0.0373236
0.323629 0.349401 0.0296941
0.372717 0.337102 0.0219272
0.422995 0.324269 0.0153353
0.474296 0.311162 0.00949111
0.525963 0.298146 0.00457771
0.577981 0.284779 0.00238041
0.63006 0.271443 0.00111391
0.681178 0.25861 0.000167849
0.731121 0.245823 3.0518e-05
0.779858 0.233478 1.5259e-05
0.826368 0.221988 0
0.871061 0.210758 0
0.904875 0.200381 0
0.926726 0.191073 0
0.946777 0.182773 0
0.96669 0.175418 0
0.985306 0.169024 0
0.9953 0.163912 0
0.999298 0.159716 0
0.999832 0.156466 0
0.999969 0.15494 0
0 0.480751 0.0985733
0.000869764 0.478981 0.0965286
0.00387579 0.476631 0.0941024
0.0100862 0.473808 0.0914015
0.0285649 0.469718 0.0879225
0.0522164 0.46453 0.0838331
0.0809644 0.458137 0.079118
0.11371 0.450706 0.0737011
0.149126 0.442481 0.0677348
0.187457 0.433402 0.0612192
0.230549 0.422919 0.0538643
0.275044 0.412024 0.0462501
0.321279 0.400626 0.0383459
0.370352 0.388357 0.0300298
0.420813 0.375494 0.0222324
0.472328 0.362325 0.014725
0.52401 0.349325 0.00759899
0.575891 0.33608 0.00421149
0.627878 0.322866 0.00209049
0.679042 0.310109 0.000457771
0.728832 0.297475 0.000137331
0.77734 0.285298 6.10361e-05
0.823621 0.27396 0
0.867658 0.262852 0
0.901244 0.252659 0
0.923354 0.243565 0
0.944991 0.235615 0
0.966445 0.228473 0
0.986282 0.222232 0
0.9953 0.217487 0
0.99913 0.213489 0
0.999863 0.210376 0
0.999969 0.209232 0
0 0.53463 0.108583
0.000320439 0.532906 0.106508
0.00274662 0.530541 0.104036
0.00848402 0.527626 0.101259
0.0238804 0.523644 0.0977951
0.0461433 0.518456 0.0936599
0.075639 0.511955 0.0888075
0.109056 0.504417 0.0832837
0.144717 0.496223 0.0773022
0.183017 0.487251 0.0708019
0.226825 0.476631 0.0632944
0.271885 0.465644 0.0555581
0.318502 0.454185 0.0475471
0.367605 0.441825 0.0390784
0.418158 0.429084 0.030808
0.469749 0.416052 0.0226291
0.521508 0.402914 0.0147097
0.57351 0.389761 0.00952163
0.625544 0.376623 0.00552377
0.676616 0.363745 0.00250248
0.726299 0.351293 0.00103761
0.774624 0.339239 0.000228885
0.8206 0.327871 1.5259e-05
0.863157 0.317128 0
0.896681 0.307149 0
0.920348 0.298085 0
0.943603 0.290211 0
0.96669 0.283116 0
0.987869 0.276905 0
0.995636 0.272618 0
0.9991 0.268803 0
0.999939 0.265782 0
0.999985 0.264912 0
0 0.589548 0.118791
0 0.587823 0.116655
0.0019379 0.585428 0.114153
0.00703441 0.582452 0.111284
0.0191806 0.578515 0.107805
0.0399176 0.573343 0.103639
0.0701305 0.566766 0.0986801
0.104219 0.559106 0.0930495
0.140215 0.550912 0.0870222
0.178607 0.542016 0.0805219
0.22295 0.531319 0.0728923
0.268498 0.520272 0.0650797
0.315511 0.508736 0.0570077
0.36463 0.496391 0.0485237
0.415335 0.483696 0.0399634
0.467109 0.47071 0.0313878
0.518929 0.457542 0.0230716
0.571069 0.444434 0.0160983
0.623133 0.431327 0.0101625
0.673976 0.418433 0.00569161
0.723644 0.406043 0.00270085
0.771817 0.39408 0.000854505
0.817365 0.382803 0.000335698
0.858442 0.372335 0.000106813
0.892088 0.362509 0
0.917647 0.353429 0
0.94255 0.345663 0
0.967391 0.338643 0
0.990051 0.332525 0
0.996277 0.328573 0
0.999176 0.324956 0
1 0.322057 0
1 0.32134 0
0 0.644999 0.129122
0 0.643122 0.126879
0.00154116 0.640635 0.124269
0.00556954 0.637522 0.121309
0.0146639 0.633509 0.117784
0.033875 0.62826 0.113573
0.0645457 0.621622 0.108598
0.0992752 0.613809 0.1028
0.135836 0.605463 0.0966659
0.174685 0.596475 0.0900893
0.219074 0.585794 0.0824598
0.264927 0.574685 0.0746014
0.312322 0.563104 0.0664836
0.36141 0.550973 0.0580453
0.412497 0.538094 0.0492256
0.464698 0.524895 0.0402686
0.516564 0.511986 0.0315862
0.568734 0.498772 0.0232547
0.620691 0.485649 0.0158083
0.671092 0.473152 0.010193
0.720913 0.460563 0.00550851
0.768978 0.4486 0.00234989
0.813916 0.437766 0.00128176
0.854032 0.427268 0.000442512
0.88806 0.417411 0
0.915434 0.408347 0
0.941955 0.400885 0
0.968704 0.394141 0
0.993042 0.388266 0
0.99733 0.384375 0
0.999374 0.380957 0
1 0.378256 0
1 0.377554 0
0 0.700877 0.139467
0 0.699107 0.137209
0.00103761 0.696666 0.134569
0.00378424 0.693401 0.131518
0.0116274 0.689036 0.127855
0.0297246 0.683589 0.123568
0.0594492 0.676966 0.118563
0.0945296 0.669139 0.112688
0.131563 0.660685 0.106447
0.170962 0.651484 0.0998093
0.215396 0.640604 0.0921492
0.26157 0.629343 0.0842145
0.309361 0.61767 0.0760357
0.358511 0.605585 0.0676127
0.409644 0.592691 0.0587625
0.461921 0.579461 0.0497139
0.513863 0.566583 0.0408331
0.566049 0.553491 0.0320592
0.618006 0.540429 0.0238193
0.668452 0.527764 0.0168002
0.717906 0.515236 0.0104372
0.765743 0.503349 0.00555428
0.810727 0.492515 0.0027924
0.850004 0.482155 0.0009308
0.884459 0.472374 0
0.913725 0.463325 0
0.942245 0.456275 0
0.970703 0.449683 0
0.996155 0.443748 0
0.998276 0.439994 0
0.999451 0.436744 0
1 0.434211 0
1 0.433448 0
0 0.756939 0.149844
0 0.755199 0.147555
0.000534066 0.752712 0.144854
0.00195315 0.749279 0.141726
0.00915541 0.744549 0.137926
0.0261997 0.738949 0.133562
0.0543221 0.732418 0.128573
0.0897536 0.724392 0.122576
0.127291 0.715724 0.116243
0.167239 0.70631 0.109514
0.211688 0.695354 0.101839
0.258167 0.683909 0.0938582
0.306416 0.672038 0.0855879
0.355703 0.659907 0.0771191
0.406943 0.647028 0.0682536
0.459297 0.633799 0.0591745
0.511345 0.620783 0.0501564
0.563546 0.607752 0.0411688
0.615488 0.59472 0.0324407
0.665858 0.581933 0.0243687
0.714946 0.569558 0.016846
0.762539 0.557733 0.0105592
0.807553 0.546761 0.00605783
0.846204 0.536538 0.00308232
0.881071 0.526864 0.0011902
0.91191 0.517922 0.000396735
0.942123 0.511116 0.000259403
0.971511 0.504616 0.000198367
0.997147 0.498665 0.00015259
0.998337 0.495003 0.000122072
0.999298 0.491936 7.62951e-05
0.999969 0.489586 3.0518e-05
0.999985 0.488884 1.5259e-05
0 0.812375 0.160113
0 0.810498 0.157733
3.0518e-05 0.807828 0.15494
0.000106813 0.804166 0.15172
0.00723278 0.79913 0.147829
0.0232395 0.793454 0.14342
0.0491035 0.787137 0.138445
0.0849775 0.778607 0.132311
0.123033 0.769589 0.125872
0.163561 0.75996 0.119036
0.207965 0.749187 0.111421
0.254734 0.737545 0.10338
0.303441 0.725307 0.0949874
0.353033 0.713039 0.0864424
0.404486 0.700191 0.0775311
0.457023 0.686961 0.0684215
0.509209 0.67364 0.0592966
0.561456 0.660502 0.0502174
0.61326 0.647456 0.0412757
0.663294 0.634714 0.0327764
0.712139 0.622522 0.0248569
0.759548 0.610742 0.017731
0.804425 0.599542 0.0117342
0.84271 0.58938 0.00758373
0.877913 0.579889 0.00411994
0.90985 0.571176 0.00135805
0.941238 0.56434 0.0009308
0.970382 0.557885 0.000656138
0.994949 0.552056 0.000534066
0.997162 0.548379 0.000396735
0.998825 0.54548 0.000259403
0.999924 0.54342 0.000137331
0.999969 0.542947 6.10361e-05
0 0.866194 0.170123
0 0.864088 0.167651
0 0.861173 0.164767
0 0.857328 0.161456
0.00737011 0.852125 0.157458
0.0216831 0.846372 0.153002
0.0435645 0.84007 0.148028
0.0802167 0.831342 0.141787
0.118975 0.822126 0.135225
0.160052 0.812329 0.128283
0.204456 0.801541 0.120699
0.25153 0.789807 0.112627
0.300679 0.777417 0.104158
0.350545 0.765057 0.0955673
0.402106 0.752209 0.0866407
0.454673 0.738979 0.0775158
0.50695 0.725597 0.0683909
0.559213 0.712337 0.0592966
0.610986 0.699123 0.0503395
0.660853 0.686183 0.0418097
0.709422 0.673869 0.0336767
0.756634 0.661921 0.0259861
0.801495 0.650477 0.0189364
0.839414 0.640284 0.013489
0.874876 0.630671 0.00851453
0.907683 0.621775 0.00408942
0.93991 0.614878 0.00335698
0.968566 0.608392 0.00265507
0.991943 0.602533 0.00199893
0.995712 0.598657 0.00151064
0.998291 0.595834 0.00112917
0.999863 0.593866 0.000869764
0.999954 0.593042 0.00077821
0 0.910979 0.17995
0 0.908186 0.177417
0 0.904646 0.174441
0 0.900328 0.171023
0.00729381 0.894911 0.166903
0.019913 0.889006 0.162371
0.0382086 0.882612 0.157351
0.0757305 0.874037 0.150988
0.115206 0.865064 0.14432
0.156863 0.855619 0.13727
0.201282 0.845502 0.129702
0.248646 0.834562 0.121569
0.298253 0.823026 0.113024
0.348531 0.811399 0.104326
0.400153 0.799405 0.0953994
0.452674 0.786938 0.086305
0.505028 0.773724 0.0772412
0.557244 0.760357 0.0681621
0.608957 0.747005 0.0592203
0.658763 0.734051 0.0507057
0.707027 0.721645 0.0424659
0.754025 0.709575 0.0344549
0.798871 0.698009 0.0268711
0.836179 0.687968 0.020676
0.871534 0.67837 0.0148013
0.904891 0.669337 0.0093843
0.93753 0.66244 0.00762951
0.965606 0.656062 0.00596628
0.987961 0.65037 0.00445563
0.993988 0.646403 0.00347906
0.997757 0.643626 0.00282292
0.999817 0.641733 0.00242618
0.999939 0.640696 0.00231937
0 0.945205 0.189487
0 0.941268 0.186908
0 0.936782 0.183841
0 0.931716 0.180285
0.0068513 0.926024 0.176059
0.0178225 0.919936 0.171405
0.0331731 0.91342 0.166278
0.0715801 0.905409 0.159823
0.111818 0.897169 0.153033
0.15404 0.88864 0.145876
0.198489 0.879927 0.138293
0.246143 0.870756 0.130114
0.296223 0.861158 0.121462
0.347036 0.851164 0.112627
0.398703 0.840986 0.103685
0.451118 0.830045 0.0946517
0.503502 0.817243 0.0856794
0.555627 0.803784 0.0766766
0.607233 0.790341 0.0677958
0.657038 0.777569 0.059266
0.705013 0.765148 0.0510262
0.751812 0.753033 0.0430152
0.796613 0.741466 0.0353857
0.833005 0.731762 0.0290379
0.867948 0.722332 0.0229648
0.901457 0.713252 0.0172427
0.934081 0.706416 0.0137331
0.961486 0.700313 0.0106203
0.983093 0.694987 0.00798047
0.99205 0.691051 0.00634775
0.997238 0.688334 0.00538643
0.999756 0.686503 0.00485237
0.999939 0.685435 0.00471504
0 0.957626 0.198459
0 0.954849 0.195941
0 0.951614 0.192905
0 0.94786 0.189242
0.00575265 0.943603 0.184863
0.0155489 0.939101 0.180072
0.0297246 0.93434 0.174823
0.0681163 0.928725 0.168399
0.108659 0.922881 0.161547
0.151507 0.916793 0.154253
0.196399 0.910552 0.146593
0.244297 0.904097 0.138354
0.294484 0.897383 0.129702
0.345403 0.890089 0.120867
0.397269 0.882185 0.111879
0.449912 0.872816 0.102785
0.502403 0.859983 0.0937972
0.554421 0.846693 0.0847944
0.605951 0.833387 0.0758831
0.655833 0.820493 0.0672923
0.703532 0.808133 0.0590677
0.750118 0.79617 0.0510567
0.794903 0.784817 0.0433967
0.830472 0.775082 0.0369421
0.864958 0.765743 0.0307469
0.898466 0.756878 0.0249027
0.931212 0.75024 0.0206607
0.958373 0.744259 0.0170291
0.979782 0.738994 0.014023
0.99144 0.735027 0.0119631
0.997436 0.732464 0.0107271
0.999756 0.730846 0.0100404
0.999939 0.729885 0.00962844
0 0.97023 0.206989
0 0.968536 0.20441
0 0.966537 0.201312
0 0.964172 0.197574
0.00442512 0.961517 0.193072
0.0132143 0.958724 0.188144
0.0268711 0.955764 0.182773
0.0652628 0.952422 0.176379
0.106157 0.948913 0.169482
