luts/varicam_official/Rose_2.cube
TITLE "Generated by Resolve"
LUT_3D_SIZE 9
0.0156252 0.0156252 0.0156252
0.0783246 0.00141909 0.00468452
0.208225 0 0
0.414115 0 0
0.66482 0 0
0.910185 0 0
0.992782 0 0
1 0 0
1 0 0
0.00988785 0.0507057 0.0215305
0.0683452 0.0327459 0.010544
0.19501 0.007187 0.000213626
0.396963 0 0
0.646677 0 0
0.892989 0 0
0.989792 0 0
1 0 0
1 0 0
0.000183108 0.147494 0.0381628
0.0487221 0.129381 0.0276951
0.172686 0.090959 0.00662242
0.370596 0.0346532 0
0.61944 0.00459297 0
0.866972 0 0
0.982666 0 0
1 0 0
1 0 0
0 0.313375 0.0666972
0.0205234 0.294865 0.0567025
0.139574 0.255589 0.0335393
0.334325 0.195285 0.00173953
0.581918 0.119661 0
0.830625 0.0472877 0
0.969451 0.00712596 0
1 0.00376898 0
1 0.00311284 0
0 0.540154 0.105501
0.000595102 0.521981 0.0960861
0.0967422 0.482887 0.0734264
0.288975 0.422309 0.0370031
0.534752 0.34609 0.00144961
0.784329 0.268772 0
0.948043 0.204807 0
0.999817 0.165072 0
1 0.15317 0
0 0.792523 0.148943
0 0.775174 0.140002
0.0516823 0.737087 0.117937
0.238987 0.677348 0.0820783
0.48275 0.601648 0.0360266
0.733577 0.523781 0.00248722
0.919463 0.458976 0
0.997116 0.417762 0
1 0.404318 0
0 0.963394 0.189456
0 0.954391 0.181094
0.0208133 0.931197 0.159899
0.191684 0.891356 0.124559
0.433661 0.836194 0.0788586
0.684825 0.760769 0.0317845
0.884077 0.696101 0.00231937
0.985046 0.654521 0
1 0.640436 0
0 1 0.220554
0 1 0.212894
0.00283818 0.999908 0.192569
0.152895 0.990753 0.1579
0.393042 0.967636 0.11281
0.644739 0.929519 0.0654765
0.8486 0.877913 0.0256809
0.966949 0.8374 0.0037232
0.999741 0.823041 0.000640879
0 1 0.237675
0 1 0.230838
6.10361e-05 1 0.211383
0.127245 1 0.177478
0.365377 0.999802 0.132982
0.617563 0.996933 0.0857557
0.824414 0.974624 0.0457008
0.952667 0.947478 0.0201114
0.997299 0.933333 0.0115969
0.0152438 0.0162966 0.0511025
0.077348 0.00158694 0.0386206
0.206714 0 0.015259
0.41207 0 0
0.662837 0 0
0.90811 0 0
0.992538 0 0
1 0 0
1 0 0
0.00959792 0.0510109 0.0543679
0.0674449 0.0330968 0.0425727
0.193729 0.00732433 0.0194858
0.39498 0 0.000488289
0.644587 0 0
0.891127 0 0
0.989563 0 0
1 0 0
1 0 0
0.000213626 0.14725 0.068574
0.0480507 0.129335 0.057435
0.171405 0.0910658 0.0335851
0.368765 0.0349889 0.00563058
0.617487 0.00463874 3.0518e-05
0.865156 0 0
0.982345 0 0
1 0 0
1 0 0
0 0.312261 0.0946059
0.0198978 0.29395 0.0839246
0.138582 0.255085 0.0601663
0.332769 0.19498 0.0236973
0.580163 0.119387 0.000869764
0.828962 0.0474708 0
0.968978 0.00717174 0
1 0.0037232 0
1 0.00306706 0
0 0.538674 0.131304
0.000579843 0.520668 0.121141
0.0957198 0.481773 0.0977951
0.287541 0.421393 0.0608072
0.532967 0.345266 0.0166323
0.782742 0.267918 0.000534066
0.948135 0.203906 0
0.999954 0.163958 0
1 0.151797 0
0 0.790982 0.172396
0 0.773877 0.162844
0.050782 0.735988 0.1402
0.237583 0.676341 0.103639
0.481086 0.600671 0.0569924
0.732036 0.522759 0.0141909
0.92137 0.45774 0.000549325
0.999283 0.416373 0
1 0.402609 0
0 0.963317 0.210956
0 0.954314 0.201877
0.0201419 0.930968 0.180056
0.190265 0.890959 0.144106
0.431891 0.835828 0.0978103
0.683207 0.760159 0.0497749
0.885527 0.695186 0.0129854
0.993484 0.653468 0.00135805
1 0.639231 0.000411994
0 1 0.239994
0 1 0.231678
0.00233463 0.999985 0.210758
0.151476 0.997681 0.175433
0.391287 0.988602 0.129656
0.643153 0.945861 0.0816205
0.84828 0.886961 0.0411231
0.979706 0.845304 0.0160525
0.999924 0.830564 0.00877394
0 1 0.255222
0 1 0.247623
0 1 0.227527
0.125704 1 0.193042
0.363485 0.999939 0.147784
0.615702 0.999008 0.100008
0.823667 0.985504 0.0592508
0.9617 0.955703 0.0329595
0.998932 0.941054 0.0238193
0.0142977 0.0183719 0.141329
0.0759442 0.00282292 0.127871
0.204944 0 0.102022
0.41004 0 0.0619669
0.660426 0 0.0218509
0.905715 0 0.0009308
0.99205 0 6.10361e-05
1 0 0
1 0 0
0.0087892 0.0524758 0.140963
0.0662547 0.0347295 0.128176
0.192142 0.0078584 0.102663
0.392813 0 0.0634775
0.642359 0 0.0214694
0.888991 0 0.00155642
0.989181 0 0
1 0 0
1 0 0
0.000213626 0.148394 0.151705
0.046891 0.130587 0.139727
0.16997 0.0924392 0.114916
0.366735 0.0361334 0.0762646
0.615564 0.00485237 0.0299687
0.863127 0 0.00573739
0.981704 0 3.0518e-05
1 0 0
1 0 0
0 0.312642 0.17496
0.0190127 0.294392 0.163424
0.137148 0.255985 0.138827
0.331151 0.195727 0.100725
0.57818 0.120226 0.0527047
0.826932 0.0487831 0.0138705
0.968154 0.00740063 0.00213626
1 0.00373846 6.10361e-05
1 0.00306706 0
0 0.538979 0.209094
0.000534066 0.520668 0.19794
0.0944839 0.482277 0.173953
0.285725 0.421836 0.1364
0.531044 0.345846 0.0887465
0.780896 0.268437 0.0412451
0.947509 0.20441 0.0114748
1 0.164355 0.00469978
1 0.151675 0.00325017
0 0.791272 0.247852
0 0.773693 0.237522
0.0495766 0.7364 0.214389
0.236011 0.676799 0.177401
0.479301 0.601144 0.130236
0.730068 0.523156 0.08159
0.920882 0.45803 0.0419471
1 0.416648 0.0207523
1 0.402411 0.0155795
0 0.964065 0.284581
0 0.955093 0.274998
0.0193484 0.93167 0.252598
0.188281 0.891737 0.216175
0.429679 0.836606 0.169375
0.681514 0.760784 0.120638
0.884855 0.695735 0.0797284
0.996277 0.653803 0.0534829
1 0.639292 0.0448768
0 1 0.312078
0 1 0.303044
0.00167849 1 0.281605
0.149538 1 0.245777
0.388968 0.996689 0.199527
0.641199 0.952682 0.150851
0.847318 0.891386 0.109697
0.984527 0.849515 0.0830854
1 0.834775 0.0735637
0 1 0.325658
0 1 0.317327
0 1 0.29688
0.123598 1 0.261784
0.361212 1 0.216007
0.613489 0.999969 0.167498
0.822446 0.991608 0.126055
0.965957 0.961563 0.0990158
1 0.947066 0.0890516
0.0128939 0.0216831 0.286595
0.0741588 0.00544747 0.272221
0.202777 0 0.245823
0.40734 0 0.205188
0.657679 0 0.156069
0.903136 0 0.107774
0.991531 0 0.0695659
1 0 0.0479286
1 0 0.0417945
0.00764477 0.0553445 0.283482
0.0644541 0.0376287 0.269856
0.18996 0.00880446 0.243778
0.390143 0 0.203708
0.639628 0 0.154635
0.886427 0 0.106111
0.98851 0 0.0669566
1 0 0.0440986
1 0 0.0373999
0.000183108 0.150759 0.291722
0.0451057 0.133211 0.278767
0.167895 0.0950484 0.25301
0.364187 0.0386206 0.213779
0.612726 0.0052491 0.164706
0.860731 0 0.115801
0.981003 0 0.0758831
1 0 0.0520943
1 0 0.0447547
0 0.314412 0.312047
0.0178836 0.296437 0.299535
0.13521 0.258106 0.274296
0.328603 0.19823 0.235233
0.57528 0.122621 0.186358
0.824598 0.051133 0.137224
0.967361 0.00776684 0.0966354
1 0.00384527 0.0715496
1 0.00317388 0.0637827
0 0.540139 0.343267
0.000457771 0.522286 0.331228
0.0924849 0.483833 0.306401
0.283543 0.423529 0.26772
0.52845 0.347555 0.21915
0.778592 0.27013 0.169543
0.946395 0.206073 0.128527
1 0.165957 0.102342
1 0.153063 0.0936751
0 0.792325 0.379339
0 0.775265 0.367666
0.0481117 0.737957 0.343557
0.233753 0.678294 0.305379
0.476738 0.602625 0.256977
0.727901 0.524559 0.207416
0.91957 0.459525 0.165789
1 0.417914 0.139269
1 0.403616 0.130159
0 0.965576 0.412589
0 0.956619 0.40174
0.0181277 0.933257 0.378286
0.186282 0.892851 0.340825
0.427436 0.838209 0.293355
0.679103 0.762768 0.2439
0.882994 0.697292 0.202152
0.99588 0.655558 0.175097
1 0.640803 0.165454
0 1 0.436774
0 1 0.4271
0.00105287 1 0.404807
0.147311 1 0.368368
0.386557 0.997894 0.321309
0.638697 0.954238 0.272053
0.845106 0.893507 0.229999
0.983459 0.851331 0.202487
1 0.836637 0.192142
0 1 0.448173
0 1 0.439231
0 1 0.417868
0.121386 1 0.382147
0.358816 1 0.335729
0.611017 1 0.286503
0.820127 0.993072 0.244282
0.964187 0.963973 0.216373
1 0.94931 0.205478
0.0113069 0.0258183 0.471168
0.07187 0.00891127 0.456611
0.200244 0 0.429374
0.404028 0 0.388571
0.654337 0 0.338918
0.90016 0 0.290394
0.990921 0 0.251484
1 0 0.229175
1 0 0.222644
0.00593576 0.0591592 0.466438
0.0622568 0.0413977 0.452247
0.187457 0.0105745 0.425834
0.387213 0 0.385382
0.636469 0 0.335851
0.883375 0 0.2869
0.987778 0 0.247135
1 0 0.223865
1 0 0.216678
7.62951e-05 0.154238 0.47306
0.0429847 0.136721 0.459586
0.165393 0.0987259 0.433539
0.361288 0.0417945 0.393942
0.609537 0.00585946 0.344518
0.857755 0 0.295064
0.980041 0 0.254749
1 0 0.230167
1 0 0.222248
0 0.317327 0.491905
0.0163424 0.299702 0.479011
0.132799 0.261341 0.453162
0.325917 0.201511 0.413931
0.572549 0.126024 0.36463
0.821668 0.0544594 0.314885
0.966308 0.00834669 0.273838
1 0.00396735 0.248005
1 0.00331121 0.239643
0 0.542657 0.521782
0.000366217 0.525032 0.509071
0.0902571 0.486503 0.483864
0.280919 0.426459 0.444633
0.525582 0.350668 0.395605
0.775708 0.273182 0.345724
0.945144 0.208759 0.303899
1 0.168353 0.277424
1 0.155688 0.268254
0 0.794888 0.556054
0 0.777981 0.544137
0.0462043 0.74052 0.519341
0.231067 0.681117 0.480949
0.473793 0.605585 0.432273
0.725139 0.527459 0.381949
0.918059 0.462211 0.339727
1 0.420249 0.312413
1 0.406088 0.302373
0 0.967987 0.587793
0 0.959106 0.576593
0.0168002 0.935699 0.55288
0.183719 0.895155 0.514717
0.424674 0.840787 0.466392
0.67631 0.76553 0.416312
0.880491 0.700298 0.373678
0.995331 0.658366 0.345968
1 0.643336 0.335225
0 1 0.610742
0 1 0.600137
0.000656138 1 0.577142
0.144686 1 0.539818
0.383948 0.99968 0.492088
0.635981 0.956436 0.441962
0.842725 0.896773 0.399252
0.982315 0.85449 0.371038
1 0.839368 0.360143
0 1 0.619684
0 1 0.609918
0 1 0.587839
0.118715 1 0.551446
0.355978 1 0.504448
0.608164 1 0.454566
0.817685 0.99501 0.411597
0.962264 0.967346 0.382971
1 0.952773 0.371618
0.00946059 0.0301976 0.663798
0.0695811 0.0125429 0.649409
0.197467 0 0.622538
0.401007 0 0.581537
0.651118 0 0.532082
0.896956 0 0.48333
0.990188 0 0.444663
1 0 0.422278
1 0 0.415656
0.0043183 0.0631266 0.659083
0.0600137 0.0454414 0.645304
0.184848 0.013611 0.618784
0.384176 0 0.578561
0.633341 0 0.529061
0.880293 0 0.479942
0.986908 0 0.440223
1 0 0.416693
1 0 0.40943
0 0.158007 0.665843
0.0408637 0.140597 0.652613
0.162814 0.102693 0.626429
0.358389 0.045304 0.586831
0.60647 0.00671397 0.537331
0.854597 6.10361e-05 0.48806
0.979187 0 0.447425
1 0 0.422751
1 0 0.415
0 0.320394 0.684535
0.0148013 0.30309 0.671717
0.130327 0.264897 0.64596
0.323186 0.205158 0.606653
0.569543 0.129732 0.557427
0.818784 0.0579385 0.507637
0.965164 0.00914015 0.466529
1 0.0041352 0.440574
1 0.0034638 0.432258
0 0.545617 0.714076
0.000244144 0.528008 0.701823
0.0878462 0.48957 0.676402
0.278218 0.429786 0.637461
0.522606 0.354101 0.588525
0.772824 0.276585 0.538445
0.943557 0.212116 0.496727
1 0.171542 0.469917
1 0.158709 0.460578
0 0.797711 0.74847
0 0.781018 0.736675
0.0443122 0.743587 0.711986
0.228336 0.684352 0.673442
0.470909 0.608865 0.624765
0.722316 0.530724 0.574487
0.916381 0.465202 0.532204
1 0.423285 0.504692
1 0.408804 0.494804
0 0.970642 0.780468
0 0.961837 0.76907
0.0153811 0.938369 0.745373
0.180972 0.897642 0.707515
0.421714 0.84332 0.659175
0.673472 0.76907 0.608865
0.877943 0.703746 0.566262
0.994751 0.661326 0.538125
1 0.64654 0.527276
0 1 0.803235
0 1 0.792477
0.000350958 1 0.769802
0.141985 1 0.732448
0.380865 1 0.684672
0.633204 0.95903 0.634485
0.840101 0.900557 0.591562
0.981033 0.858106 0.56318
1 0.842817 0.551781
0 1 0.812222
0 1 0.802274
0 1 0.780423
0.115724 1 0.743923
0.352758 1 0.696666
0.605112 1 0.646616
0.815106 0.995987 0.603296
0.960113 0.97116 0.574502
0.999969 0.956725 0.562539
0.00773632 0.0339513 0.830976
0.0676127 0.0162203 0.817304
0.194995 0.000213626 0.791211
0.398123 0 0.750973
0.648096 0 0.702098
0.894148 0 0.654185
0.989471 0 0.615763
1 0 0.593988
1 0 0.587884
0.00325017 0.0665599 0.828519
0.0580453 0.0490883 0.815473
0.182513 0.0163882 0.789761
0.381292 0 0.750195
0.630488 0 0.701274
0.87747 0 0.652598
0.986084 0 0.613153
1 0 0.58996
1 0 0.583154
0 0.161135 0.837232
0.0388647 0.143938 0.824689
0.160525 0.106157 0.799084
0.35581 0.0484627 0.759915
0.603677 0.00749218 0.710994
0.851865 0.00015259 0.662043
0.978164 0 0.621927
1 0 0.597513
1 0 0.590005
0 0.323278 0.857328
0.013611 0.305928 0.845167
0.127993 0.268009 0.819883
0.320623 0.208469 0.781125
0.566613 0.132967 0.73228
0.816037 0.0609903 0.682994
0.964034 0.0112764 0.642176
1 0.00427253 0.616648
1 0.00360113 0.608499
0 0.548165 0.888273
0.00015259 0.530617 0.876402
0.0856641 0.492409 0.851621
0.275654 0.432776 0.813107
0.519844 0.357046 0.76463
0.770184 0.279545 0.714946
0.942199 0.215091 0.673564
1 0.174304 0.647105
1 0.161028 0.638163
0 0.800305 0.922667
0 0.78352 0.912169
0.0425116 0.746349 0.888472
0.225834 0.687221 0.850477
0.468162 0.611734 0.802197
0.719524 0.533639 0.752438
0.914748 0.468086 0.710353
1 0.42594 0.683406
1 0.411399 0.673579
0 0.973114 0.952132
0 0.964431 0.942733
0.0140993 0.940902 0.921538
0.178393 0.900099 0.885649
0.418982 0.845487 0.837919
0.670771 0.77232 0.788052
0.875563 0.706752 0.745708
0.994141 0.664317 0.717968
1 0.649409 0.707607
0 1 0.961044
0 1 0.954345
6.10361e-05 1 0.937011
0.138933 1 0.906676
0.377447 1 0.863294
0.630335 0.961547 0.813718
0.83769 0.903975 0.771389
0.979644 0.861463 0.743404
1 0.846128 0.732494
0 1 0.953735
0 1 0.948257
0 1 0.934188
0.112779 1 0.909621
0.349432 1 0.873625
0.602197 1 0.824781
0.812558 0.996429 0.782132
0.957916 0.974853 0.753491
0.999863 0.960494 0.742153
0.00677501 0.0365911 0.945388
0.0659648 0.019028 0.932921
0.193194 0.000457771 0.908034
0.395819 0 0.868971
0.645624 0 0.821256
0.891752 0 0.774075
0.988846 0 0.736782
1 0 0.715923
1 0 0.710704
0.00238041 0.0688182 0.946563
0.0565499 0.0515297 0.934859
0.180591 0.0182498 0.91043
0.379004 0 0.871962
0.62797 0 0.824033
0.875166 0 0.776272
0.985519 0 0.73756
1 0 0.714992
1 0 0.708797
0 0.163241 0.958877
0.0374151 0.146227 0.947524
0.158679 0.108598 0.922911
0.353491 0.05066 0.884688
0.601282 0.00802625 0.836561
0.84947 0.000213626 0.788342
0.977401 0 0.748852
1 0 0.725261
1 0 0.718334
0 0.325124 0.980606
0.0126345 0.307774 0.969909
0.126238 0.270085 0.946273
0.318517 0.210559 0.908293
0.564248 0.135271 0.860273
0.813565 0.0631876 0.81178
0.963058 0.0133059 0.771649
1 0.00433356 0.746822
1 0.00366217 0.739422
0 0.54963 0.994461
6.10361e-05 0.532219 0.991196
0.0838941 0.494179 0.978531
0.273487 0.434607 0.942641
0.517525 0.35906 0.895094
0.76788 0.281529 0.846128
0.941115 0.216983 0.805539
1 0.176089 0.779721
1 0.162737 0.771298
0 0.801785 0.999329
0 0.785153 0.998688
0.0410773 0.748089 0.993179
0.223743 0.689113 0.977646
0.465843 0.613642 0.934997
0.71722 0.535531 0.886168
0.913298 0.469902 0.844785
1 0.427695 0.818326
1 0.413046 0.809247
0 0.974899 1
0 0.966308 1
0.0130617 0.942779 0.999924
0.176211 0.901778 0.993011
0.416541 0.846922 0.969909
0.668482 0.774517 0.924041
0.873579 0.708919 0.88249
0.993637 0.666362 0.855406
1 0.651316 0.845808
0 1 1
0 1 0.999954
0 1 0.998566
0.13669 1 0.99559
0.374945 1 0.980041
0.627848 0.963439 0.948211
0.83566 0.906386 0.909163
0.978058 0.863966 0.882063
1 0.848447 0.871977
0 1 1
0 1 0.999985
0 1 0.999725
0.110399 1 0.999023
0.346883 1 0.992782
0.599603 1 0.965011
0.810346 0.99678 0.926558
0.956085 0.9776 0.898634
0.999756 0.963409 0.887678
0.00636301 0.0376135 0.993957
0.0650645 0.0202487 0.982773
0.191928 0.000610361 0.958846
0.394003 0 0.920974
0.643854 0 0.874098
0.890074 0 0.828061
0.988525 0 0.791455
1 0 0.771344
1 0 0.766888
0.00209049 0.0697032 0.997208
0.0555581 0.0525521 0.988128
0.179416 0.0191043 0.964721
0.377356 0 0.927352
0.626169 0 0.880385
0.873457 0 0.833509
0.985031 0 0.795773
1 0 0.774151
1 0 0.768994
0 0.163729 0.999359
0.0365606 0.147051 0.997482
0.157427 0.109483 0.980117
0.352026 0.0514534 0.943282
0.599405 0.00822461 0.896315
0.847822 0.000244144 0.849165
0.976898 0 0.810742
1 0 0.787869
1 0 0.782086
0 0.325292 1
0.0122072 0.308171 0.999969
0.125048 0.270741 0.99678
0.316884 0.211322 0.970291
0.562493 0.136156 0.923537
0.811856 0.0640574 0.876081
0.962463 0.0142214 0.836957
1 0.00433356 0.812955
1 0.00364691 0.8065
0 0.549477 1
3.0518e-05 0.532341 1
0.0826886 0.49453 0.999969
0.272007 0.435111 0.996704
0.515724 0.359594 0.961685
0.766232 0.282124 0.913817
0.940215 0.217411 0.874083
1 0.176532 0.84921
1 0.162966 0.841703
0 0.801801 1
0 0.785351 1
0.0400702 0.748455 1
0.222156 0.689464 0.999985
0.464027 0.614206 0.9953
0.71548 0.536095 0.956756
0.912306 0.470329 0.91635
1 0.428031 0.890822
1 0.413199 0.882536
0 0.97586 1
0 0.967239 1
0.0122683 0.94374 1
0.17464 0.902495 1
0.41471 0.847379 0.999832
0.666728 0.775341 0.991058
0.872221 0.709728 0.957137
0.993271 0.667033 0.930938
1 0.651896 0.922042
0 1 1
0 1 1
0 1 1
0.134981 1 1
0.37319 1 0.999878
0.625956 0.964446 0.998199
0.834134 0.907591 0.983566
0.976913 0.865049 0.960647
1 0.849424 0.951476
0 1 1
0 1 1
0 1 1
0.108598 1 1
0.344869 1 0.999969
0.597589 1 0.999542
0.808713 0.996963 0.995544
0.954955 0.979095 0.979599
0.99968 0.964996 0.970153
