luts/varicam_official/Rose_2.cube
TITLE "Generated by Resolve"
LUT_3D_SIZE 5
0.0156252 0.0156252 0.0156252
0.208225 0 0
0.66482 0 0
0.992782 0 0
1 0 0
0.000183108 0.147494 0.0381628
0.172686 0.090959 0.00662242
0.61944 0.00459297 0
0.982666 0 0
1 0 0
0 0.540154 0.105501
0.0967422 0.482887 0.0734264
0.534752 0.34609 0.00144961
0.948043 0.204807 0
1 0.15317 0
0 0.963394 0.189456
0.0208133 0.931197 0.159899
0.433661 0.836194 0.0788586
0.884077 0.696101 0.00231937
1 0.640436 0
0 1 0.237675
6.10361e-05 1 0.211383
0.365377 0.999802 0.132982
0.824414 0.974624 0.0457008
0.997299 0.933333 0.0115969
0.0142977 0.0183719 0.141329
0.204944 0 0.102022
0.660426 0 0.0218509
0.99205 0 6.10361e-05
1 0 0
0.000213626 0.148394 0.151705
0.16997 0.0924392 0.114916
0.615564 0.00485237 0.0299687
0.981704 0 3.0518e-05
1 0 0
0 0.538979 0.209094
0.0944839 0.482277 0.173953
0.531044 0.345846 0.0887465
0.947509 0.20441 0.0114748
1 0.151675 0.00325017
0 0.964065 0.284581
0.0193484 0.93167 0.252598
0.429679 0.836606 0.169375
0.884855 0.695735 0.0797284
1 0.639292 0.0448768
0 1 0.325658
0 1 0.29688
0.361212 1 0.216007
0.822446 0.991608 0.126055
1 0.947066 0.0890516
0.0113069 0.0258183 0.471168
0.200244 0 0.429374
0.654337 0 0.338918
0.990921 0 0.251484
1 0 0.222644
7.62951e-05 0.154238 0.47306
0.165393 0.0987259 0.433539
0.609537 0.00585946 0.344518
0.980041 0 0.254749
1 0 0.222248
0 0.542657 0.521782
0.0902571 0.486503 0.483864
0.525582 0.350668 0.395605
0.945144 0.208759 0.303899
1 0.155688 0.268254
0 0.967987 0.587793
0.0168002 0.935699 0.55288
0.424674 0.840787 0.466392
0.880491 0.700298 0.373678
1 0.643336 0.335225
0 1 0.619684
0 1 0.587839
0.355978 1 0.504448
0.817685 0.99501 0.411597
1 0.952773 0.371618
0.00773632 0.0339513 0.830976
0.194995 0.000213626 0.791211
0.648096 0 0.702098
0.989471 0 0.615763
1 0 0.587884
0 0.161135 0.837232
0.160525 0.106157 0.799084
0.603677 0.00749218 0.710994
0.978164 0 0.621927
1 0 0.590005
0 0.548165 0.888273
0.0856641 0.492409 0.851621
0.519844 0.357046 0.76463
0.942199 0.215091 0.673564
1 0.161028 0.638163
0 0.973114 0.952132
0.0140993 0.940902 0.921538
0.418982 0.845487 0.837919
0.875563 0.706752 0.745708
1 0.649409 0.707607
0 1 0.953735
0 1 0.934188
0.349432 1 0.873625
0.812558 0.996429 0.782132
0.999863 0.960494 0.742153
0.00636301 0.0376135 0.993957
0.191928 0.000610361 0.958846
0.643854 0 0.874098
0.988525 0 0.791455
1 0 0.766888
0 0.163729 0.999359
0.157427 0.109483 0.980117
0.599405 0.00822461 0.896315
0.976898 0 0.810742
1 0 0.782086
0 0.549477 1
0.0826886 0.49453 0.999969
0.515724 0.359594 0.961685
0.940215 0.217411 0.874083
1 0.162966 0.841703
0 0.97586 1
0.0122683 0.94374 1
0.41471 0.847379 0.999832
0.872221 0.709728 0.957137
1 0.651896 0.922042
0 1 1
0 1 1
0.344869 1 0.999969
0.808713 0.996963 0.995544
0.99968 0.964996 0.970153
