luts/varicam_official/Rose_2.cube
TITLE "Generated by Resolve"
LUT_3D_SIZE 33
0.0156252 0.0156252 0.0156252
0.02533 0.0127108 0.0137789
0.0390631 0.00883497 0.0111696
0.0565347 0.00419623 0.00782788
0.0783246 0.00141909 0.00468452
0.103288 0 0.00204471
0.131746 0 0
0.167712 0 0
0.208225 0 0
0.253376 0 0
0.303822 0 0
0.357473 0 0
0.414115 0 0
0.474037 0 0
0.536553 0 0
0.600656 0 0
0.66482 0 0
0.728405 0 0
0.791623 0 0
0.853376 0 0
0.910185 0 0
0.954025 0 0
0.979248 0 0
0.986557 0 0
0.992782 0 0
0.998856 0 0
0.999649 0 0
1 0 0
1 0 0
1 0 0
1 0 0
1 0 0
1 0 0
0.0156252 0.0156252 0.0156252
0.0249638 0.0128328 0.0138552
0.0383764 0.00903334 0.0112917
0.0556802 0.00440986 0.00799573
0.0772564 0.00149538 0.00482185
0.10193 0 0.00213626
0.130007 0 0
0.165957 0 0
0.206348 0 0
0.25124 0 0
0.301289 0 0
0.354726 0 0
0.411231 0 0
0.471 0 0
0.533394 0 0
0.597436 0 0
0.661692 0 0
0.725338 0 0
0.788586 0 0
0.850202 0 0
0.907149 0 0
0.951827 0 0
0.978821 0 0
0.986221 0 0
0.992462 0 0
0.99852 0 0
0.999542 0 0
1 0 0
1 0 0
1 0 0
1 0 0
1 0 0
1 0 0
0.0148013 0.0206455 0.0164492
0.0237736 0.0179141 0.0147555
0.0368505 0.0141299 0.0122835
0.0540017 0.00939956 0.00900282
0.075349 0.00573739 0.0056611
0.0997482 0.00317388 0.00265507
0.127504 0.00178531 4.57771e-05
0.163394 0.000747692 1.5259e-05
0.203601 0.000167849 0
0.248219 0 0
0.297963 0 0
0.351171 0 0
0.407523 0 0
0.467247 0 0
0.529534 0 0
0.593469 0 0
0.65771 0 0
0.721431 0 0
0.784695 0 0
0.84622 0 0
0.90338 0 0
0.948974 0 0
0.977859 0 0
0.985519 0 0
0.991913 0 0
0.998154 0 0
0.999435 0 0
1 0 0
1 0 0
1 0 0
1 0 0
1 0 0
1 0 0
0.0126192 0.0338445 0.0186313
0.0212406 0.0311131 0.0170291
0.0340124 0.0272068 0.0146334
0.0510262 0.0221256 0.0113985
0.0720684 0.0167544 0.00766003
0.0962081 0.0115358 0.00389105
0.123751 0.00650034 0.000137331
0.159518 0.00271611 6.10361e-05
0.199481 0.00062562 1.5259e-05
0.243748 0 0
0.293355 0 0
0.346288 0 0
0.402365 0 0
0.462303 0 0
0.524544 0 0
0.588312 0 0
0.652323 0 0
0.716045 0 0
0.779385 0 0
0.840986 0 0
0.898482 0 0
0.945129 0 0
0.976028 0 0
0.984207 0 0
0.991043 0 0
0.997681 0 0
0.999298 0 0
1 0 0
1 0 0
1 0 0
1 0 0
1 0 0
1 0 0
0.00988785 0.0507057 0.0215305
0.018143 0.0479744 0.0199588
0.0306096 0.0440223 0.0176089
0.0475319 0.0388037 0.0144045
0.0683452 0.0327459 0.010544
0.0922408 0.0261845 0.00636301
0.119524 0.0191043 0.00189212
0.15523 0.0125124 0.000823987
0.19501 0.007187 0.000213626
0.238972 0.0031281 0
0.28835 0.00114443 0
0.341054 0.000228885 0
0.396963 0 0
0.456947 0 0
0.519097 0 0
0.582742 0 0
0.646677 0 0
0.71043 0 0
0.773816 0 0
0.835462 0 0
0.892989 0 0
0.94049 0 0
0.973465 0 0
0.982345 0 0
0.989792 0 0
0.997055 0 0
0.9991 0 0
1 0 0
1 0 0
1 0 0
1 0 0
1 0 0
1 0 0
0.00704967 0.0695964 0.0247807
0.0148928 0.0668498 0.0232547
0.026978 0.0628519 0.0209201
0.0437324 0.057557 0.0177462
0.0643168 0.0511635 0.0138552
0.087953 0.043946 0.00947585
0.114961 0.0358282 0.00456245
0.150668 0.0267796 0.00215152
0.19028 0.0180819 0.000686656
0.233951 0.00991836 6.10361e-05
0.283055 0.00480659 1.5259e-05
0.335531 0.00205997 0
0.391272 0.000854505 0
0.45127 0.00030518 0
0.513359 7.62951e-05 0
0.576898 0 0
0.640772 0 0
0.70457 0 0
0.768017 0 0
0.829694 0 0
0.887297 0 0
0.935653 0 0
0.970626 0 0
0.98027 0 0
0.988418 0 0
0.996384 0 0
0.998901 0 0
1 0 0
1 0 0
1 0 0
1 0 0
1 0 0
1 0 0
0.00415045 0.0906081 0.0284276
0.0115053 0.0878309 0.0269017
0.0231327 0.0838178 0.0245975
0.0395972 0.0784466 0.0214237
0.0599374 0.0720531 0.0176089
0.0833143 0.0648508 0.0131991
0.110048 0.0567178 0.00817884
0.145769 0.0456855 0.0040589
0.185229 0.0335851 0.00143435
0.228611 0.0208133 0.000198367
0.277455 0.011429 6.10361e-05
0.329686 0.00582895 0
0.385229 0.00276188 0
0.445258 0.000976577 0
0.507271 0.000244144 0
0.570703 0 0
0.634546 0 0
0.698405 0 0
0.761929 0 0
0.823621 0 0
0.881376 0 0
0.930632 0 0
0.967514 0 0
0.977996 0 0
0.986923 0 0
0.995636 0 0
0.998672 0 0
1 0 0
1 0 0
1 0 0
1 0 0
1 0 0
1 0 0
0.00149538 0.11667 0.0328832
0.00807202 0.114061 0.0314488
0.0188449 0.110185 0.0292058
0.0346075 0.10486 0.0260624
0.0546731 0.0985275 0.0222782
0.0779278 0.0912795 0.0178988
0.104662 0.0829938 0.0128634
0.140093 0.0721141 0.00721752
0.179278 0.0601358 0.00326543
0.222385 0.0471656 0.000915541
0.270939 0.0346838 0.000244144
0.322896 0.0234379 0
0.378225 0.0132448 0
0.438254 0.00515755 0
0.50016 0.00143435 0
0.56347 0 0
0.627298 0 0
0.691203 0 0
0.754772 0 0
0.816464 0 0
0.874388 0 0
0.924514 0 0
0.963302 0 0
0.97496 0 0
0.98497 0 0
0.994705 0 0
0.998383 0 0
1 0 0
1 0 0
1 0 0
1 0 0
1 0 0
1 0 0
0.000183108 0.147494 0.0381628
0.00544747 0.1449 0.0367742
0.014725 0.141039 0.0345769
0.0289769 0.135714 0.0314488
0.0487221 0.129381 0.0276951
0.0718395 0.122087 0.023331
0.0985733 0.113741 0.0182803
0.133791 0.102907 0.0118257
0.172686 0.090959 0.00662242
0.215457 0.0778668 0.00263981
0.263767 0.0636606 0.000717174
0.31548 0.049134 0
0.370596 0.0346532 0
0.430625 0.0217746 0
0.492424 0.0135958 0
0.555642 0.0080415 0
0.61944 0.00459297 0
0.683406 0.00178531 0
0.747066 0 0
0.808881 0 0
0.866972 0 0
0.917937 0 0
0.958541 0 0
0.971466 0 0
0.982666 0 0
0.993561 0 0
0.998032 0 0
1 0 0
1 0 0
1 0 0
1 0 0
1 0 0
1 0 0
0 0.182971 0.0442359
0.00355535 0.180285 0.0428779
0.0107271 0.176333 0.0406958
0.0227817 0.170947 0.037583
0.0420996 0.164584 0.0338598
0.0650797 0.157259 0.0295109
0.0917983 0.148898 0.0244602
0.126833 0.138018 0.0178225
0.165438 0.12604 0.0114443
0.207858 0.112902 0.00546273
0.255924 0.0981155 0.00164797
0.307408 0.0824598 0.000122072
0.362341 0.0661631 0
0.422354 0.0499123 0
0.484077 0.0361944 0
0.547219 0.024155 0
0.611017 0.0143587 0
0.675044 0.00628672 0
0.738811 0.00105287 0
0.800793 0.00077821 0
0.859037 0.000534066 0
0.910826 0.000320439 0
0.953185 0.000137331 0
0.967468 4.57771e-05 0
0.980011 1.5259e-05 0
0.992218 0 0
0.99762 0 0
1 0 0
1 0 0
1 0 0
1 0 0
1 0 0
1 0 0
0 0.223072 0.051133
0.00209049 0.220478 0.049836
0.00721752 0.216571 0.047715
0.0166781 0.211109 0.0446021
0.0350958 0.204685 0.0408942
0.0576638 0.197223 0.0365301
0.0843977 0.188617 0.0314336
0.119051 0.177737 0.0248417
0.157412 0.165743 0.0178531
0.19968 0.152575 0.010605
0.247471 0.137896 0.00477607
0.298787 0.122118 0.00149538
0.353582 0.105379 1.5259e-05
0.413397 0.0876173 0
0.47512 0.070222 0
0.538308 0.0532235 0
0.60209 0.0373236 0
0.666178 0.0234684 0
0.729931 0.0132753 0
0.79173 0.00979629 0
0.850126 0.00669871 0
0.9028 0.0039826 0
0.947021 0.00175479 0
0.962829 0.000671397 0
0.976898 9.15541e-05 0
0.9906 0 0
0.997131 0 0
1 0 0
1 0 0
1 0 0
1 0 0
1 0 0
1 0 0
0 0.266468 0.0586252
0.000885023 0.26389 0.0573587
0.00411994 0.259998 0.0552834
0.010956 0.254475 0.0521706
0.027863 0.24802 0.0484932
0.0496529 0.240482 0.0441444
0.0763714 0.231724 0.0390173
0.110704 0.220829 0.0324559
0.148791 0.20882 0.0252537
0.190799 0.195682 0.0174868
0.238315 0.181094 0.010132
0.289494 0.165301 0.00434882
0.344244 0.148394 0.000259403
0.403967 0.130053 6.10361e-05
0.465537 0.111254 0
0.528603 0.0922408 0
0.59234 0.0736248 0
0.656489 0.0561837 0
0.720287 0.0412757 0
0.78201 0.0311742 0
0.840681 0.0218204 0
0.894224 0.0133059 0
0.940139 0.0059968 0
0.95761 0.00241093 0
0.973373 0.000442512 0
0.988769 0 0
0.996567 0 0
1 0 0
1 0 0
1 0 0
1 0 0
1 0 0
1 0 0
0 0.313375 0.0666972
0 0.310796 0.0654917
0.00164797 0.306905 0.063447
0.00596628 0.30132 0.0603647
0.0205234 0.294865 0.0567025
0.0410468 0.287297 0.0523537
0.0677195 0.278462 0.0472267
0.101778 0.267552 0.0407111
0.139574 0.255589 0.0335393
0.181277 0.242512 0.0256962
0.228519 0.227985 0.017258
0.279591 0.212207 0.00889601
0.334325 0.195285 0.00173953
0.393957 0.176944 0.000686656
0.455329 0.158129 0.000198367
0.518196 0.138933 0
0.581918 0.119661 0
0.646097 0.100298 0
0.709941 0.0814069 0
0.771695 0.0638743 0
0.830625 0.0472877 0
0.885023 0.0319677 0
0.932555 0.0184939 0
0.951843 0.011429 0
0.969451 0.00712596 0
0.986694 0.00546273 0
0.995941 0.00482185 0
1 0.00425727 0
1 0.00376898 0
1 0.00350958 0
1 0.00332647 0
1 0.00318914 0
1 0.00311284 0
0 0.366232 0.0757
0 0.36376 0.0745861
0.0010071 0.35996 0.0726329
0.00363165 0.354406 0.0695964
0.0135653 0.347997 0.065919
0.0314641 0.34049 0.0615549
0.0581369 0.331716 0.0564279
0.0919661 0.320882 0.0500191
0.129488 0.309071 0.0429389
0.170901 0.296178 0.0351263
0.217899 0.281483 0.0263981
0.268894 0.265583 0.0173495
0.323598 0.248569 0.00880446
0.382849 0.230259 0.00404364
0.444175 0.21146 0.00137331
0.507118 0.192187 0
0.570871 0.172564 0
0.635019 0.152865 0
0.698848 0.133394 0
0.760662 0.114778 0
0.819608 0.09691 0
0.874662 0.0799573 0
0.923903 0.0644388 0
0.94522 0.0535286 0
0.964889 0.0448768 0
0.984176 0.0384833 0
0.995163 0.0339361 0
1 0.0299229 0
1 0.0265507 0
1 0.0247196 0
1 0.0233616 0
1 0.0224002 0
1 0.0219425 0
0 0.422049 0.0852369
0 0.419623 0.084184
0.000549325 0.415839 0.0822919
0.00199893 0.410285 0.0792859
0.00791943 0.403891 0.0756085
0.0229953 0.396368 0.0712444
0.0484932 0.387549 0.0661021
0.0818647 0.376715 0.0597696
0.118959 0.364965 0.0527352
0.159991 0.352163 0.0449836
0.206714 0.337423 0.0361334
0.257633 0.321447 0.026688
0.312352 0.304356 0.0172122
0.371466 0.286015 0.00961318
0.432624 0.267231 0.00456245
0.495415 0.247944 0.00128176
0.559167 0.228153 0.000228885
0.623285 0.208301 0
0.687175 0.188586 0
0.749218 0.169558 0
0.808301 0.151217 0
0.863981 0.133608 0
0.914595 0.117189 0
0.938094 0.103655 0
0.959823 0.0918135 0
0.980957 0.0817731 0
0.993759 0.0739452 0
0.999619 0.0669718 0
1 0.0610208 0
1 0.0577249 0
1 0.0552071 0
1 0.0533455 0
1 0.0524605 0
0 0.480171 0.0951858
0 0.47776 0.0941787
0.000228885 0.473991 0.0923323
0.000808728 0.468391 0.0893568
0.00337224 0.461982 0.0856947
0.0155489 0.454414 0.0813306
0.0388952 0.445533 0.0761883
0.0714885 0.434699 0.0698863
0.108034 0.42295 0.0629129
0.148714 0.410163 0.0552071
0.195132 0.395483 0.0463264
0.245991 0.379477 0.0366827
0.30074 0.36231 0.0265812
0.359792 0.343923 0.016846
0.420737 0.325154 0.0093843
0.483314 0.305882 0.00370794
0.547051 0.28603 0.000671397
0.611154 0.266102 0
0.67509 0.246326 0
0.737346 0.227207 0
0.796597 0.208759 0
0.852903 0.190936 0
0.904768 0.174136 0
0.930541 0.158999 0
0.954269 0.145098 0
0.97705 0.132631 0
0.991653 0.122515 0
0.99881 0.113405 0
0.999969 0.105577 0
0.999985 0.101183 0
1 0.0977493 0
1 0.095201 0
1 0.0939498 0
0 0.540154 0.105501
0 0.537804 0.10454
4.57771e-05 0.534066 0.102724
0.000137331 0.528435 0.0997482
0.000595102 0.521981 0.0960861
0.00991836 0.514382 0.0917372
0.0296635 0.50547 0.0866255
0.0608988 0.494713 0.0803845
0.0967422 0.482887 0.0734264
0.137255 0.469947 0.0657359
0.183429 0.455451 0.0569162
0.234211 0.439506 0.047303
0.288975 0.422309 0.0370031
0.347875 0.403922 0.0261692
0.408652 0.385153 0.0164492
0.471107 0.365911 0.0078584
0.534752 0.34609 0.00144961
0.59884 0.326162 3.0518e-05
0.662745 0.306371 0
0.72491 0.287297 0
0.784329 0.268772 0
0.84126 0.250813 0
0.894392 0.23386 0
0.922515 0.218708 0
0.948043 0.204807 0
0.971984 0.192325 0
0.988342 0.182101 0
0.997192 0.17293 0
0.999817 0.165072 0
0.999954 0.16054 0
1 0.157 0
1 0.15436 0
1 0.15317 0
0 0.602472 0.116258
0 0.600214 0.115343
0 0.596551 0.113558
0 0.590951 0.110582
0 0.584482 0.10695
0.00663767 0.576913 0.102647
0.021149 0.568124 0.0975967
0.050309 0.557382 0.0913558
0.0850843 0.545586 0.0844129
0.125353 0.532677 0.0767529
0.171328 0.518334 0.0680247
0.222004 0.502434 0.0584115
0.276661 0.485237 0.0480507
0.335225 0.466911 0.0370184
0.395926 0.448173 0.0263523
0.458381 0.428916 0.0161898
0.521981 0.409064 0.00737011
0.586099 0.389105 0.00308232
0.65005 0.369284 0.000793469
0.712215 0.350179 9.15541e-05
0.771771 0.331579 0
0.829252 0.313497 0
0.883482 0.296269 0
0.913909 0.28127 0
0.941222 0.267369 0
0.966232 0.254704 0
0.984009 0.244327 0
0.994751 0.23508 0
0.99942 0.227176 0
0.999847 0.222538 0
1 0.21886 0
1 0.216098 0
1 0.214847 0
0 0.66598 0.127214
0 0.663798 0.126345
0 0.660212 0.12459
0 0.654673 0.121614
0 0.648188 0.118029
0.00419623 0.640665 0.113771
0.0134432 0.631968 0.108766
0.0400854 0.621286 0.102525
0.0734417 0.609552 0.095613
0.113252 0.596719 0.0879988
0.158953 0.582498 0.0793622
0.209506 0.566629 0.0697642
0.264073 0.549432 0.0593729
0.322362 0.531182 0.0483711
0.38294 0.512474 0.037232
0.445335 0.493217 0.0261082
0.508904 0.47332 0.0154726
0.573114 0.45333 0.0080415
0.637156 0.433478 0.00292973
0.699367 0.414313 0.000869764
0.759045 0.395651 0.000244144
0.816983 0.377447 0
0.872129 0.360021 0
0.904982 0.345144 0
0.934112 0.331228 0
0.960204 0.318379 0
0.979248 0.307836 0
0.991943 0.298512 0
0.998871 0.290562 0
0.999695 0.285832 0
1 0.282017 0
1 0.279133 0
1 0.27779 0
0 0.729473 0.138125
0 0.727367 0.137301
0 0.723857 0.135592
0 0.718318 0.132616
0 0.711849 0.129061
0.00222782 0.704341 0.124834
0.007187 0.695659 0.11986
0.0307927 0.685054 0.113649
0.0622721 0.673381 0.106783
0.101198 0.660624 0.0992142
0.146502 0.64651 0.0906844
0.196887 0.630671 0.081117
0.251438 0.613458 0.0707408
0.309651 0.595224 0.0597086
0.370001 0.576562 0.0483558
0.432166 0.557366 0.0367437
0.495705 0.537484 0.0250248
0.560052 0.517433 0.0151827
0.624262 0.497505 0.00740063
0.686549 0.478325 0.00297551
0.74638 0.459602 0.000976577
0.804654 0.441352 0
0.860365 0.423896 0
0.895811 0.408988 0
0.926909 0.394995 0
0.954162 0.382025 0
0.974273 0.371374 0
0.988861 0.361975 0
0.998108 0.353994 0
0.999496 0.349172 0
1 0.345266 0
1 0.342275 0
1 0.340887 0
0 0.792523 0.148943
0 0.790524 0.14818
0 0.787106 0.146517
0 0.781628 0.143557
0 0.775174 0.140002
0.000808728 0.767712 0.135805
0.00265507 0.759091 0.130892
0.0227512 0.748623 0.124758
0.0516823 0.737087 0.117937
0.0890059 0.724422 0.11043
0.134142 0.710323 0.10193
0.184466 0.694514 0.0924239
0.238987 0.677348 0.0820783
0.297032 0.659175 0.0710613
0.357214 0.640589 0.0596933
0.419242 0.621454 0.0479896
0.48275 0.601648 0.0360266
0.546944 0.581659 0.0247349
0.611048 0.561776 0.0147097
0.673426 0.54258 0.0071107
0.733577 0.523781 0.00248722
0.792081 0.505531 0
0.847837 0.488228 0
0.886122 0.473121 0
0.919463 0.458976 0
0.948058 0.44593 0
0.969116 0.435187 0
0.985534 0.425742 0
0.997116 0.417762 0
0.999237 0.412802 0
1 0.408804 0
1 0.405737 0
1 0.404318 0
0 0.855146 0.159701
0 0.853162 0.158984
0 0.84979 0.157366
0 0.844373 0.154437
0 0.837949 0.150851
0 0.830518 0.14667
9.15541e-05 0.821988 0.141817
0.0165255 0.811734 0.135775
0.042237 0.800351 0.12903
0.0769207 0.787762 0.121569
0.122011 0.773602 0.113085
0.172244 0.757794 0.103578
0.226642 0.740703 0.0932784
0.284504 0.722667 0.0823072
0.344533 0.704082 0.0709544
0.406455 0.684916 0.0592355
0.469917 0.665187 0.0472267
0.533989 0.645304 0.0351415
0.598001 0.625483 0.0236667
0.660471 0.606195 0.0136416
0.720821 0.587427 0.00646983
0.779461 0.569207 0.00181582
0.835248 0.551919 0.000289921
0.876097 0.536645 7.62951e-05
0.911574 0.522393 0
0.941649 0.509361 0
0.963729 0.498436 0
0.981857 0.488975 0
0.995514 0.481056 0
0.998642 0.475898 0
0.999863 0.471839 0
1 0.468788 0
1 0.467247 0
0 0.916381 0.170245
0 0.914305 0.169558
0 0.910857 0.167971
0 0.90547 0.165042
0 0.899062 0.16141
0 0.891707 0.157229
7.62951e-05 0.883299 0.152453
0.0128023 0.873304 0.146517
0.0344701 0.862058 0.139864
0.0652171 0.849515 0.132448
0.110353 0.835187 0.123919
0.160449 0.819394 0.114397
0.214603 0.802411 0.104097
0.272236 0.784588 0.0932326
0.332143 0.765911 0.0819104
0.393988 0.746593 0.070222
0.457435 0.726894 0.0581979
0.521431 0.707179 0.0461128
0.585443 0.687419 0.0342718
0.648005 0.667887 0.0231785
0.708324 0.649317 0.0138705
0.766995 0.631159 0.00630198
0.82295 0.613642 0.000991836
0.865827 0.598291 0.000244144
0.903197 0.584054 0
0.934874 0.571115 0
0.958099 0.559915 0
0.977722 0.550454 0
0.993103 0.542718 0
0.997574 0.53724 0
0.999542 0.533196 0
1 0.530236 0
1 0.528466 0
0 0.943877 0.17998
0 0.942702 0.1794
0 0.940307 0.177874
0 0.93611 0.174975
0 0.931014 0.171374
0 0.925109 0.167239
6.10361e-05 0.918303 0.162509
0.00965896 0.909941 0.156603
0.0274815 0.900572 0.150011
0.0540932 0.890135 0.142672
0.0991836 0.877989 0.134157
0.149126 0.8645 0.124681
0.203037 0.849943 0.114443
0.260288 0.834577 0.103655
0.320119 0.818173 0.0923476
0.38201 0.800977 0.0806592
0.445441 0.783062 0.0686503
0.509407 0.763912 0.0565957
0.573388 0.74432 0.0446021
0.636011 0.72488 0.0330205
0.696468 0.706203 0.0224918
0.75523 0.68809 0.0131228
0.811124 0.670863 0.0053254
0.855055 0.655558 0.00254826
0.893843 0.641352 0.000839246
0.92723 0.628397 0
0.952102 0.617136 0
0.973007 0.60763 0
0.989441 0.599863 0
0.995651 0.594537 0
0.998825 0.590417 0
1 0.587381 0
1 0.58587 0
0 0.963394 0.189456
0 0.962798 0.188952
0 0.961227 0.187503
0 0.95819 0.184634
0 0.954391 0.181094
0 0.949981 0.177005
4.57771e-05 0.944884 0.172305
0.00679026 0.938415 0.16643
0.0208133 0.931197 0.159899
0.0431983 0.923171 0.152636
0.0882429 0.913634 0.144121
0.138018 0.902953 0.134707
0.191684 0.891356 0.124559
0.248646 0.879072 0.113817
0.30837 0.865751 0.102541
0.37023 0.851514 0.0908522
0.433661 0.836194 0.0788586
0.497581 0.81796 0.0668345
0.561563 0.798733 0.0547951
0.624216 0.779461 0.0429999
0.684825 0.760769 0.0317845
0.743648 0.742702 0.0212406
0.799512 0.725643 0.0117037
0.844144 0.710338 0.00621042
0.884077 0.696101 0.00231937
0.919066 0.683085 0
0.945953 0.671748 0
0.968002 0.662242 0
0.985046 0.654521 0
0.993118 0.649149 0
0.997787 0.644923 0
1 0.641779 0
1 0.640436 0
0 0.976333 0.19855
0 0.975921 0.198108
0 0.974853 0.196735
0 0.972778 0.193881
0 0.970214 0.190417
0 0.967239 0.186374
3.0518e-05 0.963806 0.18172
0.00421149 0.959442 0.175891
0.0145571 0.954543 0.169406
0.0327001 0.949065 0.162203
0.0776684 0.942382 0.153704
0.127275 0.934783 0.14435
0.180713 0.926482 0.13431
0.237491 0.917708 0.123598
0.297063 0.908019 0.112337
0.358831 0.897414 0.100664
0.422232 0.885328 0.0886854
0.486122 0.868406 0.0767071
0.550088 0.849821 0.0647288
0.612787 0.830884 0.0529488
0.673503 0.812375 0.0415351
0.732418 0.794385 0.030457
0.788296 0.77731 0.0199435
0.833265 0.761959 0.0112001
0.874067 0.747646 0.00453193
0.910491 0.734539 0.000122072
0.939712 0.723095 6.10361e-05
0.962798 0.713649 1.5259e-05
0.980026 0.70605 0
0.990021 0.700404 0
0.996445 0.696025 0
1 0.692805 0
1 0.691463 0
0 0.989181 0.206638
0 0.988846 0.206241
0 0.988205 0.204883
0 0.987091 0.202029
0 0.985779 0.198611
0 0.984237 0.194629
1.5259e-05 0.982437 0.190021
0.00225834 0.980117 0.184222
0.00932326 0.977401 0.177768
0.0233768 0.974136 0.170581
0.0683452 0.969085 0.162081
0.117739 0.962356 0.152758
0.170886 0.954391 0.142733
0.227466 0.945541 0.132052
0.286915 0.936049 0.120836
0.348577 0.925948 0.109209
0.412024 0.915022 0.097261
0.475929 0.901427 0.0852674
0.539895 0.8869 0.0732738
0.602609 0.87216 0.0614939
0.663432 0.856992 0.0500038
0.722438 0.840864 0.0388647
0.778393 0.823651 0.0283207
0.823682 0.808423 0.0193179
0.865217 0.794064 0.0116579
0.902754 0.780728 0.00550851
0.934096 0.769436 0.00256352
0.958129 0.760006 0.000900282
0.97557 0.752331 0.00030518
0.987137 0.746639 7.62951e-05
0.995132 0.742306 0
1 0.739162 0
1 0.737758 0
0 0.996841 0.213977
0 0.996643 0.213642
0 0.996368 0.212329
0 0.995941 0.209491
0 0.995483 0.206104
0 0.994919 0.202182
0 0.994247 0.19765
0.000961318 0.993393 0.191897
0.00544747 0.992264 0.185489
