luts/varicam_official/Rose_1.cube
TITLE "Generated by Resolve"
LUT_3D_SIZE 9
0.0156252 0.0156252 0.0156252
0.0623636 0.00271611 0.00671397
0.155795 0 0
0.300999 0 0
0.48809 0 0
0.694469 0 0
0.891981 0 0
0.985733 0 0
0.999939 0 0
0.00959792 0.0524147 0.0218204
0.0670176 0.0383307 0.0115358
0.168841 0.0151369 0.00077821
0.322347 0.000534066 0
0.514626 0 0
0.720958 0 0
0.914443 0 0
0.985351 0 0
1 0 0
0.00228885 0.14168 0.0368048
0.0622416 0.127642 0.0255283
0.170962 0.100542 0.00766003
0.33138 0.058381 0.000213626
0.527459 0.0198367 0
0.733684 0.00102235 0
0.919188 1.5259e-05 0
0.983993 0 0
1 0 0
0.000442512 0.286336 0.0620127
0.0478676 0.274083 0.0520027
0.162951 0.247044 0.0328832
0.329732 0.205386 0.00714122
0.529793 0.153903 0.000259403
0.735744 0.100343 0
0.913207 0.054139 0
0.983948 0.0347448 0
1 0.0289464 0
0 0.480751 0.0985733
0.0285649 0.469718 0.0879225
0.149126 0.442481 0.0677348
0.321279 0.400626 0.0383459
0.52401 0.349325 0.00759899
0.728832 0.297475 0.000137331
0.901244 0.252659 0
0.986282 0.222232 0
0.999969 0.209232 0
0 0.700877 0.139467
0.0116274 0.689036 0.127855
0.131563 0.660685 0.106447
0.309361 0.61767 0.0760357
0.513863 0.566583 0.0408331
0.717906 0.515236 0.0104372
0.884459 0.472374 0
0.996155 0.443748 0
1 0.433448 0
0 0.910979 0.17995
0.00729381 0.894911 0.166903
0.115206 0.865064 0.14432
0.298253 0.823026 0.113024
0.505028 0.773724 0.0772412
0.707027 0.721645 0.0424659
0.871534 0.67837 0.0148013
0.987961 0.65037 0.00445563
0.999939 0.640696 0.00231937
0 0.982849 0.215061
0.00291447 0.979232 0.200687
0.104219 0.974166 0.176852
0.292714 0.968872 0.144671
0.50164 0.943206 0.108522
0.701793 0.893217 0.0739452
0.859907 0.851682 0.0459144
0.97499 0.825956 0.0280003
0.999939 0.817517 0.0213016
0 1 0.241657
4.57771e-05 1 0.226108
0.102296 0.999985 0.20061
0.295827 0.999924 0.166979
0.507073 0.998962 0.130068
0.705394 0.990738 0.0954452
0.857984 0.962814 0.0677653
0.969573 0.93666 0.0506447
0.99942 0.92752 0.0448615
0.0153201 0.016083 0.0426642
0.0632334 0.00260929 0.035935
0.157855 0 0.0201419
0.304356 0 0.00485237
0.492363 0 0
0.698695 0 0
0.895781 0 0
0.986007 0 0
0.999985 0 0
0.00903334 0.0544442 0.0563211
0.0680095 0.039826 0.0481727
0.170947 0.0158694 0.0315557
0.32575 0.000701915 0.00923171
0.518425 0 0.000839246
0.724926 0 0
0.9178 0 0
0.985687 0 0
1 0 0
0.00271611 0.144488 0.0779126
0.0630045 0.130556 0.0694743
0.172793 0.103395 0.0525216
0.334203 0.0610971 0.0267033
0.531273 0.0213321 0.00634775
0.737346 0.0009308 0.000259403
0.92134 0.000213626 0
0.984588 0 0
1 0 0
0.000366217 0.290547 0.109895
0.0482795 0.278325 0.101274
0.165209 0.251377 0.083299
0.332418 0.209567 0.055787
0.533181 0.157809 0.0230259
0.738994 0.10425 0.00531014
0.915251 0.0582742 0.000183108
0.985 0.0380255 0
1 0.0319066 0
0 0.486168 0.150378
0.0290379 0.475151 0.141207
0.150896 0.447883 0.122011
0.324132 0.405234 0.0937819
0.527276 0.35407 0.0598459
0.732113 0.30222 0.0276341
0.902342 0.257771 0.00758373
0.989822 0.227756 0.000900282
1 0.215335 0.000640879
0 0.706813 0.194919
0.0125734 0.694697 0.184939
0.133486 0.666148 0.164965
0.312352 0.622721 0.135897
0.517311 0.571542 0.101869
0.720806 0.520531 0.0683299
0.885985 0.477913 0.0410468
0.999084 0.449454 0.0244297
1 0.439948 0.0198367
0 0.915618 0.239567
0.00790417 0.899626 0.228275
0.117144 0.869566 0.207218
0.301228 0.827893 0.177752
0.508232 0.778256 0.143801
0.710002 0.72607 0.110765
0.873198 0.683268 0.0835279
0.988663 0.655512 0.0659953
1 0.646128 0.0599222
0 0.984192 0.279103
0.00271611 0.981003 0.267079
0.106294 0.976898 0.244862
0.295598 0.973556 0.214206
0.50486 0.948699 0.17966
0.704646 0.89807 0.146731
0.861891 0.856748 0.120333
0.976486 0.831449 0.104067
0.999969 0.822492 0.0989395
0 1 0.310689
3.0518e-05 1 0.296986
0.104982 1 0.272877
0.299107 0.999985 0.240818
0.510613 0.999557 0.205341
0.7084 0.992416 0.172366
0.860059 0.965957 0.146777
0.970459 0.940032 0.131777
0.999466 0.931212 0.128099
0.0146792 0.01738 0.101198
0.0636912 0.00318914 0.0960708
0.159426 0 0.0815747
0.307118 0 0.0574502
0.495567 0 0.0265812
0.701915 0 0.00875868
0.898497 0 0
0.985931 0 0
0.999985 0 0
0.00822461 0.0568704 0.120516
0.0686351 0.0419623 0.114351
0.172381 0.017319 0.0995346
0.327916 0.00106813 0.0748455
0.52134 0 0.0433051
0.727916 0 0.0181888
0.91986 0 0.0028687
0.985946 0 0.00141909
1 0 0.00120546
0.00294499 0.147799 0.14815
0.0633097 0.134035 0.141543
0.174014 0.106767 0.126024
0.336309 0.0639353 0.100679
0.533913 0.0229953 0.068864
0.740108 0.000915541 0.0381323
0.922713 0.00047303 0.0152895
0.985061 0 0.00675975
1 0 0.00555428
0.000274662 0.295109 0.185168
0.0485847 0.282521 0.178607
0.1664 0.255634 0.162371
0.334432 0.213901 0.136629
0.535729 0.162081 0.104372
0.741451 0.108598 0.0715038
0.916701 0.0626078 0.0434424
0.985916 0.0415656 0.024155
1 0.0350195 0.0180819
0 0.491905 0.231266
0.0291142 0.48043 0.224079
0.152239 0.452537 0.206622
0.32636 0.410101 0.179706
0.529671 0.359167 0.147433
0.734264 0.307469 0.115236
0.90277 0.263401 0.0878157
0.991379 0.233509 0.0694133
1 0.221378 0.0623484
0 0.712901 0.280919
0.013077 0.70042 0.27277
0.134798 0.671489 0.254658
0.314427 0.628168 0.227634
0.519478 0.576913 0.195743
0.722866 0.525841 0.163912
0.887053 0.483543 0.137484
0.99968 0.45539 0.12015
1 0.445991 0.115038
0 0.920333 0.330755
0.00833143 0.904128 0.321935
0.118547 0.874266 0.302785
0.303334 0.83238 0.274678
0.510735 0.782788 0.242267
0.712032 0.73077 0.210925
0.87422 0.68809 0.185641
0.987991 0.660868 0.170016
1 0.651865 0.165835
0 0.98555 0.375647
0.00239567 0.982666 0.365347
0.107744 0.97908 0.344762
0.297826 0.976593 0.315892
0.507454 0.953079 0.283146
0.706722 0.9028 0.252064
0.862821 0.861891 0.227604
0.976791 0.836439 0.213138
0.999939 0.827436 0.209903
0 1 0.411566
1.5259e-05 1 0.399969
0.106905 1 0.377646
0.301656 1 0.347478
0.513298 0.999771 0.313771
0.710567 0.993072 0.282689
0.861311 0.969512 0.258671
0.970428 0.943877 0.245396
0.999496 0.935531 0.243763
0.0137789 0.0195773 0.192828
0.0641031 0.00503548 0.189883
0.16054 0 0.177401
0.309087 0 0.154772
0.498085 0 0.124468
0.704723 0 0.0908675
0.900893 0 0.0596628
0.985916 0 0.0343938
1 0 0.019501
0.00740063 0.0599985 0.219379
0.0687419 0.0447547 0.214694
0.173358 0.0191196 0.201099
0.329946 0.00151064 0.177539
0.523842 0 0.147295
0.730327 0 0.114931
0.921324 0 0.0852064
0.985901 0 0.0627604
1 0 0.0508278
0.00308232 0.151629 0.251469
0.0632181 0.138155 0.247074
0.174807 0.110552 0.233356
0.338003 0.0677195 0.209979
0.536294 0.0250858 0.179446
0.742321 0.00135805 0.14757
0.923766 0.000762951 0.119173
0.985412 0 0.098497
1 0 0.0886091
0.000183108 0.300038 0.294621
0.0484474 0.287663 0.289937
0.167315 0.260929 0.275517
0.336141 0.21883 0.251118
0.537606 0.166796 0.220661
0.743343 0.113405 0.189227
0.917754 0.0673838 0.161883
0.986725 0.0451972 0.143191
1 0.0384833 0.135546
0 0.497841 0.345708
0.0289464 0.486366 0.340642
0.152895 0.458488 0.32488
0.327932 0.415579 0.299794
0.531609 0.364584 0.269215
0.736141 0.312947 0.238117
0.902968 0.269093 0.211963
0.992782 0.239521 0.19469
1 0.227787 0.188891
0 0.719326 0.400778
0.0134279 0.706661 0.394598
0.135668 0.677699 0.377798
0.315938 0.633906 0.351659
0.521462 0.582544 0.320775
0.724361 0.531807 0.290318
0.887739 0.489525 0.265568
0.999512 0.461799 0.250004
1 0.452811 0.246464
0 0.925536 0.454673
0.00852979 0.909422 0.447044
0.11931 0.879316 0.429129
0.304952 0.837446 0.402518
0.512489 0.788006 0.371695
0.713527 0.736019 0.341878
0.874876 0.693736 0.318059
0.987305 0.666758 0.304006
1 0.658 0.301381
0 0.986908 0.502831
0.00207523 0.984298 0.494697
0.108675 0.98117 0.47567
0.299489 0.979477 0.447959
0.509285 0.95816 0.416541
0.708339 0.907973 0.386816
0.863615 0.867338 0.363867
0.977111 0.84155 0.351095
0.999924 0.832822 0.349203
0 1 0.543008
0 1 0.533089
0.108278 1 0.51223
0.3037 1 0.483207
0.515358 0.999954 0.45098
0.712139 0.993805 0.421317
0.86215 0.973632 0.398825
0.970382 0.948226 0.387045
0.999527 0.940185 0.386389
0.012665 0.0223392 0.314946
0.0640726 0.00759899 0.313741
0.161471 0 0.302678
0.310796 0 0.281651
0.500328 0 0.252689
0.707042 0 0.220584
0.902663 0 0.190616
0.985641 0 0.166644
1 0 0.153597
0.00648508 0.0636759 0.347646
0.0685435 0.0483711 0.344808
0.17409 0.0215152 0.332677
0.331289 0.00213626 0.310628
0.525887 0 0.281376
0.732235 0 0.249775
0.922332 0 0.22089
0.985916 0 0.199298
1 0 0.188312
0.0031281 0.15639 0.384939
0.0627909 0.142947 0.381826
0.17525 0.115129 0.368887
0.339361 0.0718242 0.345998
0.537896 0.0276951 0.316472
0.744137 0.00207523 0.285344
0.924498 0.00109865 0.258076
0.985702 0 0.238849
1 0 0.230121
0.000106813 0.30576 0.431022
0.0480049 0.293477 0.427436
0.168078 0.266224 0.413642
0.337575 0.224048 0.390646
0.539452 0.172122 0.361151
0.744961 0.118791 0.330831
0.918563 0.0726787 0.304616
0.987549 0.0492256 0.28716
1 0.042298 0.280522
0 0.504433 0.485206
0.0288396 0.492683 0.481483
0.153506 0.464195 0.466819
0.329274 0.421668 0.442496
0.53315 0.370626 0.41294
0.737652 0.319051 0.383093
0.902922 0.275395 0.357992
0.994217 0.246021 0.341939
1 0.23476 0.337545
0 0.726253 0.543542
0.013489 0.713314 0.538598
0.136294 0.683955 0.522728
0.317159 0.640116 0.497749
0.522988 0.588769 0.467948
0.725536 0.537972 0.438437
0.888487 0.495918 0.414405
0.999313 0.468559 0.399512
1 0.459632 0.396521
0 0.931273 0.600702
0.00857557 0.914977 0.594385
0.120012 0.884779 0.577234
0.306157 0.842115 0.551263
0.514092 0.79324 0.520836
0.714794 0.741665 0.491524
0.875319 0.699413 0.46836
0.986572 0.672923 0.454795
1 0.664454 0.452934
0 0.988388 0.651637
0.00183108 0.985931 0.6439
0.109407 0.983261 0.625177
0.300984 0.982269 0.597955
0.511009 0.962921 0.566812
0.709804 0.913527 0.537926
0.863981 0.872999 0.515801
0.977127 0.846876 0.503304
0.999893 0.838437 0.502495
0 1 0.693049
0 1 0.683467
0.109545 1 0.662882
0.305547 1 0.634501
0.517174 1 0.60264
0.713634 0.994614 0.573663
0.862943 0.976959 0.551873
0.970092 0.952819 0.540642
0.999573 0.945159 0.540902
0.011429 0.0254978 0.458335
0.063859 0.0104982 0.457633
0.162158 0 0.447059
0.312169 0 0.42649
0.502525 0 0.398154
0.709026 0 0.366659
0.90428 0 0.33724
0.985428 0 0.314061
1 0 0.301518
0.0052491 0.0678569 0.493446
0.0681773 0.0522774 0.491249
0.174487 0.0247654 0.479728
0.332662 0.00270085 0.45803
0.527657 0 0.429297
0.734096 0 0.39826
0.923064 0 0.36997
0.98584 0 0.349279
1 0 0.338781
0.0031281 0.161395 0.532967
0.0622416 0.14789 0.530526
0.175479 0.119921 0.51812
0.340414 0.0763561 0.495552
0.53959 0.0309911 0.466361
0.745647 0.00329595 0.435798
0.925155 0.00146487 0.408881
0.986068 0 0.389792
1 0 0.381704
3.0518e-05 0.311482 0.580896
0.0474098 0.299596 0.578027
0.168399 0.272206 0.564614
0.338674 0.22974 0.541497
0.540963 0.177691 0.512123
0.746365 0.124346 0.481926
0.919112 0.0781567 0.456016
0.988296 0.0533303 0.438941
1 0.0462959 0.432654
0 0.511147 0.636683
0.0286259 0.499123 0.632883
0.154025 0.470603 0.618158
0.33048 0.427893 0.594324
0.534356 0.376898 0.56466
0.738888 0.325277 0.534768
0.902785 0.28188 0.510094
0.995666 0.252293 0.494011
1 0.241703 0.489769
0 0.733303 0.695521
0.0136416 0.720073 0.690578
0.136706 0.690394 0.674693
0.318212 0.646479 0.649516
0.524392 0.595071 0.619684
0.72668 0.544305 0.590219
0.889052 0.502327 0.566247
0.999084 0.475349 0.551736
1 0.466682 0.548745
0 0.936797 0.752819
0.00859083 0.920378 0.746395
0.120546 0.889967 0.729168
0.307485 0.846555 0.702861
0.515679 0.798566 0.672389
0.715984 0.747097 0.643168
0.875578 0.705303 0.620005
0.985916 0.679103 0.60676
1 0.670863 0.604685
0 0.9897 0.803677
0.00158694 0.987457 0.795758
0.110094 0.985245 0.776913
0.302358 0.98471 0.749371
0.512673 0.967147 0.718242
0.710994 0.918929 0.689036
0.864424 0.877989 0.666575
0.977401 0.852003 0.654353
0.999878 0.844007 0.653208
0 1 0.844694
0 1 0.834791
0.110674 1 0.813901
0.307225 1 0.785153
0.519112 1 0.753155
0.714977 0.995438 0.72398
0.863462 0.97966 0.701976
0.969726 0.957336 0.690455
0.999634 0.949828 0.690028
0.0100099 0.0288396 0.607156
0.0635691 0.0133211 0.606363
0.162722 0 0.595636
0.313558 0 0.574762
0.504448 0 0.546319
0.710918 0 0.514565
0.905882 0 0.484886
0.985153 0 0.461814
1 0 0.449302
0.00430304 0.0719615 0.642283
0.0677501 0.0562753 0.639796
0.174899 0.0283665 0.627924
0.333898 0.00325017 0.605859
0.529335 3.0518e-05 0.576791
0.735805 0 0.54548
0.923659 0 0.517021
0.985824 0 0.495918
1 0 0.485328
0.00299077 0.166567 0.681422
0.061738 0.152819 0.678584
0.175799 0.12462 0.665568
0.341466 0.080766 0.642618
0.541131 0.0346532 0.612787
0.747326 0.00540169 0.581857
0.925841 0.00187686 0.554498
0.986435 4.57771e-05 0.53518
1 0 0.526955
0 0.317342 0.728634
0.0469062 0.305486 0.724956
0.168765 0.277775 0.710994
0.340032 0.235096 0.687114
0.542382 0.182971 0.657298
0.747829 0.129641 0.626734
0.919661 0.0834669 0.600351
0.98912 0.0576638 0.58262
1 0.0502785 0.576013
0 0.517708 0.783047
0.0284886 0.505333 0.778439
0.154482 0.476707 0.763119
0.331655 0.433814 0.738506
0.535775 0.382712 0.708247
0.740185 0.331151 0.677546
0.902892 0.287999 0.652232
0.997116 0.258579 0.635645
1 0.248325 0.630884
0 0.740047 0.840589
0.0137636 0.726513 0.834485
0.13724 0.696544 0.817639
0.319448 0.652506 0.791669
0.525826 0.600931 0.760998
0.727886 0.550149 0.730831
0.889647 0.508431 0.706294
0.99884 0.481651 0.69102
1 0.473243 0.687343
0 0.942138 0.895598
0.00857557 0.925628 0.888136
0.121172 0.894255 0.869917
0.308812 0.850874 0.842695
0.51725 0.803494 0.811322
0.717281 0.752377 0.781094
0.875975 0.710643 0.757153
0.985428 0.684794 0.743252
1 0.676799 0.740414
0 0.990906 0.943832
0.00135805 0.98883 0.934325
0.111055 0.987076 0.913939
0.303685 0.987137 0.886122
0.514366 0.971222 0.854017
0.712261 0.924056 0.824018
0.865156 0.882414 0.800214
0.977295 0.856703 0.786908
0.999817 0.849119 0.784588
0 1 0.947799
0 1 0.939986
0.111879 1 0.927474
0.30901 1 0.91078
0.520958 1 0.880018
0.716472 0.99617 0.850309
0.864195 0.981964 0.827436
0.969467 0.961288 0.815457
0.99971 0.954147 0.814725
0.00862135 0.032105 0.746258
0.0634775 0.0160067 0.744228
0.163272 0.000381476 0.732464
0.314992 0 0.710689
0.506157 0 0.681285
0.713008 0 0.64892
0.907607 0 0.618753
0.984878 0 0.59501
1 0 0.581964
0.00404364 0.0757153 0.778271
0.0674144 0.059968 0.774868
0.175448 0.0316014 0.762036
0.335058 0.00367742 0.739116
0.531228 0.000106813 0.709194
0.73756 0 0.676829
0.924407 0 0.647059
0.98587 0 0.624872
1 0 0.613153
0.00276188 0.171389 0.81532
0.0612955 0.157458 0.811185
0.176364 0.128801 0.796613
0.342809 0.0849317 0.772091
0.542855 0.0380102 0.740948
0.749065 0.00724804 0.708537
0.926543 0.00231937 0.680095
0.98677 0.00015259 0.659678
1 0 0.650156
0 0.322942 0.859007
0.0464637 0.310964 0.853498
0.169406 0.282719 0.837751
0.341497 0.239872 0.812345
0.543862 0.187655 0.781125
0.749401 0.134417 0.749279
0.920455 0.088304 0.721645
0.990082 0.0619669 0.703075
1 0.0540475 0.695659
0 0.523598 0.909331
0.0286564 0.511009 0.902907
0.155184 0.482048 0.885786
0.332952 0.43917 0.859693
0.537636 0.387747 0.828229
0.74165 0.336278 0.796674
0.903212 0.293309 0.770428
0.99855 0.264378 0.753109
1 0.254154 0.747463
0 0.746227 0.960616
0.0139315 0.732341 0.954635
0.138018 0.70219 0.936675
0.320928 0.657786 0.909758
0.527474 0.606073 0.878004
0.729229 0.555398 0.847028
0.890364 0.513726 0.821118
0.998627 0.487373 0.804334
1 0.479149 0.798978
0 0.947097 0.989639
0.00848402 0.930343 0.99144
0.121935 0.897398 0.983093
0.310155 0.854719 0.956451
0.518868 0.807782 0.924102
0.718761 0.756985 0.892119
0.876677 0.715511 0.86659
0.985229 0.68986 0.85098
1 0.682155 0.846708
0 0.991928 0.999481
0.00117494 0.990097 0.999847
0.1122 0.988693 0.999039
0.30518 0.989563 0.984695
0.516106 0.975143 0.959274
0.713848 0.927886 0.929137
0.866087 0.886244 0.903548
0.977142 0.860975 0.888426
0.999771 0.853346 0.884382
0 1 0.999802
0 1 0.996033
0.113268 1 0.991424
0.310994 1 0.985779
0.52285 1 0.970748
0.718257 0.996765 0.951156
0.865385 0.98378 0.929122
0.969696 0.964569 0.916167
0.999802 0.957778 0.914565
0.00743114 0.0346532 0.862837
0.0635233 0.0182193 0.858763
0.164034 0.00112917 0.844831
0.316838 0 0.820966
0.508263 0 0.789685
0.715236 0 0.755474
0.909514 0 0.7234
0.984894 0 0.698192
1 0 0.683558
0.00389105 0.0789502 0.888273
0.0673838 0.0630655 0.882216
0.176196 0.0343023 0.867185
0.336797 0.00390631 0.842252
0.533059 0.000213626 0.810376
0.739727 0 0.776501
0.92546 0 0.745693
0.98613 0 0.722408
1 0 0.709789
0.00259403 0.175387 0.918929
0.0612345 0.161212 0.91252
0.177172 0.132296 0.896284
0.344106 0.088304 0.870329
0.545037 0.0406806 0.837873
0.750896 0.00883497 0.804379
0.927672 0.00271611 0.774716
0.987259 0.000244144 0.753155
1 0 0.74229
0 0.327871 0.957946
0.0462959 0.315572 0.951019
0.17026 0.287388 0.9337
0.343053 0.243977 0.906966
0.546075 0.191623 0.874266
0.751064 0.138643 0.84036
0.920562 0.0925612 0.810727
0.990967 0.0654765 0.790173
1 0.0573739 0.780743
0 0.528786 0.991028
0.028809 0.515846 0.991669
0.156085 0.48716 0.975753
0.334417 0.443656 0.948379
0.539498 0.392264 0.914672
0.743099 0.341024 0.881071
0.903731 0.297948 0.852766
0.999496 0.269047 0.833219
1 0.259464 0.825971
0 0.75172 0.999268
0.0143435 0.737362 0.998734
0.138933 0.707057 0.997223
0.322698 0.662196 0.984619
0.529351 0.610422 0.957565
0.731044 0.559838 0.924544
0.891554 0.518318 0.89688
0.998459 0.49218 0.878889
1 0.484154 0.872297
0 0.950988 1
0.00849927 0.933761 1
0.123125 0.899855 0.999893
0.31223 0.857542 0.99971
0.520821 0.811337 0.988525
0.720607 0.760601 0.96466
0.877653 0.719356 0.938125
0.985229 0.694072 0.921416
1 0.68658 0.915923
0 0.992676 1
0.00105287 0.991196 1
0.113649 0.990295 1
0.307515 0.991714 0.999969
0.518242 0.978408 0.9991
0.715785 0.930266 0.990219
0.867292 0.889189 0.970001
0.977462 0.864057 0.953796
0.999756 0.856794 0.947768
0 1 1
0 1 1
0.115099 1 1
0.313649 1 0.999695
0.52517 1 0.99884
0.720333 0.997162 0.994385
0.866651 0.98526 0.987549
0.970153 0.967025 0.975036
0.999908 0.960372 0.971466
