luts/varicam_official/Rose_1.cube
TITLE "Generated by Resolve"
LUT_3D_SIZE 5
0.0156252 0.0156252 0.0156252
0.155795 0 0
0.48809 0 0
0.891981 0 0
0.999939 0 0
0.00228885 0.14168 0.0368048
0.170962 0.100542 0.00766003
0.527459 0.0198367 0
0.919188 1.5259e-05 0
1 0 0
0 0.480751 0.0985733
0.149126 0.442481 0.0677348
0.52401 0.349325 0.00759899
0.901244 0.252659 0
0.999969 0.209232 0
0 0.910979 0.17995
0.115206 0.865064 0.14432
0.505028 0.773724 0.0772412
0.871534 0.67837 0.0148013
0.999939 0.640696 0.00231937
0 1 0.241657
0.102296 0.999985 0.20061
0.507073 0.998962 0.130068
0.857984 0.962814 0.0677653
0.99942 0.92752 0.0448615
0.0146792 0.01738 0.101198
0.159426 0 0.0815747
0.495567 0 0.0265812
0.898497 0 0
0.999985 0 0
0.00294499 0.147799 0.14815
0.174014 0.106767 0.126024
0.533913 0.0229953 0.068864
0.922713 0.00047303 0.0152895
1 0 0.00555428
0 0.491905 0.231266
0.152239 0.452537 0.206622
0.529671 0.359167 0.147433
0.90277 0.263401 0.0878157
1 0.221378 0.0623484
0 0.920333 0.330755
0.118547 0.874266 0.302785
0.510735 0.782788 0.242267
0.87422 0.68809 0.185641
1 0.651865 0.165835
0 1 0.411566
0.106905 1 0.377646
0.513298 0.999771 0.313771
0.861311 0.969512 0.258671
0.999496 0.935531 0.243763
0.012665 0.0223392 0.314946
0.161471 0 0.302678
0.500328 0 0.252689
0.902663 0 0.190616
1 0 0.153597
0.0031281 0.15639 0.384939
0.17525 0.115129 0.368887
0.537896 0.0276951 0.316472
0.924498 0.00109865 0.258076
1 0 0.230121
0 0.504433 0.485206
0.153506 0.464195 0.466819
0.53315 0.370626 0.41294
0.902922 0.275395 0.357992
1 0.23476 0.337545
0 0.931273 0.600702
0.120012 0.884779 0.577234
0.514092 0.79324 0.520836
0.875319 0.699413 0.46836
1 0.664454 0.452934
0 1 0.693049
0.109545 1 0.662882
0.517174 1 0.60264
0.862943 0.976959 0.551873
0.999573 0.945159 0.540902
0.0100099 0.0288396 0.607156
0.162722 0 0.595636
0.504448 0 0.546319
0.905882 0 0.484886
1 0 0.449302
0.00299077 0.166567 0.681422
0.175799 0.12462 0.665568
0.541131 0.0346532 0.612787
0.925841 0.00187686 0.554498
1 0 0.526955
0 0.517708 0.783047
0.154482 0.476707 0.763119
0.535775 0.382712 0.708247
0.902892 0.287999 0.652232
1 0.248325 0.630884
0 0.942138 0.895598
0.121172 0.894255 0.869917
0.51725 0.803494 0.811322
0.875975 0.710643 0.757153
1 0.676799 0.740414
0 1 0.947799
0.111879 1 0.927474
0.520958 1 0.880018
0.864195 0.981964 0.827436
0.99971 0.954147 0.814725
0.00743114 0.0346532 0.862837
0.164034 0.00112917 0.844831
0.508263 0 0.789685
0.909514 0 0.7234
1 0 0.683558
0.00259403 0.175387 0.918929
0.177172 0.132296 0.896284
0.545037 0.0406806 0.837873
0.927672 0.00271611 0.774716
1 0 0.74229
0 0.528786 0.991028
0.156085 0.48716 0.975753
0.539498 0.392264 0.914672
0.903731 0.297948 0.852766
1 0.259464 0.825971
0 0.950988 1
0.123125 0.899855 0.999893
0.520821 0.811337 0.988525
0.877653 0.719356 0.938125
1 0.68658 0.915923
0 1 1
0.115099 1 1
0.52517 1 0.99884
0.866651 0.98526 0.987549
0.999908 0.960372 0.971466
