luts/varicam_official/Sepia 1 33 E-E.cube
TITLE "Generated by Resolve"
LUT_3D_SIZE 5
0.0223392 0.0180667 0.0154879
0.168551 0.000732433 0.000259403
0.666941 0 0
1 0 0
1 0 0
0.00753796 0.162524 0.0397803
0.176776 0.116472 0.0103761
0.711223 0.00216678 0
1 0 0
1 0 0
0 0.697108 0.130953
0.119127 0.650813 0.0972457
0.68307 0.494591 0.00613413
1 0.380026 0
1 0.383856 0
0 1 0.231693
0.0620279 0.999985 0.191196
0.646021 0.994583 0.0835279
0.997589 0.936309 0.0157168
1 0.937041 0.0152438
0 1 0.240711
0.0817426 1 0.193637
0.691066 1 0.0809949
0.999863 0.976226 0.0226291
1 0.976211 0.0227207
0.0228885 0.0198215 0.0623484
0.175128 0.000686656 0.0357214
0.681773 0 7.62951e-05
1 0 0
1 0 0
0.00770581 0.170932 0.0991531
0.183978 0.12221 0.0678874
0.724666 0.00143435 0.000503548
1 0 0
1 0 0
0 0.714458 0.202731
0.125307 0.666239 0.168383
0.694713 0.508278 0.0647135
1 0.398581 0.00695811
1 0.401801 0.00799573
0 1 0.311894
0.0691844 1 0.272312
0.659861 0.999741 0.163195
1 0.953292 0.0991531
1 0.954131 0.0997177
0 1 0.329152
0.0920882 1 0.28304
0.705013 1 0.170794
1 0.980041 0.116045
1 0.980072 0.117372
0.0221866 0.0245365 0.239368
0.180636 0.000823987 0.216602
0.694331 0 0.126665
1 0 0.0426642
1 0 0.0354314
0.00683604 0.182101 0.304753
0.189044 0.131563 0.27718
0.737087 0.000976577 0.180774
1 0 0.103593
1 0 0.103761
0 0.735439 0.434913
0.129396 0.685588 0.404578
0.704631 0.525979 0.304829
1 0.419623 0.238483
1 0.423835 0.241108
0 1 0.566766
0.0744793 1 0.529641
0.670832 0.999985 0.424536
1 0.963806 0.367224
1 0.964828 0.370199
0 1 0.606073
0.0995956 1 0.563928
0.715633 1 0.455955
1 0.986694 0.407401
1 0.986725 0.409094
0.0195926 0.0334936 0.610376
0.184222 0.00215152 0.591089
0.70515 0 0.502297
1 0 0.420233
1 0 0.419989
0.00497444 0.197375 0.695171
0.191943 0.144915 0.670161
0.746746 0.00584421 0.57583
1 0 0.503548
1 0 0.506371
0 0.760143 0.840818
0.131792 0.70753 0.810483
0.712551 0.546624 0.711727
1 0.444205 0.649744
1 0.4486 0.654429
0 1 0.945693
0.0790112 1 0.921523
0.680171 1 0.833021
0.999817 0.977203 0.779202
1 0.978241 0.782635
0 1 0.966094
0.105928 1 0.948363
0.722759 1 0.865766
1 0.996155 0.820981
1 0.996216 0.823911
0.0172427 0.041825 0.951797
0.187793 0.00448615 0.925185
0.716701 0 0.830594
1 0 0.743709
1 0 0.740658
0.00326543 0.210666 0.993118
0.195132 0.156527 0.967529
0.757031 0.0125887 0.86656
1 7.62951e-05 0.790784
1 0 0.790173
0 0.781338 1
0.135683 0.726314 1
0.721157 0.563729 0.967254
1 0.465187 0.903319
1 0.468864 0.903349
0 1 1
0.0847181 1 1
0.689967 1 1
0.999649 0.984771 0.995346
1 0.98703 0.995407
0 1 1
0.114153 1 1
0.732341 1 1
0.999985 1 0.999466
1 1 0.999527
