luts/varicam_official/Sepia 1 33 E-E.cube
TITLE "Generated by Resolve"
LUT_3D_SIZE 33
0.0223392 0.0180667 0.0154879
0.0295262 0.0161288 0.0142214
0.03888 0.0135653 0.0125429
0.0512245 0.0104372 0.0102541
0.065919 0.00715648 0.00764477
0.0835737 0.00444038 0.00494392
0.107134 0.00317388 0.00251774
0.135592 0.00192264 0.000976577
0.168551 0.000732433 0.000259403
0.208728 3.0518e-05 9.15541e-05
0.257221 1.5259e-05 3.0518e-05
0.311498 0 1.5259e-05
0.371359 0 0
0.43801 0 0
0.510826 0 0
0.588022 0 0
0.666941 0 0
0.748089 0 0
0.82884 0 0
0.906172 0 0
0.964828 0 0
0.983841 0 0
0.993133 0 0
0.998093 0 0
1 0 0
1 0 0
1 0 0
1 0 0
1 0 0
1 0 0
1 0 0
1 0 0
1 0 0
0.0218509 0.024979 0.0167391
0.0293278 0.0229496 0.0154116
0.0388037 0.0203555 0.0136873
0.0516518 0.0169528 0.0112612
0.0666361 0.0133364 0.00854505
0.0849165 0.00982681 0.00556954
0.108736 0.00683604 0.00268559
0.138048 0.00395209 0.000976577
0.172061 0.00140383 0.000259403
0.21265 9.15541e-05 9.15541e-05
0.261372 0 3.0518e-05
0.316487 0 0
0.377203 0 0
0.444816 0 0
0.518135 0 0
0.595026 0 0
0.674311 0 0
0.755367 0 0
0.835889 0 0
0.91342 0 0
0.965652 0 0
0.984146 0 0
0.993729 0 0
0.998352 0 0
1 0 0
1 0 0
1 0 0
1 0 0
1 0 0
1 0 0
1 0 0
1 0 0
1 0 0
0.0209812 0.0337682 0.0181888
0.028748 0.031693 0.0168002
0.0380713 0.0290837 0.0151064
0.0514839 0.0252689 0.0125277
0.066865 0.0211948 0.0096437
0.0858778 0.0166476 0.00630198
0.110094 0.0117494 0.00289921
0.139803 0.00704967 0.000976577
0.174701 0.00306706 0.000274662
0.21648 0.0009308 7.62951e-05
0.265446 0.000335698 1.5259e-05
0.320989 9.15541e-05 0
0.383444 1.5259e-05 0
0.451423 0 0
0.524926 0 0
0.60235 0 0
0.681788 0 0
0.762783 0 0
0.844022 0 0
0.920363 0 0
0.965881 0 0
0.98436 0 0
0.994385 0 0
0.998749 0 0
1 0 0
1 0 0
1 0 0
1 0 0
1 0 0
1 0 0
1 0 0
1 0 0
1 0 0
0.0196078 0.0456703 0.0200961
0.0274968 0.0435645 0.018677
0.0371557 0.0408331 0.0168612
0.0507668 0.0369573 0.0142519
0.0663767 0.0324254 0.0112612
0.0864576 0.0268711 0.00753796
0.111162 0.0204013 0.00376898
0.140887 0.0138247 0.00134279
0.176837 0.00799573 0.000381476
0.219852 0.00401312 4.57771e-05
0.269551 0.00149538 0
0.325582 0.00030518 0
0.388586 4.57771e-05 0
0.457572 0 0
0.531182 0 0
0.608865 0 0
0.689357 0 0
0.770153 0 0
0.85066 0 0
0.926741 0 0
0.966323 0 0
0.984451 0 0
0.994583 0 0
0.999252 0 0
1 0 0
1 0 0
1 0 0
1 0 0
1 0 0
1 0 0
1 0 0
1 0 0
1 0 0
0.017731 0.059968 0.0223392
0.0258335 0.057847 0.0208133
0.0360571 0.055024 0.0188602
0.0495308 0.0513161 0.0162966
0.0654612 0.0468452 0.0132448
0.0862287 0.0409857 0.00943008
0.11136 0.0340581 0.00555428
0.141039 0.0264286 0.00247196
0.178042 0.0179904 0.000717174
0.222507 0.0100099 0.000106813
0.272358 0.00367742 0
0.328664 0.00062562 0
0.392615 0.00015259 0
0.462501 7.62951e-05 0
0.536583 1.5259e-05 0
0.614893 0 0
0.695186 0 0
0.776059 0 0
0.856123 0 0
0.932052 0 0
0.966766 0 0
0.984573 0 0
0.994568 0 0
0.999832 0 0
1 0 0
1 0 0
1 0 0
1 0 0
1 0 0
1 0 0
1 0 0
1 0 0
1 0 0
0.0155184 0.0780804 0.0251011
0.0235904 0.076112 0.0235752
0.0342718 0.0732128 0.0215457
0.0477455 0.0696574 0.0190585
0.0635691 0.0652323 0.0160983
0.08542 0.0590372 0.0121462
0.111131 0.0518502 0.00810254
0.141253 0.043473 0.00440986
0.179126 0.0332036 0.00167849
0.224308 0.0221103 0.00062562
0.274754 0.0125887 0.000167849
0.331411 0.00631724 1.5259e-05
0.395819 0.00303655 0
0.467063 0.00111391 0
0.542336 0.000198367 0
0.620081 0 0
0.70045 0 0
0.781704 0 0
0.861006 0 0
0.934447 0 0
0.967422 0 0
0.984497 0 0
0.994629 0 0
1 0 0
1 0 0
1 0 0
1 0 0
1 0 0
1 0 0
1 0 0
1 0 0
1 0 0
1 0 0
0.0128786 0.10042 0.0286259
0.0209049 0.0985275 0.0271
0.0317998 0.0957046 0.0251011
0.0452277 0.0920729 0.0227359
0.0611124 0.0877089 0.0200198
0.0838026 0.0813153 0.0160372
0.110002 0.0740673 0.01178
0.141039 0.0652934 0.00712596
0.178973 0.0544747 0.00320439
0.225025 0.041825 0.00144961
0.276295 0.0297398 0.000457771
0.3337 0.0186923 7.62951e-05
0.398993 0.00943008 0
0.470726 0.00332647 0
0.546166 0.000579843 0
0.624399 0 0
0.704921 0 0
0.786114 0 0
0.865309 0 0
0.93344 0 0
0.967758 0 0
0.984405 0 0
0.994781 0 0
1 0 0
1 0 0
1 0 0
1 0 0
1 0 0
1 0 0
1 0 0
1 0 0
1 0 0
1 0 0
0.0101015 0.127382 0.0332952
0.0175021 0.125643 0.0319677
0.0285954 0.122881 0.030045
0.0420386 0.119615 0.0278172
0.058381 0.115434 0.0250401
0.0812543 0.10927 0.0210117
0.107942 0.102007 0.0163729
0.139849 0.0931716 0.0110628
0.178546 0.0822003 0.00611887
0.224445 0.0693675 0.00291447
0.276707 0.0552224 0.000961318
0.33579 0.040589 0.000167849
0.401221 0.026276 1.5259e-05
0.472969 0.0155337 0
0.549065 0.00868238 0
0.627573 0.00421149 0
0.708614 0.000793469 0
0.790143 0 0
0.868345 0 0
0.931472 0 0
0.966934 0 0
0.984207 0 0
0.995148 0 0
1 0 0
1 0 0
1 0 0
1 0 0
1 0 0
1 0 0
1 0 0
1 0 0
1 0 0
1 0 0
0.00753796 0.162524 0.0397803
0.0131838 0.160891 0.038407
0.0241245 0.157778 0.0363775
0.037644 0.154467 0.0340734
0.0549172 0.150332 0.0311284
0.0775311 0.144198 0.0270695
0.104524 0.136858 0.0222171
0.137606 0.127657 0.0163882
0.176776 0.116472 0.0103761
0.223117 0.10338 0.00505074
0.276448 0.0883345 0.00163272
0.336141 0.0716259 0.000381476
0.40235 0.0544137 6.10361e-05
0.47425 0.0381933 0
0.550729 0.0241093 0
0.629908 0.0118715 0
0.711223 0.00216678 0
0.792386 0 0
0.869993 0 0
0.929335 0 0
0.965011 0 0
0.984085 0 0
0.995743 0 0
1 0 0
1 0 0
1 0 0
1 0 0
1 0 0
1 0 0
1 0 0
1 0 0
1 0 0
1 0 0
0.00491341 0.203357 0.0471351
0.00852979 0.201526 0.0457008
0.0189059 0.198489 0.043595
0.032578 0.195041 0.0411536
0.0504463 0.190173 0.0379492
0.0729686 0.183917 0.0338598
0.100191 0.176699 0.0289311
0.134371 0.16733 0.0227054
0.174624 0.156313 0.0155795
0.221088 0.143511 0.00830091
0.274601 0.128344 0.00317388
0.335592 0.110994 0.00108339
0.402457 0.0920729 0.000244144
0.474449 0.0721599 3.0518e-05
0.551904 0.0519875 0
0.631418 0.033402 0
0.712291 0.0190433 0
0.793103 0.0124666 0
0.870436 0.00784314 0
0.927077 0.00395209 0
0.962661 0.00125124 0
0.98352 1.5259e-05 0
0.996735 0 0
1 0 0
1 0 0
1 0 0
1 0 0
1 0 0
1 0 0
1 0 0
1 0 0
1 0 0
1 0 0
0.00224308 0.252674 0.055848
0.00495918 0.251362 0.0543984
0.0134279 0.248585 0.0523384
0.0264286 0.245212 0.0498054
0.0444038 0.240345 0.0464485
0.0666667 0.234333 0.042359
0.0939498 0.226825 0.0373236
0.12961 0.217563 0.0308537
0.170535 0.206058 0.0233768
0.217182 0.193042 0.0152743
0.271092 0.177798 0.00779736
0.333181 0.160311 0.00303655
0.400992 0.140917 0.000885023
0.473777 0.12079 0.00015259
0.550439 0.0991226 0
0.630426 0.077821 0
0.711543 0.0586862 0
0.791913 0.0432746 0
0.869749 0.0290379 0
0.924315 0.0184787 0
0.959854 0.0113222 0
0.982544 0.00755322 0
0.998291 0.00650034 0
1 0.00567636 0
1 0.00509651 0
1 0.00483711 0
1 0.00468452 0
1 0.00457771 0
1 0.00445563 0
1 0.00430304 0
1 0.00418097 0
1 0.0040589 0
1 0.00395209 0
0.000579843 0.310491 0.0658579
0.00274662 0.308843 0.064271
0.00880446 0.30634 0.062211
0.0198978 0.303029 0.0595865
0.0370947 0.298222 0.0561074
0.0592508 0.292256 0.0519265
0.0870222 0.285435 0.0469062
0.123018 0.275608 0.0402533
0.16495 0.263844 0.0324865
0.212268 0.250446 0.0238956
0.266758 0.235157 0.014786
0.329549 0.217182 0.00726329
0.398505 0.198062 0.00289921
0.471458 0.176974 0.00062562
0.548379 0.155108 1.5259e-05
0.628489 0.132311 0
0.709468 0.109941 0
0.790112 0.0884413 0
0.867765 0.067689 0
0.921355 0.0511635 0
0.956985 0.0396735 0
0.981765 0.0318914 0
0.999649 0.0272679 0
1 0.0241398 0
1 0.0220645 0
1 0.0211643 0
1 0.0210574 0
1 0.0211795 0
1 0.0213626 0
1 0.0216068 0
1 0.021622 0
1 0.0215152 0
1 0.0212253 0
1.5259e-05 0.375006 0.0768292
0.00154116 0.373449 0.0751965
0.00540169 0.371023 0.0730907
0.0129397 0.367651 0.0703593
0.0291752 0.363043 0.0667582
0.0508888 0.357656 0.062562
0.0791028 0.350118 0.0573129
0.115328 0.340459 0.05066
0.157763 0.328679 0.0427253
0.205982 0.315267 0.0337377
0.261295 0.30013 0.0236973
0.324376 0.282322 0.013962
0.393744 0.262348 0.00653086
0.467231 0.241215 0.00190738
0.54464 0.219181 0.000228885
0.625177 0.195804 1.5259e-05
0.706691 0.172854 0
0.786557 0.14995 0
0.862119 0.127749 0
0.917617 0.107927 0
0.953918 0.0916762 0
0.98117 0.0781262 0
0.999695 0.0686351 0
0.999969 0.0618753 0
1 0.0588388 0
1 0.0579843 0
1 0.0587015 0
1 0.0598154 0
1 0.0609445 0
1 0.0618448 0
1 0.0625925 0
1 0.0628824 0
1 0.0620737 0
0 0.445502 0.0886702
0.000762951 0.444434 0.0870375
0.002533 0.442176 0.0848402
0.00671397 0.439612 0.0821546
0.0213626 0.435111 0.0784924
0.042237 0.428962 0.074052
0.0704967 0.421622 0.0686809
0.106798 0.412177 0.0620279
0.149462 0.400641 0.054139
0.198596 0.387594 0.0451972
0.254902 0.372015 0.0350805
0.318502 0.353887 0.0242313
0.38793 0.334478 0.0143893
0.462104 0.313451 0.00663767
0.53994 0.291264 0.00166323
0.621073 0.268833 0.000183108
0.702205 0.245747 4.57771e-05
0.781735 0.22266 0
0.85507 0.200946 0
0.913268 0.180468 0
0.950683 0.163058 0
0.980102 0.148196 0
0.998123 0.136248 0
0.999985 0.127886 0
1 0.123796 0
1 0.123079 0
1 0.124132 0
1 0.125292 0
1 0.126085 0
1 0.127291 0
1 0.128145 0
1 0.128603 0
1 0.128023 0
0 0.523552 0.101595
0.000122072 0.522332 0.0998703
0.000564584 0.521065 0.0977646
0.00347906 0.517906 0.0949111
0.0144808 0.513252 0.091249
0.0330968 0.50779 0.0868849
0.0610513 0.500267 0.0815747
0.0974136 0.490623 0.0751202
0.139971 0.479774 0.0675975
0.190051 0.466056 0.0585946
0.247562 0.450141 0.0482643
0.311162 0.432685 0.0370031
0.380957 0.41294 0.0254215
0.456062 0.392279 0.0147707
0.534737 0.370291 0.00642405
0.615473 0.347524 0.00202945
0.696468 0.324437 0.000549325
0.775814 0.302068 0.000122072
0.847608 0.280461 1.5259e-05
0.907256 0.26041 0
0.947005 0.242741 0
0.978363 0.228305 0
0.995926 0.216709 0
1 0.208255 0
1 0.204166 0
1 0.204105 0
1 0.204349 0
1 0.205341 0
1 0.206134 0
1 0.206912 0
1 0.208011 0
1 0.208865 0
1 0.207568 0
0 0.608667 0.115648
1.5259e-05 0.607935 0.113924
0.000167849 0.605112 0.111589
0.00236515 0.601968 0.109041
0.00901808 0.597391 0.105776
0.0235752 0.591867 0.101625
0.0509957 0.584146 0.0962234
0.0870069 0.575051 0.0898299
0.129702 0.563424 0.0821698
0.180865 0.549569 0.0729839
0.239384 0.53344 0.0623941
0.30341 0.515984 0.0508736
0.373465 0.496727 0.0384833
0.449149 0.475746 0.0256962
0.527993 0.453513 0.0145571
0.60882 0.430381 0.0065919
0.690013 0.407645 0.00231937
0.768811 0.38529 0.000686656
0.840772 0.364721 0.000122072
0.900282 0.344717 0
0.943587 0.327153 0
0.976318 0.312444 0
0.994018 0.301686 0
1 0.294652 0
1 0.290867 0
1 0.290257 0
1 0.290852 0
1 0.291279 0
1 0.292363 0
1 0.293904 0
1 0.294713 0
1 0.295064 0
1 0.29369 0
0 0.697108 0.130953
0 0.696178 0.129488
9.15541e-05 0.693462 0.127367
0.00146487 0.689845 0.124697
0.00486763 0.685328 0.121401
0.0146792 0.67982 0.117144
0.0411078 0.671946 0.111559
0.0764324 0.662425 0.104967
0.119127 0.650813 0.0972457
0.17084 0.636683 0.0879225
0.230564 0.620401 0.0770581
0.295537 0.602884 0.0652781
0.365652 0.583673 0.0525521
0.441276 0.562402 0.0387732
0.520485 0.53994 0.0254368
0.601465 0.517281 0.0142214
0.68307 0.494591 0.00613413
0.762249 0.472435 0.00202945
0.833799 0.451575 0.000457771
0.893553 0.432059 4.57771e-05
0.939773 0.41445 0
0.974121 0.400381 0
0.992721 0.3906 0
0.999802 0.383658 0
1 0.380026 0
1 0.379919 0
1 0.380392 0
1 0.381353 0
1 0.382788 0
1 0.383871 0
1 0.384863 0
1 0.384939 0
1 0.383856 0
0 0.786923 0.14696
0 0.785779 0.14548
3.0518e-05 0.783429 0.143313
0.00047303 0.779858 0.140566
0.00141909 0.775921 0.13727
0.00753796 0.770016 0.132906
0.0323033 0.761593 0.127077
0.0658274 0.75172 0.120317
0.108537 0.740261 0.112444
0.160845 0.726009 0.102968
0.221164 0.710048 0.0920577
0.286641 0.69218 0.0800946
0.357259 0.67219 0.0670481
0.433356 0.651026 0.0530098
0.512856 0.628626 0.0384985
0.594141 0.606287 0.0247807
0.675746 0.583383 0.0129397
0.75465 0.56141 0.00502022
0.826764 0.539971 0.00149538
0.887312 0.520851 0.000228885
0.935302 0.503639 1.5259e-05
0.971633 0.490318 0
0.991638 0.4804 0
0.999023 0.473884 0
0.999924 0.470954 0
1 0.470497 0
1 0.471489 0
1 0.472999 0
1 0.473777 0
1 0.47454 0
1 0.475853 0
1 0.476066 0
1 0.475349 0
0 0.876966 0.163043
0 0.876005 0.161517
0 0.873182 0.159091
1.5259e-05 0.87071 0.15639
0.000457771 0.86595 0.152804
0.00596628 0.859907 0.148318
0.0254368 0.851423 0.142458
0.0556802 0.841596 0.135561
0.0984817 0.829831 0.127382
0.151278 0.815778 0.117784
0.211429 0.79913 0.106722
0.277623 0.780941 0.0945602
0.349065 0.760876 0.0813764
0.425361 0.739803 0.0673228
0.505821 0.717632 0.0524453
0.587076 0.694499 0.0375982
0.667659 0.671916 0.023743
0.747066 0.649241 0.0117342
0.819821 0.628061 0.00416571
0.881163 0.608804 0.0010071
0.930297 0.59202 9.15541e-05
0.967346 0.577813 1.5259e-05
0.990021 0.5682 1.5259e-05
0.99765 0.562158 0
0.999695 0.559457 0
1 0.559045 0
1 0.560235 0
1 0.560739 0
1 0.561791 0
1 0.562554 0
1 0.563348 0
1 0.564202 0
1 0.563195 0
0 0.944457 0.178439
0 0.942123 0.176867
0 0.938369 0.174472
0 0.933501 0.171511
0.000549325 0.927733 0.167712
0.00531014 0.920729 0.162936
0.0187533 0.91284 0.157137
0.045304 0.90399 0.150103
0.0884565 0.893034 0.141573
0.141833 0.88069 0.131762
0.202197 0.867063 0.120607
0.269001 0.851942 0.108217
0.340856 0.835889 0.0949264
0.418463 0.81828 0.0805982
0.498726 0.797681 0.0657054
0.580056 0.774884 0.0505989
0.660838 0.75201 0.0358892
0.739544 0.729595 0.0222477
0.812833 0.708629 0.0109865
0.874434 0.690059 0.00386053
0.923842 0.673503 0.00077821
0.962081 0.660029 0.000289921
0.987381 0.649653 7.62951e-05
0.996017 0.64448 4.57771e-05
0.999313 0.642481 4.57771e-05
1 0.642283 6.10361e-05
1 0.642832 6.10361e-05
1 0.643656 7.62951e-05
1 0.644114 7.62951e-05
1 0.645212 9.15541e-05
1 0.646616 0.000106813
1 0.646632 0.000106813
1 0.645701 0.000106813
0 0.96669 0.192859
0 0.965438 0.191043
0 0.963592 0.188602
0 0.961456 0.185657
0.000442512 0.958404 0.181552
0.00390631 0.95465 0.176532
0.012253 0.95053 0.170657
0.0339666 0.945235 0.163439
0.0790417 0.938262 0.154635
0.133135 0.930129 0.144686
0.193515 0.920409 0.133425
0.261036 0.909545 0.120882
0.334249 0.897017 0.10724
0.411856 0.882338 0.0927749
0.492317 0.864958 0.0779583
0.573877 0.845182 0.0629282
0.654444 0.82501 0.048188
0.733257 0.804669 0.0339818
0.806485 0.783902 0.0209506
0.86714 0.764889 0.0104524
0.91754 0.749126 0.00462348
0.957 0.736126 0.0019379
0.983215 0.726726 0.00077821
0.994873 0.721996 0.000518807
0.998962 0.720012 0.000442512
1 0.719646 0.000442512
1 0.720378 0.00047303
1 0.720974 0.000518807
1 0.721798 0.000564584
1 0.723095 0.000595102
1 0.723812 0.00062562
1 0.724178 0.000640879
1 0.723003 0.00062562
0 0.988632 0.205844
0 0.988357 0.2038
0 0.987686 0.201328
0 0.986603 0.198291
0.000228885 0.985412 0.194003
0.00189212 0.983856 0.188785
0.00553903 0.98204 0.182742
0.0234989 0.979263 0.175311
0.0712902 0.974792 0.166232
0.125917 0.968765 0.155962
0.18706 0.96173 0.144579
0.254414 0.953643 0.132143
0.328374 0.944289 0.118547
0.40679 0.93312 0.104128
0.487388 0.919432 0.0892805
0.568887 0.904265 0.0743267
0.650217 0.888319 0.0595102
0.728084 0.87039 0.0452277
0.800397 0.851255 0.0317998
0.861204 0.833234 0.0198062
0.912749 0.817929 0.0115511
0.952575 0.805829 0.00636301
0.979507 0.797223 0.00355535
0.994232 0.792111 0.00233463
0.998627 0.790478 0.00196841
0.999939 0.790692 0.0018616
1 0.791226 0.0018616
1 0.792874 0.00192264
1 0.793698 0.00195315
1 0.79472 0.00198367
1 0.795285 0.00202945
1 0.795377 0.00205997
1 0.794568 0.00202945
0 0.997925 0.216648
0 0.998047 0.214511
0 0.998154 0.211978
0 0.998337 0.208927
4.57771e-05 0.99855 0.204456
0.000396735 0.998779 0.199191
0.00241093 0.998734 0.192935
0.019913 0.997848 0.185382
0.0659953 0.99559 0.176287
0.12079 0.992355 0.166033
0.181903 0.988128 0.154681
0.249699 0.983505 0.142229
0.324315 0.977905 0.128573
0.403052 0.970611 0.114168
0.484138 0.961379 0.0993362
0.566201 0.950378 0.0842756
0.646906 0.937987 0.0694591
0.724514 0.923751 0.0552682
0.795819 0.907851 0.0418097
0.856092 0.892546 0.029633
0.909468 0.878431 0.0199588
0.949065 0.866438 0.0131533
0.976394 0.857923 0.00872816
0.992828 0.852583 0.00611887
0.998245 0.851316 0.00517281
0.999756 0.851637 0.00488289
1 0.85275 0.00486763
1 0.853574 0.00488289
1 0.854536 0.00486763
1 0.855451 0.00485237
1 0.856428 0.00485237
1 0.85655 0.00480659
1 0.856107 0.00479133
0 0.999985 0.225315
0 0.999969 0.222995
0 0.999969 0.220371
0 0.999954 0.217105
1.5259e-05 0.999954 0.212558
7.62951e-05 0.999985 0.207401
0.00277714 0.999985 0.201251
0.0211337 0.999878 0.193774
0.0632029 0.999619 0.184802
0.116777 0.999298 0.174578
0.178515 0.998871 0.163149
0.246952 0.998184 0.150591
0.321721 0.996674 0.13695
0.401236 0.993179 0.122469
0.482261 0.987716 0.107637
0.564111 0.980926 0.0925917
0.645212 0.973327 0.0777295
0.723064 0.962905 0.063386
0.792828 0.951049 0.0500191
0.852888 0.938979 0.0378729
0.906859 0.926421 0.0278477
0.946288 0.915297 0.020325
0.973846 0.907012 0.0149996
0.990814 0.9019 0.0116884
0.997971 0.900053 0.0102846
0.999603 0.900679 0.010071
1 0.901366 0.0100557
1 0.901946 0.0100862
1 0.902434 0.0100862
1 0.903166 0.010071
1 0.904021 0.0100557
1 0.90428 0.00999466
1 0.903624 0.0099031
0 1 0.231693
0 1 0.229358
0 1 0.22681
0 1 0.223514
0 1 0.219211
0 1 0.214023
0.00360113 1 0.207706
0.02327 1 0.200092
0.0620279 0.999985 0.191196
0.114672 0.999985 0.180926
0.177234 1 0.169451
0.246571 0.999985 0.156786
0.322316 0.999817 0.142992
0.401602 0.999298 0.128511
0.482719 0.998444 0.113634
0.564721 0.997009 0.0985275
0.646021 0.994583 0.0835279
0.724132 0.988037 0.0690929
0.792203 0.979919 0.055787
0.851194 0.971191 0.0438544
0.905394 0.961395 0.0336461
0.944823 0.951339 0.0260471
0.972168 0.943358 0.0206455
0.989303 0.938399 0.0172732
0.997589 0.936309 0.0157168
0.999588 0.936172 0.0154116
1 0.936324 0.0153201
1 0.936614 0.0152895
1 0.936751 0.0152132
1 0.937148 0.0152438
1 0.937453 0.0153201
1 0.937484 0.0153201
1 0.937041 0.0152438
0 1 0.236484
0 1 0.234318
0 1 0.231601
0 1 0.228183
0 1 0.22388
0 1 0.218708
0.00430304 1 0.212161
0.0252537 1 0.204334
0.0623026 1 0.195285
0.114 1 0.184985
0.178119 1 0.173266
0.249088 1 0.160281
0.32459 0.999985 0.14641
0.403906 0.999969 0.131807
0.485573 0.999969 0.116701
0.567636 0.999847 0.101549
0.649241 0.999496 0.0864729
0.72697 0.998154 0.0721141
0.793256 0.995331 0.0589914
0.85182 0.990463 0.0472267
0.904646 0.983429 0.0371099
0.945449 0.974044 0.0292515
0.972061 0.966369 0.0239414
0.988647 0.96141 0.0206912
0.997253 0.95906 0.0190738
0.999802 0.958495 0.0186465
1 0.958511 0.0186007
1 0.95848 0.018616
1 0.958679 0.0186465
1 0.95874 0.018677
1 0.958877 0.0187686
1 0.958862 0.0187839
1 0.958587 0.0187381
0 1 0.239399
0 1 0.237278
0 1 0.234485
0 1 0.2309
0 1 0.22649
0 1 0.221256
0.00488289 1 0.21442
0.0272679 1 0.206332
0.0642557 1 0.197116
0.116152 1 0.186633
0.181598 1 0.174563
0.253117 1 0.161318
0.328847 1 0.147295
0.408499 1 0.132494
0.490654 1 0.11722
0.573419 0.999985 0.101854
0.654414 0.999954 0.0867628
0.731975 0.999908 0.0723278
0.796918 0.999207 0.0592355
0.854902 0.997269 0.0476234
0.906264 0.993179 0.037705
0.948043 0.985733 0.0296941
0.973266 0.978302 0.0246281
0.989029 0.9738 0.0217746
0.997269 0.971496 0.0204471
0.999969 0.970916 0.0201724
1 0.970871 0.0202335
1 0.970779 0.0202945
1 0.970703 0.0203708
1 0.970687 0.0204318
1 0.970657 0.0204929
1 0.970611 0.0204929
1 0.970535 0.0204929
0 1 0.240558
0 1 0.238361
0 1 0.235538
0 1 0.23183
0 1 0.227359
0 1 0.221912
0.00527962 1 0.214954
0.0292363 1 0.206638
0.0674907 1 0.197208
