luts/varicam_official/Sepia 1 33 E-E.cube
TITLE "Generated by Resolve"
LUT_3D_SIZE 9
0.0223392 0.0180667 0.0154879
0.065919 0.00715648 0.00764477
0.168551 0.000732433 0.000259403
0.371359 0 0
0.666941 0 0
0.964828 0 0
1 0 0
1 0 0
1 0 0
0.017731 0.059968 0.0223392
0.0654612 0.0468452 0.0132448
0.178042 0.0179904 0.000717174
0.392615 0.00015259 0
0.695186 0 0
0.966766 0 0
1 0 0
1 0 0
1 0 0
0.00753796 0.162524 0.0397803
0.0549172 0.150332 0.0311284
0.176776 0.116472 0.0103761
0.40235 0.0544137 6.10361e-05
0.711223 0.00216678 0
0.965011 0 0
1 0 0
1 0 0
1 0 0
1.5259e-05 0.375006 0.0768292
0.0291752 0.363043 0.0667582
0.157763 0.328679 0.0427253
0.393744 0.262348 0.00653086
0.706691 0.172854 0
0.953918 0.0916762 0
1 0.0588388 0
1 0.0609445 0
1 0.0620737 0
0 0.697108 0.130953
0.00486763 0.685328 0.121401
0.119127 0.650813 0.0972457
0.365652 0.583673 0.0525521
0.68307 0.494591 0.00613413
0.939773 0.41445 0
1 0.380026 0
1 0.382788 0
1 0.383856 0
0 0.96669 0.192859
0.000442512 0.958404 0.181552
0.0790417 0.938262 0.154635
0.334249 0.897017 0.10724
0.654444 0.82501 0.048188
0.91754 0.749126 0.00462348
0.998962 0.720012 0.000442512
1 0.721798 0.000564584
1 0.723003 0.00062562
0 1 0.231693
0 1 0.219211
0.0620279 0.999985 0.191196
0.322316 0.999817 0.142992
0.646021 0.994583 0.0835279
0.905394 0.961395 0.0336461
0.997589 0.936309 0.0157168
1 0.936751 0.0152132
1 0.937041 0.0152438
0 1 0.24097
0 1 0.227405
0.0704814 1 0.196674
0.340169 1 0.14548
0.666072 1 0.0845197
0.912642 0.995743 0.0367742
0.997894 0.976303 0.0212558
1 0.976013 0.0214084
1 0.976059 0.0217594
0 1 0.240711
0 1 0.22562
0.0817426 1 0.193637
0.364187 1 0.141238
0.691066 1 0.0809949
0.930205 0.994766 0.0351568
0.999863 0.976226 0.0226291
1 0.976211 0.0227512
1 0.976211 0.0227207
0.0226902 0.0187076 0.0297246
0.0673075 0.00723278 0.0218814
0.171939 0.000701915 0.0062562
0.377447 0 6.10361e-05
0.674769 0 0
0.967254 0 0
1 0 0
1 0 0
1 0 0
0.0179904 0.0617227 0.0393835
0.0665293 0.0481422 0.0307774
0.181796 0.0184024 0.0116732
0.398657 0.000320439 0.000244144
0.702815 0 0
0.9691 0 0
1 0 0
1 0 0
1 0 0
0.00773632 0.16643 0.0594186
0.05626 0.15346 0.0503243
0.180453 0.119249 0.0279088
0.408637 0.0560311 0.0016022
0.718242 0.00180056 0
0.967178 0 0
1 0 0
1 0 0
1 0 0
7.62951e-05 0.381857 0.098024
0.0297856 0.369284 0.0882124
0.160754 0.334371 0.0646372
0.399313 0.267231 0.0228122
0.713176 0.176989 0.000320439
0.956527 0.0968338 0
1 0.0639353 0
1 0.0665141 0
1 0.0675975 0
0 0.705898 0.155932
0.0047303 0.694301 0.145892
0.122286 0.658396 0.120958
0.37113 0.590234 0.0755932
0.688716 0.501122 0.0203098
0.948501 0.421729 0.000198367
1 0.388907 0
1 0.391577 0
1 0.392264 0
0 0.968948 0.218128
0.000610361 0.961105 0.206775
0.0825818 0.942946 0.179721
0.340154 0.912169 0.132677
0.660441 0.835904 0.0736858
0.931548 0.758312 0.0239719
0.999969 0.73051 0.00955215
1 0.73228 0.00958267
1 0.733852 0.00962844
0 1 0.259281
0 1 0.247044
0.0659037 1 0.218372
0.328222 1 0.169314
0.653132 0.99942 0.109117
0.916335 0.974487 0.0597086
1 0.949493 0.0425727
1 0.950042 0.0425574
1 0.950347 0.0424811
0 1 0.268696
0 1 0.254856
0.0747082 1 0.223743
0.347478 1 0.172473
0.672969 1 0.112016
0.924758 0.996872 0.0650339
1 0.978912 0.0499733
1 0.978622 0.0498817
1 0.978622 0.0496834
0 1 0.270558
0 1 0.255955
0.0872816 1 0.22359
0.37142 1 0.170886
0.69836 1 0.110124
0.943542 0.996231 0.0646525
1 0.978698 0.052369
1 0.978698 0.0525521
1 0.978698 0.0525521
0.0228885 0.0198215 0.0623484
0.0684672 0.00770581 0.0549325
0.175128 0.000686656 0.0357214
0.383001 0 0.00674449
0.681773 0 7.62951e-05
0.96968 0 0
1 0 0
1 0 0
1 0 0
0.0180819 0.0638437 0.0753948
0.0676432 0.0499123 0.067216
0.185138 0.0190738 0.0464942
0.404471 0.00047303 0.0121157
0.709865 0 6.10361e-05
0.971069 0 0
1 0 0
1 0 0
1 0 0
0.00770581 0.170932 0.0991531
0.0572976 0.157443 0.0903487
0.183978 0.12221 0.0678874
0.414466 0.0580301 0.0269627
0.724666 0.00143435 0.000503548
0.968643 0 1.5259e-05
1 0 0
1 0 0
1 0 0
0.000137331 0.388968 0.141314
0.0301518 0.376059 0.132174
0.163455 0.340032 0.108843
0.40473 0.272312 0.0654612
0.71931 0.18201 0.0155032
0.958892 0.102266 0.000549325
1 0.0702068 0
1 0.072343 0
1 0.0735332 0
0 0.714458 0.202731
0.00460822 0.702663 0.193347
0.125307 0.666239 0.168383
0.376104 0.598108 0.122942
0.694713 0.508278 0.0647135
0.952483 0.43006 0.0180514
1 0.398581 0.00695811
1 0.400366 0.00767529
1 0.401801 0.00799573
0 0.971283 0.267155
0.000732433 0.963806 0.256458
0.0857099 0.947082 0.229786
0.344839 0.918135 0.18349
0.666636 0.841917 0.12546
0.934936 0.765972 0.0761273
0.999985 0.738994 0.0579385
1 0.740993 0.0579385
1 0.742077 0.0581216
0 1 0.311894
0 1 0.300481
0.0691844 1 0.272312
0.334295 1 0.223163
0.659861 0.999741 0.163195
0.919493 0.97734 0.115206
1 0.953292 0.0991531
1 0.953735 0.0996719
1 0.954131 0.0997177
0 1 0.3243
0 1 0.310918
0.0786297 1 0.279805
0.353826 1 0.228992
0.679927 1 0.169406
0.92842 0.99675 0.12343
1 0.980163 0.109316
1 0.979889 0.109682
1 0.979889 0.109545
0 1 0.329152
0 1 0.315114
0.0920882 1 0.28304
0.378363 1 0.230747
0.705013 1 0.170794
0.946334 0.996063 0.126848
1 0.980041 0.116045
1 0.980072 0.117189
1 0.980072 0.117372
0.0227207 0.021622 0.126345
0.0691844 0.00900282 0.119677
0.177966 0.000732433 0.100847
0.388434 0 0.0633097
0.688197 0 0.0196078
0.969894 0 0.000976577
1 0 6.10361e-05
1 0 0
1 0 0
0.0178225 0.066743 0.145815
0.0682841 0.0525368 0.138628
0.187915 0.0208133 0.118242
0.409735 0.00062562 0.0781872
0.716396 0 0.0266575
0.97261 0 0.000183108
1 0 1.5259e-05
1 0 0.000518807
1 0 0.00077821
0.00741588 0.17612 0.175296
0.0580758 0.162234 0.166842
0.186664 0.126314 0.144518
0.420005 0.0605631 0.102495
0.731121 0.00117494 0.0478065
0.969604 0 0.0102846
1 0 0.00593576
1 0 0.0061799
1 0 0.00616464
0.000198367 0.396994 0.222889
0.0302739 0.383825 0.215335
0.165728 0.34728 0.192905
0.4094 0.278187 0.149691
0.725002 0.18819 0.09308
0.960754 0.109026 0.0440681
1 0.0770581 0.0229801
1 0.0791791 0.0232395
1 0.0804913 0.024033
0 0.724666 0.291371
0.00463874 0.712032 0.282856
0.127581 0.675746 0.25861
0.380606 0.60557 0.213016
0.699931 0.516365 0.156069
0.95668 0.438849 0.106386
1 0.408347 0.0868391
1 0.411032 0.088014
1 0.412024 0.0884108
0 0.973831 0.360769
0.000808728 0.966796 0.351263
0.0883803 0.951202 0.325689
0.350042 0.924941 0.279225
0.671687 0.849683 0.221851
0.937804 0.773861 0.173739
0.999985 0.747158 0.156542
1 0.75024 0.157992
1 0.751736 0.158892
0 1 0.410376
0 1 0.399695
0.0722515 1 0.371939
0.33991 1 0.323018
0.665553 0.999878 0.264195
0.922042 0.980697 0.218555
1 0.957977 0.204471
1 0.95848 0.206119
1 0.958831 0.206271
0 1 0.42739
0 1 0.415305
0.0817121 1 0.385519
0.360098 1 0.335531
0.685878 1 0.276768
0.931594 0.997086 0.232425
1 0.982681 0.219577
1 0.982498 0.220478
1 0.982498 0.220569
0 1 0.438972
0 1 0.426108
0.0961013 1 0.394354
0.384253 1 0.341985
0.710597 1 0.282628
0.948333 0.996445 0.23975
1 0.982773 0.231434
1 0.982818 0.233921
1 0.982818 0.234348
0.0221866 0.0245365 0.239368
0.0695811 0.0115663 0.23386
0.180636 0.000823987 0.216602
0.392966 0 0.180163
0.694331 0 0.126665
0.970108 0 0.07393
1 0 0.0426642
1 0 0.0370184
1 0 0.0354314
0.0170596 0.0706798 0.267262
0.0686046 0.0562295 0.261952
0.190372 0.0234226 0.242679
0.414862 0.000900282 0.203738
0.722835 0 0.148119
0.973693 0 0.0942702
1 0 0.0649882
1 0 0.0631571
1 0 0.0637522
0.00683604 0.182101 0.304753
0.0582284 0.168078 0.298222
0.189044 0.131563 0.27718
0.424643 0.0646525 0.236225
0.737087 0.000976577 0.180774
0.970291 0 0.129183
1 0 0.103593
1 0 0.103365
1 0 0.103761
0.000213626 0.405905 0.360265
0.0297551 0.392538 0.353521
0.167193 0.355322 0.331823
0.413046 0.28513 0.289143
0.730205 0.195529 0.23328
0.962707 0.116823 0.183322
1 0.0851148 0.161776
1 0.0879072 0.1635
1 0.0886549 0.164111
0 0.735439 0.434913
0.0047303 0.723262 0.427695
0.129396 0.685588 0.404578
0.384573 0.615122 0.360616
0.704631 0.525979 0.304829
0.960388 0.449042 0.257038
1 0.419623 0.238483
1 0.422477 0.240528
1 0.423835 0.241108
0 0.976883 0.511559
0.000854505 0.970138 0.503716
0.0903029 0.955169 0.478614
0.354147 0.931807 0.433417
0.676692 0.857862 0.37673
0.939666 0.783093 0.329946
0.999985 0.757748 0.314199
1 0.760906 0.316747
1 0.762081 0.317586
0 1 0.566766
0 1 0.557321
0.0744793 1 0.529641
0.345418 1 0.481712
0.670832 0.999985 0.424536
0.923445 0.984497 0.379828
1 0.963806 0.367224
1 0.964401 0.36965
1 0.964828 0.370199
0 1 0.588479
0 1 0.577905
0.0844434 1 0.548836
0.365698 1 0.499672
0.691402 1 0.442222
0.933516 0.998077 0.399329
1 0.98645 0.388449
1 0.986328 0.39115
1 0.986343 0.391974
0 1 0.606073
0 1 0.594446
0.0995956 1 0.563928
0.389685 1 0.512993
0.715633 1 0.455955
0.949508 0.997635 0.414847
1 0.986694 0.407401
1 0.986755 0.410178
1 0.986725 0.409094
0.0211032 0.0285496 0.405982
0.069398 0.015198 0.402045
0.182559 0.00105287 0.385763
0.39733 0 0.350088
0.699733 0 0.297108
0.970138 0 0.243641
1 0 0.213031
1 0 0.210986
1 0 0.212039
0.0157626 0.0758526 0.441184
0.0683452 0.0611887 0.437201
0.192294 0.0272984 0.418677
0.41886 0.00123598 0.380102
0.728328 0 0.326375
0.974731 0 0.274311
1 0 0.247044
1 0 0.246418
1 0 0.247318
0.00601205 0.189364 0.485679
0.0577249 0.175357 0.480522
0.190677 0.13814 0.4607
0.42829 0.06981 0.420447
0.742016 0.00202945 0.366155
0.970871 0 0.315908
1 0 0.291691
1 0 0.292988
1 0 0.29366
0.000213626 0.4159 0.548363
0.0288396 0.40264 0.542855
0.168276 0.364706 0.521889
0.41677 0.294179 0.479377
0.734874 0.204593 0.42443
0.964431 0.125521 0.375921
1 0.0941939 0.355474
1 0.0970779 0.358572
1 0.0980087 0.359274
0 0.747951 0.628107
0.00469978 0.734874 0.622003
0.13077 0.696513 0.599313
0.387808 0.625696 0.555856
0.70869 0.536004 0.500984
0.964172 0.459754 0.4542
1 0.4318 0.437201
1 0.434989 0.440467
1 0.435904 0.441489
0 0.980072 0.709438
0.000839246 0.973556 0.702281
0.0921035 0.959411 0.677241
0.358099 0.938262 0.632502
0.681254 0.866865 0.577142
0.941009 0.792691 0.531762
0.999985 0.768994 0.518273
1 0.772274 0.521782
1 0.773358 0.52256
0 1 0.76817
0 1 0.759625
0.0769665 1 0.732616
0.349844 1 0.685466
0.675792 1 0.628931
0.924697 0.988403 0.585367
0.999985 0.970581 0.573816
1 0.971298 0.577127
1 0.971542 0.577432
0 1 0.794202
0 1 0.78381
0.0868086 1 0.755032
0.370489 1 0.70605
0.696513 1 0.649378
0.935424 0.999573 0.607614
0.999939 0.99115 0.598886
1 0.991073 0.602106
1 0.991073 0.602243
0 1 0.814328
0 1 0.802884
0.102892 1 0.772839
0.394476 1 0.72311
0.719142 1 0.66601
0.950637 0.999496 0.626505
1 0.99147 0.62031
1 0.991547 0.623499
1 0.991531 0.623011
0.0195926 0.0334936 0.610376
0.0687724 0.0194858 0.607416
0.184222 0.00215152 0.591089
0.401144 0 0.554665
0.70515 0 0.502297
0.96994 0 0.449577
1 0 0.420233
1 0 0.418936
1 0 0.419989
0.0144503 0.0817578 0.648554
0.0680095 0.0668803 0.644465
0.193774 0.0321355 0.626184
0.422751 0.00172427 0.587671
0.733654 0 0.534112
0.975143 0 0.482704
1 0 0.455955
1 0 0.457252
1 0 0.458091
0.00497444 0.197375 0.695171
0.057145 0.182864 0.690074
0.191943 0.144915 0.670161
0.432044 0.0762798 0.629709
0.746746 0.00584421 0.57583
0.971496 7.62951e-05 0.526406
1 0 0.503548
1 0 0.505898
1 0 0.506371
0.000183108 0.42678 0.759564
0.0277562 0.412833 0.754147
0.16907 0.373724 0.732509
0.419959 0.303731 0.690654
0.738842 0.213779 0.636133
0.9664 0.135241 0.58761
1 0.104372 0.567803
1 0.107103 0.571023
1 0.107561 0.571939
0 0.760143 0.840818
0.0047303 0.74696 0.834119
0.131792 0.70753 0.810483
0.391241 0.636545 0.766827
0.712551 0.546624 0.711727
0.966903 0.470542 0.66482
1 0.444205 0.649744
1 0.447456 0.653712
1 0.4486 0.654429
0 0.983017 0.91841
0.000793469 0.976806 0.910063
0.0937972 0.963607 0.886198
0.361501 0.944121 0.842527
0.68545 0.875746 0.786984
0.942458 0.80267 0.741909
0.999985 0.780438 0.729229
1 0.784115 0.732799
1 0.785107 0.733516
0 1 0.945693
0 1 0.939681
0.0790112 1 0.921523
0.354665 1 0.888533
0.680171 1 0.833021
0.926101 0.99144 0.790097
0.999817 0.977203 0.779202
1 0.978058 0.782269
1 0.978241 0.782635
0 1 0.95845
0 1 0.951537
0.0891127 1 0.936095
0.375311 1 0.906767
0.700542 1 0.851179
0.937423 0.999878 0.810132
0.999817 0.995834 0.801495
1 0.995804 0.804456
1 0.995804 0.804822
0 1 0.966094
9.15541e-05 1 0.960678
0.105928 1 0.948363
0.39942 1 0.922271
0.722759 1 0.865766
0.951659 0.999832 0.826825
1 0.996155 0.820981
1 0.996201 0.823362
1 0.996216 0.823911
0.0181277 0.0382849 0.80972
0.0683146 0.0238346 0.805508
0.185763 0.00352483 0.78819
0.404929 0 0.751156
0.710552 0 0.698787
0.970138 0 0.645899
1 0 0.615885
1 0 0.614481
1 0 0.615137
0.01355 0.0873426 0.843702
0.0678111 0.072282 0.838804
0.195453 0.0367285 0.819669
0.426612 0.00228885 0.780179
0.738827 0 0.724849
0.975326 0 0.672526
1 0 0.645563
1 0 0.645914
1 0 0.646784
0.00384527 0.204944 0.886488
0.0565499 0.190082 0.879194
0.193286 0.151476 0.857023
0.435859 0.0822156 0.815076
0.751446 0.00979629 0.759716
0.972045 0.000457771 0.709697
1 1.5259e-05 0.686748
1 0 0.687938
1 0 0.688289
0.000137331 0.436652 0.942321
0.0269474 0.422415 0.935927
0.170306 0.382803 0.913207
0.423468 0.312276 0.869871
0.743191 0.222507 0.813397
0.968277 0.144152 0.764096
1 0.114015 0.744579
1 0.116167 0.747097
1 0.11635 0.74789
0 0.771893 0.990402
0.00489815 0.757671 0.986343
0.133425 0.717845 0.972366
0.395056 0.646036 0.937636
0.716304 0.556298 0.882795
0.96965 0.480964 0.836042
1 0.455817 0.821027
1 0.459403 0.823713
1 0.459449 0.823926
0 0.985367 0.999069
0.000717174 0.979461 0.998871
0.0955367 0.967224 0.998322
0.365927 0.94934 0.987411
0.689525 0.883665 0.95021
0.944289 0.811383 0.905531
0.999985 0.790249 0.892531
1 0.794553 0.895445
1 0.795041 0.895827
0 1 1
0 1 1
0.0814374 1 1
0.359701 1 0.998291
0.684367 1 0.985275
0.927871 0.993179 0.949691
0.999649 0.982269 0.938476
1 0.983612 0.940002
1 0.983734 0.939879
0 1 1
0 1 1
0.0922103 1 0.999969
0.380575 1 0.999191
0.705089 1 0.989013
0.939834 1 0.960372
0.999832 0.999054 0.950408
1 0.999039 0.951629
1 0.999054 0.951888
0 1 1
0.000274662 1 1
0.109651 1 1
0.404685 1 0.999069
0.727169 1 0.989792
0.953017 1 0.966384
0.999985 0.999237 0.960479
1 0.999268 0.962036
1 0.999268 0.962463
0.0172427 0.041825 0.951797
0.0683452 0.0270542 0.945098
0.187793 0.00448615 0.925185
0.409445 0 0.885969
0.716701 0 0.830594
0.97084 0 0.775601
1 0 0.743709
1 0 0.740398
1 0 0.740658
0.0130617 0.0915236 0.972793
0.0682383 0.0759594 0.965408
0.19736 0.0396429 0.94287
0.43125 0.00262455 0.899886
0.744808 0 0.842161
0.975891 0 0.78854
1 0 0.761196
1 0 0.760449
1 0 0.760845
0.00326543 0.210666 0.993118
0.056733 0.195392 0.987671
0.195132 0.156527 0.967529
0.440436 0.0864118 0.923705
0.757031 0.0125887 0.86656
0.973022 0.000915541 0.81529
1 7.62951e-05 0.790784
1 3.0518e-05 0.790143
1 0 0.790173
9.15541e-05 0.444907 0.999725
0.0268864 0.430167 0.999481
0.172274 0.390265 0.998352
0.42739 0.319524 0.967239
0.748058 0.229175 0.908476
0.970657 0.151217 0.858
1 0.122316 0.838041
1 0.124315 0.839368
1 0.123369 0.839582
0 0.781338 1
0.00526436 0.766751 1
0.135683 0.726314 1
0.39939 0.653971 0.998932
0.721157 0.563729 0.967254
0.972168 0.488975 0.919615
1 0.465187 0.903319
1 0.468681 0.903532
1 0.468864 0.903349
0 0.986893 1
0.000686656 0.981353 1
0.0982834 0.970092 1
0.370428 0.95433 1
0.694514 0.888548 0.999512
0.946548 0.81825 0.976532
1 0.798352 0.961883
1 0.802106 0.962463
1 0.803464 0.962875
0 1 1
0 1 1
0.0847181 1 1
0.36556 1 1
0.689967 1 1
0.930632 0.993774 0.998978
0.999649 0.984771 0.995346
1 0.986221 0.995422
1 0.98703 0.995407
0 1 1
0 1 1
0.0960708 1 1
0.387076 1 1
0.710872 1 1
0.942931 1 0.99968
0.999908 0.999985 0.998398
1 0.999985 0.998535
1 0.999985 0.998642
0 1 1
0.000427253 1 1
0.114153 1 1
0.410132 1 1
0.732341 1 1
0.955215 1 0.999939
0.999985 1 0.999466
1 1 0.999603
1 1 0.999527
