luts/varicam_official/SteelBlue.cube
TITLE "Generated by Resolve"
LUT_3D_SIZE 5
0.0754559 0.0754559 0.0754559
0.0981765 0.0710918 0.0738384
0.199664 0.0632639 0.0653086
0.484382 0.0625162 0.0625162
0.786084 0.0625162 0.0625162
0.076936 0.119539 0.091249
0.115908 0.113878 0.0872969
0.24976 0.0847639 0.0688182
0.563592 0.0625162 0.0625162
0.846998 0.0625162 0.0625162
0.0645151 0.307088 0.134173
0.112612 0.29984 0.127245
0.278767 0.267659 0.102007
0.615305 0.191455 0.0640116
0.863416 0.132189 0.0625162
0.0625162 0.751003 0.224292
0.0827192 0.731136 0.211749
0.280751 0.68629 0.180117
0.632868 0.605325 0.123308
0.865904 0.554284 0.0865034
0.0625162 0.918441 0.294987
0.0721599 0.916976 0.277913
0.288426 0.918837 0.239628
0.647669 0.885328 0.179431
0.861784 0.833951 0.144808
0.0755322 0.0760967 0.0952773
0.101442 0.0719005 0.107637
0.206897 0.0633402 0.104616
0.495293 0.0625162 0.0749676
0.795163 0.0625162 0.0632181
0.0771801 0.122835 0.145373
0.117021 0.116609 0.146319
0.252766 0.0869154 0.133547
0.566888 0.0625467 0.0910811
0.848081 0.0625162 0.0696727
0.0645457 0.311833 0.215702
0.112749 0.303716 0.211093
0.279271 0.270695 0.191714
0.614313 0.194003 0.145418
0.862013 0.134829 0.111009
0.0625162 0.753979 0.338704
0.0829786 0.73257 0.325582
0.279194 0.687083 0.298024
0.629862 0.606378 0.248127
0.862409 0.554772 0.216541
0.0625162 0.918196 0.434211
0.0716716 0.916289 0.414481
0.285512 0.917861 0.379202
0.642603 0.886595 0.325628
0.857557 0.834897 0.296345
0.0757 0.0794232 0.195148
0.104417 0.0760357 0.257893
0.214649 0.063508 0.285939
0.510109 0.0625162 0.279286
0.807935 0.0625162 0.257801
0.0764019 0.130251 0.346639
0.117693 0.124224 0.360586
0.257252 0.0928969 0.362966
0.57377 0.0628977 0.337575
0.850492 0.0625162 0.311681
0.064683 0.324422 0.473915
0.112428 0.315435 0.472541
0.281193 0.281315 0.461372
0.617304 0.204105 0.425971
0.861845 0.144869 0.399512
0.0625162 0.766369 0.640757
0.0839399 0.744015 0.62591
0.28011 0.697414 0.60087
0.629877 0.616388 0.557336
0.861936 0.565835 0.531685
0.0625162 0.918837 0.757885
0.0723278 0.917235 0.735073
0.286061 0.91873 0.700633
0.642145 0.890532 0.6495
0.85536 0.842878 0.623117
0.0747387 0.0890822 0.533639
0.105562 0.0852216 0.621988
0.22295 0.0659037 0.665034
0.5252 0.0625162 0.663783
0.822629 0.0625162 0.642054
0.0747387 0.143572 0.732311
0.117647 0.136477 0.745968
0.26244 0.102892 0.746639
0.583093 0.0637522 0.71751
0.854246 0.0625162 0.685771
0.0645609 0.343359 0.854139
0.112001 0.332433 0.849088
0.284947 0.296605 0.830655
0.622766 0.218006 0.786694
0.862531 0.158984 0.752972
0.0625162 0.785382 0.918807
0.0858015 0.760327 0.918685
0.283482 0.712474 0.916259
0.633371 0.630213 0.882048
0.863493 0.579171 0.847745
0.0627604 0.918929 0.918929
0.0743572 0.918929 0.918914
0.290196 0.918929 0.918883
0.644297 0.895155 0.915862
0.85568 0.851499 0.899321
0.0735027 0.0971847 0.816846
0.106783 0.091722 0.863233
0.230365 0.0679789 0.866789
0.539269 0.0625162 0.823911
0.835172 0.0625162 0.775341
0.0742504 0.151247 0.910048
0.11931 0.14316 0.908415
0.268544 0.107561 0.886763
0.593561 0.0643015 0.831098
0.859709 0.0625162 0.78117
0.0648203 0.353933 0.918929
0.113588 0.342184 0.918929
0.290394 0.304646 0.913146
0.63064 0.224735 0.857313
0.864729 0.166629 0.811643
0.0625162 0.795254 0.918929
0.0879072 0.769696 0.918929
0.288869 0.72018 0.918929
0.639735 0.637324 0.91371
0.867399 0.586725 0.876554
0.0627604 0.918929 0.918929
0.0772717 0.918929 0.918929
0.296162 0.918929 0.918929
0.649714 0.896376 0.918929
0.85861 0.854459 0.915022
