luts/varicam_official/SteelBlue.cube
TITLE "Generated by Resolve"
LUT_3D_SIZE 33
0.0754559 0.0754559 0.0754559
0.0759747 0.0753338 0.0754559
0.0766613 0.0751659 0.0754253
0.0783703 0.0747692 0.0751659
0.0804761 0.0742962 0.0749371
0.0836805 0.0736248 0.0747997
0.0875715 0.0729076 0.0746014
0.0923018 0.0721141 0.074342
0.0981765 0.0710918 0.0738384
0.104753 0.0699016 0.0731823
0.112703 0.0685283 0.0724346
0.121187 0.0670634 0.0716411
0.133104 0.0661936 0.0703746
0.14548 0.0654154 0.0690471
0.160998 0.0647593 0.0675822
0.177783 0.0640574 0.0662394
0.199664 0.0632639 0.0653086
0.223117 0.0627146 0.0642863
0.249897 0.0625772 0.0630961
0.280232 0.0625162 0.0625162
0.314443 0.0625162 0.0625162
0.352483 0.0625162 0.0625162
0.39292 0.0625162 0.0625162
0.438437 0.0625162 0.0625162
0.484382 0.0625162 0.0625162
0.536202 0.0625162 0.0625162
0.588907 0.0625162 0.0625162
0.643931 0.0625162 0.0625162
0.698741 0.0625162 0.0625162
0.754025 0.0625162 0.0625162
0.786084 0.0625162 0.0625162
0.786084 0.0625162 0.0625162
0.786084 0.0625162 0.0625162
0.0755932 0.0767529 0.076112
0.0767224 0.0769055 0.0763104
0.0780499 0.0769818 0.0764782
0.0803082 0.0766613 0.0763561
0.0829175 0.0762493 0.0762036
0.0863355 0.0756847 0.0760204
0.0904402 0.0749676 0.0757458
0.0954299 0.0740978 0.0754101
0.101534 0.0729992 0.0748455
0.10837 0.0717327 0.0741131
0.116869 0.0704204 0.073228
0.125856 0.0691234 0.0722972
0.138247 0.0678874 0.0709392
0.15108 0.0666819 0.0695506
0.167483 0.0656138 0.068101
0.185046 0.0644999 0.0667124
0.207141 0.0633555 0.065568
0.231342 0.0626078 0.0643778
0.258991 0.0625467 0.0631266
0.289891 0.0625162 0.0625162
0.324239 0.0625162 0.0625162
0.363134 0.0625162 0.0625162
0.403983 0.0625162 0.0625162
0.44979 0.0625162 0.0625162
0.495949 0.0625162 0.0625162
0.548058 0.0625162 0.0625162
0.600244 0.0625162 0.0625162
0.654902 0.0625162 0.0625162
0.709697 0.0625162 0.0625162
0.764218 0.0625162 0.0625162
0.795102 0.0625162 0.0625162
0.795026 0.0625162 0.0625162
0.795026 0.0625162 0.0625162
0.0757916 0.0785229 0.0769665
0.0775006 0.0788739 0.0773327
0.0793927 0.0791638 0.0776684
0.0821698 0.0788891 0.0776379
0.0852064 0.0785534 0.0775464
0.088838 0.0780346 0.0773022
0.0931563 0.0772869 0.0769513
0.0983444 0.0763561 0.0765545
0.104723 0.0751812 0.0759136
0.111849 0.0738384 0.0751049
0.120867 0.0725719 0.0740978
0.130434 0.0713359 0.0730144
0.143252 0.0697185 0.0715801
0.156649 0.0680705 0.0701152
0.173907 0.0665293 0.0686351
0.192065 0.0650034 0.0671855
0.214374 0.0634928 0.0658274
0.239109 0.0625467 0.0644694
0.267796 0.0625315 0.0631723
0.299367 0.0625162 0.0625315
0.333913 0.0625162 0.0625162
0.373312 0.0625162 0.0625162
0.414801 0.0625162 0.0625162
0.460868 0.0625162 0.0625162
0.507195 0.0625162 0.0625162
0.559121 0.0625162 0.0625162
0.611154 0.0625162 0.0625162
0.665629 0.0625162 0.0625162
0.720012 0.0625162 0.0625162
0.773358 0.0625162 0.0625162
0.80412 0.0625162 0.0625162
0.80412 0.0625162 0.0625162
0.80412 0.0625162 0.0625162
0.0764477 0.0829938 0.0790723
0.0783093 0.0831769 0.0793164
0.0803235 0.083238 0.0794842
0.0832532 0.0829786 0.0793317
0.0864881 0.0826429 0.0791485
0.0903944 0.0820325 0.0788739
0.0950484 0.081239 0.0785229
0.100633 0.0802319 0.0780346
0.107164 0.0789349 0.0773175
0.114351 0.0774548 0.0764477
0.123873 0.0758831 0.0752575
0.134051 0.0742809 0.0739452
0.14725 0.0721752 0.0724346
0.161074 0.0700236 0.0708934
0.17908 0.0678264 0.069276
0.197971 0.0657359 0.0676585
0.220813 0.0639506 0.0660105
0.246174 0.0627604 0.0644999
0.275624 0.0625925 0.0632639
0.307881 0.0625162 0.062623
0.343008 0.0625162 0.0625467
0.382666 0.0625162 0.0625162
0.42475 0.0625162 0.0625162
0.470848 0.0625162 0.0625162
0.517464 0.0625162 0.0625162
0.569451 0.0625162 0.0625162
0.621485 0.0625162 0.0625162
0.675807 0.0625162 0.0625162
0.729885 0.0625162 0.0625162
0.78291 0.0625162 0.0625162
0.812879 0.0625162 0.0625162
0.812879 0.0625162 0.0625162
0.812879 0.0625162 0.0625162
0.076997 0.0879225 0.081239
0.0790265 0.0879225 0.0813458
0.0811933 0.0878767 0.0814069
0.0842603 0.087602 0.0811322
0.0876326 0.0871901 0.0808576
0.0918441 0.0865492 0.0805676
0.0967575 0.0856947 0.0801404
0.102647 0.0845655 0.0795605
0.109422 0.0831922 0.0787823
0.116808 0.0816052 0.0778515
0.126787 0.0797589 0.0765393
0.137636 0.077821 0.0750744
0.151202 0.0753033 0.0734569
0.165423 0.072694 0.0717937
0.184146 0.0699626 0.0700236
0.203861 0.0673228 0.0681926
0.227085 0.0651255 0.0662852
0.25304 0.063508 0.0646067
0.283131 0.0628824 0.0633402
0.316289 0.0625772 0.0626688
0.351812 0.0625315 0.0625467
0.391897 0.0625162 0.0625162
0.434104 0.0625162 0.0625162
0.480568 0.0625162 0.0625162
0.52752 0.0625162 0.0625162
0.579507 0.0625162 0.0625162
0.6318 0.0625162 0.0625162
0.685512 0.0625162 0.0625162
0.739254 0.0625162 0.0625162
0.79173 0.0625162 0.0625162
0.821378 0.0625162 0.0625162
0.821378 0.0625162 0.0625162
0.821439 0.0625162 0.0625162
0.0772564 0.093843 0.0834669
0.0794842 0.0938888 0.0835279
0.0818647 0.093843 0.0835279
0.0849928 0.0934768 0.0832685
0.0884871 0.0930037 0.082948
0.0928817 0.092256 0.0824903
0.0980392 0.0913252 0.0819257
0.104143 0.0901656 0.0812085
0.111315 0.0887617 0.0803693
0.119188 0.0871748 0.0794537
0.12958 0.0851148 0.0781262
0.14078 0.082887 0.0766613
0.154894 0.0800793 0.0748455
0.169665 0.0771496 0.0729686
0.188815 0.0740673 0.0709697
0.209033 0.070985 0.0689403
0.233082 0.068101 0.0668193
0.259648 0.065568 0.0648966
0.290028 0.0637369 0.0633402
0.323766 0.0627604 0.062562
0.360143 0.0625772 0.0625315
0.40061 0.0625162 0.0625162
0.442893 0.0625162 0.0625162
0.489632 0.0625162 0.0625162
0.536858 0.0625162 0.0625162
0.588785 0.0625162 0.0625162
0.641016 0.0625162 0.0625162
0.694316 0.0625162 0.0625162
0.747677 0.0625162 0.0625162
0.799939 0.0625162 0.0625162
0.829465 0.0625162 0.0625162
0.829465 0.0625162 0.0625162
0.829465 0.0625162 0.0625162
0.077348 0.100862 0.0858473
0.0797131 0.100832 0.0858167
0.0822614 0.100755 0.0857557
0.0855116 0.100389 0.085481
0.089189 0.0999466 0.0851606
0.0938582 0.0991226 0.0846265
0.0992447 0.0981308 0.0840009
0.105547 0.0969406 0.083238
0.113069 0.0954757 0.0823224
0.121416 0.0938277 0.0813001
0.132158 0.0915847 0.079881
0.143679 0.0890669 0.0783093
0.158389 0.0860456 0.0763561
0.173816 0.0829023 0.0743114
0.193362 0.0793927 0.0720836
0.213886 0.0757763 0.0697948
0.238895 0.0718853 0.0673228
0.266133 0.0683757 0.0651102
0.296956 0.0655528 0.0633555
0.330983 0.0638895 0.0625162
0.368246 0.0632944 0.0625162
0.409125 0.0628824 0.0625162
0.451469 0.0625772 0.0625162
0.498695 0.0625162 0.0625162
0.54609 0.0625162 0.0625162
0.597971 0.0625162 0.0625162
0.649744 0.0625162 0.0625162
0.702983 0.0625162 0.0625162
0.75581 0.0625162 0.0625162
0.807446 0.0625162 0.0625162
0.836606 0.0625162 0.0625162
0.836606 0.0625162 0.0625162
0.836606 0.0625162 0.0625162
0.0772259 0.109209 0.088365
0.0796521 0.109102 0.0882582
0.0822919 0.10898 0.0881361
0.0857557 0.10869 0.0878767
0.0896925 0.108278 0.087541
0.0947127 0.107378 0.0870222
0.100374 0.106355 0.0864118
0.106767 0.105104 0.0857099
0.114641 0.103548 0.0846876
0.123415 0.101762 0.0834669
0.134478 0.0993668 0.0818189
0.146212 0.0968032 0.0800641
0.161685 0.0936141 0.0780041
0.177813 0.0903029 0.0758984
0.197711 0.0861982 0.0733654
0.218692 0.0818647 0.0707561
0.244495 0.0766766 0.0677653
0.272419 0.0720684 0.0652171
0.303883 0.0685283 0.0634012
0.338445 0.0661479 0.0625162
0.376196 0.0648508 0.0625162
0.417563 0.0637369 0.0625162
0.460716 0.0626993 0.0625162
0.507713 0.0625162 0.0625162
0.555108 0.0625162 0.0625162
0.606989 0.0625162 0.0625162
0.65864 0.0625162 0.0625162
0.711452 0.0625162 0.0625162
0.763668 0.0625162 0.0625162
0.813687 0.0625162 0.0625162
0.842527 0.0625162 0.0625162
0.842527 0.0625162 0.0625162
0.842573 0.0625162 0.0625162
0.076936 0.119539 0.091249
0.0793927 0.119493 0.0911116
0.0820783 0.119341 0.0909133
0.0857557 0.118944 0.0906386
0.0899214 0.118456 0.0902724
0.0952316 0.117617 0.0897231
0.101122 0.116594 0.0890974
0.107744 0.115434 0.0883955
0.115908 0.113878 0.0872969
0.125109 0.112032 0.0859388
0.136538 0.109575 0.0842298
0.148684 0.106935 0.082414
0.16466 0.103502 0.0802014
0.181247 0.100023 0.0779431
0.20174 0.0955215 0.0750744
0.223407 0.0906691 0.0721141
0.24976 0.0847639 0.0688182
0.278431 0.0793011 0.0660105
0.310491 0.0747692 0.0640879
0.345495 0.0710155 0.0629892
0.383551 0.0680095 0.0626993
0.425376 0.0654612 0.062562
0.468711 0.0631571 0.0625162
0.516152 0.0626535 0.0625162
0.563592 0.0625162 0.0625162
0.615381 0.0625162 0.0625162
0.666972 0.0625162 0.0625162
0.719448 0.0625162 0.0625162
0.770901 0.0625162 0.0625162
0.819516 0.0625162 0.0625162
0.846998 0.0625162 0.0625162
0.846998 0.0625162 0.0625162
0.846998 0.0625162 0.0625162
0.0765393 0.131334 0.0944381
0.0790112 0.131212 0.0941939
0.0817121 0.131044 0.0939498
0.0856336 0.130663 0.0936751
0.0899825 0.130129 0.0933089
0.0955062 0.12929 0.0926833
0.10161 0.128283 0.0919814
0.108446 0.127214 0.0912032
0.116945 0.125597 0.090013
0.126589 0.123751 0.0885786
0.138384 0.121294 0.0869154
0.150881 0.118639 0.0851759
0.167422 0.115099 0.0827955
0.184741 0.111376 0.080293
0.205554 0.106554 0.0770581
0.227802 0.101457 0.0737926
0.254871 0.0951095 0.0702831
0.284169 0.0888685 0.067277
0.316793 0.0831159 0.0652018
0.352468 0.0775464 0.0637827
0.390448 0.072221 0.0629892
0.432731 0.0677958 0.0626535
0.477012 0.0638285 0.0625315
0.524239 0.0628672 0.0625162
0.571801 0.0625162 0.0625162
0.623468 0.0625162 0.0625162
0.675273 0.0625162 0.0625162
0.727016 0.0625162 0.0625162
0.777661 0.0625162 0.0625162
0.82414 0.0625162 0.0625162
0.850446 0.0625162 0.0625162
0.850416 0.0625162 0.0625162
0.850416 0.0625162 0.0625162
0.0757458 0.146319 0.0982071
0.0782635 0.146242 0.0979477
0.0810407 0.146105 0.097673
0.0851301 0.145602 0.0972457
0.0896162 0.144991 0.0967575
0.0952468 0.144228 0.0961776
0.101579 0.143175 0.0954452
0.108797 0.142168 0.0945907
0.117678 0.140658 0.0933852
0.127687 0.138827 0.0919356
0.139925 0.136446 0.0902419
0.152895 0.133913 0.0884565
0.169863 0.130282 0.0859388
0.187594 0.126452 0.0832685
0.209079 0.121492 0.0799573
0.231922 0.116213 0.0765545
0.259495 0.109804 0.0728923
0.289311 0.103212 0.0695811
0.322408 0.0964065 0.0669413
0.358602 0.0895399 0.0649882
0.397177 0.0827039 0.0636912
0.439872 0.0767834 0.0630198
0.484443 0.0713359 0.0626688
0.531884 0.068452 0.0625772
0.579614 0.0661784 0.0625162
0.631189 0.0643931 0.0625162
0.682902 0.0628824 0.0625162
0.734203 0.0627298 0.0625162
0.783917 0.0625925 0.0625162
0.828412 0.0625467 0.0625162
0.853559 0.0625162 0.0625162
0.853559 0.0625162 0.0625162
0.853559 0.0625162 0.0625162
0.074815 0.162249 0.102159
0.0773938 0.162356 0.10193
0.0802625 0.162142 0.101595
0.0844587 0.161501 0.100954
0.0891127 0.160922 0.100359
0.0948043 0.160113 0.0998245
0.101381 0.159258 0.0991226
0.109026 0.158312 0.0981918
0.118288 0.156847 0.0969558
0.128649 0.155001 0.0955215
0.14136 0.152743 0.0937667
0.154849 0.150332 0.0919203
0.172152 0.146548 0.0892195
0.19028 0.142748 0.0864424
0.212497 0.137713 0.0831311
0.235798 0.132448 0.0797284
0.263996 0.12607 0.0758984
0.29424 0.119158 0.0722362
0.327764 0.111345 0.0688792
0.364263 0.103426 0.066331
0.403845 0.0953078 0.0645151
0.44686 0.0879377 0.0634928
0.491646 0.0810559 0.0628519
0.539361 0.0758526 0.0626383
0.587243 0.0709697 0.0625162
0.63888 0.0669261 0.0625162
0.69015 0.063386 0.0625162
0.741253 0.0630198 0.0625162
0.78999 0.0627146 0.0625162
0.832547 0.0625925 0.0625162
0.856611 0.0625162 0.0625162
0.856611 0.0625162 0.0625162
0.856611 0.0625162 0.0625162
0.0731823 0.184848 0.10721
0.0755779 0.18471 0.106889
0.0783246 0.184527 0.106523
0.0828565 0.183932 0.105928
0.0877546 0.183276 0.105333
0.0936141 0.18265 0.104768
0.100389 0.181735 0.104036
0.108278 0.180682 0.103105
0.117861 0.179141 0.101823
0.12845 0.17731 0.100313
0.141695 0.174746 0.0984512
0.155703 0.172183 0.0965438
0.173632 0.16846 0.0938582
0.192081 0.164584 0.0910506
0.215183 0.159594 0.0875563
0.239124 0.154238 0.0839246
0.267689 0.147677 0.0797589
0.298421 0.14052 0.075639
0.332647 0.132433 0.0716259
0.369604 0.123888 0.0684215
0.409506 0.115145 0.06598
0.452873 0.106477 0.0643778
0.497612 0.0978866 0.0632029
0.545647 0.0902266 0.0627756
0.5935 0.0827649 0.0625162
0.645136 0.0770428 0.0625162
0.696361 0.07187 0.0625162
0.747173 0.0696574 0.0625162
0.795178 0.0675975 0.0625162
0.835538 0.0658122 0.0625162
0.858824 0.0648051 0.0625162
0.858808 0.0647746 0.0625162
0.858824 0.0648051 0.0625162
0.0714122 0.20853 0.112474
0.0736248 0.20827 0.112078
0.0762646 0.207965 0.111666
0.0811627 0.207431 0.111131
0.0863203 0.206821 0.110552
0.0923018 0.206027 0.109895
0.0992905 0.205066 0.109102
0.10753 0.203861 0.108171
0.117296 0.202289 0.106859
0.128099 0.200443 0.105287
0.141878 0.197894 0.10338
0.156634 0.195117 0.101381
0.17496 0.191394 0.0986954
0.194095 0.187472 0.0958572
0.217563 0.182345 0.0921645
0.242512 0.176806 0.0882429
0.271244 0.170092 0.0837568
0.302464 0.162753 0.0791943
0.337377 0.154452 0.0745556
0.375158 0.145617 0.0707103
0.415076 0.1364 0.067628
0.458717 0.12639 0.0654154
0.504082 0.11603 0.0636149
0.551736 0.105989 0.0629587
0.599542 0.0960861 0.0625315
0.651148 0.088716 0.0625162
0.702678 0.0818341 0.0625162
0.752956 0.0776532 0.0625162
0.800244 0.0735637 0.0625162
0.839002 0.0698405 0.0625162
0.860899 0.0677348 0.0625162
0.860899 0.0677348 0.0625162
0.860899 0.0677348 0.0625162
0.0689097 0.237751 0.119051
0.0715038 0.237415 0.118654
0.0743877 0.237049 0.118227
0.0790723 0.236439 0.11754
0.0841077 0.236011 0.116915
0.0902724 0.235294 0.116289
0.0974594 0.234333 0.115434
0.106065 0.233066 0.114443
0.116136 0.23154 0.11313
0.12723 0.229847 0.111635
0.141527 0.22707 0.109545
0.156847 0.224216 0.107332
0.175753 0.220523 0.104601
0.195178 0.216709 0.101778
0.219394 0.211826 0.0979477
0.24477 0.206378 0.0939193
0.274144 0.199741 0.0892805
0.305974 0.192477 0.0844892
0.34139 0.184253 0.0795148
0.37966 0.175387 0.0750286
0.42005 0.165805 0.0710765
0.463905 0.155566 0.0677958
0.509331 0.144915 0.0648661
0.557305 0.134279 0.0635386
0.605509 0.123934 0.0625467
0.65655 0.114168 0.0625162
0.707546 0.104601 0.0625162
0.757458 0.0962692 0.0625162
0.804044 0.0882429 0.0625162
0.841382 0.081529 0.0625162
0.862486 0.0778058 0.0625162
0.86247 0.0777447 0.0625162
0.862486 0.0778058 0.0625162
0.0664988 0.269047 0.126009
0.069337 0.26862 0.125597
0.0724498 0.268162 0.125124
0.0768749 0.267491 0.124331
0.0817884 0.266804 0.123583
0.087953 0.266361 0.122957
0.0953689 0.265385 0.122087
0.104356 0.263813 0.120958
0.114778 0.262318 0.119646
0.126223 0.260685 0.118166
0.140993 0.258106 0.115999
0.156863 0.255207 0.113619
0.17612 0.251545 0.110857
0.196155 0.247715 0.107973
0.22089 0.242939 0.104036
0.246815 0.237537 0.0998703
0.276829 0.230716 0.0950637
0.309239 0.223514 0.090074
0.345098 0.215366 0.0847639
0.383871 0.20647 0.0796979
0.424796 0.196979 0.0749218
0.468879 0.186587 0.0706188
0.514366 0.175784 0.0665599
0.5626 0.164706 0.0644694
0.611093 0.153933 0.0628061
0.661646 0.14229 0.0626383
0.712093 0.130358 0.0625162
0.761486 0.118868 0.0625162
0.80734 0.107973 0.0625162
0.843336 0.0988785 0.0625162
0.863676 0.0937362 0.0625162
0.863676 0.0937362 0.0625162
0.863676 0.0937362 0.0625162
0.0645151 0.307088 0.134173
0.067277 0.306798 0.133669
0.0702831 0.306203 0.133089
0.0743267 0.30547 0.132387
0.0789349 0.304662 0.13164
0.0849165 0.303746 0.1308
0.0923781 0.302678 0.129824
0.101686 0.301442 0.128679
0.112612 0.29984 0.127245
0.12462 0.298009 0.125628
0.139864 0.295415 0.12343
0.156161 0.292592 0.121035
0.176043 0.288746 0.118151
0.196521 0.284749 0.11516
0.221714 0.279591 0.11107
0.247791 0.274205 0.106874
0.278767 0.267659 0.102007
0.311727 0.260533 0.0968948
0.347875 0.252461 0.091371
0.386786 0.243656 0.0858167
0.42858 0.234119 0.0802319
0.472908 0.223911 0.0749828
0.518105 0.213184 0.0699321
0.566781 0.202426 0.0667582
0.615305 0.191455 0.0640116
0.665583 0.179797 0.0631876
0.715297 0.168276 0.0625162
0.763897 0.157137 0.0625162
0.808652 0.146548 0.0625162
0.843641 0.137377 0.0625162
0.863416 0.132189 0.0625162
0.863416 0.132189 0.0625162
0.863416 0.132189 0.0625162
0.0632944 0.348791 0.142962
0.0657206 0.348043 0.14229
0.0683299 0.34728 0.141619
0.0717784 0.346487 0.140978
0.0758831 0.345602 0.140246
0.0816815 0.344823 0.13933
0.0891432 0.343633 0.138231
0.0986191 0.342336 0.136995
0.110018 0.340612 0.13547
0.122576 0.338613 0.133761
0.138247 0.335943 0.131472
0.154818 0.332738 0.128969
0.175479 0.328756 0.125933
0.196643 0.32462 0.122789
0.221988 0.319753 0.118746
0.248646 0.31426 0.114458
0.280293 0.307622 0.109468
0.313832 0.30045 0.104204
0.350393 0.292393 0.0984817
0.3897 0.283619 0.0925307
0.431876 0.273777 0.086244
0.476448 0.263706 0.0802167
0.521859 0.253437 0.0743267
0.57023 0.242527 0.0699474
0.619211 0.231815 0.065919
0.66923 0.220356 0.0642557
0.718563 0.209033 0.0628367
0.765927 0.198276 0.0626535
0.809506 0.18761 0.0625162
0.843259 0.178851 0.0625162
0.862715 0.173602 0.0625162
0.862715 0.173602 0.0625162
0.86273 0.173266 0.0625162
0.0634318 0.396521 0.152773
0.0650187 0.395483 0.152026
0.0667277 0.394476 0.151308
0.0691997 0.393683 0.150729
0.0725719 0.392752 0.150011
0.0781872 0.391836 0.148959
0.0855879 0.390097 0.147646
0.09514 0.38851 0.146258
0.106767 0.386648 0.144686
0.119829 0.384573 0.142962
0.135821 0.381674 0.140536
0.152789 0.378485 0.13785
0.174075 0.374502 0.134676
0.196185 0.370321 0.13138
0.221973 0.365057 0.127275
0.249134 0.359747 0.122988
0.281117 0.352483 0.117769
0.315251 0.345052 0.112306
0.352453 0.336919 0.106462
0.392416 0.328084 0.100206
0.434379 0.3187 0.0936599
0.47921 0.308659 0.087068
0.525307 0.298314 0.0804913
0.573831 0.287343 0.0746471
0.622522 0.276646 0.0690318
0.672312 0.265339 0.0661631
0.721614 0.254414 0.0636912
0.767285 0.244007 0.0630045
0.809613 0.233936 0.0625162
0.842618 0.224918 0.0625162
0.861265 0.219806 0.0625162
0.861265 0.219806 0.0625162
0.861265 0.219806 0.0625162
0.0632181 0.447501 0.163195
0.0641337 0.446769 0.16257
0.0651865 0.445243 0.161776
0.0670024 0.444221 0.161105
0.0698405 0.443503 0.160342
0.0753643 0.44213 0.159152
0.0824445 0.440589 0.157763
0.0915847 0.438788 0.156268
0.103212 0.436759 0.154604
0.116655 0.434562 0.152804
0.132952 0.431525 0.150256
0.150378 0.427787 0.147356
0.172427 0.423606 0.14406
0.19501 0.419699 0.140749
0.221363 0.414328 0.136568
0.249104 0.408545 0.132067
0.281621 0.401358 0.126757
0.316304 0.393759 0.121172
0.354086 0.385595 0.115221
0.39443 0.376745 0.108782
0.436606 0.367361 0.101991
0.481666 0.356863 0.0949264
0.528008 0.34641 0.0878462
0.576593 0.335851 0.0810407
0.625254 0.32491 0.0742962
0.674861 0.314092 0.0700542
0.723827 0.303365 0.0662699
0.768399 0.293248 0.064683
0.809781 0.283467 0.0634623
0.842176 0.274769 0.0631571
0.860487 0.269856 0.0629892
0.860487 0.269856 0.0629892
0.860487 0.269856 0.0629892
0.0626841 0.502266 0.174334
0.0631113 0.501213 0.17377
0.0636912 0.500069 0.173144
0.0651255 0.498619 0.172168
0.067689 0.497185 0.171115
0.0730297 0.496147 0.169894
0.0797131 0.494484 0.168475
0.0880598 0.492546 0.166903
0.0994125 0.490379 0.165118
0.11284 0.487663 0.163119
0.129702 0.48452 0.160464
0.147677 0.481086 0.15758
0.170062 0.476692 0.154223
0.193332 0.472084 0.150744
0.220401 0.466941 0.14638
0.248814 0.461021 0.141726
0.281834 0.453696 0.136355
0.317021 0.446006 0.130694
0.355306 0.437842 0.124666
0.396063 0.428565 0.118059
0.438605 0.41912 0.111131
0.483879 0.408835 0.103838
0.530373 0.398154 0.0964065
0.578927 0.387747 0.0889906
0.627512 0.37702 0.0815595
0.676905 0.366064 0.0758068
0.725567 0.355245 0.0704662
0.769284 0.345037 0.0675822
0.809979 0.335607 0.0652628
0.842161 0.327413 0.0644083
0.860365 0.323156 0.06392
0.860365 0.322774 0.06392
0.860365 0.323156 0.06392
0.0625162 0.561379 0.186267
0.0626841 0.560143 0.185611
0.0629892 0.558831 0.184878
0.0641642 0.557168 0.183825
0.0662699 0.555474 0.182666
0.0706493 0.553765 0.181247
0.076463 0.551904 0.179721
0.0840162 0.549813 0.178088
0.095201 0.547356 0.176165
0.108812 0.544656 0.174044
0.126146 0.541329 0.171359
0.144701 0.537774 0.16849
0.167605 0.53315 0.16495
0.19118 0.528344 0.161288
0.218936 0.522683 0.156786
0.248173 0.516594 0.152041
0.281621 0.509163 0.146654
0.317296 0.50132 0.140902
0.356069 0.492866 0.134646
0.396963 0.483894 0.128084
0.440162 0.474342 0.121141
0.485634 0.463996 0.113756
0.531884 0.45333 0.106218
0.580346 0.44271 0.0985428
0.629236 0.432532 0.0909133
0.678309 0.421164 0.0841077
0.726314 0.410437 0.0777752
0.769772 0.400671 0.0735332
0.810178 0.391455 0.0699474
0.842786 0.383612 0.0679332
0.861204 0.379187 0.066804
0.861204 0.379187 0.066804
0.861204 0.379187 0.066804
0.0625162 0.622187 0.19852
0.0625467 0.621134 0.197726
0.0626993 0.619104 0.196735
0.0636606 0.617288 0.195682
0.0652018 0.615824 0.194553
0.0682231 0.613764 0.192996
0.0729229 0.611643 0.191363
0.0796826 0.6094 0.189654
0.0907301 0.606592 0.187564
0.104631 0.603387 0.185245
0.122469 0.599817 0.182559
0.141451 0.596155 0.179782
0.165026 0.590875 0.175891
0.18912 0.58587 0.171954
0.217487 0.580468 0.167529
0.247089 0.574304 0.162829
0.281224 0.566751 0.157382
0.317342 0.558694 0.151537
0.356619 0.549828 0.144991
0.39794 0.540642 0.138354
0.441505 0.53109 0.131579
0.487129 0.520333 0.124117
0.53344 0.509667 0.116487
0.581872 0.499641 0.108873
0.630686 0.489265 0.101183
0.679408 0.478386 0.0937514
0.727047 0.467735 0.0866102
0.770077 0.458045 0.0810101
0.810391 0.448951 0.0760204
0.843702 0.441398 0.0725872
0.862531 0.437125 0.0706493
0.862531 0.437125 0.0706493
0.862531 0.437125 0.0706493
0.0625162 0.686503 0.211383
0.0625162 0.684657 0.210361
0.0625925 0.68275 0.209308
0.0630961 0.680797 0.208194
0.06392 0.679164 0.207034
0.065507 0.676814 0.205447
0.069276 0.674357 0.203708
0.0756695 0.671824 0.201816
0.0866712 0.668788 0.199634
0.100618 0.665431 0.197269
0.118791 0.661051 0.194354
0.13817 0.656947 0.191424
0.162219 0.65185 0.187594
0.186816 0.646616 0.183673
0.216022 0.640742 0.179126
0.246342 0.634165 0.174304
0.280858 0.626535 0.16875
0.317403 0.618341 0.162829
0.357168 0.609216 0.156298
0.398825 0.599298 0.149508
0.442557 0.589395 0.142565
0.488426 0.579019 0.135164
0.534997 0.568475 0.127581
0.583612 0.558083 0.11989
0.631815 0.547402 0.112184
0.679789 0.536782 0.104677
0.727352 0.526238 0.0972763
0.769955 0.51667 0.0909133
0.810025 0.507301 0.0850538
0.844465 0.499748 0.0806744
0.864179 0.495842 0.0782177
0.864179 0.495415 0.0781567
0.864179 0.495842 0.0782177
0.0625162 0.751003 0.224292
0.0625162 0.749249 0.223209
0.0625162 0.747036 0.222034
0.0625315 0.744457 0.220752
0.0625925 0.742214 0.219455
0.0627451 0.740001 0.21799
0.0656138 0.737255 0.216129
0.0718547 0.734356 0.214008
0.0827192 0.731136 0.211749
0.0967727 0.727687 0.209354
0.115084 0.723384 0.206394
0.134966 0.718761 0.20322
0.159548 0.712963 0.199344
0.18471 0.707485 0.195468
0.214771 0.701045 0.190845
0.245884 0.69398 0.185885
0.280751 0.68629 0.180117
0.317449 0.678035 0.174166
0.357717 0.668696 0.167712
0.4 0.658808 0.160876
0.44358 0.648539 0.15378
0.489677 0.638117 0.146349
0.536858 0.627207 0.138705
0.584955 0.61651 0.131014
0.632868 0.605325 0.123308
0.680766 0.594842 0.115679
0.727855 0.584497 0.108202
0.769726 0.575158 0.101244
0.810101 0.566232 0.094728
0.845747 0.558602 0.0894789
0.865904 0.554284 0.0865034
0.865904 0.554284 0.0865034
0.865904 0.554284 0.0865034
0.0625162 0.80914 0.237934
0.0625162 0.807065 0.236683
0.0625162 0.804913 0.235416
0.0625162 0.802441 0.234012
0.0626688 0.799954 0.232532
0.0632334 0.797787 0.230976
0.0661631 0.794965 0.229099
0.0720378 0.791836 0.226978
0.0816663 0.788373 0.224628
0.0937972 0.784665 0.222126
0.111925 0.779995 0.218952
0.132036 0.774594 0.215473
0.156954 0.768933 0.211566
0.182864 0.763088 0.207538
0.213382 0.756374 0.202731
0.245335 0.749767 0.197711
0.280522 0.742061 0.191913
0.317998 0.733898 0.185779
0.358694 0.725109 0.179187
0.401297 0.715633 0.172244
0.445075 0.705226 0.164981
0.491341 0.694713 0.157488
0.538689 0.683955 0.149859
0.586328 0.672618 0.142138
0.634455 0.661479 0.134386
0.681514 0.650767 0.126894
0.727779 0.640253 0.119493
0.769085 0.630915 0.112734
0.80914 0.621515 0.106203
