luts/varicam_official/SteelBlue.cube
TITLE "Generated by Resolve"
LUT_3D_SIZE 9
0.0754559 0.0754559 0.0754559
0.0804761 0.0742962 0.0749371
0.0981765 0.0710918 0.0738384
0.133104 0.0661936 0.0703746
0.199664 0.0632639 0.0653086
0.314443 0.0625162 0.0625162
0.484382 0.0625162 0.0625162
0.698741 0.0625162 0.0625162
0.786084 0.0625162 0.0625162
0.076997 0.0879225 0.081239
0.0876326 0.0871901 0.0808576
0.109422 0.0831922 0.0787823
0.151202 0.0753033 0.0734569
0.227085 0.0651255 0.0662852
0.351812 0.0625315 0.0625467
0.52752 0.0625162 0.0625162
0.739254 0.0625162 0.0625162
0.821439 0.0625162 0.0625162
0.076936 0.119539 0.091249
0.0899214 0.118456 0.0902724
0.115908 0.113878 0.0872969
0.16466 0.103502 0.0802014
0.24976 0.0847639 0.0688182
0.383551 0.0680095 0.0626993
0.563592 0.0625162 0.0625162
0.770901 0.0625162 0.0625162
0.846998 0.0625162 0.0625162
0.0731823 0.184848 0.10721
0.0877546 0.183276 0.105333
0.117861 0.179141 0.101823
0.173632 0.16846 0.0938582
0.267689 0.147677 0.0797589
0.409506 0.115145 0.06598
0.5935 0.0827649 0.0625162
0.795178 0.0675975 0.0625162
0.858824 0.0648051 0.0625162
0.0645151 0.307088 0.134173
0.0789349 0.304662 0.13164
0.112612 0.29984 0.127245
0.176043 0.288746 0.118151
0.278767 0.267659 0.102007
0.42858 0.234119 0.0802319
0.615305 0.191455 0.0640116
0.808652 0.146548 0.0625162
0.863416 0.132189 0.0625162
0.0626841 0.502266 0.174334
0.067689 0.497185 0.171115
0.0994125 0.490379 0.165118
0.170062 0.476692 0.154223
0.281834 0.453696 0.136355
0.438605 0.41912 0.111131
0.627512 0.37702 0.0815595
0.809979 0.335607 0.0652628
0.860365 0.323156 0.06392
0.0625162 0.751003 0.224292
0.0625925 0.742214 0.219455
0.0827192 0.731136 0.211749
0.159548 0.712963 0.199344
0.280751 0.68629 0.180117
0.44358 0.648539 0.15378
0.632868 0.605325 0.123308
0.810101 0.566232 0.094728
0.865904 0.554284 0.0865034
0.0625162 0.899809 0.277195
0.0626688 0.895811 0.270695
0.0747082 0.890761 0.261112
0.152987 0.884291 0.246082
0.283558 0.876982 0.224964
0.452506 0.858808 0.197009
0.641749 0.818082 0.165606
0.807263 0.777905 0.138567
0.862196 0.765942 0.130388
0.0625162 0.918441 0.294987
0.0625162 0.917418 0.288029
0.0721599 0.916976 0.277913
0.154406 0.917571 0.262089
0.288426 0.918837 0.239628
0.459113 0.911223 0.211032
0.647669 0.885328 0.179431
0.808667 0.845838 0.152605
0.861784 0.833951 0.144808
0.0754559 0.0755016 0.0806287
0.0813916 0.0746166 0.0822309
0.0997635 0.0715038 0.0841077
0.13547 0.0663615 0.0819409
0.203159 0.0632639 0.0742504
0.318639 0.0625162 0.0656443
0.489113 0.0625162 0.062623
0.703441 0.0625162 0.0625162
0.790036 0.0625162 0.0625162
0.0772106 0.0889754 0.0939498
0.087953 0.0878614 0.0947433
0.110353 0.0839246 0.093843
0.152621 0.0758221 0.0895399
0.229114 0.0652628 0.0798199
0.354376 0.0625315 0.0667887
0.5299 0.0625162 0.0627909
0.741085 0.0625162 0.0625162
0.823148 0.0625162 0.0625162
0.0771801 0.120897 0.108537
0.0900893 0.119463 0.108248
0.116258 0.114794 0.106111
0.165606 0.104524 0.10042
0.250889 0.0855726 0.0885176
0.384558 0.0681621 0.0722057
0.564187 0.0625162 0.0631266
0.771221 0.0625162 0.0625315
0.847227 0.0625162 0.0625162
0.0731823 0.186236 0.129061
0.0879225 0.184527 0.127993
0.118044 0.180423 0.124819
0.17409 0.169665 0.117739
0.268025 0.148638 0.104433
0.409567 0.115938 0.08365
0.592798 0.0834058 0.0680552
0.79443 0.0678874 0.062974
0.858198 0.0649424 0.0627604
0.0644999 0.30869 0.160433
0.0790112 0.305715 0.158343
0.112612 0.300923 0.154314
0.176165 0.289433 0.146166
0.278569 0.268284 0.13138
0.427924 0.234867 0.108904
0.613672 0.191897 0.0833295
0.807538 0.147189 0.0674144
0.862623 0.132601 0.0652934
0.0626841 0.502846 0.206332
0.0676585 0.49781 0.203113
0.0993057 0.490501 0.197681
0.169986 0.476844 0.187488
0.281224 0.453483 0.171191
0.437858 0.419364 0.147433
0.625742 0.376562 0.11841
0.808347 0.335988 0.091783
0.859358 0.322972 0.0837262
0.0625162 0.751537 0.263127
0.0625772 0.742214 0.257801
0.0828412 0.73048 0.250446
0.15903 0.71252 0.238727
0.279622 0.685603 0.220295
0.442252 0.648051 0.195361
0.630884 0.604715 0.166552
0.808225 0.56524 0.139727
0.863584 0.55314 0.131426
0.0625162 0.899641 0.322881
0.0626688 0.895415 0.315587
0.0747234 0.890211 0.306172
0.152193 0.883558 0.292042
0.281819 0.875608 0.271427
0.450324 0.85864 0.244709
0.638575 0.817304 0.215198
0.804837 0.776913 0.189868
0.860288 0.765026 0.182483
0.0625162 0.917952 0.343771
0.0625162 0.91693 0.336156
0.0719615 0.916442 0.325628
0.153399 0.916609 0.310353
0.286427 0.918135 0.289143
0.456794 0.911696 0.261616
0.644282 0.88571 0.231968
0.806287 0.845563 0.207065
0.85948 0.83328 0.199588
0.0755322 0.0760967 0.0952773
0.0825818 0.0752422 0.101549
0.101442 0.0719005 0.107637
0.138155 0.0668498 0.109377
0.206897 0.0633402 0.104616
0.323781 0.0625162 0.0915236
0.495293 0.0625162 0.0749676
0.709392 0.0625162 0.0652781
0.795163 0.0625162 0.0632181
0.0774548 0.0904707 0.121584
0.0885023 0.0894026 0.125048
0.111223 0.0852369 0.12636
0.154253 0.076585 0.124727
0.231678 0.0655375 0.117281
0.357839 0.0625467 0.101366
0.533684 0.0625162 0.0807965
0.745144 0.0625162 0.0682231
0.826459 0.0625162 0.0647746
0.0771801 0.122835 0.145373
0.0904707 0.121309 0.146609
0.117021 0.116609 0.146319
0.166567 0.106233 0.14287
0.252766 0.0869154 0.133547
0.387167 0.0687877 0.115846
0.566888 0.0625467 0.0910811
0.772793 0.0625162 0.0748302
0.848081 0.0625162 0.0696727
0.0728771 0.189151 0.174762
0.0879225 0.187304 0.174609
0.118379 0.18294 0.173281
0.174762 0.171878 0.168231
0.269032 0.150484 0.156771
0.411093 0.117769 0.138064
0.593881 0.0847028 0.112398
0.795285 0.0683909 0.0893416
0.858427 0.0652323 0.0819867
0.0645457 0.311833 0.215702
0.0787976 0.308873 0.214054
0.112749 0.303716 0.211093
0.176455 0.291997 0.20441
0.279271 0.270695 0.191714
0.428626 0.237217 0.171435
0.614313 0.194003 0.145418
0.80737 0.149508 0.119539
0.862013 0.134829 0.111009
0.0626841 0.506401 0.271077
0.067628 0.501076 0.267781
0.0993515 0.492699 0.262837
0.170016 0.479423 0.254261
0.281437 0.455619 0.239811
0.437537 0.421515 0.218173
0.625299 0.378805 0.19176
0.807996 0.337896 0.166461
0.858625 0.324895 0.158419
0.0625162 0.753979 0.338704
0.0625925 0.743999 0.332799
0.0829786 0.73257 0.325582
0.158846 0.71458 0.314778
0.279194 0.687083 0.298024
0.44184 0.649531 0.27483
0.629862 0.606378 0.248127
0.807477 0.566598 0.223651
0.862409 0.554772 0.216541
0.0625162 0.900191 0.409033
0.0626688 0.895933 0.400763
0.0742809 0.89073 0.390982
0.152071 0.883619 0.377356
0.280903 0.875502 0.35787
0.449165 0.859724 0.333104
0.637034 0.818677 0.305486
0.803235 0.778271 0.282307
0.858656 0.766155 0.275654
0.0625162 0.918196 0.434211
0.0625162 0.91693 0.425055
0.0716716 0.916289 0.414481
0.153201 0.916518 0.400153
0.285512 0.917861 0.379202
0.455344 0.912673 0.353933
0.642603 0.886595 0.325628
0.804303 0.847089 0.303029
0.857557 0.834897 0.296345
0.0757 0.0771649 0.12665
0.0837873 0.0767834 0.145647
0.102983 0.0733654 0.158816
0.140795 0.0679026 0.167605
0.210941 0.0633249 0.169619
0.329534 0.0625162 0.162524
0.502037 0.0625162 0.145937
0.715908 0.0625162 0.124147
0.801312 0.0625162 0.116274
0.0775769 0.0929732 0.17998
0.088838 0.0917372 0.187503
0.112123 0.0873732 0.193591
0.1561 0.078294 0.19675
0.234455 0.0659648 0.193912
0.362264 0.0626078 0.183169
0.538415 0.0625162 0.164385
0.748882 0.0625162 0.14052
0.830289 0.0625162 0.13196
0.0770581 0.125811 0.219074
0.0906081 0.124376 0.223178
0.117464 0.119677 0.226062
0.167773 0.109163 0.226291
0.254826 0.0893416 0.22089
0.390097 0.0695048 0.20763
0.570138 0.0626383 0.186664
0.775311 0.0625162 0.162234
0.849241 0.0625162 0.153704
0.0723888 0.193164 0.263035
0.0877546 0.191424 0.264469
0.118532 0.186755 0.264958
0.175692 0.175692 0.262791
0.270573 0.154086 0.254734
0.413214 0.120699 0.239445
0.596551 0.0865949 0.217472
0.796704 0.0692302 0.193561
0.858946 0.0658732 0.185931
0.0646982 0.316945 0.317174
0.0784314 0.314153 0.31635
0.11281 0.308537 0.314488
0.177127 0.296651 0.310079
0.280125 0.275135 0.300053
0.429938 0.241749 0.282902
0.615473 0.198062 0.260151
0.807599 0.153704 0.236713
0.861952 0.138888 0.229374
0.0626688 0.512016 0.386023
0.0675822 0.506371 0.382559
0.0991684 0.497627 0.378134
0.170306 0.484352 0.371069
0.281971 0.460288 0.358282
0.438315 0.425971 0.339025
0.625635 0.383337 0.315267
0.807431 0.342016 0.292943
0.858366 0.32929 0.286259
0.0625162 0.758556 0.465126
0.0626993 0.748791 0.458747
0.0835737 0.73724 0.45182
0.158801 0.718822 0.441581
0.279515 0.69131 0.426169
0.442115 0.653651 0.405203
0.629709 0.610315 0.380514
0.806714 0.570748 0.358846
0.861997 0.558785 0.352651
0.0625162 0.901442 0.54667
0.0626535 0.897322 0.537423
0.0741283 0.892073 0.527398
0.152071 0.885084 0.514107
0.281193 0.877134 0.495384
0.449088 0.862272 0.472175
0.636698 0.821714 0.446189
0.802075 0.78175 0.424643
0.857542 0.769696 0.419165
0.0625162 0.918318 0.57583
0.0625162 0.917281 0.56556
0.0719158 0.916762 0.554406
0.153094 0.916793 0.540276
0.285344 0.918349 0.52015
0.455314 0.913863 0.495735
0.642298 0.888258 0.469505
0.802594 0.850401 0.447517
0.856413 0.838193 0.442542
0.0757 0.0794232 0.195148
0.0844434 0.0795758 0.232746
0.104417 0.0760357 0.257893
0.143038 0.0701152 0.275593
0.214649 0.063508 0.285939
0.335546 0.0625162 0.286778
0.510109 0.0625162 0.279286
0.723003 0.0625162 0.263752
0.807935 0.0625162 0.257801
0.0774243 0.096437 0.287922
0.0888075 0.0953384 0.301045
0.112734 0.0909895 0.31252
0.157595 0.0809186 0.321187
0.237568 0.0671397 0.324742
0.366537 0.0627298 0.319844
0.543832 0.0625162 0.306798
0.753735 0.0625162 0.28838
0.834577 0.0625162 0.281987
0.0764019 0.130251 0.346639
0.0902571 0.128817 0.354269
0.117693 0.124224 0.360586
0.168948 0.113344 0.364553
0.257252 0.0928969 0.362966
0.393179 0.0706951 0.353796
0.57377 0.0628977 0.337575
0.778454 0.0625162 0.318059
0.850492 0.0625162 0.311681
0.0714885 0.199359 0.406241
0.0871595 0.197467 0.409216
0.118441 0.192569 0.411933
0.176242 0.180926 0.411704
0.272343 0.159396 0.407187
0.415351 0.12517 0.39498
0.599115 0.0896162 0.37673
0.798627 0.0704814 0.356344
0.859678 0.0667124 0.349905
0.064683 0.324422 0.473915
0.0776837 0.321584 0.473884
0.112428 0.315435 0.472541
0.177295 0.30341 0.469688
0.281193 0.281315 0.461372
0.431113 0.247532 0.446189
0.617304 0.204105 0.425971
0.807996 0.159625 0.4056
0.861845 0.144869 0.399512
0.0626535 0.519875 0.553002
0.0675822 0.513817 0.549065
0.0988174 0.505364 0.5449
0.170397 0.4907 0.538384
0.282628 0.467247 0.526635
0.438972 0.432105 0.508934
0.626505 0.389776 0.487877
0.807675 0.348669 0.46685
0.858579 0.335866 0.461479
0.0625162 0.766369 0.640757
0.0627451 0.756573 0.633738
0.0839399 0.744015 0.62591
0.158984 0.725032 0.615488
0.28011 0.697414 0.60087
0.442161 0.659739 0.580316
0.629877 0.616388 0.557336
0.806195 0.576883 0.536843
0.861936 0.565835 0.531685
0.0625162 0.903304 0.727382
0.0626383 0.899382 0.717296
0.0737926 0.894118 0.706874
0.152071 0.887098 0.6925
0.281743 0.879438 0.674647
0.44918 0.864942 0.650996
0.636912 0.826017 0.625513
0.80145 0.786831 0.604913
0.856519 0.774807 0.599542
0.0625162 0.918837 0.757885
0.0625162 0.917815 0.746715
0.0723278 0.917235 0.735073
0.153185 0.91754 0.719692
0.286061 0.91873 0.700633
0.455467 0.914763 0.675731
0.642145 0.890532 0.6495
0.80174 0.854734 0.628092
0.85536 0.842878 0.623117
0.0752575 0.0836042 0.335134
0.0846113 0.0836957 0.382315
0.105028 0.0801709 0.417929
0.1449 0.0728313 0.443793
0.21857 0.0640879 0.46125
0.341604 0.0625162 0.467979
0.517815 0.0625162 0.464744
0.730953 0.0625162 0.453361
0.814954 0.0625162 0.44889
0.076524 0.101579 0.455207
0.0882734 0.100343 0.472465
0.11284 0.0959029 0.489387
0.159197 0.0851606 0.501457
0.24094 0.0701762 0.508766
0.371786 0.0629282 0.507027
0.549447 0.0625162 0.496605
0.758938 0.0625162 0.481773
0.838743 0.0625162 0.475456
0.0756085 0.136599 0.529519
0.0895247 0.134859 0.537499
0.117662 0.13019 0.546349
0.170047 0.118822 0.55198
0.259754 0.0977798 0.552895
0.39678 0.0728923 0.545144
0.578012 0.0632944 0.530709
0.782162 0.0625162 0.512306
0.852277 0.0625162 0.505806
0.0701762 0.206897 0.597299
0.086305 0.204608 0.600061
0.118303 0.199619 0.6038
0.177066 0.18764 0.604456
0.274205 0.16585 0.600656
0.418433 0.131441 0.588708
0.602502 0.093843 0.570565
0.801083 0.0723888 0.550469
0.861006 0.0679789 0.543969
0.0647898 0.333715 0.669764
0.0767376 0.3299 0.668177
0.111986 0.32372 0.667628
0.177722 0.311498 0.66392
0.282704 0.288884 0.655879
0.433417 0.254841 0.640238
0.619867 0.211337 0.620386
0.809094 0.166842 0.59939
0.861967 0.151812 0.592676
0.0625772 0.529442 0.749676
0.067155 0.52253 0.744289
0.0982223 0.51429 0.740383
0.170977 0.499046 0.732601
0.284291 0.475288 0.721141
0.440742 0.439567 0.70222
0.628183 0.397421 0.679576
0.808377 0.356481 0.657343
0.859098 0.343389 0.650568
0.0625162 0.776043 0.83299
0.0628061 0.764797 0.825483
0.0847334 0.752316 0.818021
0.159701 0.733288 0.806653
0.281712 0.705013 0.791135
0.444221 0.667338 0.769574
0.631067 0.623575 0.744137
0.806241 0.584085 0.722667
0.862226 0.572519 0.716411
0.0625162 0.905318 0.892729
0.0626383 0.901564 0.886015
0.07364 0.896513 0.879301
0.152743 0.889815 0.870817
0.282856 0.881956 0.855787
0.450614 0.868025 0.831952
0.637613 0.831281 0.8056
0.801465 0.792737 0.782696
0.856046 0.78085 0.776089
0.0625162 0.918929 0.902159
0.0625162 0.918563 0.896712
0.073167 0.918105 0.890501
0.153933 0.918471 0.88249
0.287327 0.918929 0.869734
0.456886 0.915267 0.847898
0.64242 0.893202 0.822507
0.80177 0.859327 0.799573
0.855146 0.847715 0.793652
0.0747387 0.0890822 0.533639
0.084184 0.0889754 0.583719
0.105562 0.0852216 0.621988
0.14696 0.0762493 0.648508
0.22295 0.0659037 0.665034
0.348424 0.062562 0.669902
0.5252 0.0625162 0.663783
0.739223 0.0625162 0.648035
0.822629 0.0625162 0.642054
0.0754711 0.107485 0.659541
0.0877546 0.106233 0.677302
0.112963 0.101396 0.692638
0.160754 0.0904402 0.704067
0.244327 0.0737316 0.709285
0.377035 0.0631571 0.704189
0.556008 0.0625162 0.689601
0.764858 0.0625162 0.670848
0.843107 0.0625162 0.663203
0.0747387 0.143572 0.732311
0.0889143 0.141772 0.739559
0.117647 0.136477 0.745968
0.171405 0.124773 0.749462
0.26244 0.102892 0.746639
0.401389 0.0757916 0.736004
0.583093 0.0637522 0.71751
0.786603 0.0625162 0.694621
0.854246 0.0625162 0.685771
0.0686809 0.21529 0.792721
0.0854658 0.212436 0.793957
0.118334 0.206989 0.795743
0.178454 0.194797 0.794034
0.276783 0.172534 0.78703
0.422156 0.137667 0.771405
0.606287 0.0981308 0.748043
0.804486 0.0742504 0.723308
0.86273 0.0693675 0.714672
0.0645609 0.343359 0.854139
0.0758068 0.338933 0.851804
0.112001 0.332433 0.849088
0.178943 0.3196 0.842664
0.284947 0.296605 0.830655
0.436912 0.261982 0.811505
0.622766 0.218006 0.786694
0.810727 0.174029 0.761532
0.862531 0.158984 0.752972
0.0625162 0.539483 0.905837
0.067155 0.531777 0.903532
0.0983597 0.523201 0.901595
0.17203 0.50753 0.896147
0.285969 0.483192 0.882872
0.443839 0.447288 0.860624
0.630732 0.404654 0.833097
0.810117 0.364706 0.806256
0.860426 0.351659 0.797742
0.0625162 0.785382 0.918807
0.0629129 0.773999 0.918761
0.0858015 0.760327 0.918685
0.160983 0.740871 0.918563
0.283482 0.712474 0.916259
0.446418 0.673854 0.904891
0.633371 0.630213 0.882048
0.807736 0.590875 0.85594
0.863493 0.579171 0.847745
0.0625467 0.906752 0.918914
0.0626078 0.90338 0.918898
0.0742046 0.898817 0.918898
0.154498 0.892271 0.918883
0.285405 0.884062 0.918822
0.453391 0.870893 0.91873
0.639551 0.835508 0.915724
0.802426 0.797635 0.897139
0.856703 0.785763 0.889372
0.0627604 0.918929 0.918929
0.0625162 0.918929 0.918929
0.0743572 0.918929 0.918914
0.156222 0.918929 0.918914
0.290196 0.918929 0.918883
0.459312 0.915709 0.918822
0.644297 0.895155 0.915862
0.802884 0.862882 0.904723
0.85568 0.851499 0.899321
0.0737163 0.0951247 0.746471
0.0839551 0.0944076 0.784955
0.106249 0.0901198 0.809522
0.149523 0.0803693 0.824628
0.227832 0.0676432 0.827512
0.356405 0.0625467 0.82031
0.534585 0.0625162 0.799481
0.748699 0.0625162 0.769924
0.831647 0.0625162 0.758358
0.0749981 0.113191 0.837095
0.0876783 0.111238 0.846555
0.113802 0.10605 0.8533
0.163088 0.0946822 0.856001
0.248661 0.0765087 0.850706
0.383566 0.0634928 0.834211
0.563912 0.0625162 0.808621
0.772229 0.0625162 0.777661
0.847318 0.0625162 0.76524
0.0742504 0.149554 0.880323
0.0889906 0.147433 0.882612
0.118669 0.141726 0.882826
0.173922 0.129213 0.878492
0.26656 0.106661 0.867643
0.407294 0.0780652 0.847745
0.590341 0.0641642 0.819242
0.792767 0.0625162 0.785595
0.857862 0.0625162 0.772976
0.0679179 0.222019 0.907607
0.0854505 0.218982 0.907362
0.119387 0.212711 0.906004
0.180682 0.200671 0.900938
0.280537 0.177401 0.887144
0.427893 0.142245 0.863416
0.612467 0.101381 0.832441
0.809018 0.0756847 0.799344
0.865797 0.0703899 0.787579
0.0646677 0.3514 0.918715
0.0755627 0.346746 0.918563
0.11284 0.339803 0.918044
0.181155 0.326345 0.91577
0.28864 0.302724 0.907744
0.44181 0.26746 0.885466
0.628367 0.223224 0.853986
0.813794 0.179431 0.821118
0.863905 0.16463 0.809476
0.0625162 0.548226 0.918929
0.067689 0.540795 0.918929
0.0992447 0.530358 0.918929
0.174594 0.514733 0.918929
0.289662 0.489296 0.918608
0.448188 0.453651 0.911421
0.635264 0.41062 0.882689
0.813458 0.370367 0.850599
0.86302 0.357931 0.840024
0.0625162 0.793027 0.918929
0.063035 0.781109 0.918761
0.0871595 0.76701 0.918929
0.163775 0.747295 0.918929
0.286946 0.717922 0.918929
0.450706 0.679194 0.918914
0.637675 0.635279 0.9131
0.810452 0.595773 0.885954
0.866377 0.584253 0.87628
0.0625467 0.907454 0.918929
0.0626841 0.904311 0.918929
0.0752728 0.899779 0.918929
0.158068 0.893675 0.918929
0.289509 0.885618 0.918929
0.457877 0.873182 0.918929
0.643671 0.838117 0.918929
0.804791 0.800671 0.913466
0.858579 0.789212 0.907637
0.0627604 0.918929 0.918929
0.0627604 0.918929 0.918929
0.0764935 0.918929 0.918929
0.160037 0.918929 0.918929
0.294118 0.918929 0.918929
0.46389 0.915511 0.918929
0.647852 0.895964 0.918929
0.805264 0.864561 0.917922
0.857786 0.853635 0.915022
0.0735027 0.0971847 0.816846
0.0840467 0.0962387 0.846098
0.106783 0.091722 0.863233
0.150958 0.0813916 0.870329
0.230365 0.0679789 0.866789
0.359808 0.0625162 0.852003
0.539269 0.0625162 0.823911
0.752194 0.0625162 0.789059
0.835172 0.0625162 0.775341
0.0749676 0.114839 0.884062
0.0879072 0.112871 0.88925
0.114321 0.107439 0.891325
0.16434 0.0958572 0.889296
0.250889 0.0771344 0.878325
0.386084 0.063386 0.856733
0.567254 0.0625162 0.826368
0.774884 0.0625162 0.790936
0.849134 0.0625162 0.776745
0.0742504 0.151247 0.910048
0.0892348 0.148989 0.910201
0.11931 0.14316 0.908415
0.175204 0.130419 0.901213
0.268544 0.107561 0.886763
0.409857 0.078706 0.863401
0.593561 0.0643015 0.831098
0.795316 0.0625162 0.794415
0.859709 0.0625162 0.78117
0.0679332 0.223896 0.918181
0.0858015 0.220966 0.918166
0.120119 0.214588 0.917647
0.181872 0.202228 0.913603
0.282612 0.17911 0.898787
0.429831 0.143328 0.873014
0.615488 0.102129 0.839826
0.810956 0.0758984 0.804471
0.86714 0.0707103 0.792126
0.0648203 0.353933 0.918929
0.075639 0.349325 0.918929
0.113588 0.342184 0.918929
0.182361 0.328313 0.918685
0.290394 0.304646 0.913146
0.443702 0.269078 0.890379
0.63064 0.224735 0.857313
0.815259 0.181323 0.823499
0.864729 0.166629 0.811643
0.0625162 0.550896 0.918929
0.0677958 0.543542 0.918929
0.0998093 0.53312 0.918929
0.17583 0.517052 0.918929
0.291508 0.491997 0.918868
0.449882 0.455421 0.9131
0.637201 0.412879 0.884428
0.814771 0.372137 0.852094
0.864256 0.360204 0.841535
0.0625162 0.795254 0.918929
0.0630808 0.783551 0.918929
0.0879072 0.769696 0.918929
0.165011 0.749462 0.918929
0.288869 0.72018 0.918929
0.452522 0.681208 0.918914
0.639735 0.637324 0.91371
0.811383 0.598047 0.886381
0.867399 0.586725 0.876554
0.0625467 0.907744 0.918929
0.0626841 0.904631 0.918929
0.0758831 0.900267 0.918929
0.159518 0.894026 0.918929
0.291356 0.886412 0.918929
0.459648 0.873594 0.918929
0.645701 0.839139 0.918929
0.805844 0.801724 0.913649
0.85922 0.790372 0.907805
0.0627604 0.918929 0.918929
0.0627604 0.918929 0.918929
0.0772717 0.918929 0.918929
0.161578 0.918929 0.918929
0.296162 0.918929 0.918929
0.466239 0.915511 0.918929
0.649714 0.896376 0.918929
0.806439 0.865217 0.917922
0.85861 0.854459 0.915022
