luts/varicam_official/StraitYellow 33 E-E.cube
TITLE "Generated by Resolve"
LUT_3D_SIZE 5
0.0156252 0.0156252 0.0156252
0.125536 0 0
0.600855 0 0
0.993774 0 0
1 0 0
0 0.141039 0.0370642
0.105409 0.108324 0.0165103
0.580728 0.00410468 0
0.988739 0 0
1 0 0
0 0.666789 0.127382
0.0205539 0.634287 0.106828
0.495888 0.493568 0.0182345
0.95874 0.344076 0
1 0.309758 0
0 1 0.221973
4.57771e-05 1 0.201419
0.407141 0.977096 0.112749
0.900557 0.883116 0.0183108
1 0.848905 0.00122072
0 1 0.242008
0 1 0.221439
0.388357 1 0.132631
0.882414 0.999023 0.0383459
1 0.975341 0.016846
0.0154421 0.0158083 0.0307012
0.125353 0 0.0113069
0.600855 0 0
0.993774 0 0
1 0 0
0 0.14139 0.0523232
0.105211 0.10869 0.031754
0.580545 0.00415045 0
0.988739 0 0
1 0 0
0 0.667155 0.142458
0.0203708 0.634653 0.121904
0.495872 0.493919 0.0333257
0.965393 0.344442 0
1 0.31014 0
0 1 0.237156
4.57771e-05 1 0.216678
0.406973 0.992325 0.127901
0.905409 0.893004 0.0335699
1 0.858824 0.0130617
0 1 0.257252
0 1 0.236698
0.388205 1 0.14789
0.886793 0.999771 0.0535897
1 0.977569 0.0319219
0.0132296 0.0208286 0.249393
0.123354 0 0.22884
0.598688 0 0.140093
0.99321 0 0.0457923
1 0 0.0242313
0 0.146242 0.270893
0.103182 0.113741 0.25034
0.578561 0.00479133 0.161669
0.98819 0 0.0672465
1 0 0.0457313
0 0.672145 0.361212
0.0183871 0.63949 0.340658
0.493721 0.498924 0.25185
0.967025 0.349447 0.157549
1 0.31519 0.135988
0 1 0.455802
0 1 0.435248
0.404761 0.998642 0.346578
0.905013 0.900954 0.252247
1 0.866712 0.230655
0 1 0.475837
0 1 0.455268
0.385992 1 0.366613
0.886244 1 0.27216
1 0.983215 0.250675
0.00947585 0.0301366 0.661418
0.119509 0 0.64097
0.594949 0 0.552163
0.992294 0 0.457877
1 0 0.436271
0 0.155657 0.682963
0.0992599 0.122942 0.662409
0.574578 0.00656138 0.573617
0.987274 0 0.479301
1 0 0.457816
0 0.681407 0.773281
0.0144198 0.648905 0.752728
0.489952 0.508186 0.66392
0.965988 0.358694 0.569635
1 0.324514 0.548135
0 1 0.867887
0 1 0.847333
0.401022 1 0.758663
0.90103 0.910231 0.664302
1 0.876066 0.642725
0 1 0.887907
0 1 0.867353
0.382239 1 0.778546
0.882246 1 0.684245
1 0.992401 0.66276
0.00666819 0.0368811 0.961776
0.116655 0.00520333 0.94139
0.592111 0 0.852567
0.991577 0 0.758282
1 0 0.736629
0 0.162448 0.982742
0.0964523 0.129809 0.962814
0.571847 0.00816358 0.874083
0.986465 0 0.779721
1 0 0.758221
0 0.688197 1
0.0116732 0.655711 1
0.487007 0.514977 0.96434
0.965316 0.365484 0.870039
1 0.331258 0.848386
0 1 1
0 1 1
0.398215 1 0.997726
0.898299 0.917052 0.957534
1 0.882872 0.936934
0 1 1
0 1 1
0.379431 1 1
0.879515 1 0.983154
1 0.999283 0.963165
