luts/varicam_official/StraitYellow 33 E-E.cube
TITLE "Generated by Resolve"
LUT_3D_SIZE 9
0.0156252 0.0156252 0.0156252
0.0265965 0.0123445 0.01355
0.125536 0 0
0.325216 0 0
0.600855 0 0
0.887221 0 0
0.993774 0 0
1 0 0
1 0 0
0.0131533 0.0305943 0.0180972
0.0241245 0.0273747 0.016083
0.123186 0.00579843 0.000122072
0.32282 0 0
0.598505 0 0
0.884855 0 0
0.993149 0 0
1 0 0
1 0 0
0 0.141039 0.0370642
0.00885023 0.137758 0.0349737
0.105409 0.108324 0.0165103
0.305104 0.0492256 0
0.580728 0.00410468 0
0.867063 0 0
0.988739 0 0
1 0 0
1 0 0
0 0.362097 0.0749981
0 0.358801 0.0729686
0.0696574 0.329503 0.0544442
0.269352 0.27042 0.0178988
0.545098 0.188876 0
0.831357 0.104128 0
0.979812 0.0500496 0
1 0.0320745 0
1 0.0302129 0
0 0.666789 0.127382
0 0.663493 0.125307
0.0205539 0.634287 0.106828
0.220249 0.575204 0.0694743
0.495888 0.493568 0.0182345
0.782254 0.40885 0
0.95874 0.344076 0
1 0.312963 0
1 0.309758 0
0 0.951919 0.181247
0 0.949142 0.179171
0.00201419 0.924437 0.160693
0.169696 0.874479 0.123384
0.445365 0.804105 0.0718853
0.731701 0.719905 0.0191043
0.930358 0.655131 0
0.99852 0.624033 0
1 0.620829 0
0 1 0.221973
0 1 0.219898
4.57771e-05 1 0.201419
0.131289 0.99501 0.164157
0.407141 0.977096 0.112749
0.693294 0.934066 0.059266
0.900557 0.883116 0.0183108
0.992447 0.852049 0.00251774
1 0.848905 0.00122072
0 1 0.24065
0 1 0.238666
0 1 0.220096
0.113741 1 0.182864
0.389487 1 0.131518
0.675807 0.999619 0.0780194
0.883528 0.987579 0.0372015
0.984558 0.962448 0.0175784
1 0.959258 0.0154879
0 1 0.242008
0 1 0.239918
0 1 0.221439
0.11252 1 0.184222
0.388357 1 0.132631
0.674525 1 0.0793774
0.882414 0.999023 0.0383459
0.984115 0.978546 0.0186923
1 0.975341 0.016846
0.0156252 0.0156252 0.0156252
0.0265965 0.0123445 0.01355
0.125536 0 0
0.325216 0 0
0.600855 0 0
0.887221 0 0
0.993774 0 0
1 0 0
1 0 0
0.0131533 0.0305943 0.0180972
0.0241245 0.0273747 0.016083
0.123186 0.00579843 0.000122072
0.32282 0 0
0.598505 0 0
0.884855 0 0
0.993149 0 0
1 0 0
1 0 0
0 0.141039 0.0370642
0.00885023 0.137758 0.0349737
0.105409 0.108324 0.0165103
0.305104 0.0492256 0
0.580728 0.00410468 0
0.867063 0 0
0.988739 0 0
1 0 0
1 0 0
0 0.362097 0.0749981
0 0.358801 0.0729686
0.0696574 0.329503 0.0544442
0.269352 0.27042 0.0178988
0.545098 0.188876 0
0.831357 0.104128 0
0.979812 0.0500496 0
1 0.0320745 0
1 0.0302129 0
0 0.666789 0.127382
0 0.663493 0.125307
0.0205539 0.634287 0.106828
0.220249 0.575204 0.0694743
0.495888 0.493568 0.0182345
0.782254 0.40885 0
0.95874 0.344076 0
1 0.312963 0
1 0.309758 0
0 0.951919 0.181247
0 0.949142 0.179171
0.00201419 0.924437 0.160693
0.169696 0.874479 0.123384
0.445365 0.804105 0.0718853
0.731701 0.719905 0.0191043
0.930358 0.655131 0
0.99852 0.624033 0
1 0.620829 0
0 1 0.221973
0 1 0.219898
4.57771e-05 1 0.201419
0.131289 0.99501 0.164157
0.407141 0.977096 0.112749
0.693294 0.934066 0.059266
0.900557 0.883116 0.0183108
0.992447 0.852049 0.00251774
1 0.848905 0.00122072
0 1 0.24065
0 1 0.238666
0 1 0.220096
0.113741 1 0.182864
0.389487 1 0.131518
0.675807 0.999619 0.0780194
0.883528 0.987579 0.0372015
0.984558 0.962448 0.0175784
1 0.959258 0.0154879
0 1 0.242008
0 1 0.239918
0 1 0.221439
0.11252 1 0.184222
0.388357 1 0.132631
0.674525 1 0.0793774
0.882414 0.999023 0.0383459
0.984115 0.978546 0.0186923
1 0.975341 0.016846
0.0154421 0.0158083 0.0307012
0.0264134 0.012604 0.0287022
0.125353 0 0.0113069
0.325032 0 0
0.600855 0 0
0.88719 0 0
0.993774 0 0
1 0 0
1 0 0
0.0129702 0.0308995 0.0332799
0.0239414 0.0276493 0.0312352
0.123003 0.0059968 0.0133364
0.322683 0 0
0.598413 0 0
0.884733 0 0
0.993149 0 0
1 0 0
1 0 0
0 0.14139 0.0523232
0.00885023 0.138109 0.0502327
0.105211 0.10869 0.031754
0.304921 0.0496071 0.00340276
0.580545 0.00415045 0
0.866911 0 0
0.988739 0 0
1 0 0
1 0 0
0 0.362387 0.0901656
0 0.359136 0.0881361
0.0694743 0.32987 0.0696117
0.269215 0.270802 0.0325475
0.545007 0.189227 0.000732433
0.83125 0.104509 0
0.979812 0.0502632 0
1 0.0322881 0
1 0.0304265 0
0 0.667155 0.142458
0 0.663859 0.140459
0.0203708 0.634653 0.121904
0.220066 0.575586 0.0846418
0.495872 0.493919 0.0333257
0.782071 0.409216 0
0.965393 0.344442 0
1 0.313344 0
1 0.31014 0
0 0.952239 0.196384
0 0.949447 0.194354
0.00201419 0.924575 0.175814
0.169543 0.874601 0.138582
0.445182 0.804471 0.087129
0.731533 0.720241 0.033814
0.941802 0.655497 0.00280766
0.999649 0.624399 0
1 0.621195 0
0 1 0.237156
0 1 0.235111
4.57771e-05 1 0.216678
0.131197 0.99881 0.1794
0.406973 0.992325 0.127901
0.693263 0.954559 0.0745251
0.905409 0.893004 0.0335699
0.997452 0.86186 0.0148318
1 0.858824 0.0130617
0 1 0.255894
0 1 0.253834
0 1 0.23534
0.113649 1 0.198123
0.389303 1 0.146731
0.675624 0.999908 0.0932784
0.888075 0.994598 0.0522927
0.992844 0.971328 0.0326848
1 0.968307 0.0307469
0 1 0.257252
0 1 0.255177
0 1 0.236698
0.112428 1 0.199374
0.388205 1 0.14789
0.674495 1 0.0944533
0.886793 0.999771 0.0535897
0.992493 0.980774 0.0339361
1 0.977569 0.0319219
0.0146181 0.0174563 0.106279
0.0255894 0.0142672 0.104189
0.124743 0 0.0857252
0.324453 0 0.0484932
0.600076 0 0.00521859
0.886397 0 0
0.993515 0 0
1 0 0
1 0 0
0.0121462 0.0325628 0.108888
0.0231785 0.0293736 0.106798
0.122286 0.00688182 0.0883345
0.321981 0 0.0511025
0.597604 0 0.00572213
0.883955 0 7.62951e-05
0.992966 0 0
1 0 0
1 0 0
0 0.143099 0.127718
0.00849927 0.139803 0.125734
0.104402 0.110369 0.107195
0.304082 0.0513008 0.0699321
0.579965 0.00437934 0.0185855
0.86627 0 0.0012665
0.988495 0 0
1 0 0
1 0 0
0 0.364157 0.165789
0 0.360861 0.163699
0.0688792 0.331563 0.14522
0.268574 0.27248 0.108003
0.544213 0.190921 0.0565042
0.830564 0.106188 0.00892653
0.979614 0.0512398 0.00108339
1 0.0332494 4.57771e-05
1 0.0314031 0
0 0.668833 0.218036
0 0.665537 0.215961
0.0197757 0.636332 0.197482
0.219455 0.577264 0.160266
0.495109 0.495628 0.108873
0.78143 0.410895 0.0554055
0.967346 0.34612 0.0147707
1 0.315022 0.00364691
1 0.311818 0.00349432
0 0.953658 0.271901
0 0.950866 0.269856
0.00196841 0.926177 0.251408
0.168811 0.876219 0.21413
0.444587 0.806119 0.162615
0.730861 0.72195 0.109285
0.94461 0.657191 0.0683146
1 0.626093 0.048661
1 0.622873 0.0467536
0 1 0.312779
0 1 0.310689
3.0518e-05 1 0.292226
0.130526 1 0.254917
0.406149 0.997604 0.203494
0.692515 0.962493 0.150011
0.906401 0.897658 0.109163
0.998932 0.86659 0.0895552
1 0.863508 0.0876173
0 1 0.331533
0 1 0.329458
0 1 0.310979
0.11284 1 0.273747
0.388693 1 0.222171
0.674846 1 0.168673
0.888716 0.99765 0.127871
0.995239 0.975723 0.108217
1 0.972702 0.106371
0 1 0.332647
0 1 0.330678
0 1 0.312108
0.111742 1 0.274876
0.387381 1 0.223529
0.673747 1 0.170031
0.887633 1 0.129229
0.99498 0.983047 0.109575
1 0.979828 0.1075
0.0132296 0.0208286 0.249393
0.0243076 0.0175326 0.247333
0.123354 0 0.22884
0.323064 0 0.191516
0.598688 0 0.140093
0.885054 0 0.0865949
0.99321 0 0.0457923
1 0 0.0261387
1 0 0.0242313
0.0108797 0.0358892 0.252003
0.021912 0.0326238 0.249943
0.120897 0.00852979 0.231434
0.320577 0 0.194125
0.596338 0 0.142702
0.882658 0 0.0892042
0.992615 0 0.0483864
1 0 0.028748
1 0 0.0267491
0 0.146242 0.270893
0.00787366 0.143023 0.268818
0.103182 0.113741 0.25034
0.302785 0.0546578 0.213107
0.578561 0.00479133 0.161669
0.864897 0 0.108263
0.98819 0 0.0672465
1 0 0.0477455
1 0 0.0457313
0 0.367391 0.308919
0 0.364126 0.306859
0.0674907 0.334783 0.288365
0.267185 0.275731 0.251072
0.542809 0.194171 0.199588
0.82919 0.109453 0.14609
0.979263 0.0531472 0.105272
1 0.0351873 0.0856489
1 0.0333562 0.0836347
0 0.672145 0.361212
0 0.668894 0.359136
0.0183871 0.63949 0.340658
0.218082 0.580407 0.303395
0.493721 0.498924 0.25185
0.780072 0.414221 0.19852
0.967025 0.349447 0.157549
1 0.318364 0.137896
1 0.31519 0.135988
0 0.956283 0.41503
0 0.953567 0.41297
0.00187686 0.928801 0.394476
0.167514 0.878843 0.357198
0.443198 0.809384 0.30576
0.729519 0.725231 0.252293
0.943206 0.660334 0.211444
1 0.629267 0.191821
1 0.6262 0.189883
0 1 0.455802
0 1 0.453773
0 1 0.435248
0.129137 1 0.398016
0.404761 0.998642 0.346578
0.691142 0.964324 0.293156
0.905013 0.900954 0.252247
0.998734 0.869856 0.232609
1 0.866712 0.230655
0 1 0.474632
0 1 0.472587
0 1 0.454078
0.111543 1 0.41677
0.38732 1 0.365347
0.673594 1 0.311849
0.887327 0.998779 0.271015
0.994919 0.979065 0.251392
1 0.975845 0.249317
0 1 0.475837
0 1 0.473747
0 1 0.455268
0.110353 1 0.418051
0.385992 1 0.366613
0.672358 1 0.313146
0.886244 1 0.27216
0.994659 0.986221 0.252552
1 0.983215 0.250675
0.0115358 0.0252384 0.447257
0.0225071 0.0220035 0.445167
0.121447 0 0.426703
0.321126 0 0.389471
0.596994 0 0.337881
0.883146 0 0.284642
0.992813 0 0.243595
1 0 0.223941
1 0 0.222095
0.00906386 0.0403449 0.449866
0.0200351 0.0370794 0.447776
0.119097 0.0109712 0.429313
0.31873 0 0.39205
0.594522 0 0.34049
0.880781 0 0.287114
0.992187 0 0.246204
1 0 0.226551
1 0 0.224704
0 0.150774 0.468696
0.00704967 0.147494 0.466712
0.10132 0.118166 0.448157
0.301015 0.0590829 0.41091
0.576638 0.00547799 0.359564
0.862974 0 0.306065
0.987655 0 0.265217
1 0 0.245624
1 0 0.243534
0 0.371847 0.506752
0 0.368582 0.504677
0.0655833 0.3393 0.486198
0.265263 0.280217 0.448936
0.541115 0.198657 0.397436
0.827268 0.113939 0.343999
0.978851 0.0556802 0.30309
1 0.0377203 0.283452
1 0.0359045 0.281605
0 0.676524 0.559014
0 0.673289 0.556924
0.0164797 0.644038 0.53846
0.216159 0.584955 0.501228
0.49189 0.503395 0.449729
0.778164 0.418662 0.396384
0.966506 0.353811 0.355352
1 0.322744 0.335836
1 0.319615 0.333867
0 0.960143 0.612879
0 0.957412 0.610834
0.00177005 0.932662 0.592355
0.165637 0.882704 0.555093
0.441276 0.813596 0.503578
0.727642 0.729702 0.450263
0.941451 0.664881 0.409293
1 0.633783 0.389639
1 0.630671 0.387732
0 1 0.653758
0 1 0.651667
0 1 0.633204
0.127245 1 0.595895
0.403082 0.999908 0.544472
0.689296 0.966628 0.49099
0.90309 0.905409 0.450111
0.998444 0.874342 0.430488
1 0.871199 0.428458
0 1 0.672511
0 1 0.67042
0 1 0.651957
0.109697 1 0.614649
0.385397 1 0.563149
0.671733 1 0.509651
0.88542 0.9991 0.468849
0.994522 0.983505 0.449195
1 0.980392 0.447349
0 1 0.673625
0 1 0.671595
0 1 0.653071
0.108431 1 0.615854
0.384314 1 0.564492
0.670527 1 0.511009
0.884321 1 0.470146
0.994202 0.990753 0.450553
1 0.987625 0.448478
0.00947585 0.0301366 0.661418
0.0204471 0.0269017 0.659388
0.119509 0 0.64097
0.319142 0 0.603571
0.594949 0 0.552163
0.881178 0 0.498665
0.992294 0 0.457877
1 0 0.438224
1 0 0.436271
0.00700389 0.045182 0.663966
0.0179751 0.0419471 0.661952
0.117098 0.0137179 0.643534
0.316732 0 0.606149
0.592477 0 0.554772
0.878767 0 0.501274
0.991684 0 0.460487
1 0 0.440833
1 0 0.438804
0 0.155657 0.682963
0.00619516 0.152377 0.680888
0.0992599 0.122942 0.662409
0.298955 0.0639658 0.625193
0.574578 0.00656138 0.573617
0.86096 0 0.520348
0.987274 0 0.479301
1 0 0.459709
1 0 0.457816
0 0.376669 0.720897
0 0.373404 0.718883
0.0636454 0.344137 0.700343
0.263264 0.285054 0.663096
0.539071 0.203494 0.611673
0.82536 0.118761 0.558175
0.978332 0.0586404 0.517372
1 0.040528 0.497719
1 0.0387427 0.495705
0 0.681407 0.773281
0 0.678111 0.771206
0.0144198 0.648905 0.752728
0.214176 0.589837 0.71545
0.489952 0.508186 0.66392
0.776211 0.423575 0.610437
0.965988 0.358694 0.569635
1 0.327596 0.549981
1 0.324514 0.548135
0 0.964263 0.827085
0 0.961486 0.82504
0.00164797 0.936721 0.806607
0.163592 0.886748 0.769299
0.439307 0.817761 0.71783
0.725597 0.734508 0.664378
0.939437 0.669749 0.623499
1 0.638651 0.603891
1 0.635447 0.601923
0 1 0.867887
0 1 0.865843
0 1 0.847333
0.125277 1 0.810086
0.401022 1 0.758663
0.687343 0.969085 0.705226
0.90103 0.910231 0.664302
0.998154 0.879118 0.644724
1 0.876066 0.642725
0 1 0.886549
0 1 0.884581
0 1 0.866117
0.107713 1 0.828779
0.383337 1 0.777432
0.669688 1 0.723934
0.883482 0.999329 0.683116
0.993652 0.988281 0.663478
1 0.985275 0.661402
0 1 0.887907
0 1 0.885832
0 1 0.867353
0.106493 1 0.830137
0.382239 1 0.778546
0.668574 1 0.725292
0.882246 1 0.684245
0.992782 0.995331 0.664622
1 0.992401 0.66276
0.00759899 0.0342718 0.845487
0.018677 0.0309758 0.843397
0.117739 0.00282292 0.824933
0.317433 0 0.787625
0.593072 0 0.73611
0.879438 0 0.682719
0.991867 0 0.641825
1 0 0.622171
1 0 0.62034
0.00526436 0.0493782 0.848096
0.0162814 0.0460975 0.846006
0.115267 0.0173037 0.827543
0.314961 0 0.790219
0.590738 0 0.73872
0.876966 0 0.685267
0.991241 0 0.644434
1 0 0.624781
1 0 0.622858
0 0.159686 0.866926
0.00535592 0.156497 0.864881
0.0976272 0.127199 0.846357
0.2972 0.0681163 0.80914
0.572946 0.00753796 0.757778
0.859281 0 0.704295
0.986755 0 0.663355
1 0 0.643748
1 0 0.641764
0 0.38088 0.904906
0 0.377615 0.902861
0.0618753 0.348257 0.884428
0.26157 0.289174 0.847135
0.537194 0.207645 0.795621
0.823575 0.122957 0.742168
0.977905 0.0618601 0.701335
1 0.0429847 0.681682
1 0.0411383 0.679744
0 0.685664 0.957244
0 0.682368 0.955154
0.0127718 0.652949 0.93669
0.212467 0.593866 0.899458
0.488106 0.512428 0.847883
0.774472 0.42768 0.794614
0.965606 0.362951 0.753582
1 0.331853 0.733959
1 0.328649 0.732082
0 0.967666 0.986053
0 0.964981 0.985275
0.0015259 0.940185 0.978256
0.161929 0.890227 0.952651
0.437583 0.821363 0.901808
0.723918 0.738735 0.848386
0.937591 0.673854 0.807492
1 0.642741 0.787869
1 0.639704 0.785962
0 1 0.989685
0 1 0.989151
0 1 0.982208
0.123507 1 0.96524
0.399145 1 0.930602
0.685512 0.971237 0.884337
0.899397 0.914397 0.843442
0.997787 0.883314 0.823835
1 0.880186 0.821805
0 1 0.987152
0 1 0.986786
0 1 0.983307
0.105959 1 0.976165
0.381704 1 0.957824
0.668025 1 0.905379
0.881712 0.999496 0.864576
0.992065 0.99237 0.844938
1 0.989288 0.842847
0 1 0.987411
0 1 0.986999
0 1 0.983474
0.104738 1 0.976425
0.380362 1 0.958831
0.666743 1 0.906737
0.880613 1 0.865705
0.990921 0.998505 0.846113
1 0.996674 0.844205
0.00666819 0.0368811 0.961776
0.0176394 0.0336614 0.959762
0.116655 0.00520333 0.94139
0.316335 0 0.90396
0.592111 0 0.852567
0.878325 0 0.799069
0.991577 0 0.758282
1 0 0.738628
1 0 0.736629
0.00419623 0.051957 0.96434
0.0151827 0.0487068 0.962356
0.11426 0.0198062 0.943908
0.313909 0 0.906569
0.589654 0 0.855177
0.875944 0 0.801694
0.990982 0 0.760891
1 0 0.741238
1 0 0.739193
0 0.162448 0.982742
0.00485237 0.159167 0.980835
0.0964523 0.129809 0.962814
0.296147 0.0707256 0.925597
0.571847 0.00816358 0.874083
0.858122 0 0.820752
0.986465 0 0.779721
1 0 0.760082
1 0 0.758221
0 0.383444 0.997696
0 0.380209 0.997208
0.0607767 0.350927 0.991348
0.260471 0.291859 0.963485
0.536187 0.210285 0.912077
0.822461 0.125597 0.858579
0.977615 0.0638743 0.817731
1 0.0444495 0.798138
1 0.042649 0.796078
0 0.688197 1
0 0.684947 1
0.0116732 0.655711 1
0.211337 0.596628 0.996292
0.487007 0.514977 0.96434
0.773358 0.43032 0.910918
0.965316 0.365484 0.870039
1 0.334417 0.850385
1 0.331258 0.848386
0 0.970001 1
0 0.967208 1
0.00146487 0.942412 1
0.160784 0.8925 1
0.436469 0.823529 0.996414
0.722789 0.741283 0.964782
0.936614 0.676555 0.923919
1 0.645457 0.90428
1 0.642237 0.902296
0 1 1
0 1 1
0 1 1
0.122408 1 1
0.398215 1 0.997726
0.684398 0.972534 0.984863
0.898299 0.917052 0.957534
0.997528 0.885939 0.938918
1 0.882872 0.936934
0 1 1
0 1 1
0 1 1
0.104814 1 1
0.380529 1 1
0.666865 1 0.998627
0.880613 0.999603 0.982376
0.991012 0.994415 0.963882
1 0.992065 0.961807
0 1 1
0 1 1
0 1 1
0.103639 1 1
0.379431 1 1
0.665629 1 0.998779
0.879515 1 0.983154
0.98996 1 0.965026
1 0.999283 0.963165
