luts/varicam_official/StraitYellow 33 E-E.cube
TITLE "Generated by Resolve"
LUT_3D_SIZE 33
0.0156252 0.0156252 0.0156252
0.0156252 0.0156252 0.0156252
0.0156252 0.0156252 0.0156252
0.0156252 0.0156252 0.0156252
0.0265965 0.0123445 0.01355
0.0445869 0.00717174 0.0101167
0.0663767 0.00172427 0.00595102
0.0941176 0 0.00262455
0.125536 0 0
0.166934 0 0
0.213336 0 0
0.265263 0 0
0.325216 0 0
0.388235 0 0
0.456962 0 0
0.527672 0 0
0.600855 0 0
0.674678 0 0
0.748074 0 0
0.818998 0 0
0.887221 0 0
0.951171 0 0
0.979568 0 0
0.986664 0 0
0.993774 0 0
1 0 0
1 0 0
1 0 0
1 0 0
1 0 0
1 0 0
1 0 0
1 0 0
0.0156252 0.0156252 0.0156252
0.0156252 0.0156252 0.0156252
0.0156252 0.0156252 0.0156252
0.0156252 0.0156252 0.0156252
0.0265965 0.0123445 0.01355
0.0445869 0.00717174 0.0101167
0.0663767 0.00172427 0.00595102
0.0941176 0 0.00262455
0.125536 0 0
0.166934 0 0
0.213336 0 0
0.265263 0 0
0.325216 0 0
0.388235 0 0
0.456962 0 0
0.527672 0 0
0.600855 0 0
0.674678 0 0
0.748074 0 0
0.818998 0 0
0.887221 0 0
0.951171 0 0
0.979568 0 0
0.986664 0 0
0.993774 0 0
1 0 0
1 0 0
1 0 0
1 0 0
1 0 0
1 0 0
1 0 0
1 0 0
0.0156252 0.0156252 0.0156252
0.0156252 0.0156252 0.0156252
0.0156252 0.0156252 0.0156252
0.0156252 0.0156252 0.0156252
0.0265965 0.0123445 0.01355
0.0445869 0.00717174 0.0101167
0.0663767 0.00172427 0.00595102
0.0941176 0 0.00262455
0.125536 0 0
0.166934 0 0
0.213336 0 0
0.265263 0 0
0.325216 0 0
0.388235 0 0
0.456962 0 0
0.527672 0 0
0.600855 0 0
0.674678 0 0
0.748074 0 0
0.818998 0 0
0.887221 0 0
0.951171 0 0
0.979568 0 0
0.986664 0 0
0.993774 0 0
1 0 0
1 0 0
1 0 0
1 0 0
1 0 0
1 0 0
1 0 0
1 0 0
0.0156252 0.0156252 0.0156252
0.0156252 0.0156252 0.0156252
0.0156252 0.0156252 0.0156252
0.0156252 0.0156252 0.0156252
0.0265965 0.0123445 0.01355
0.0445869 0.00717174 0.0101167
0.0663767 0.00172427 0.00595102
0.0941176 0 0.00262455
0.125536 0 0
0.166934 0 0
0.213336 0 0
0.265263 0 0
0.325216 0 0
0.388235 0 0
0.456962 0 0
0.527672 0 0
0.600855 0 0
0.674678 0 0
0.748074 0 0
0.818998 0 0
0.887221 0 0
0.951171 0 0
0.979568 0 0
0.986664 0 0
0.993774 0 0
1 0 0
1 0 0
1 0 0
1 0 0
1 0 0
1 0 0
1 0 0
1 0 0
0.0131533 0.0305943 0.0180972
0.0131533 0.0305943 0.0180972
0.0131533 0.0305943 0.0180972
0.0131533 0.0305943 0.0180972
0.0241245 0.0273747 0.016083
0.0421149 0.0221408 0.012726
0.0639048 0.0160678 0.00856031
0.0917067 0.0106966 0.00416571
0.123186 0.00579843 0.000122072
0.164508 0.00195315 4.57771e-05
0.210864 0 0
0.262791 0 0
0.32282 0 0
0.385901 0 0
0.454627 0 0
0.525338 0 0
0.598505 0 0
0.672282 0 0
0.745602 0 0
0.816602 0 0
0.884855 0 0
0.94873 0 0
0.977539 0 0
0.985351 0 0
0.993149 0 0
1 0 0
1 0 0
1 0 0
1 0 0
1 0 0
1 0 0
1 0 0
1 0 0
0.0099031 0.0504921 0.0214694
0.0099031 0.0504921 0.0214694
0.0099031 0.0504921 0.0214694
0.0099031 0.0504921 0.0214694
0.0208743 0.0472877 0.0194705
0.0388647 0.0419928 0.016144
0.0606546 0.035462 0.0120241
0.0885023 0.0272526 0.00680552
0.120043 0.0184176 0.00157168
0.161288 0.0103609 0.000534066
0.207614 0.00456245 0
0.259541 0.00108339 0
0.319615 0.000274662 0
0.382757 0 0
0.451484 0 0
0.522194 0 0
0.595361 0 0
0.669093 0 0
0.742351 0 0
0.813428 0 0
0.881697 0 0
0.945495 0 0
0.974868 0 0
0.983612 0 0
0.99234 0 0
1 0 0
1 0 0
1 0 0
1 0 0
1 0 0
1 0 0
1 0 0
1 0 0
0.00610361 0.0740826 0.0255741
0.00610361 0.0740826 0.0255741
0.00610361 0.0740826 0.0255741
0.00610361 0.0740826 0.0255741
0.0170748 0.0708019 0.0235142
0.0350652 0.0654459 0.0201267
0.0568551 0.0590219 0.0160983
0.0847028 0.0508431 0.0109102
0.116243 0.0416571 0.00543221
0.157488 0.0300603 0.00183108
0.203815 0.0176089 0
0.255741 0.00419623 0
0.315816 0.00105287 0
0.378958 0 0
0.447684 0 0
0.518395 0 0
0.591562 0 0
0.665278 0 0
0.738552 0 0
0.809628 0 0
0.877897 0 0
0.941695 0 0
0.971756 0 0
0.981567 0 0
0.991394 0 0
1 0 0
1 0 0
1 0 0
1 0 0
1 0 0
1 0 0
1 0 0
1 0 0
0.00263981 0.105425 0.0309606
0.00263981 0.105425 0.0309606
0.00263981 0.105425 0.0309606
0.00263981 0.105425 0.0309606
0.0128939 0.102129 0.0288701
0.0299992 0.0967575 0.0254826
0.0517891 0.0903487 0.0214847
0.0796216 0.0821241 0.0162966
0.111162 0.0728008 0.0105898
0.152422 0.0605936 0.00463874
0.198779 0.0468757 0.00112917
0.250782 0.0314794 0.00015259
0.310811 0.0206912 0
0.373892 0.0111543 0
0.442618 0.0037232 0
0.513329 0 0
0.586496 0 0
0.660212 0 0
0.733486 0 0
0.804547 0 0
0.872816 0 0
0.936629 0 0
0.96762 0 0
0.978912 0 0
0.990158 0 0
1 0 0
1 0 0
1 0 0
1 0 0
1 0 0
1 0 0
1 0 0
1 0 0
0 0.141039 0.0370642
0 0.141039 0.0370642
0 0.141039 0.0370642
0 0.141039 0.0370642
0.00885023 0.137758 0.0349737
0.0242313 0.132387 0.0315862
0.0460212 0.125978 0.0275883
0.0738689 0.117708 0.0224002
0.105409 0.108324 0.0165103
0.146654 0.0961929 0.00877394
0.193042 0.0824598 0.00340276
0.245136 0.0669871 0.000457771
0.305104 0.0492256 0
0.368124 0.0314946 0
0.436851 0.0160983 0
0.507561 0.00697337 0
0.580728 0.00410468 0
0.654444 0.00187686 0
0.727718 0 0
0.798779 0 0
0.867063 0 0
0.930861 0 0
0.962905 0 0
0.975891 0 0
0.988739 0 0
1 0 0
1 0 0
1 0 0
1 0 0
1 0 0
1 0 0
1 0 0
1 0 0
0 0.186236 0.0448005
0 0.186236 0.0448005
0 0.186236 0.0448005
0 0.186236 0.0448005
0.00556954 0.182956 0.04271
0.0169528 0.177584 0.0393225
0.0387427 0.171176 0.0353246
0.0665904 0.162905 0.0301366
0.0981155 0.153521 0.0242466
0.139376 0.14139 0.0165103
0.185763 0.127672 0.00883497
0.237858 0.112184 0.00117494
0.297826 0.0944381 0
0.360845 0.076051 0
0.429572 0.0571298 0
0.500282 0.0395972 0
0.573449 0.0233005 0
0.647166 0.0106661 0
0.720439 0 0
0.791501 0 0
0.859785 0 0
0.923583 0 0
0.956939 0 0
0.971984 0 0
0.986923 0 0
1 0 0
1 0 0
1 0 0
1 0 0
1 0 0
1 0 0
1 0 0
1 0 0
0 0.238407 0.0537881
0 0.238407 0.0537881
0 0.238407 0.0537881
0 0.238407 0.0537881
0.00270085 0.235111 0.0516976
0.0102998 0.22974 0.0483101
0.0307927 0.223331 0.0442969
0.0581979 0.215061 0.0391241
0.0896773 0.205676 0.0332189
0.130938 0.193545 0.0254826
0.177325 0.179828 0.0168765
0.229404 0.164355 0.00730907
0.289372 0.146593 0.0028687
0.352407 0.127947 0
0.421134 0.107652 0
0.491829 0.0867628 0
0.565011 0.065156 0
0.638773 0.04654 0
0.712077 0.029633 0
0.783093 0.021912 0
0.851347 0.0144808 0
0.915206 0.00753796 0
0.950072 0.00315862 0
0.967483 0.000350958 0
0.984817 0 0
1 0 0
1 0 0
1 0 0
1 0 0
1 0 0
1 0 0
1 0 0
1 0 0
0 0.294881 0.0635386
0 0.294881 0.0635386
0 0.294881 0.0635386
0 0.294881 0.0635386
0.000122072 0.2916 0.0614481
0.00408942 0.286229 0.0580606
0.022446 0.27982 0.0540627
0.0491035 0.27155 0.0488746
0.0805066 0.262165 0.0429847
0.121767 0.250034 0.0352483
0.168154 0.236301 0.0265965
0.220233 0.220829 0.0169223
0.280217 0.203067 0.00759899
0.343236 0.184436 0
0.411963 0.164126 0
0.482673 0.143252 0
0.55584 0.121645 0
0.629664 0.0999771 0
0.703059 0.0784924 0
0.773983 0.0580301 0
0.842222 0.0383612 0
0.906157 0.0199588 0
0.942641 0.00836194 0
0.962585 0.000915541 0
0.982528 0 0
1 0 0
1 0 0
1 0 0
1 0 0
1 0 0
1 0 0
1 0 0
1 0 0
0 0.362097 0.0749981
0 0.362097 0.0749981
0 0.362097 0.0749981
0 0.362097 0.0749981
0 0.358801 0.0729686
0.00238041 0.353429 0.0696422
0.0137942 0.347021 0.0655375
0.0382544 0.338811 0.0603342
0.0696574 0.329503 0.0544442
0.110994 0.317281 0.0467994
0.157397 0.303563 0.0381476
0.2094 0.288167 0.0283818
0.269352 0.27042 0.0178988
0.332372 0.251789 0.00817884
0.401099 0.231479 0.00273136
0.471855 0.210559 0
0.545098 0.188876 0
0.618891 0.167056 0
0.692195 0.145357 0
0.763119 0.124331 0
0.831357 0.104128 0
0.895293 0.0852827 0
0.933745 0.0703593 0
0.956771 0.0578775 0
0.979812 0.0500496 0
1 0.0431983 0
1 0.0383764 0
1 0.0344549 0
1 0.0320745 0
1 0.0307774 0
1 0.0303044 0
1 0.0302129 0
1 0.0302129 0
0 0.432059 0.0869306
0 0.432059 0.0869306
0 0.432059 0.0869306
0 0.432059 0.0869306
0 0.428763 0.0849622
0.00109865 0.423392 0.0816663
0.00634775 0.416983 0.0775006
0.0280613 0.408804 0.0722667
0.0583963 0.399512 0.066392
0.0997787 0.387259 0.0588083
0.146151 0.373541 0.0501564
0.198093 0.358175 0.0403296
0.258061 0.340444 0.02916
0.321111 0.321798 0.0179294
0.389838 0.301503 0.00790417
0.460594 0.280552 0.00204471
0.533883 0.258839 0.000335698
0.60763 0.237003 0
0.680888 0.21532 0
0.751842 0.194293 0
0.820081 0.174105 0
0.884001 0.155291 0
0.924468 0.138155 0
0.950713 0.122133 0
0.976349 0.109316 0
0.99881 0.0975052 0
0.999542 0.0891432 0
1 0.0823529 0
1 0.0782025 0
1 0.0759899 0
1 0.0751965 0
1 0.0750286 0
1 0.0750286 0
0 0.507805 0.0999161
0 0.507805 0.0999161
0 0.507805 0.0999161
0 0.507805 0.0999161
0 0.504509 0.0979477
0.000289921 0.499138 0.0946517
0.00172427 0.492729 0.090486
0.019501 0.484489 0.0852674
0.0462806 0.475135 0.0793774
0.0875563 0.462959 0.0717937
0.133898 0.449241 0.0631418
0.18584 0.433799 0.0533303
0.245884 0.416037 0.0421454
0.308995 0.397406 0.0305486
0.377722 0.377096 0.0185397
0.448447 0.356207 0.00886549
0.521645 0.334569 0.00146487
0.595376 0.312749 0
0.668635 0.291066 0
0.739681 0.270039 0
0.807935 0.249821 0
0.871778 0.230915 0
0.914397 0.213764 0
0.944152 0.197742 0
0.97116 0.185 0
0.994858 0.173251 0
0.998001 0.164889 0
1 0.158068 0
1 0.153841 0
1 0.151644 0
1 0.150927 0
1 0.150774 0
1 0.150774 0
0 0.586313 0.113466
0 0.586313 0.113466
0 0.586313 0.113466
0 0.586313 0.113466
0 0.583017 0.111452
0 0.577646 0.108125
0 0.571237 0.104005
0.0127718 0.563012 0.0988022
0.0336004 0.553674 0.0929122
0.0748608 0.541482 0.0852674
0.121202 0.527764 0.0766155
0.17319 0.512337 0.0668498
0.233234 0.494591 0.0556344
0.29633 0.475944 0.0438697
0.365057 0.45565 0.0311131
0.435752 0.434745 0.0192416
0.508934 0.413077 0.00817884
0.582696 0.391272 0.00317388
0.656001 0.369589 0
0.727016 0.348547 0
0.79527 0.328344 0
0.859129 0.309468 0
0.904051 0.292302 0
0.937438 0.276295 0
0.965194 0.263523 0
0.989578 0.251759 0
0.995941 0.243412 0
1 0.236591 0
1 0.232395 0
1 0.230182 0
1 0.229435 0
1 0.229297 0
1 0.229297 0
0 0.666789 0.127382
0 0.666789 0.127382
0 0.666789 0.127382
0 0.666789 0.127382
0 0.663493 0.125307
0 0.658122 0.12192
0 0.651713 0.117906
0.0071107 0.643549 0.112718
0.0205539 0.634287 0.106828
0.0618143 0.622003 0.0990921
0.108202 0.608286 0.0904402
0.160281 0.59295 0.080766
0.220249 0.575204 0.0694743
0.283268 0.556573 0.0576333
0.351995 0.536263 0.0448768
0.422705 0.515312 0.0317845
0.495888 0.493568 0.0182345
0.569711 0.471733 0.00825513
0.643091 0.45005 0
0.714031 0.429023 0
0.782254 0.40885 0
0.846189 0.390051 0
0.893492 0.37293 0
0.930602 0.356909 0
0.95874 0.344076 0
0.98349 0.332235 0
0.993576 0.323873 0
1 0.317098 0
1 0.312963 0
1 0.31075 0
1 0.309926 0
1 0.309758 0
1 0.309758 0
0 0.748211 0.141344
0 0.748211 0.141344
0 0.748211 0.141344
0 0.748211 0.141344
0 0.74493 0.139254
0 0.739559 0.135866
0 0.73315 0.131868
0.00302129 0.724926 0.12668
0.0108797 0.715602 0.12079
0.0498665 0.703395 0.113054
0.0950942 0.689677 0.104402
0.147189 0.674266 0.094728
0.207156 0.656519 0.0835126
0.270176 0.637873 0.0717174
0.338903 0.617578 0.0588693
0.409613 0.596658 0.045655
0.48278 0.57499 0.0319677
0.556558 0.55317 0.019791
0.629877 0.531487 0.00862135
0.700877 0.510445 0.00332647
0.769162 0.490242 0
0.833097 0.471382 0
0.882734 0.454276 0
0.923537 0.438346 0
0.952193 0.425513 0
0.977432 0.413672 0
0.991226 0.40531 0
1 0.398535 0
1 0.394415 0
1 0.392187 0
1 0.391363 0
1 0.391196 0
1 0.391196 0
0 0.828519 0.155123
0 0.828519 0.155123
0 0.828519 0.155123
0 0.828519 0.155123
0 0.825223 0.153033
0 0.819852 0.149645
0 0.813443 0.145617
0 0.805188 0.140444
0.00355535 0.795834 0.134569
0.0388342 0.783673 0.126833
0.0821851 0.769955 0.118181
0.134264 0.754498 0.108507
0.194232 0.736736 0.097322
0.257252 0.71809 0.0855573
0.325978 0.69778 0.0726787
0.396689 0.67689 0.0594339
0.469871 0.655283 0.0457465
0.543587 0.633478 0.0320287
0.616861 0.61178 0.018677
0.687922 0.590753 0.00863661
0.756237 0.570535 0.00181582
0.820157 0.551629 0.000488289
0.871931 0.534524 0
0.916152 0.518639 0
0.945525 0.505806 0
0.971435 0.493965 0
0.988617 0.485618 0
0.999649 0.478828 0
0.999893 0.474708 0
1 0.47248 0
1 0.471656 0
1 0.471504 0
1 0.471504 0
0 0.906645 0.168566
0 0.906645 0.168566
0 0.906645 0.168566
0 0.906645 0.168566
0 0.903349 0.166491
0 0.897978 0.163073
0 0.891569 0.158953
0 0.883375 0.153811
0.00276188 0.874083 0.148013
0.0302281 0.861845 0.140276
0.0695964 0.848112 0.131624
0.121675 0.832746 0.12195
0.181643 0.815015 0.110704
0.244663 0.796353 0.0988785
0.31339 0.775937 0.0860761
0.3841 0.755001 0.0728923
0.457267 0.73341 0.059205
0.530983 0.711589 0.0454108
0.604257 0.689906 0.0317998
0.675334 0.668879 0.0195926
0.743618 0.648692 0.0093843
0.807446 0.629862 0.00254826
0.860853 0.612741 0
0.907683 0.596765 0
0.938293 0.583932 0
0.965423 0.572091 0
0.985138 0.563729 0
0.998154 0.556954 0
0.999451 0.552834 0
1 0.550607 0
1 0.549783 0
1 0.549615 0
1 0.549615 0
0 0.951919 0.181247
0 0.951919 0.181247
0 0.951919 0.181247
0 0.951919 0.181247
0 0.949142 0.179171
0 0.944595 0.175753
0 0.939178 0.171633
0 0.932265 0.166491
0.00201419 0.924437 0.160693
0.0220798 0.914015 0.152956
0.0576638 0.902419 0.144305
0.109697 0.889479 0.13463
0.169696 0.874479 0.123384
0.232761 0.858686 0.111574
0.301488 0.841367 0.0987716
0.372198 0.823224 0.0855726
0.445365 0.804105 0.0718853
0.519081 0.782788 0.0580911
0.592355 0.761105 0.0444038
0.663417 0.740078 0.0311742
0.731701 0.719905 0.0191043
0.795499 0.701106 0.00892653
0.849622 0.683986 0.00328069
0.897627 0.667979 0.000366217
0.930358 0.655131 0
0.959609 0.64329 0
0.980499 0.634928 0
0.995041 0.628153 0
0.99852 0.624033 0
1 0.621805 0
1 0.620981 0
1 0.620829 0
1 0.620829 0
0 0.968551 0.193332
0 0.968551 0.193332
0 0.968551 0.193332
0 0.968551 0.193332
0 0.96672 0.191257
0 0.963745 0.187854
0 0.960189 0.183825
0 0.955657 0.178653
0.00131228 0.950515 0.172778
0.014313 0.943633 0.165042
0.0462501 0.936019 0.15639
0.0982071 0.927581 0.146715
0.158267 0.917754 0.135546
0.221393 0.907393 0.123781
0.29012 0.895979 0.110887
0.36083 0.883116 0.0976425
0.433997 0.868696 0.0839704
0.507713 0.84831 0.0702373
0.580987 0.826627 0.0566262
0.652049 0.8056 0.0434119
0.720317 0.785428 0.0307927
0.784131 0.766629 0.0191501
0.838193 0.749508 0.00947585
0.886122 0.733501 0.00103761
0.921767 0.720653 0
0.953933 0.708812 0
0.974823 0.700465 0
0.990494 0.693675 0
0.997177 0.689555 0
1 0.687327 0
1 0.686503 0
1 0.686351 0
1 0.686351 0
0 0.984955 0.203967
0 0.984955 0.203967
0 0.984955 0.203967
0 0.984955 0.203967
0 0.98407 0.201877
0 0.982651 0.198489
0 0.980941 0.194476
0 0.978775 0.189303
0.000686656 0.976318 0.183398
0.00753796 0.973007 0.175662
0.0363165 0.968582 0.16701
0.0882582 0.962951 0.157336
0.148272 0.954391 0.14612
0.211353 0.945037 0.134325
0.280079 0.934752 0.121492
0.35082 0.923506 0.108278
0.424063 0.911254 0.0945907
0.497795 0.895445 0.0808881
0.571054 0.878843 0.067277
0.642054 0.862394 0.0539864
0.710307 0.845106 0.0412299
0.774182 0.826246 0.0293126
0.82826 0.809094 0.0187076
0.876173 0.793088 0.00898756
0.914244 0.78024 0.00457771
0.948867 0.768414 0.00128176
0.969818 0.760113 0.000503548
0.986526 0.753353 0
0.995987 0.749172 0
1 0.74696 0
1 0.746197 0
1 0.746044 0
1 0.746044 0
0 1 0.214069
0 1 0.214069
0 1 0.214069
0 1 0.214069
0 1 0.211994
0 1 0.208591
0 1 0.204593
0 1 0.199405
0.000137331 1 0.193515
0.00143435 1 0.185779
0.0272526 0.998413 0.177127
0.0788739 0.995148 0.167452
0.138781 0.98732 0.156176
0.201801 0.978408 0.144335
0.270527 0.968597 0.131563
0.341299 0.958511 0.118395
0.414618 0.948089 0.104707
0.488365 0.937316 0.0910048
0.561624 0.926482 0.0773785
0.632547 0.915282 0.0640269
0.700786 0.901427 0.0512245
0.764721 0.882948 0.0393072
0.818845 0.866087 0.0285191
0.866743 0.850324 0.0184787
0.907042 0.837522 0.0104067
0.943893 0.825696 0.00335698
0.964996 0.817472 0.0015259
0.982712 0.810727 0.00030518
0.994751 0.80647 0.000183108
0.999893 0.804273 0.000122072
0.999985 0.803586 9.15541e-05
1 0.803449 9.15541e-05
1 0.803449 9.15541e-05
0 1 0.221973
0 1 0.221973
0 1 0.221973
0 1 0.221973
0 1 0.219898
0 1 0.21651
0 1 0.212497
0 1 0.207309
4.57771e-05 1 0.201419
0.000564584 1 0.193683
0.0241245 0.999374 0.185031
0.0719768 0.998093 0.175357
0.131289 0.99501 0.164157
0.194308 0.991501 0.152361
0.263035 0.98764 0.139513
0.333822 0.982849 0.126345
0.407141 0.977096 0.112749
0.480888 0.967254 0.0989853
0.554147 0.956451 0.0852827
0.625071 0.945663 0.0720226
0.693294 0.934066 0.059266
0.757244 0.921004 0.0473487
0.811353 0.908171 0.0365148
0.859266 0.895537 0.0263981
0.900557 0.883116 0.0183108
0.938491 0.87129 0.0110323
0.960571 0.862989 0.007187
0.979294 0.856214 0.00415045
0.992447 0.852049 0.00251774
0.998657 0.849836 0.00163272
0.999771 0.849058 0.00129702
1 0.848905 0.00122072
1 0.848905 0.00122072
0 1 0.228962
0 1 0.228962
0 1 0.228962
0 1 0.228962
0 1 0.226871
0 1 0.223484
0 1 0.219471
0 1 0.214298
0 1 0.208392
0 1 0.200656
0.0215915 1 0.192004
0.0659037 1 0.18233
0.124712 1 0.171176
0.187762 1 0.159426
0.256489 1 0.146517
0.327245 0.998917 0.133349
0.400534 0.996719 0.119799
0.474281 0.989319 0.106004
0.547539 0.980682 0.0922713
0.618494 0.972107 0.079057
0.686732 0.963211 0.066331
0.750652 0.953704 0.0544137
0.804746 0.943801 0.0435492
0.852659 0.933715 0.0333867
0.894606 0.922499 0.0252995
0.933349 0.911559 0.0178531
0.956527 0.903243 0.0126955
0.976211 0.896468 0.00849927
0.990112 0.892317 0.00588998
0.997299 0.890105 0.00445563
0.999542 0.889296 0.00390631
1 0.889143 0.0037995
1 0.889143 0.0037995
0 1 0.234287
0 1 0.234287
0 1 0.234287
0 1 0.234287
0 1 0.232197
0 1 0.228809
0 1 0.224796
0 1 0.219623
0 1 0.213718
0 1 0.205997
0.0200961 1 0.19733
0.0613413 1 0.187671
0.119738 1 0.176501
0.182849 1 0.164752
0.251575 1 0.151843
0.322301 0.999695 0.138674
0.395514 0.999069 0.125124
0.46923 0.996979 0.11133
0.542504 0.994492 0.0975967
0.613535 0.991562 0.0843824
0.681788 0.986236 0.0716564
0.745632 0.976822 0.0597391
0.79971 0.967834 0.0488746
0.847608 0.959197 0.0387121
0.889632 0.950759 0.0306249
0.928603 0.942428 0.0231785
0.95314 0.934173 0.0180362
0.973709 0.927428 0.0138247
0.987686 0.923201 0.0112154
0.995682 0.920989 0.00979629
0.999283 0.920272 0.00924697
1 0.920134 0.0091249
1 0.920134 0.0091249
0 1 0.237995
0 1 0.237995
0 1 0.237995
0 1 0.237995
0 1 0.23595
0 1 0.232593
0 1 0.228534
0 1 0.223331
0 1 0.217441
