luts/varicam_official/Vintage 33 E-E.cube
TITLE "Generated by Resolve"
LUT_3D_SIZE 5
0.0421302 0.0442054 0.0408331
0.195102 0.00769055 0.0125277
0.620829 0 0
0.996399 0 0
1 0 0
0.0128786 0.20618 0.0653391
0.157733 0.15845 0.0361639
0.57322 0.0404364 0
0.989654 0 0
1 0 0
0 0.639887 0.1364
0.0741894 0.58996 0.108095
0.479225 0.461189 0.0304875
0.964126 0.295567 0
1 0.250858 0
0 1 0.2271
0.000869764 1 0.201343
0.360479 0.977539 0.12575
0.891585 0.85008 0.0223545
1 0.802045 0.00294499
0 1 0.246723
0 1 0.22388
0.302541 1 0.152438
0.845533 0.999588 0.0478523
1 0.975418 0.0174105
0.0407416 0.046479 0.156634
0.193011 0.00830091 0.125628
0.617609 0 0.0453193
0.996094 0 0.00209049
1 0 0.000244144
0.0115511 0.207004 0.175784
0.155428 0.159609 0.144656
0.569268 0.0413977 0.0632792
0.988983 0 0.000747692
1 0 0
0 0.638483 0.238758
0.0718242 0.588708 0.208316
0.475425 0.4607 0.128161
0.964385 0.293843 0.0267643
1 0.248661 0.011017
0 1 0.322133
0.000442512 1 0.294133
0.355749 0.995361 0.216754
0.890898 0.856367 0.11043
1 0.807095 0.0798199
0 1 0.335164
0 1 0.310079
0.297505 1 0.236851
0.843244 0.999954 0.129747
1 0.979614 0.0958419
0.0369726 0.0532387 0.48217
0.188663 0.0113527 0.449561
0.612161 0 0.36611
0.995407 0 0.265873
1 0 0.24387
0.00865187 0.212467 0.494347
0.150973 0.165377 0.461021
0.563317 0.0459144 0.377478
0.987808 0 0.273091
1 0 0.246006
0 0.641978 0.549722
0.0675059 0.592859 0.516213
0.469642 0.464744 0.432837
0.962173 0.297261 0.324376
1 0.251362 0.292515
0 1 0.623072
0 1 0.590768
0.349722 0.995605 0.509285
0.885969 0.860319 0.398154
1 0.809918 0.362554
0 1 0.622889
0 1 0.592966
0.290791 1 0.515755
0.837415 0.999985 0.404196
1 0.985748 0.365499
0.0324407 0.0621347 0.901961
0.18352 0.0184176 0.871092
0.606455 0 0.789776
0.994492 0 0.691691
1 0 0.671992
0.00459297 0.220508 0.920027
0.145266 0.17348 0.889235
0.556603 0.0524147 0.808667
0.986297 0.000228885 0.70576
1 0 0.680507
0 0.648447 0.975036
0.0617838 0.599344 0.94844
0.462196 0.471443 0.86952
0.959426 0.304204 0.762783
1 0.257145 0.732509
0 1 0.995453
7.62951e-05 0.999512 0.988052
0.341817 0.993667 0.94583
0.879713 0.867216 0.841749
1 0.81651 0.80798
0 1 0.983291
0 1 0.975113
0.2822 1 0.948852
0.830091 1 0.850874
1 0.996033 0.812421
0.0306401 0.0635843 0.998215
0.180697 0.0196994 0.970932
0.60264 0 0.892027
0.993896 0 0.795651
1 0 0.778256
0.00296025 0.220829 1
0.142428 0.174273 0.995392
0.552605 0.053315 0.922423
0.985321 0.000320439 0.823758
1 0 0.802701
0 0.647715 1
0.058854 0.598962 1
0.458 0.471397 0.992752
0.957351 0.303319 0.897383
1 0.255756 0.872312
0 0.999878 1
0.000198367 0.998367 1
0.337057 0.990692 1
0.876097 0.867948 0.995102
1 0.816129 0.968658
0 1 1
0 1 1
0.276081 1 1
0.824857 1 1
1 1 1
