luts/varicam_official/Vintage 33 E-E.cube
TITLE "Generated by Resolve"
LUT_3D_SIZE 33
0.0421302 0.0442054 0.0408331
0.0519417 0.0411688 0.03888
0.062562 0.0378882 0.0367742
0.0772564 0.033402 0.0339208
0.0932937 0.0285801 0.0307469
0.111803 0.023209 0.0271305
0.135241 0.0176394 0.0225834
0.161807 0.0119783 0.0174868
0.195102 0.00769055 0.0125277
0.230137 0.0037232 0.00761425
0.273335 0.0018616 0.00430304
0.31873 0.000381476 0.00155642
0.370718 0.000137331 0.000656138
0.426657 0 0.000106813
0.487907 0 3.0518e-05
0.553002 0 0
0.620829 0 0
0.691707 0 0
0.763439 0 0
0.83418 0 0
0.901915 0 0
0.945281 0 0
0.979751 0 0
0.989593 0 0
0.996399 0 0
0.998901 0 0
1 0 0
1 0 0
1 0 0
1 0 0
1 0 0
1 0 0
1 0 0
0.0399329 0.0548409 0.0423285
0.0497444 0.0517586 0.0403754
0.0603494 0.0484474 0.0382544
0.0747539 0.044007 0.0353857
0.0907149 0.0391394 0.0322728
0.108949 0.0336309 0.0287022
0.132464 0.0274662 0.0241703
0.159091 0.0208743 0.019028
0.192035 0.0143893 0.0137331
0.226825 0.00801099 0.00839246
0.269764 0.00402838 0.00466926
0.314534 0.000839246 0.0016022
0.366888 0.00030518 0.000747692
0.422721 0 0.000183108
0.483467 0 6.10361e-05
0.548913 0 0
0.616739 0 0
0.687099 0 0
0.758831 0 0
0.829664 0 0
0.898009 0 0
0.942382 0 0
0.978164 0 0
0.988617 0 0
0.995972 0 0
0.998734 0 0
1 0 0
1 0 0
1 0 0
1 0 0
1 0 0
1 0 0
1 0 0
0.037583 0.0663157 0.0439765
0.0473945 0.0632029 0.0420081
0.0579843 0.0598764 0.0398718
0.0722057 0.0554971 0.0370336
0.0879683 0.0507362 0.0339666
0.10602 0.0451667 0.0304265
0.129351 0.038407 0.0259098
0.156024 0.0310063 0.020798
0.189029 0.0224918 0.0150912
0.223331 0.0139773 0.00939956
0.266041 0.0077821 0.00520333
0.310536 0.00274662 0.00177005
0.36286 0.00149538 0.000869764
0.418143 0.000579843 0.000259403
0.47921 0.000167849 7.62951e-05
0.544076 0 0
0.611917 0 0
0.68275 0 0
0.75404 0 0
0.824964 0 0
0.893858 0 0
0.939284 0 0
0.976577 0 0
0.987549 0 0
0.995483 0 0
0.99855 0 0
1 0 0
1 0 0
1 0 0
1 0 0
1 0 0
1 0 0
1 0 0
0.0345159 0.0821546 0.0463417
0.0443122 0.0789349 0.044358
0.054902 0.0755779 0.0421912
0.068986 0.0711376 0.039353
0.0846265 0.0662394 0.0362402
0.102525 0.0607919 0.0327459
0.12578 0.0538033 0.0282292
0.152422 0.0458839 0.0231022
0.185 0.0365911 0.0172427
0.219089 0.0268864 0.0112001
0.261631 0.0184787 0.00648508
0.306325 0.0109255 0.00247196
0.35816 0.00686656 0.00117494
0.413214 0.0034638 0.00030518
0.474067 0.00102235 9.15541e-05
0.538903 0 0
0.606882 0 0
0.67776 0 0
0.749111 0 0
0.820157 0 0
0.889433 0 0
0.935699 0 0
0.974563 0 0
0.986236 0 0
0.994888 0 0
0.998322 0 0
1 0 0
1 0 0
1 0 0
1 0 0
1 0 0
1 0 0
1 0 0
0.0311894 0.0993668 0.0488899
0.0409857 0.0961013 0.046891
0.051667 0.0926986 0.0447547
0.0654917 0.0882582 0.0419471
0.0810101 0.0833448 0.0388342
0.0987259 0.0777752 0.0352941
0.121996 0.070573 0.0307622
0.148531 0.0623941 0.0256352
0.180926 0.0525978 0.0195926
0.214847 0.0422675 0.0133516
0.257252 0.0317693 0.00802625
0.301381 0.0220188 0.00347906
0.353079 0.0143893 0.00155642
0.408392 0.00759899 0.000320439
0.46865 0.00228885 9.15541e-05
0.533349 0 0
0.601389 0 0
0.671824 0 0
0.74374 0 0
0.814893 0 0
0.884535 0 0
0.932052 0 0
0.972229 0 0
0.984741 0 0
0.994186 0 0
0.998062 0 0
1 0 0
1 0 0
1 0 0
1 0 0
1 0 0
1 0 0
1 0 0
0.0275883 0.118639 0.0517739
0.0373999 0.115312 0.0497444
0.0479896 0.111894 0.0476081
0.0617075 0.1075 0.044831
0.0770123 0.102602 0.0417334
0.0948653 0.0968643 0.0381476
0.117891 0.0896315 0.0336156
0.144228 0.0814374 0.0284733
0.176455 0.0715648 0.0223239
0.210163 0.061265 0.0160067
0.252049 0.0493629 0.0101167
0.296315 0.0371405 0.00483711
0.347875 0.0247654 0.00204471
0.40264 0.0135348 0.000274662
0.462806 0.00411994 7.62951e-05
0.527398 0 0
0.595468 0 0
0.666377 0 0
0.737819 0 0
0.809094 0 0
0.878737 0 0
0.927947 0 0
0.969635 0 0
0.983078 0 0
0.993393 0 0
0.997772 0 0
1 0 0
1 0 0
1 0 0
1 0 0
1 0 0
1 0 0
1 0 0
0.0230564 0.143374 0.0555428
0.0327764 0.140154 0.0535744
0.0433509 0.136522 0.0513771
0.0569009 0.132189 0.0486305
0.0720836 0.127306 0.0455634
0.0899367 0.121523 0.0419928
0.112825 0.114305 0.0374762
0.138949 0.106126 0.0323339
0.170962 0.0962692 0.026154
0.204456 0.0859846 0.0197452
0.246143 0.0734569 0.0132296
0.289876 0.0603494 0.00714122
0.341268 0.0458991 0.00294499
0.396307 0.0319371 0.000274662
0.456474 0.0192874 9.15541e-05
0.52105 0.0111543 0
0.588464 0.00679026 0
0.659358 0.0033875 0
0.730907 0.000335698 0
0.802289 0 0
0.872267 0 0
0.922911 0 0
0.966247 0 0
0.980926 0 0
0.992355 0 0
0.99736 0 0
1 0 0
1 0 0
1 0 0
1 0 0
1 0 0
1 0 0
1 0 0
0.0179751 0.171664 0.0599222
0.0276493 0.168231 0.0579232
0.0381628 0.164797 0.0557717
0.0515602 0.160311 0.0530251
0.0666667 0.155459 0.049958
0.0843977 0.149752 0.0464485
0.107149 0.142565 0.0419623
0.133059 0.134432 0.0368658
0.164858 0.124575 0.0306706
0.198138 0.114275 0.0242161
0.239689 0.101442 0.0169833
0.283192 0.0882887 0.00999466
0.334462 0.0730144 0.00402838
0.388998 0.0576181 0.000320439
0.449653 0.0419165 9.15541e-05
0.513695 0.0286564 0
0.58143 0.017258 0
0.65182 0.00859083 0
0.72343 0.000885023 0
0.794965 0 0
0.865644 0 0
0.917449 0 0
0.962493 0 0
0.978546 0 0
0.991196 0 0
0.996933 0 0
1 0 0
1 0 0
1 0 0
1 0 0
1 0 0
1 0 0
1 0 0
0.0128786 0.20618 0.0653391
0.0221866 0.202564 0.0632639
0.0323949 0.198764 0.0610971
0.0452583 0.194507 0.0584115
0.0601968 0.18938 0.0553445
0.0779126 0.183612 0.0518044
0.100526 0.17641 0.0473182
0.126177 0.168307 0.042298
0.157733 0.15845 0.0361639
0.190768 0.148165 0.0297551
0.232197 0.135317 0.0221714
0.275532 0.122164 0.0146639
0.326558 0.1066 0.00735485
0.380926 0.0904402 0.00228885
0.441093 0.0733806 0.000701915
0.505531 0.056611 0
0.57322 0.0404364 0
0.643687 0.0268254 0
0.715297 0.0143282 0
0.786587 0.00968948 0
0.85771 0.00614939 0
0.910933 0.00354009 0
0.957732 0.00123598 0
0.975494 0.000503548 0
0.989654 0 0
0.996368 0 0
1 0 0
1 0 0
1 0 0
1 0 0
1 0 0
1 0 0
1 0 0
0.0078584 0.242023 0.0710002
0.0166323 0.238239 0.0688945
0.0263523 0.234546 0.0666972
0.0388952 0.229953 0.0640116
0.0535286 0.225025 0.0609598
0.0713359 0.218875 0.0573129
0.0938277 0.211627 0.0528878
0.119036 0.203601 0.0479896
0.150347 0.193744 0.0419318
0.183154 0.183459 0.0356146
0.224445 0.170657 0.0277256
0.267674 0.157229 0.0196994
0.318456 0.141451 0.0111543
0.37258 0.124987 0.00474556
0.432746 0.106462 0.00148013
0.497139 0.0867475 1.5259e-05
0.564324 0.0665446 0
0.634791 0.0482032 0
0.706447 0.0309911 0
0.778485 0.0218204 0
0.849515 0.0140841 0
0.904585 0.00823987 0
0.952941 0.0030518 0
0.972274 0.00140383 0
0.988037 0.000228885 0
0.995758 0.000183108 0
1 0.00015259 0
1 0.000106813 0
1 7.62951e-05 0
1 4.57771e-05 0
1 1.5259e-05 0
1 0 0
1 0 0
0.00415045 0.285725 0.0780652
0.0117037 0.282002 0.0759747
0.0201572 0.27837 0.0737774
0.0313725 0.273716 0.0710918
0.0453346 0.268452 0.06804
0.0630655 0.262638 0.0644999
0.0854505 0.255421 0.06009
0.110689 0.247333 0.0551919
0.141894 0.237171 0.0491188
0.174228 0.226963 0.0428626
0.215183 0.214038 0.0349584
0.258167 0.200519 0.0268101
0.308843 0.18497 0.0178225
0.362982 0.168124 0.00994888
0.423102 0.149523 0.00387579
0.487449 0.129686 0.000823987
0.55462 0.109346 0.000183108
0.625132 0.0890822 0
0.696849 0.0692454 0
0.768872 0.0526894 0
0.839918 0.0370031 0
0.89633 0.023743 0
0.94667 0.0120241 0
0.968322 0.00715648 0
0.985946 0.00352483 0
0.995041 0.00260929 0
1 0.0018616 0
1 0.0012665 0
1 0.000823987 0
1 0.00047303 0
1 0.000228885 0
1 3.0518e-05 0
1 0 0
0.00114443 0.331685 0.0855268
0.00721752 0.327947 0.0834211
0.0142061 0.32398 0.0811933
0.0238956 0.319219 0.0785077
0.0369421 0.314229 0.0755322
0.0547036 0.308064 0.071931
0.0770123 0.300816 0.0675822
0.101869 0.29279 0.0627146
0.132784 0.282948 0.0567178
0.164965 0.272358 0.0504463
0.205905 0.259281 0.0424659
0.248325 0.245792 0.0343023
0.298924 0.230259 0.0248875
0.353017 0.213367 0.0157778
0.413092 0.194675 0.007187
0.477394 0.174762 0.00236515
0.544518 0.154376 0.000595102
0.615061 0.132586 6.10361e-05
0.6869 0.110399 0
0.758358 0.0886549 0
0.830045 0.0664683 0
0.888045 0.0477302 0
0.940185 0.030457 0
0.963943 0.0222782 0
0.983719 0.0157473 0
0.994186 0.0128176 0
1 0.0106355 0
1 0.00906386 0
1 0.00808728 0
1 0.00738537 0
1 0.00708019 0
1 0.00686656 0
1 0.00688182 0
0.000488289 0.384451 0.0941634
0.0043183 0.380667 0.0920729
0.00892653 0.376684 0.0898756
0.0160525 0.372457 0.0873274
0.0276951 0.367132 0.0842756
0.0452888 0.36083 0.0806897
0.067216 0.353582 0.0763104
0.0919509 0.345495 0.071458
0.122499 0.335332 0.0654612
0.154635 0.325048 0.0591897
0.195056 0.312108 0.0513313
0.237629 0.298573 0.0431067
0.287785 0.282918 0.0336004
0.341756 0.266041 0.0238651
0.401785 0.247257 0.0137331
0.46595 0.227665 0.0065919
0.533043 0.206912 0.00178531
0.603571 0.185031 0.000274662
0.675364 0.163073 3.0518e-05
0.747082 0.140917 0
0.818586 0.118807 0
0.878111 0.0990463 0
0.932219 0.0799725 0
0.958816 0.0665293 0
0.980896 0.0547494 0
0.993118 0.0463569 0
1 0.039826 0
1 0.0353857 0
1 0.0327001 0
1 0.031693 0
1 0.0311131 0
1 0.0307164 0
1 0.0304112 0
7.62951e-05 0.441291 0.103487
0.00201419 0.437415 0.101411
0.00460822 0.433356 0.0992142
0.00941482 0.428733 0.0966506
0.0192264 0.423789 0.0937209
0.0359197 0.41735 0.0900587
0.0573129 0.41004 0.0856947
0.0813306 0.401602 0.080827
0.111696 0.391791 0.0748455
0.143343 0.381628 0.0686656
0.183566 0.36878 0.0608835
0.226047 0.354879 0.0526284
0.276051 0.339254 0.0430457
0.329885 0.322408 0.0328679
0.389731 0.304036 0.0218051
0.453864 0.284062 0.0125887
0.520851 0.26331 0.00494392
0.591348 0.241382 0.00175479
0.663218 0.219013 0.000289921
0.735042 0.197162 6.10361e-05
0.806806 0.174899 0
0.867826 0.154498 0
0.923659 0.134279 0
0.952834 0.117769 0
0.977676 0.102205 0
0.991852 0.0905776 0
0.999878 0.0809033 0
0.999969 0.0746624 0
1 0.0712444 0
1 0.0695659 0
1 0.0688487 0
1 0.0683604 0
1 0.0678569 0
1.5259e-05 0.503639 0.113756
0.000610361 0.499763 0.111696
0.00167849 0.495674 0.109468
0.00434882 0.490929 0.106981
0.012253 0.485466 0.103975
0.0269322 0.479469 0.100374
0.0470283 0.471763 0.095964
0.0698405 0.463859 0.0911879
0.0997024 0.453758 0.0852674
0.131334 0.443595 0.079118
0.17142 0.43093 0.0713207
0.213474 0.417227 0.0631571
0.263722 0.401389 0.0535286
0.317479 0.384497 0.0432593
0.376776 0.365927 0.0320134
0.440665 0.346441 0.0213321
0.507515 0.325689 0.0111391
0.577951 0.303807 0.00520333
0.649775 0.281498 0.000915541
0.721935 0.258976 0.000198367
0.793896 0.236881 0
0.856489 0.215747 0
0.913985 0.195636 0
0.946166 0.178149 0
0.973739 0.16228 0
0.990219 0.149111 0
0.999603 0.138811 0
0.999878 0.131304 0
1 0.127184 0
1 0.125429 0
1 0.123812 0
1 0.122805 0
1 0.121813 0
0 0.570062 0.124773
3.0518e-05 0.56614 0.122698
0.000335698 0.562051 0.1205
0.00161746 0.557351 0.118029
0.00743114 0.551843 0.114992
0.018967 0.545815 0.111391
0.0366674 0.538125 0.106996
0.0577554 0.529793 0.102235
0.0872206 0.520119 0.096376
0.118349 0.510109 0.0903182
0.158267 0.496971 0.0825055
0.200381 0.483635 0.0743572
0.250263 0.467903 0.064744
0.303944 0.451026 0.0544594
0.3635 0.432364 0.0430457
0.426886 0.412573 0.0315099
0.493614 0.391806 0.0198367
0.564019 0.369879 0.0112917
0.635737 0.347997 0.00401312
0.708049 0.325368 0.00166323
0.780301 0.302724 3.0518e-05
0.844327 0.281422 1.5259e-05
0.903502 0.261173 0
0.938766 0.243275 0
0.969085 0.227146 0
0.988006 0.213474 0
0.999054 0.202701 0
0.99971 0.194598 0
1 0.190173 0
1 0.187701 0
1 0.186297 0
1 0.185153 0
1 0.183536 0
0 0.639887 0.1364
0 0.635508 0.134234
0.000106813 0.631495 0.132036
0.000549325 0.627039 0.129549
0.00416571 0.621607 0.126558
0.0117342 0.615045 0.122896
0.0265202 0.607874 0.118624
0.0452277 0.599588 0.113939
0.0741894 0.58996 0.108095
0.105196 0.579446 0.101991
0.144656 0.566751 0.094255
0.186221 0.55346 0.0861677
0.236545 0.537697 0.0764935
0.289952 0.52047 0.0661784
0.349355 0.501793 0.0547951
0.412604 0.481987 0.0428779
0.479225 0.461189 0.0304875
0.549493 0.439628 0.0195163
0.621332 0.41706 0.00898756
0.693736 0.394461 0.00410468
0.76614 0.371862 9.15541e-05
0.83151 0.350484 4.57771e-05
0.892363 0.330098 0
0.9308 0.31191 0
0.964126 0.295567 0
0.98558 0.28188 0
0.998322 0.270466 0
0.999481 0.262547 0
1 0.257389 0
1 0.255238 0
1 0.253727 0
1 0.252049 0
1 0.250858 0
0 0.712489 0.148409
0 0.708598 0.146334
3.0518e-05 0.704616 0.144152
0.000167849 0.700191 0.141695
0.002121 0.694759 0.138674
0.00627146 0.688151 0.135073
0.0180514 0.680476 0.130755
0.0336767 0.672755 0.126177
0.0611887 0.662745 0.120363
0.0912947 0.652735 0.11429
0.130449 0.639536 0.106584
0.172229 0.626108 0.0984665
0.222049 0.610529 0.0888228
0.275563 0.593744 0.0785229
0.334325 0.574746 0.0671855
0.39791 0.554818 0.0550546
0.464485 0.53402 0.0423896
0.534356 0.512062 0.0301366
0.606073 0.489982 0.0179904
0.678569 0.467369 0.0101167
0.75108 0.44477 0.00299077
0.817716 0.423224 0.00135805
0.880247 0.402197 0
0.921965 0.38439 0
0.958495 0.367422 0
0.98262 0.353643 0
0.997192 0.342687 0
0.99913 0.334264 0
1 0.329397 0
1 0.326513 0
1 0.324941 0
1 0.323766 0
1 0.322057 0
0 0.786648 0.160662
0 0.782284 0.158526
0 0.778302 0.156374
1.5259e-05 0.773938 0.153918
0.000457771 0.768505 0.150927
0.00143435 0.761929 0.147372
0.0101015 0.754253 0.143084
0.0225223 0.746609 0.138582
0.0484474 0.73669 0.132815
0.0769513 0.726879 0.126802
0.11635 0.713527 0.119097
0.157778 0.70016 0.111025
0.207706 0.684535 0.101366
0.260685 0.667414 0.0910811
0.319371 0.648936 0.0797894
0.382361 0.629206 0.0676738
0.448951 0.608408 0.054902
0.519341 0.586282 0.0417029
0.590631 0.563836 0.0284276
0.663188 0.541192 0.0174563
0.735805 0.518547 0.00694286
0.80354 0.497353 0.00317388
0.867658 0.476173 0
0.912886 0.457755 0
0.952605 0.440681 0
0.979431 0.427314 0
0.995941 0.415763 0
0.998749 0.407889 0
1 0.40235 0
1 0.399695 0
1 0.397498 0
1 0.396292 0
1 0.394583 0
0 0.861418 0.173037
0 0.857618 0.171008
0 0.853101 0.16878
0 0.8486 0.166308
0.00015259 0.843122 0.163317
0.000503548 0.836622 0.159762
0.00691234 0.829038 0.155535
0.0162509 0.821515 0.15108
0.0380255 0.811673 0.145327
0.062501 0.801938 0.139422
0.1019 0.788754 0.131685
0.143343 0.775479 0.123659
0.192752 0.75938 0.114031
0.245823 0.742657 0.103761
0.30396 0.724376 0.0926223
0.367239 0.704555 0.0804761
0.433097 0.684001 0.0678264
0.503365 0.662028 0.0544442
0.574594 0.639735 0.0409094
0.647761 0.616846 0.0283513
0.72047 0.594064 0.0161746
0.788708 0.572396 0.00903334
0.854063 0.55111 0.00276188
0.902251 0.532738 0.00114443
0.944854 0.516182 0
0.97464 0.502052 0
0.9935 0.490318 0
0.997894 0.482399 0
0.999908 0.47686 0
0.999969 0.473671 0
1 0.472053 0
1 0.470359 0
1 0.4692 0
0 0.930541 0.185367
0 0.927291 0.183352
0 0.923598 0.181155
0 0.919432 0.178668
0 0.914382 0.175677
0 0.908431 0.172152
0.00430304 0.901381 0.167971
0.0105898 0.893889 0.163485
0.027924 0.884764 0.157855
0.048127 0.874983 0.151888
0.0871443 0.86273 0.14435
0.128985 0.849302 0.136202
0.178027 0.833844 0.12668
0.23064 0.816999 0.116487
0.289082 0.798749 0.105318
0.351736 0.779263 0.0932631
0.417792 0.75877 0.0805524
0.487465 0.737163 0.0671855
0.559152 0.714931 0.0534371
0.631876 0.692103 0.039765
0.704707 0.6692 0.0261692
0.77377 0.64741 0.0155489
0.840299 0.626062 0.00604257
0.891325 0.607752 0.00254826
0.936873 0.590631 9.15541e-05
0.969512 0.57673 4.57771e-05
0.990814 0.564843 1.5259e-05
0.996948 0.556329 0
0.999771 0.551263 0
0.999939 0.548119 0
1 0.546471 0
1 0.544823 0
1 0.543664 0
0 0.952697 0.19704
0 0.950225 0.194965
0 0.947768 0.192905
0 0.944823 0.190478
0 0.941253 0.187518
0 0.936996 0.184039
0.00282292 0.931914 0.179919
0.00698863 0.926452 0.175509
0.0191806 0.91957 0.169833
0.034287 0.912337 0.163897
0.0733043 0.903197 0.156374
0.114794 0.893202 0.148257
0.163531 0.881758 0.138872
0.21619 0.869368 0.12871
0.274083 0.855314 0.11754
0.337026 0.839933 0.105455
0.402457 0.823636 0.0928817
0.472572 0.803815 0.0794385
0.543679 0.78291 0.0658274
0.616464 0.760403 0.0519722
0.689357 0.737728 0.0382086
0.759228 0.715831 0.0261082
0.825727 0.694636 0.0149844
0.87808 0.676143 0.00823987
0.925429 0.65893 0.0030518
0.961105 0.644678 0.00149538
0.985412 0.633356 0.00047303
0.994659 0.624826 0.00015259
0.999161 0.619196 0
0.999786 0.616419 0
1 0.614313 0
1 0.612802 0
1 0.611795 0
0 0.973327 0.208194
0 0.971984 0.206256
0 0.970397 0.204166
0 0.968688 0.201801
0 0.966552 0.198886
0 0.963973 0.195483
0.00151064 0.960845 0.19144
0.00370794 0.957458 0.187121
0.0108949 0.95314 0.181537
0.0208896 0.94876 0.175723
0.0599527 0.942443 0.168048
0.101183 0.935744 0.160021
0.149599 0.928084 0.150683
0.202045 0.919646 0.140612
0.259693 0.909865 0.129458
0.322011 0.898619 0.117449
0.387778 0.886137 0.104829
0.457328 0.868589 0.0915236
0.529015 0.848661 0.07776
0.601846 0.826886 0.0638132
0.674296 0.805005 0.0499428
0.744442 0.78323 0.0366674
0.811383 0.762112 0.024094
0.865354 0.743297 0.0144198
0.913954 0.726574 0.0068513
0.952529 0.712428 0.00360113
0.979904 0.700648 0.00141909
0.992279 0.692073 0.000671397
0.998459 0.686809 0.00030518
0.999619 0.683406 0.000259403
1 0.681361 0.000228885
1 0.68043 0.000228885
1 0.679042 0.000213626
0 0.990173 0.218189
0 0.989471 0.216297
0 0.988846 0.214267
0 0.987976 0.21181
0 0.98706 0.208972
0 0.985962 0.205631
0.000671397 0.984649 0.201678
0.00164797 0.9832 0.197452
0.0049897 0.981369 0.191882
0.0112917 0.979339 0.186023
0.0486 0.976257 0.178531
0.0885634 0.972473 0.170565
0.136629 0.967605 0.161257
0.188495 0.961776 0.151217
0.246189 0.955215 0.140139
0.30837 0.947127 0.128237
0.373602 0.937606 0.115724
0.443595 0.923232 0.102358
0.514595 0.907164 0.0887617
0.587472 0.888212 0.0747845
0.660487 0.868849 0.0607767
0.730327 0.847791 0.0474861
0.797955 0.826947 0.0345312
0.852338 0.808026 0.0237736
0.902663 0.790539 0.0145418
0.943603 0.776379 0.00883497
0.9738 0.764446 0.00476081
0.989334 0.755703 0.00297551
0.997375 0.750317 0.00199893
0.999344 0.746838 0.00164797
1 0.744823 0.00148013
1 0.743984 0.00141909
1 0.742611 0.00135805
0 1 0.2271
0 1 0.225254
0 1 0.223285
0 1 0.220874
0 1 0.218082
0 1 0.214893
0.000106813 1 0.210986
0.000244144 1 0.206836
0.000869764 1 0.201343
0.00447089 0.999924 0.195514
0.0393072 0.999039 0.188067
0.0772564 0.997742 0.180255
0.124666 0.995239 0.170947
0.175982 0.992248 0.161013
0.233066 0.988525 0.150057
0.295048 0.98352 0.138247
0.360479 0.977539 0.12575
0.429999 0.966918 0.112444
0.501442 0.954742 0.0988174
0.574411 0.939483 0.0848402
0.646983 0.923858 0.0709392
0.717479 0.904463 0.0574655
0.784863 0.88539 0.0443885
0.840009 0.867124 0.0327764
0.891585 0.85008 0.0223545
0.935073 0.835767 0.0146334
0.967529 0.823911 0.00901808
0.985977 0.815106 0.00607309
0.995926 0.809567 0.00436408
0.998962 0.806134 0.00360113
0.999969 0.804196 0.00323491
1 0.802991 0.00306706
1 0.802045 0.00294499
0 1 0.234485
0 1 0.232654
0 1 0.230716
0 1 0.228367
0 1 0.225635
0 1 0.222431
3.0518e-05 1 0.21857
9.15541e-05 1 0.214466
0.00030518 1 0.209018
0.00334173 0.999969 0.203281
0.0340124 0.999664 0.195865
0.0686961 0.999207 0.188022
0.114214 0.998352 0.179049
0.165072 0.997253 0.1691
0.22179 0.995956 0.158251
0.283696 0.993851 0.14638
0.348943 0.991302 0.133959
0.418296 0.985641 0.12076
0.489235 0.978759 0.107179
0.562356 0.969329 0.0932631
0.635615 0.959381 0.0793164
0.705623 0.944808 0.0659495
0.773159 0.930068 0.0528725
0.829053 0.914443 0.041062
0.88159 0.89929 0.0303044
0.926543 0.885206 0.0219272
0.960845 0.873533 0.0153201
0.981857 0.864836 0.0108949
0.993683 0.859236 0.00816358
0.998322 0.856367 0.00672923
0.999893 0.854612 0.00604257
0.999985 0.853529 0.00573739
1 0.852354 0.00550851
0 1 0.240116
0 1 0.238407
0 1 0.236545
0 1 0.234226
0 1 0.231556
0 1 0.228458
0 1 0.22472
0 1 0.220706
0 1 0.215305
0.00268559 1 0.209552
0.0295109 1 0.202258
0.0611429 1 0.194522
0.105501 1 0.185611
0.155444 1 0.175769
0.211902 1 0.164965
0.273625 0.999695 0.153185
0.338216 0.999191 0.140902
0.408042 0.996902 0.127565
0.478813 0.994064 0.114122
0.55201 0.989303 0.100237
0.624811 0.984161 0.0864271
0.695476 0.974136 0.0729686
0.763149 0.963714 0.0598459
0.819669 0.95137 0.0478981
0.872923 0.938842 0.0369573
0.918685 0.926009 0.0282292
0.954711 0.915007 0.0210117
0.9776 0.906493 0.0157778
0.991226 0.901015 0.0124208
0.997543 0.897917 0.010544
0.999725 0.8963 0.00967422
0.999954 0.895598 0.00932326
1 0.894652 0.0090486
0 1 0.24445
0 1 0.242786
0 1 0.240909
0 1 0.238636
0 1 0.235966
0 1 0.232944
0 1 0.229282
0 1 0.225406
0 1 0.219974
