luts/varicam_official/Vintage 33 E-E.cube
TITLE "Generated by Resolve"
LUT_3D_SIZE 9
0.0421302 0.0442054 0.0408331
0.0932937 0.0285801 0.0307469
0.195102 0.00769055 0.0125277
0.370718 0.000137331 0.000656138
0.620829 0 0
0.901915 0 0
0.996399 0 0
1 0 0
1 0 0
0.0311894 0.0993668 0.0488899
0.0810101 0.0833448 0.0388342
0.180926 0.0525978 0.0195926
0.353079 0.0143893 0.00155642
0.601389 0 0
0.884535 0 0
0.994186 0 0
1 0 0
1 0 0
0.0128786 0.20618 0.0653391
0.0601968 0.18938 0.0553445
0.157733 0.15845 0.0361639
0.326558 0.1066 0.00735485
0.57322 0.0404364 0
0.85771 0.00614939 0
0.989654 0 0
1 0 0
1 0 0
0.000488289 0.384451 0.0941634
0.0276951 0.367132 0.0842756
0.122499 0.335332 0.0654612
0.287785 0.282918 0.0336004
0.533043 0.206912 0.00178531
0.818586 0.118807 0
0.980896 0.0547494 0
1 0.0327001 0
1 0.0304112 0
0 0.639887 0.1364
0.00416571 0.621607 0.126558
0.0741894 0.58996 0.108095
0.236545 0.537697 0.0764935
0.479225 0.461189 0.0304875
0.76614 0.371862 9.15541e-05
0.964126 0.295567 0
1 0.257389 0
1 0.250858 0
0 0.930541 0.185367
0 0.914382 0.175677
0.027924 0.884764 0.157855
0.178027 0.833844 0.12668
0.417792 0.75877 0.0805524
0.704707 0.6692 0.0261692
0.936873 0.590631 9.15541e-05
0.999771 0.551263 0
1 0.543664 0
0 1 0.2271
0 1 0.218082
0.000869764 1 0.201343
0.124666 0.995239 0.170947
0.360479 0.977539 0.12575
0.646983 0.923858 0.0709392
0.891585 0.85008 0.0223545
0.995926 0.809567 0.00436408
1 0.802045 0.00294499
0 1 0.246601
0 1 0.238376
0 1 0.22269
0.0927443 1 0.193484
0.322484 1 0.14934
0.608377 0.999634 0.0951247
0.85922 0.983642 0.0454108
0.986419 0.953826 0.0201572
1 0.94844 0.0166476
0 1 0.246723
0 1 0.238956
0 1 0.22388
0.0780957 1 0.195834
0.302541 1 0.152438
0.589075 1 0.0982986
0.845533 0.999588 0.0478523
0.981109 0.980148 0.0209354
1 0.975418 0.0174105
0.0416266 0.0449531 0.0795758
0.092668 0.0292058 0.0692607
0.194125 0.00790417 0.0493782
0.369604 0.000183108 0.0179751
0.619425 0 0.000686656
0.900984 0 0
0.996277 0 0
1 0 0
1 0 0
0.0307469 0.0996109 0.0866255
0.0801404 0.0838178 0.0761578
0.180056 0.0530251 0.0565499
0.351461 0.0147555 0.0243381
0.599664 0 0.00184634
0.882994 0 0
0.993957 0 0
1 0 0
1 0 0
0.0124056 0.206073 0.102129
0.0593271 0.189715 0.0916915
0.15668 0.158618 0.0722667
0.325154 0.106874 0.039353
0.571069 0.040528 0.00505074
0.856214 0.00610361 0
0.989319 0 0
1 0 0
1 0 0
0.000366217 0.383932 0.129473
0.0268864 0.366796 0.119127
0.121538 0.334951 0.0999008
0.286351 0.282658 0.067628
0.530999 0.206607 0.0213169
0.817121 0.118639 0.00077821
0.980468 0.0540475 0
1 0.0325322 0
1 0.0302281 0
0 0.638605 0.170306
0.00389105 0.620996 0.160266
0.0731823 0.588937 0.141375
0.235019 0.536736 0.109514
0.477668 0.460761 0.0626383
0.764263 0.371069 0.012726
0.965118 0.294514 0.000610361
1 0.256275 0
1 0.249454 0
0 0.929976 0.218204
0 0.913771 0.208301
0.0271458 0.884337 0.190051
0.176638 0.833188 0.158602
0.415869 0.757961 0.112047
0.702739 0.668421 0.0568246
0.939956 0.589517 0.0129244
1 0.549859 0.00178531
1 0.541756 0.00122072
0 1 0.259022
0 1 0.249577
0.000732433 1 0.232456
0.122835 1 0.201816
0.358602 0.995392 0.156207
0.644984 0.933608 0.101076
0.892546 0.856504 0.051606
0.999649 0.815305 0.0268101
1 0.807675 0.0230564
0 1 0.277363
0 1 0.268711
0 1 0.252628
0.0914015 1 0.223148
0.319936 1 0.178729
0.606394 1 0.123949
0.859434 0.993149 0.0738231
0.993393 0.962814 0.0479744
1 0.957946 0.0441444
0 1 0.276036
0 1 0.267933
0 1 0.252628
0.0763104 1 0.224353
0.300145 1 0.180819
0.586328 1 0.126253
0.845335 0.999924 0.0754559
0.990051 0.983185 0.0478523
1 0.978454 0.0435492
0.0407416 0.046479 0.156634
0.0913252 0.0307927 0.145922
0.193011 0.00830091 0.125628
0.367559 0.000259403 0.0915999
0.617609 0 0.0453193
0.899153 0 0.00854505
0.996094 0 0.00209049
1 0 0.000427253
1 0 0.000244144
0.0297856 0.100984 0.162112
0.0792401 0.0850996 0.151064
0.178546 0.0544289 0.131029
0.349691 0.0154574 0.0972152
0.597513 0 0.0498207
0.880873 0 0.0107729
0.993713 0 0.00167849
1 0 0.000442512
1 0 0.000106813
0.0115511 0.207004 0.175784
0.0583047 0.1906 0.164767
0.155428 0.159609 0.144656
0.323079 0.107652 0.111162
0.569268 0.0413977 0.0632792
0.8542 0.00614939 0.0182193
0.988983 0 0.000747692
1 0 1.5259e-05
1 0 0
0.000259403 0.384482 0.201099
0.0260319 0.366629 0.189899
0.12015 0.335119 0.169818
0.284825 0.282902 0.136797
0.529152 0.207233 0.0888075
0.815366 0.118791 0.0345922
0.979995 0.0539864 0.00672923
1 0.0326848 4.57771e-05
1 0.0304723 0
0 0.638483 0.238758
0.00360113 0.620554 0.227985
0.0718242 0.588708 0.208316
0.233433 0.53666 0.175784
0.475425 0.4607 0.128161
0.76231 0.370901 0.0719158
0.964385 0.293843 0.0267643
1 0.255772 0.0123751
1 0.248661 0.011017
0 0.929915 0.283864
0 0.914 0.273243
0.0262913 0.884504 0.254337
0.175189 0.833143 0.222004
0.413581 0.757961 0.174792
0.700603 0.668223 0.118578
0.938506 0.589258 0.0692912
1 0.548852 0.0449378
1 0.541176 0.041062
0 1 0.322133
0 1 0.31194
0.000442512 1 0.294133
0.121141 1 0.262928
0.355749 0.995361 0.216754
0.642481 0.93402 0.160891
0.890898 0.856367 0.11043
0.999649 0.814908 0.084596
1 0.807095 0.0798199
0 1 0.338704
0 1 0.329168
0 1 0.312505
0.0893416 1 0.282383
0.317418 1 0.237324
0.60351 1 0.181811
0.857328 0.993881 0.13077
0.992996 0.963729 0.103792
1 0.958785 0.0991073
0 1 0.335164
0 1 0.326299
0 1 0.310079
0.0743877 1 0.281132
0.297505 1 0.236851
0.583337 1 0.181445
0.843244 0.999954 0.129747
0.989624 0.984451 0.101106
1 0.979614 0.0958419
0.0391546 0.0491493 0.288548
0.0897841 0.0335393 0.277119
0.191196 0.00915541 0.256397
0.365377 0.000396735 0.222095
0.615518 0 0.173602
0.897108 0 0.118608
0.995773 0 0.0742962
1 0 0.0566262
1 0 0.0542611
0.0282139 0.103532 0.29189
0.0775158 0.0875257 0.280552
0.176532 0.0570382 0.259754
0.347494 0.0168612 0.225727
0.595026 0 0.176989
0.87895 0 0.121752
0.993317 0 0.0771954
1 0 0.0581064
1 0 0.055436
0.0103609 0.208972 0.303563
0.0567025 0.192615 0.292103
0.153399 0.161761 0.271458
0.320775 0.109926 0.237552
0.566735 0.043061 0.189151
0.851911 0.00634775 0.133227
0.988495 0 0.0872511
1 0 0.0669108
1 0 0.0636301
0.000167849 0.386069 0.327459
0.0244755 0.3682 0.315389
0.118181 0.33666 0.294865
0.282521 0.284733 0.261265
0.526162 0.208972 0.212619
0.812558 0.120943 0.156359
0.979248 0.0545815 0.108019
1 0.0335699 0.0854658
1 0.0313878 0.0812543
0 0.639811 0.363424
0.00332647 0.621439 0.35169
0.0699931 0.590112 0.331289
0.231037 0.537789 0.297688
0.472755 0.461952 0.249271
0.759686 0.372213 0.192081
0.963287 0.295216 0.143008
1 0.256535 0.117815
1 0.249668 0.112779
0 0.931044 0.405997
0 0.914992 0.394339
0.0249027 0.885588 0.37435
0.172808 0.834546 0.341207
0.411063 0.759518 0.293202
0.697795 0.669306 0.235721
0.93698 0.590051 0.18497
1 0.549599 0.158801
1 0.541482 0.152972
0 1 0.441123
0 1 0.429801
0.000106813 1 0.410986
0.118868 0.999893 0.378515
0.353048 0.995361 0.33106
0.639689 0.935241 0.273884
0.888899 0.857618 0.222019
0.999603 0.815961 0.19469
1 0.807813 0.188403
0 1 0.453727
0 1 0.442954
0 1 0.425025
0.0870832 1 0.393851
0.314504 1 0.347402
0.600717 1 0.290654
0.854963 0.995285 0.238178
0.992386 0.965805 0.209598
1 0.960739 0.203189
0 1 0.44593
0 1 0.435431
0 1 0.418128
0.0722515 1 0.388037
0.294484 1 0.342504
0.580423 1 0.285939
0.840497 0.999969 0.233036
0.988846 0.986893 0.202976
1 0.981918 0.196735
0.0369726 0.0532387 0.48217
0.0874647 0.037644 0.470466
0.188663 0.0113527 0.449561
0.363012 0.000549325 0.415152
0.612161 0 0.36611
0.894286 0 0.310826
0.995407 0 0.265873
1 0 0.246998
1 0 0.24387
0.0261997 0.10721 0.48397
0.0752575 0.0915847 0.472206
0.174029 0.0610056 0.451087
0.344656 0.0188754 0.416571
0.592004 6.10361e-05 0.36762
0.875593 0 0.311818
0.992828 0 0.265553
1 0 0.244633
1 0 0.240757
0.00865187 0.212467 0.494347
0.0544289 0.196246 0.482261
0.150973 0.165377 0.461021
0.317998 0.113634 0.426551
0.563317 0.0459144 0.377478
0.848646 0.00660716 0.320729
0.987808 0 0.273091
1 0 0.250538
1 0 0.246006
7.62951e-05 0.388464 0.515724
0.0222171 0.37142 0.503746
0.115908 0.339925 0.482292
0.279377 0.287953 0.447944
0.523171 0.212177 0.398596
0.809232 0.124147 0.34165
0.978378 0.055848 0.292165
1 0.0352941 0.268284
1 0.0330816 0.262989
0 0.641978 0.549722
0.00292973 0.624567 0.53756
0.0675059 0.592859 0.516213
0.228244 0.540444 0.48188
0.469642 0.464744 0.432837
0.75639 0.375067 0.374899
0.962173 0.297261 0.324376
1 0.258824 0.298619
1 0.251362 0.292515
0 0.933577 0.590082
0 0.917327 0.577279
0.0231785 0.888212 0.556817
0.169741 0.836912 0.522576
0.407675 0.761547 0.473777
0.694865 0.671733 0.415808
0.934676 0.592233 0.36376
1 0.551217 0.336538
1 0.543282 0.330114
0 1 0.623072
0 1 0.610864
0 1 0.590768
0.11574 0.999207 0.557519
0.349722 0.995605 0.509285
0.636454 0.937423 0.451499
0.885969 0.860319 0.398154
0.999512 0.818051 0.369894
1 0.809918 0.362554
0 1 0.633204
0 1 0.621195
0 1 0.602304
0.0842756 1 0.570275
0.310689 1 0.522896
0.596979 1 0.465293
0.851972 0.997375 0.41178
0.991547 0.969451 0.382406
1 0.96434 0.375326
0 1 0.622889
0 1 0.611139
0 1 0.592966
0.0694438 1 0.562112
0.290791 1 0.515755
0.576699 1 0.458289
0.837415 0.999985 0.404196
0.987701 0.990814 0.372992
1 0.985748 0.365499
0.0345464 0.0581369 0.708843
0.0847639 0.0424353 0.697246
0.186084 0.0151064 0.676295
0.359457 0.000747692 0.641718
0.609354 0 0.593179
0.890822 0 0.538125
0.994919 0 0.493278
1 0 0.474174
1 0 0.471168
0.0237278 0.112062 0.710933
0.0727398 0.0961318 0.69865
0.17116 0.0657054 0.677836
0.341176 0.0215915 0.643549
0.588342 0.00030518 0.594461
0.872496 0 0.538567
0.992248 0 0.492241
1 0 0.471672
1 0 0.468284
0.00662242 0.216785 0.72076
0.0519265 0.200549 0.708812
0.147982 0.169772 0.68751
0.314672 0.117998 0.653132
0.559884 0.049424 0.603983
0.845457 0.00703441 0.547509
0.987106 4.57771e-05 0.49987
1 0 0.477256
1 0 0.472663
0 0.392462 0.742596
0.0196994 0.374701 0.729473
0.112856 0.343572 0.708247
0.276432 0.291936 0.673976
0.519646 0.216312 0.625132
0.806561 0.127626 0.56762
0.977371 0.0580911 0.519097
1 0.0375067 0.494591
1 0.035111 0.489509
0 0.645884 0.77673
0.00256352 0.627527 0.763546
0.0645304 0.596078 0.742306
0.225147 0.543954 0.707973
0.465919 0.468315 0.659022
0.753002 0.378515 0.600931
0.960891 0.300816 0.550546
1 0.262043 0.52491
1 0.254551 0.518944
0 0.936522 0.816892
0 0.92076 0.803601
0.02121 0.891676 0.783291
0.166537 0.840436 0.748806
0.403754 0.76553 0.700038
0.69102 0.6757 0.641947
0.932326 0.595468 0.590204
1 0.554574 0.562692
1 0.546166 0.556207
0 1 0.849989
0 1 0.837156
1.5259e-05 0.999924 0.817349
0.112795 0.998474 0.784085
0.345785 0.994888 0.735805
0.632471 0.941115 0.677638
0.883055 0.864057 0.624414
0.999405 0.821714 0.595712
1 0.81326 0.588678
0 1 0.859297
0 1 0.8477
0 1 0.829099
0.0808423 1 0.796796
0.306905 1 0.749828
0.592386 1 0.692119
0.848341 0.998322 0.638132
0.990433 0.974289 0.608057
1 0.969039 0.60087
0 1 0.849638
0 1 0.838514
0 1 0.819867
0.066041 1 0.788846
0.286503 1 0.742229
0.572106 1 0.684398
0.833509 1 0.629587
0.986038 0.996033 0.597253
1 0.990799 0.589258
0.0324407 0.0621347 0.901961
0.0825971 0.0464942 0.891218
0.18352 0.0184176 0.871092
0.356466 0.000854505 0.837736
0.606455 0 0.789776
0.887984 0 0.735454
0.994492 0 0.691691
1 0 0.673915
1 0 0.671992
0.0214694 0.115923 0.906966
0.0704051 0.100145 0.896101
0.168368 0.0698558 0.876127
0.338293 0.0235904 0.842725
0.585504 0.000503548 0.794919
0.869642 0 0.740337
0.991653 0 0.695216
1 0 0.675181
1 0 0.672206
0.00459297 0.220508 0.920027
0.0496376 0.204059 0.909377
0.145266 0.17348 0.889235
0.311437 0.12195 0.85655
0.556603 0.0524147 0.808667
0.842313 0.00721752 0.752895
0.986297 0.000228885 0.70576
1 0 0.683955
1 0 0.680507
0 0.39556 0.944427
0.0172427 0.377951 0.933486
0.110018 0.34699 0.913954
0.273075 0.295186 0.880827
0.515724 0.220111 0.832639
0.802884 0.131472 0.775998
0.976425 0.0603647 0.727886
1 0.039353 0.704402
1 0.0367895 0.700053
0 0.648447 0.975036
0.0021973 0.630686 0.965774
0.0617838 0.599344 0.94844
0.222141 0.54725 0.917632
0.462196 0.471443 0.86952
0.749706 0.381964 0.812482
0.959426 0.304204 0.762783
1 0.264683 0.737621
1 0.257145 0.732509
0 0.939116 0.991287
0 0.923659 0.988464
0.0197147 0.894514 0.981506
0.163592 0.843732 0.956893
0.400107 0.768795 0.913252
0.687358 0.678965 0.856535
0.929732 0.598367 0.805142
1 0.55729 0.778744
1 0.548363 0.7729
0 1 0.995453
0 1 0.993393
7.62951e-05 0.999512 0.988052
0.10959 0.997665 0.976638
0.341817 0.993667 0.94583
0.628565 0.944244 0.894011
0.879713 0.867216 0.841749
0.999023 0.824964 0.814298
1 0.81651 0.80798
0 1 0.986358
0 1 0.983764
0 1 0.979248
0.0776074 1 0.971237
0.302876 1 0.955215
0.588373 1 0.908675
0.844923 0.998764 0.85655
0.988907 0.978683 0.827237
1 0.973617 0.820539
0 1 0.983291
0 1 0.98024
0 1 0.975113
0.0629129 1 0.96553
0.2822 1 0.948852
0.567422 1 0.903548
0.830091 1 0.850874
0.983948 0.998596 0.819471
1 0.996033 0.812421
0.0310369 0.0637217 0.992248
0.0812543 0.0482338 0.982971
0.18172 0.0198215 0.963714
0.354482 0.000854505 0.931014
0.603998 0 0.88397
0.88603 0 0.830259
0.994125 0 0.787091
1 0 0.769985
1 0 0.769024
0.0201419 0.117525 0.996124
0.068864 0.101869 0.990311
0.166766 0.0716106 0.972564
0.335836 0.0244297 0.940429
0.582971 0.000579843 0.893645
0.867018 0 0.83975
0.991211 0 0.79556
1 0 0.776898
1 0 0.775555
0.00343328 0.221897 0.99942
0.0481422 0.205493 0.99733
0.143374 0.174884 0.987427
0.308949 0.123552 0.95816
0.553964 0.0537575 0.911543
0.839857 0.00697337 0.857313
0.985687 0.000320439 0.812009
1 0 0.791775
1 0 0.790143
0 0.396414 1
0.0157015 0.378912 1
0.108278 0.348104 0.998749
0.270634 0.296574 0.985412
0.513558 0.221134 0.941314
0.800214 0.132616 0.886717
0.97554 0.0614939 0.840253
1 0.0400702 0.818708
1 0.0374151 0.816419
0 0.648768 1
0.00202945 0.631525 1
0.0599985 0.599939 1
0.219776 0.548516 0.999435
0.459754 0.472694 0.981857
0.746548 0.383032 0.929717
0.958297 0.304585 0.882048
1 0.265492 0.858991
1 0.25803 0.856092
0 0.939742 1
0 0.923796 1
0.0186465 0.895384 1
0.160922 0.844434 1
0.39765 0.769787 0.999908
0.684428 0.679652 0.97966
0.927993 0.599466 0.931823
1 0.557733 0.907423
1 0.549599 0.903471
0 1 1
0 0.999817 1
0.000137331 0.998917 1
0.106966 0.996735 1
0.338964 0.992111 0.999969
0.625193 0.945449 0.99884
0.87747 0.869123 0.974334
0.998627 0.826047 0.948974
1 0.817761 0.944579
0 1 1
0 1 1
0 1 1
0.0750591 1 1
0.299214 1 1
0.584955 1 0.999893
0.842313 0.999039 0.992309
0.987884 0.981109 0.972625
1 0.976593 0.968338
0 1 1
0 1 1
0 1 1
0.0603037 1 1
0.278614 1 1
0.564034 1 0.999985
0.826856 1 0.990448
0.982437 0.999908 0.971786
1 0.999374 0.96698
0.0306401 0.0635843 0.998215
0.0806592 0.0480201 0.989776
0.180697 0.0196994 0.970932
0.353368 0.00077821 0.938613
0.60264 0 0.892027
0.884764 0 0.838666
0.993896 0 0.795651
1 0 0.77882
1 0 0.778256
0.0195926 0.117082 0.999954
0.0682536 0.101503 0.997314
0.165698 0.0713664 0.98114
0.334524 0.0240787 0.94934
0.581399 0.000549325 0.903075
0.865873 0 0.849454
0.990951 0 0.805692
1 0 0.78732
1 0 0.786404
0.00296025 0.220829 1
0.0474708 0.204608 0.999939
0.142428 0.174273 0.995392
0.307652 0.123018 0.968566
0.552605 0.053315 0.922423
0.838224 0.0065919 0.868605
0.985321 0.000320439 0.823758
1 0 0.803906
1 0 0.802701
0 0.394903 1
0.0149844 0.37789 1
0.107362 0.347127 0.999969
0.26952 0.295659 0.994873
0.512139 0.220325 0.953887
0.798672 0.131579 0.899733
0.974975 0.0609598 0.853742
1 0.0394903 0.832563
1 0.0368658 0.830839
0 0.647715 1
0.00202945 0.629786 1
0.058854 0.598962 1
0.218585 0.546944 0.999985
0.458 0.471397 0.992752
0.745007 0.38172 0.944595
0.957351 0.303319 0.897383
1 0.263416 0.874678
1 0.255756 0.872312
0 0.937682 1
0 0.922042 1
0.0182956 0.89337 1
0.15964 0.843091 1
0.395605 0.768368 1
0.682704 0.67866 0.993988
0.926894 0.598001 0.949233
1 0.556252 0.925307
1 0.547387 0.922362
0 0.999878 1
0 0.999435 1
0.000198367 0.998367 1
0.105547 0.995834 1
0.337057 0.990692 1
0.623545 0.944442 1
0.876097 0.867948 0.995102
0.998535 0.824643 0.971786
1 0.816129 0.968658
0 1 1
0 1 1
0 1 1
0.0735332 1 1
0.296803 1 1
0.582406 1 1
0.840513 0.9991 1
0.987472 0.981308 0.998199
1 0.976776 0.996139
0 1 1
0 1 1
0 1 1
0.058381 1 1
0.276081 1 1
0.561273 1 1
0.824857 1 1
0.981811 1 1
1 1 1
