luts/varicam_official/WarmDawn.cube
TITLE "Generated by Resolve"
LUT_3D_SIZE 5
0.0155489 0.016022 0.0168154
0.0654765 0.00531014 0.0106966
0.243656 0 0.000717174
0.634241 0 0
0.841611 0 0
0.0149691 0.0794995 0.0360113
0.0758831 0.0699931 0.0294347
0.284245 0.0234531 0.0033875
0.698192 7.62951e-05 0
0.900481 0 0
0.00415045 0.310231 0.0899672
0.0739605 0.310735 0.0841688
0.322164 0.266148 0.0494545
0.752987 0.171084 0.00216678
0.922789 0.131868 0.000350958
0.000106813 0.788495 0.194736
0.054551 0.791058 0.188464
0.345495 0.743175 0.150637
0.779217 0.655787 0.0893263
0.932265 0.624628 0.0694591
0 0.952392 0.247959
0.0501717 0.946288 0.238727
0.362142 0.933715 0.198993
0.789334 0.855756 0.141741
0.936614 0.825925 0.124147
0.0151675 0.0171511 0.0509194
0.0669566 0.00660716 0.0459602
0.248646 0 0.0199435
0.641733 0 6.10361e-05
0.849134 0 0
0.0157931 0.0831922 0.0755169
0.0782483 0.0734722 0.0719921
0.290883 0.0264591 0.043595
0.707652 9.15541e-05 0.00157168
0.908705 0 0.000244144
0.00505074 0.319829 0.142336
0.0770886 0.319738 0.140093
0.330083 0.274952 0.111345
0.76289 0.180133 0.051957
0.926574 0.141939 0.0314794
0.00015259 0.801892 0.265721
0.0586709 0.803693 0.263783
0.355276 0.755383 0.233402
0.788251 0.667445 0.18114
0.93901 0.637125 0.164569
0 0.956619 0.326802
0.0560464 0.951995 0.324987
0.372961 0.94464 0.292119
0.79765 0.866453 0.241367
0.942565 0.836896 0.228397
0.0154726 0.0209659 0.14493
0.0683146 0.00993362 0.144686
0.253773 0 0.12401
0.650675 0 0.0674449
0.857237 0 0.0385901
0.0162966 0.0892042 0.187228
0.0805829 0.0791333 0.189548
0.298207 0.0312963 0.168124
0.71722 9.15541e-05 0.112261
0.916884 0 0.0860456
0.00593576 0.332418 0.279286
0.0800183 0.332372 0.285328
0.338567 0.286809 0.264424
0.771832 0.192828 0.21416
0.92932 0.155627 0.19469
0.00015259 0.818173 0.43154
0.0628672 0.820096 0.438636
0.364599 0.770596 0.416236
0.797223 0.681392 0.372457
0.94522 0.653132 0.361105
0 0.962264 0.505928
0.0619059 0.959274 0.511025
0.38378 0.95816 0.485893
0.805234 0.878828 0.444526
0.947204 0.850568 0.435752
0.015259 0.027512 0.351812
0.0695811 0.0162661 0.356909
0.258366 0 0.342351
0.658686 0 0.292348
0.864759 0 0.265461
0.0159609 0.0980392 0.412116
0.0823377 0.0879835 0.420966
0.304494 0.0381323 0.405997
0.725628 0.000274662 0.357153
0.922545 0 0.334447
0.00604257 0.347906 0.527733
0.0822309 0.348135 0.538949
0.346151 0.301427 0.522789
0.780407 0.208728 0.478233
0.931609 0.172488 0.461585
7.62951e-05 0.837949 0.697978
0.066392 0.838727 0.70837
0.373739 0.787686 0.687755
0.804761 0.698146 0.646387
0.950942 0.670802 0.635828
0 0.968688 0.776318
0.0675059 0.96701 0.783429
0.393561 0.970932 0.758633
0.812482 0.892454 0.717876
0.950545 0.86595 0.70898
0.0147555 0.0312505 0.477867
0.0697948 0.0196689 0.483818
0.260029 0.000183108 0.470726
0.662135 0 0.421225
0.867948 0 0.394949
0.01561 0.102617 0.542443
0.0827497 0.0926986 0.551324
0.307256 0.0416114 0.536889
0.729473 0.000610361 0.48838
0.924468 0 0.465431
0.00578317 0.355673 0.659953
0.0831769 0.355489 0.670985
0.349599 0.308507 0.653971
0.783871 0.216022 0.608148
0.932647 0.180331 0.590585
1.5259e-05 0.846708 0.827726
0.0682231 0.846937 0.835706
0.378363 0.794675 0.812345
0.807355 0.705531 0.768048
0.953201 0.678355 0.755734
1.5259e-05 0.971374 0.902358
0.0701762 0.970291 0.906645
0.398413 0.976577 0.878843
0.815793 0.89839 0.830671
0.951965 0.872358 0.818952
