luts/varicam_official/WarmDawn.cube
TITLE "Generated by Resolve"
LUT_3D_SIZE 9
0.0155489 0.016022 0.0168154
0.0312047 0.0119173 0.0149691
0.0654765 0.00531014 0.0106966
0.129976 0.00228885 0.00483711
0.243656 0 0.000717174
0.414084 0 0
0.634241 0 0
0.841611 0 0
0.841611 0 0
0.0150759 0.0364691 0.0235904
0.032639 0.0330968 0.0219577
0.0701457 0.0246281 0.0172274
0.140963 0.0108339 0.00886549
0.261402 0.00122072 0.000885023
0.439689 0 0
0.663661 0 0
0.869307 0 0
0.869276 0 0
0.0149691 0.0794995 0.0360113
0.033875 0.0773938 0.0343938
0.0758831 0.0699931 0.0294347
0.153582 0.0524605 0.0184939
0.284245 0.0234531 0.0033875
0.470558 0.00268559 0.000183108
0.698192 7.62951e-05 0
0.90045 0 0
0.900481 0 0
0.0115358 0.163607 0.0563058
0.0310216 0.163378 0.0549477
0.0782177 0.157534 0.0499275
0.164004 0.140612 0.0384222
0.306127 0.107866 0.0173342
0.499962 0.0630808 0.00257877
0.729015 0.0221561 0
0.920531 0.00724804 0
0.920531 0.00727855 0
0.00415045 0.310231 0.0899672
0.0204776 0.313924 0.0893873
0.0739605 0.310735 0.0841688
0.171252 0.295766 0.0715038
0.322164 0.266148 0.0494545
0.524224 0.222354 0.0197604
0.752987 0.171084 0.00216678
0.922789 0.131868 0.000350958
0.922789 0.131868 0.000350958
0.000503548 0.525414 0.136736
0.0114595 0.531075 0.136049
0.0647746 0.529137 0.130114
0.171664 0.515389 0.117189
0.334447 0.48632 0.0950942
0.542062 0.444617 0.0653239
0.767697 0.398215 0.0337835
0.921736 0.364965 0.0149081
0.921736 0.364752 0.0148623
0.000106813 0.788495 0.194736
0.00134279 0.794263 0.194369
0.054551 0.791058 0.188464
0.173495 0.774212 0.174075
0.345495 0.743175 0.150637
0.558007 0.700587 0.120211
0.779217 0.655787 0.0893263
0.93228 0.624842 0.0695354
0.932265 0.624628 0.0694591
0 0.952392 0.24799
0.00408942 0.951156 0.246799
0.05037 0.946273 0.238743
0.180911 0.940002 0.222705
0.362646 0.9337 0.198962
0.578073 0.900206 0.169818
0.790494 0.855528 0.141649
0.936614 0.82594 0.124208
0.936614 0.825925 0.124193
0 0.952392 0.247959
0.00404364 0.951156 0.246769
0.0501717 0.946288 0.238727
0.180652 0.940002 0.222705
0.362142 0.933715 0.198993
0.577691 0.900282 0.169833
0.789334 0.855756 0.141741
0.936614 0.825925 0.124147
0.936614 0.825925 0.124147
0.0153964 0.0162509 0.0291752
0.0315709 0.012665 0.0275883
0.0661326 0.00582895 0.0233158
0.131441 0.002533 0.0142672
0.245914 0 0.00309758
0.417288 0 0
0.637949 0 0
0.845182 0 0
0.845182 0 0
0.0154269 0.0372931 0.0365301
0.0330968 0.0339055 0.0350195
0.0711223 0.0255436 0.030518
0.142641 0.0114748 0.0205692
0.264118 0.00129702 0.00683604
0.443519 0 0.00030518
0.667842 0 0
0.873335 0 0
0.873304 0 0
0.0153658 0.0810254 0.0501717
0.0345464 0.0790112 0.049134
0.0769513 0.0714733 0.0447089
0.155383 0.0536812 0.0340429
0.287663 0.0248112 0.0158389
0.474815 0.00270085 0.00120546
0.702602 9.15541e-05 3.0518e-05
0.904509 0 0
0.904479 0 0
0.0115663 0.166384 0.0729686
0.0315404 0.166155 0.0720378
0.0793927 0.160067 0.0673228
0.166461 0.142809 0.0558785
0.309758 0.110353 0.034699
0.504723 0.0653086 0.00999466
0.733883 0.0241398 0.0011902
0.922866 0.00770581 0
0.92285 0.00767529 0
0.00459297 0.314565 0.10782
0.0209049 0.318135 0.107897
0.0754101 0.314687 0.103578
0.173983 0.29984 0.0922713
0.325917 0.270359 0.0717021
0.529015 0.226368 0.0420996
0.7579 0.175158 0.0142824
0.924727 0.136446 0.00207523
0.924727 0.136263 0.00205997
0.000411994 0.530632 0.158404
0.0122072 0.536248 0.159014
0.0664683 0.534783 0.154574
0.174609 0.520974 0.142489
0.33875 0.491722 0.120714
0.547051 0.450004 0.0915694
0.772259 0.403845 0.060441
0.924239 0.370748 0.0385443
0.924239 0.370748 0.0385443
0.000122072 0.794415 0.219577
0.00161746 0.800214 0.219821
0.056672 0.797162 0.214984
0.176852 0.78027 0.202335
0.350393 0.748913 0.180774
0.56318 0.7066 0.152667
0.783368 0.661036 0.123491
0.935805 0.630503 0.104646
0.935805 0.630716 0.104707
0 0.954406 0.276005
0.00456245 0.953246 0.276539
0.0532998 0.948943 0.270588
0.184894 0.943603 0.256291
0.367773 0.938827 0.233341
0.583352 0.904936 0.204746
0.794247 0.8607 0.178317
0.939605 0.830976 0.163119
0.93962 0.830976 0.163165
0 0.954406 0.275929
0.00454719 0.953246 0.276509
0.0531167 0.948943 0.270512
0.184497 0.943603 0.256229
0.367239 0.938842 0.233326
0.582788 0.905043 0.204685
0.793423 0.860838 0.178149
0.939605 0.830945 0.162936
0.939605 0.830945 0.162936
0.0151675 0.0171511 0.0509194
0.0320439 0.0137942 0.0496834
0.0669566 0.00660716 0.0459602
0.133227 0.00285344 0.0369421
0.248646 0 0.0199435
0.420768 0 0.0027924
0.641733 0 6.10361e-05
0.849134 0 0
0.849134 0 0
0.0158541 0.0385901 0.0597238
0.0336614 0.0352483 0.0587472
0.0723583 0.0268559 0.0548104
0.144549 0.0123598 0.0452735
0.266804 0.00144961 0.0277256
0.447349 0 0.00862135
0.67248 0 9.15541e-05
0.877562 0 0
0.877516 0 0
0.0157931 0.0831922 0.0755169
0.0352178 0.0810864 0.075349
0.0782483 0.0734722 0.0719921
0.157549 0.0556497 0.0626841
0.290883 0.0264591 0.043595
0.479133 0.00265507 0.0190585
0.707652 9.15541e-05 0.00157168
0.908736 0 0.000244144
0.908705 0 0.000244144
0.0114748 0.169772 0.102617
0.032105 0.169574 0.102708
0.0806897 0.163333 0.099321
0.169314 0.14583 0.0889906
0.313497 0.113512 0.0691539
0.509865 0.0684367 0.0407874
0.739086 0.0266423 0.0130465
0.925155 0.00834669 0.00553903
0.925155 0.00831617 0.00550851
0.00505074 0.319829 0.142336
0.0213779 0.323491 0.143435
0.0770886 0.319738 0.140093
0.176577 0.30486 0.130175
0.330083 0.274952 0.111345
0.533867 0.231174 0.0837262
0.76289 0.180133 0.051957
0.926574 0.142107 0.0315557
0.926574 0.141939 0.0314794
0.000259403 0.537621 0.198016
0.0129702 0.543053 0.200031
0.0681773 0.54107 0.197223
0.177234 0.527413 0.187106
0.343023 0.497765 0.167163
0.552102 0.456123 0.139925
0.777234 0.410285 0.110643
0.927062 0.377905 0.0906844
0.927047 0.377676 0.0905013
0.00015259 0.801892 0.265721
0.00216678 0.807385 0.267613
0.0586709 0.803693 0.263783
0.180438 0.786679 0.25275
0.355276 0.755383 0.233402
0.568765 0.712932 0.20763
0.788251 0.667445 0.18114
0.939025 0.637339 0.164691
0.93901 0.637125 0.164569
0 0.956634 0.32697
0.00500496 0.955749 0.329061
0.0562295 0.951995 0.325093
0.189303 0.947875 0.313207
0.37348 0.94464 0.292165
0.589136 0.910689 0.266117
0.798611 0.86627 0.241657
0.942565 0.836912 0.228672
0.942565 0.836912 0.228611
0 0.956619 0.326802
0.00495918 0.955749 0.328939
0.0560464 0.951995 0.324987
0.188907 0.947875 0.313069
0.372961 0.94464 0.292119
0.587808 0.910918 0.265827
0.79765 0.866453 0.241367
0.942565 0.836896 0.228397
0.942565 0.836896 0.228397
0.015259 0.0187686 0.0866712
0.0322576 0.0154269 0.0861677
0.0675059 0.00782788 0.0836805
0.134936 0.00331121 0.0757305
0.251362 0 0.0587625
0.424689 0 0.0329137
0.646174 0 0.00947585
0.853254 0 0.00170901
0.853239 0 0.00169375
0.0161898 0.0401617 0.0983444
0.0342107 0.0369268 0.0983444
0.073579 0.0286107 0.0957809
0.146685 0.013611 0.0877089
0.270146 0.00172427 0.0715496
0.451575 0 0.0451972
0.677104 0 0.0187076
0.881971 0 0.0031281
0.881941 0 0.0031281
0.0162051 0.0858167 0.118624
0.0358587 0.0838026 0.119844
0.0795605 0.0760815 0.118044
0.159792 0.0580758 0.110353
0.294667 0.0285954 0.0928359
0.483574 0.00262455 0.0660716
0.712352 9.15541e-05 0.0347753
0.913054 0 0.00808728
0.913054 0 0.00808728
0.0112001 0.173648 0.151232
0.0326238 0.173617 0.152895
0.0820172 0.167132 0.151003
0.172152 0.149432 0.142641
0.317159 0.11783 0.124895
0.514138 0.0722362 0.0982376
0.743496 0.0294499 0.0674601
0.926955 0.00933852 0.0429084
0.926955 0.009308 0.0428168
0.00555428 0.325551 0.197055
0.0219272 0.329381 0.200076
0.078706 0.325582 0.198703
0.179355 0.310445 0.191058
0.334173 0.280522 0.174197
0.538582 0.236515 0.148653
0.767254 0.185916 0.119234
0.927886 0.148913 0.0975967
0.927886 0.14873 0.0974746
9.15541e-05 0.544961 0.260243
0.0137179 0.550683 0.264042
0.0698711 0.548836 0.26334
0.180606 0.534386 0.255161
0.347372 0.504524 0.237324
0.556893 0.462959 0.212345
0.781445 0.417395 0.185901
0.929885 0.385962 0.16875
0.92987 0.385733 0.168612
0.000167849 0.810056 0.33489
0.0027924 0.815625 0.338643
0.060914 0.811566 0.337102
0.184192 0.794308 0.328344
0.359884 0.762417 0.311177
0.573709 0.720287 0.287922
0.792935 0.674372 0.263828
0.942443 0.645029 0.250019
0.942428 0.644816 0.249882
0 0.959365 0.403037
0.0053254 0.958618 0.40679
0.059144 0.95555 0.404929
0.193439 0.952422 0.394919
0.378561 0.950988 0.376059
0.594583 0.917144 0.35256
0.802533 0.872114 0.33051
0.945144 0.843641 0.320333
0.945129 0.84361 0.319905
0 0.959365 0.402808
0.00529488 0.958618 0.406546
0.058854 0.95555 0.404715
0.193164 0.952407 0.394781
0.37821 0.950973 0.37586
0.593256 0.917372 0.352132
0.801602 0.872297 0.330114
0.945129 0.84361 0.319905
0.945129 0.84361 0.319905
0.0154726 0.0209659 0.14493
0.0325322 0.0176242 0.145708
0.0683146 0.00993362 0.144686
0.136538 0.00395209 0.138201
0.253773 0 0.12401
0.428733 0 0.0999161
0.650675 0 0.0674449
0.857237 0 0.0386511
0.857237 0 0.0385901
0.0163882 0.0424353 0.160662
0.034699 0.0394446 0.161975
0.0745098 0.0309606 0.161349
0.148287 0.0151522 0.155535
0.273243 0.00231937 0.141222
0.455909 0 0.116335
0.681834 0 0.0841993
0.886183 0 0.0564736
0.886122 0 0.0563668
0.0162966 0.0892042 0.187228
0.0362402 0.0871901 0.189761
0.0805829 0.0791333 0.189548
0.161532 0.0613107 0.183612
0.298207 0.0312963 0.168124
0.488258 0.00247196 0.143526
0.71722 9.15541e-05 0.112261
0.91693 0 0.0861982
0.916884 0 0.0860456
0.0106203 0.178363 0.225711
0.0328069 0.177905 0.228794
0.0829938 0.171664 0.229145
0.174823 0.153918 0.22295
0.321233 0.122576 0.207523
0.518898 0.0767834 0.184009
0.748287 0.0326238 0.15523
0.928786 0.0105135 0.132387
0.928771 0.0104524 0.132219
0.00593576 0.332418 0.279286
0.0222934 0.33579 0.283879
0.0800183 0.332372 0.285328
0.181964 0.317266 0.279591
0.338567 0.286809 0.264424
0.543465 0.242695 0.24097
0.771832 0.192828 0.21416
0.92932 0.155978 0.194995
0.92932 0.155627 0.19469
0 0.552789 0.349599
0.0141756 0.558801 0.355138
0.071458 0.557015 0.356619
0.183978 0.542458 0.350622
0.351705 0.512657 0.335027
0.561791 0.470756 0.312657
0.785702 0.425772 0.288884
0.932769 0.394339 0.273518
0.932769 0.394339 0.27361
0.00015259 0.818173 0.43154
0.00357061 0.824277 0.437583
0.0628672 0.820096 0.438636
0.187716 0.802594 0.431739
0.364599 0.770596 0.416236
0.578759 0.727337 0.394385
0.797223 0.681392 0.372457
0.94522 0.653132 0.361105
0.94522 0.653132 0.361105
0 0.962264 0.505928
0.00543221 0.961776 0.511711
0.0621805 0.959274 0.511299
0.197742 0.957031 0.503059
0.384298 0.958175 0.486152
0.599863 0.924422 0.464607
0.805997 0.878676 0.444877
0.947204 0.850599 0.436286
0.947204 0.850568 0.435752
0 0.962264 0.505928
0.00541695 0.961776 0.511421
0.0619059 0.959274 0.511025
0.19736 0.957031 0.502876
0.38378 0.95816 0.485893
0.598733 0.924605 0.464088
0.805234 0.878828 0.444526
0.947204 0.850568 0.435752
0.947204 0.850568 0.435752
0.0154574 0.0238804 0.232685
0.032639 0.0205081 0.234577
0.0691234 0.012726 0.234913
0.138033 0.0047303 0.2309
0.25626 0 0.218326
0.431968 0 0.195666
0.654566 0 0.165164
0.861036 0 0.137118
0.861021 0 0.137026
0.0165255 0.0455787 0.252857
0.0349126 0.042649 0.255924
0.0752422 0.034226 0.257069
0.150149 0.0170901 0.252781
0.276295 0.00320439 0.239643
0.459678 0 0.216815
0.686351 0 0.18706
0.890013 0 0.160037
0.889982 0 0.159915
0.0163119 0.0932479 0.28542
0.0364385 0.0911574 0.289113
0.0815137 0.0832074 0.290639
0.163455 0.0653086 0.286519
0.301289 0.0344396 0.27306
0.49218 0.00221256 0.250324
0.721843 0.000137331 0.221714
0.920623 0 0.197787
0.920607 0 0.19765
0.0099794 0.183749 0.329839
0.032929 0.183398 0.334874
0.0838331 0.176822 0.337011
0.177157 0.159548 0.332723
0.324269 0.128222 0.31986
0.523491 0.0823224 0.297993
0.752972 0.03682 0.271015
0.930144 0.0119936 0.249866
0.930144 0.0119631 0.249714
0.00608835 0.339849 0.390616
0.0224613 0.343282 0.397162
0.081178 0.339635 0.399847
0.184192 0.324376 0.395666
0.342321 0.293965 0.382361
0.548272 0.249653 0.360861
0.776257 0.200641 0.336156
0.930465 0.163928 0.318517
0.930465 0.163745 0.318334
0 0.562158 0.467262
0.0144198 0.567926 0.474235
0.0726482 0.565728 0.477104
0.186862 0.550912 0.472602
0.355901 0.520974 0.459083
0.566796 0.479286 0.438499
0.790066 0.434485 0.416327
0.935653 0.403754 0.402197
0.935637 0.40354 0.402014
0.000122072 0.827909 0.554696
0.00479133 0.833494 0.562264
0.0644083 0.828992 0.564599
0.191196 0.811139 0.559014
0.369574 0.77911 0.544518
0.583917 0.735256 0.524178
0.801541 0.689891 0.503456
0.948257 0.661692 0.493217
0.948241 0.661494 0.493019
0 0.965499 0.63328
0.0053254 0.965072 0.639872
0.0650339 0.963073 0.640604
0.20238 0.961975 0.633234
0.389715 0.964691 0.61735
0.605173 0.931579 0.59675
0.809522 0.885573 0.577813
0.948775 0.858274 0.570092
0.948775 0.858244 0.569619
0 0.965499 0.633036
0.00529488 0.965072 0.639521
0.0648508 0.963073 0.640482
0.201968 0.961959 0.632914
0.388479 0.964645 0.616632
0.604227 0.931762 0.596246
0.808927 0.885664 0.577264
0.948775 0.858244 0.569619
0.948775 0.858244 0.569619
0.015259 0.027512 0.351812
0.0323796 0.0242161 0.354971
0.0695811 0.0162661 0.356909
0.139345 0.00578317 0.353826
0.258366 0 0.342351
0.435767 0 0.321172
0.658686 0 0.292348
0.864759 0 0.265461
0.864759 0 0.265461
0.0162051 0.049485 0.375616
0.0348974 0.0465553 0.37995
0.0757916 0.0380255 0.382269
0.151827 0.0195163 0.379278
0.279362 0.00444038 0.367758
0.463859 0 0.346456
0.690181 0 0.317922
0.89369 0 0.292851
0.893721 0 0.292988
0.0159609 0.0980392 0.412116
0.0364538 0.096025 0.417792
0.0823377 0.0879835 0.420966
0.165103 0.0700236 0.418265
0.304494 0.0381323 0.405997
0.496529 0.00291447 0.38468
0.725628 0.000274662 0.357153
0.92256 0 0.334615
0.922545 0 0.334447
0.00973526 0.18967 0.462516
0.0326848 0.189654 0.468879
0.0847486 0.182895 0.472251
0.179324 0.1664 0.469215
0.327764 0.134585 0.456992
0.527657 0.0884108 0.435935
0.757015 0.0413214 0.410086
0.931594 0.0137331 0.390219
0.931579 0.0137179 0.390036
0.00604257 0.347906 0.527733
0.0226291 0.351751 0.535271
0.0822309 0.348135 0.538949
0.186526 0.33254 0.535668
0.346151 0.301427 0.522789
0.552422 0.257221 0.502068
0.780407 0.208728 0.478233
0.931609 0.172671 0.461784
0.931609 0.172488 0.461585
0.000106813 0.572168 0.60795
0.0142519 0.578027 0.615793
0.07393 0.575631 0.619547
0.190021 0.560113 0.61532
0.359838 0.529763 0.601968
0.571023 0.487907 0.581735
0.793896 0.443702 0.559762
0.93875 0.414008 0.546105
0.938735 0.413779 0.545907
7.62951e-05 0.837949 0.697978
0.00608835 0.843534 0.706035
0.066392 0.838727 0.70837
0.194446 0.820325 0.702342
0.373739 0.787686 0.687755
0.589044 0.743389 0.667124
0.804761 0.698146 0.646387
0.950957 0.671016 0.636027
0.950942 0.670802 0.635828
0 0.968704 0.776715
0.00502022 0.968475 0.78323
0.0677043 0.96701 0.783658
0.206546 0.966918 0.775799
0.394629 0.970977 0.759258
0.610758 0.937331 0.738369
0.813214 0.892317 0.718395
0.950545 0.86595 0.70898
0.950545 0.86595 0.70898
0 0.968688 0.776318
0.00500496 0.96846 0.782849
0.0675059 0.96701 0.783429
0.206134 0.966903 0.775464
0.393561 0.970932 0.758633
0.609613 0.93756 0.737758
0.812482 0.892454 0.717876
0.950545 0.86595 0.70898
0.950545 0.86595 0.70898
0.0147555 0.0312505 0.477867
0.0320592 0.027863 0.481407
0.0697948 0.0196689 0.483818
0.140429 0.00732433 0.481361
0.260273 0.000183108 0.47071
0.439017 0 0.449729
0.662135 0 0.421225
0.867948 0 0.394949
0.867948 0 0.394949
0.0157626 0.0536355 0.503319
0.0347143 0.0505684 0.507958
0.0760204 0.0418555 0.510918
0.153017 0.0231327 0.508385
0.281987 0.00573739 0.497322
0.467063 0 0.476326
0.69398 0 0.448203
0.896696 0 0.423178
0.896666 0 0.423148
0.01561 0.102556 0.542412
0.0363012 0.100557 0.54786
0.0826886 0.0926528 0.551278
0.166964 0.0744182 0.549142
0.307439 0.0417029 0.53695
0.500298 0.00486763 0.515709
0.729473 0.000610361 0.48838
0.924483 0 0.465461
0.924468 0 0.465431
0.00950637 0.195438 0.593698
0.0324102 0.195239 0.60032
0.0856031 0.188937 0.604166
0.181369 0.172259 0.601022
0.330587 0.14052 0.588647
0.531533 0.0939803 0.567117
0.760739 0.0462806 0.540963
0.932769 0.0153506 0.520775
0.932754 0.0153353 0.520729
0.00579843 0.355505 0.659892
0.0226444 0.359121 0.66714
0.0833143 0.35581 0.671107
0.18851 0.339834 0.667109
0.349599 0.308507 0.653971
0.55642 0.264485 0.632715
0.783871 0.216022 0.608148
0.932647 0.180514 0.590661
0.932647 0.180514 0.590661
0.000244144 0.580591 0.739651
0.0138705 0.586648 0.747204
0.075227 0.583963 0.750423
0.192889 0.568536 0.745525
0.363424 0.53814 0.731212
0.575326 0.49604 0.709178
0.797299 0.451713 0.685863
0.941405 0.422721 0.671214
0.941405 0.422721 0.671214
1.5259e-05 0.846494 0.827649
0.00720226 0.852384 0.834669
0.0684062 0.847135 0.835782
0.197528 0.828626 0.828687
0.378195 0.794705 0.81236
0.592981 0.750103 0.790005
0.807355 0.705531 0.768048
0.953201 0.678935 0.755947
0.953201 0.678752 0.755871
1.5259e-05 0.971374 0.902358
0.00466926 0.971252 0.907744
0.0703593 0.970291 0.906645
0.210666 0.971099 0.897093
0.399268 0.976562 0.878752
0.615351 0.941756 0.853986
0.816205 0.898283 0.830625
0.951965 0.872358 0.818952
0.951965 0.872358 0.818952
1.5259e-05 0.971374 0.902358
0.004654 0.971252 0.907729
0.0701762 0.970291 0.906645
0.210254 0.971099 0.897139
0.398413 0.976577 0.878843
0.614618 0.941924 0.854063
0.815793 0.89839 0.830671
0.951965 0.872358 0.818952
0.951965 0.872358 0.818952
0.0147555 0.0312505 0.477867
0.0320897 0.027863 0.481407
0.0697948 0.0196689 0.483818
0.140429 0.00732433 0.481361
0.260029 0.000183108 0.470726
0.438682 0 0.449775
0.662135 0 0.421225
0.867948 0 0.394949
0.867948 0 0.394949
0.0157626 0.0536507 0.503349
0.0347143 0.0505684 0.507958
0.0760204 0.041886 0.510948
0.152926 0.0231174 0.508354
0.281682 0.00573739 0.497292
0.467048 0 0.476295
0.694179 0 0.448188
0.896696 0 0.423178
0.896666 0 0.423148
0.01561 0.102617 0.542443
0.0363012 0.100557 0.54786
0.0827497 0.0926986 0.551324
0.166842 0.0743114 0.549065
0.307256 0.0416114 0.536889
0.500328 0.00489815 0.515755
0.729473 0.000610361 0.48838
0.924483 0 0.465461
0.924468 0 0.465431
0.00950637 0.195529 0.593759
0.0324407 0.195239 0.60032
0.0856031 0.188937 0.604166
0.181155 0.172107 0.600946
0.330587 0.14052 0.588647
0.531563 0.0940871 0.567163
0.760739 0.0462806 0.540963
0.932769 0.0153506 0.520775
0.932754 0.0153353 0.520729
0.00578317 0.355673 0.659953
0.0226139 0.359121 0.66714
0.0831769 0.355489 0.670985
0.188418 0.339681 0.667048
0.349599 0.308507 0.653971
0.556435 0.264652 0.632776
0.783871 0.216022 0.608148
0.932647 0.180514 0.590661
0.932647 0.180331 0.590585
0.000244144 0.580819 0.739712
0.0138705 0.586435 0.747127
0.0750896 0.583749 0.750347
0.192767 0.568551 0.745525
0.363592 0.538109 0.731197
0.57554 0.496208 0.709224
0.797482 0.451667 0.685847
0.94139 0.422507 0.671153
0.941375 0.422278 0.671077
1.5259e-05 0.846708 0.827726
0.00712596 0.851942 0.834516
0.0682231 0.846937 0.835706
0.19765 0.828611 0.828672
0.378363 0.794675 0.812345
0.593179 0.750271 0.790051
0.807355 0.705531 0.768048
0.953201 0.678553 0.75581
0.953201 0.678355 0.755734
1.5259e-05 0.971374 0.902358
0.004654 0.971252 0.907729
0.0704509 0.970291 0.906645
0.210803 0.971099 0.897093
0.399268 0.976562 0.878752
0.615351 0.941756 0.853986
0.816205 0.898283 0.830625
0.951965 0.872358 0.818952
0.951965 0.872358 0.818952
1.5259e-05 0.971374 0.902358
0.00463874 0.971252 0.907729
0.0701762 0.970291 0.906645
0.209857 0.971099 0.897169
0.398413 0.976577 0.878843
0.614618 0.941924 0.854063
0.815793 0.89839 0.830671
0.951965 0.872358 0.818952
0.951965 0.872358 0.818952
