luts/varicam_official/WarmDawn.cube
TITLE "Generated by Resolve"
LUT_3D_SIZE 33
0.0155489 0.016022 0.0168154
0.0173648 0.0155032 0.0166018
0.0205997 0.0145724 0.0161746
0.0256504 0.0131838 0.0155642
0.0312047 0.0119173 0.0149691
0.037705 0.0105592 0.0142367
0.045594 0.00898756 0.0132753
0.055024 0.00717174 0.0120241
0.0654765 0.00531014 0.0106966
0.0780804 0.00407416 0.009308
0.0932021 0.00349432 0.00782788
0.110185 0.00296025 0.0062562
0.129976 0.00228885 0.00483711
0.153765 0.00141909 0.00358587
0.179995 0.000579843 0.00241093
0.209735 6.10361e-05 0.00140383
0.243656 0 0.000717174
0.280247 0 0.000167849
0.321843 0 0
0.366354 0 0
0.414084 0 0
0.465476 0 0
0.519478 0 0
0.57583 0 0
0.634241 0 0
0.693523 0 0
0.753689 0 0
0.812787 0 0
0.841611 0 0
0.841611 0 0
0.841611 0 0
0.841611 0 0
0.841611 0 0
0.0150759 0.0191196 0.0178836
0.0173953 0.0186618 0.0176699
0.0209201 0.0178683 0.017319
0.0259251 0.0167391 0.0167697
0.0315404 0.0155489 0.0161593
0.0382391 0.0141756 0.0154116
0.0462348 0.0125734 0.0144656
0.0558022 0.0106355 0.0131991
0.066331 0.00866712 0.0118563
0.0792401 0.00717174 0.0103914
0.0946822 0.00604257 0.0087129
0.111879 0.00485237 0.00697337
0.132128 0.00352483 0.00546273
0.155993 0.00204471 0.00408942
0.182681 0.000747692 0.00276188
0.213046 7.62951e-05 0.00164797
0.247379 0 0.000793469
0.284672 0 0.00015259
0.326528 0 0
0.371588 0 0
0.42005 0 0
0.471672 0 0
0.52607 0 0
0.582345 0 0
0.641138 0 0
0.700801 0 0
0.760952 0 0
0.819913 0 0
0.848234 0 0
0.848234 0 0
0.848219 0 0
0.848219 0 0
0.848219 0 0
0.0148013 0.023743 0.01944
0.0175174 0.0232853 0.0192264
0.0212711 0.0225528 0.0188449
0.026276 0.0215152 0.0183413
0.0318914 0.0203403 0.0177615
0.0388037 0.0189364 0.0169833
0.0470893 0.0171817 0.0159609
0.0566567 0.0151827 0.0147402
0.067277 0.0130312 0.0133516
0.0805829 0.0110781 0.0117342
0.096376 0.00914015 0.00984207
0.113802 0.00704967 0.00793469
0.134691 0.00491341 0.00628672
0.158846 0.00262455 0.00469978
0.185992 0.000869764 0.00321965
0.216907 7.62951e-05 0.00192264
0.251575 0 0.000854505
0.289204 0 0.00015259
0.331258 0 0
0.376638 0 0
0.425605 0 0
0.477409 0 0
0.532174 0 0
0.589136 0 0
0.647959 0 0
0.707439 0 0
0.767636 0 0
0.826642 0 0
0.85449 0 0
0.85449 0 0
0.85449 0 0
0.85449 0 0
0.854459 0 0
0.0148165 0.0296788 0.0213931
0.017731 0.0291752 0.021149
0.0215915 0.028397 0.0207675
0.0266423 0.0273899 0.0202792
0.0322728 0.0262455 0.0197299
0.0394751 0.0247654 0.0189059
0.0480201 0.0229038 0.0178531
0.0576028 0.0207828 0.0166171
0.068513 0.0184024 0.0151827
0.0822461 0.0158389 0.0133974
0.0982986 0.0129854 0.0112764
0.115984 0.00999466 0.00920119
0.137697 0.00704967 0.00741588
0.162066 0.00399786 0.00556954
0.189792 0.00175479 0.00384527
0.221363 0.000717174 0.00225834
0.256397 0.00030518 0.000900282
0.294652 0.000122072 0.000137331
0.337072 4.57771e-05 0
0.383001 0 0
0.432517 0 0
0.484504 0 0
0.539696 0 0
0.596429 0 0
0.655344 0 0
0.714641 0 0
0.774701 0 0
0.833738 0 0
0.861799 0 0
0.861799 0 0
0.861799 0 0
0.861799 0 0
0.861769 0 0
0.0150759 0.0364691 0.0235904
0.0180972 0.0359197 0.0233463
0.021973 0.0351568 0.0229801
0.026978 0.0341955 0.0224918
0.032639 0.0330968 0.0219577
0.0401465 0.0314641 0.021088
0.0488899 0.0295262 0.0200198
0.0585794 0.0273136 0.0187839
0.0701457 0.0246281 0.0172274
0.0841688 0.0214847 0.0153048
0.100328 0.0179141 0.0130312
0.118471 0.0142824 0.0107881
0.140963 0.0108339 0.00886549
0.165591 0.00726329 0.00671397
0.193851 0.00450141 0.00462348
0.226017 0.00270085 0.00263981
0.261402 0.00122072 0.000885023
0.300496 0.00047303 0.000106813
0.343267 0.00015259 0
0.389792 1.5259e-05 0
0.439689 0 0
0.491936 0 0
0.547494 0 0
0.60441 0 0
0.663661 0 0
0.722942 0 0
0.782818 0 0
0.841428 0 0
0.869307 0 0
0.869307 0 0
0.869276 0 0
0.869276 0 0
0.869276 0 0
0.0151827 0.0447852 0.026154
0.0183413 0.0442969 0.0259098
0.0221714 0.0436713 0.0255741
0.0271916 0.0428016 0.0251164
0.0329442 0.0417945 0.0245823
0.0407263 0.0402075 0.0236973
0.0496834 0.0382849 0.0225986
0.0594644 0.0361944 0.0214237
0.0716716 0.0333715 0.0197604
0.0860456 0.030045 0.0177462
0.102403 0.0262608 0.0154574
0.12108 0.0222782 0.0130922
0.144045 0.0181277 0.0107881
0.168948 0.0137179 0.00816358
0.197864 0.00958267 0.00556954
0.230823 0.00561532 0.00296025
0.26656 0.00213626 0.000717174
0.306737 0.000823987 4.57771e-05
0.349859 0.000244144 0
0.396933 1.5259e-05 0
0.447364 0 0
0.500114 0 0
0.556054 0 0
0.61326 0 0
0.672358 0 0
0.731975 0 0
0.791577 0 0
0.849882 0 0
0.877302 0 0
0.877272 0 0
0.877272 0 0
0.877272 0 0
0.877241 0 0
0.015198 0.0547189 0.029099
0.0184024 0.0543374 0.0288701
0.0222324 0.0537575 0.0285344
0.0273442 0.0529488 0.0280766
0.0333257 0.0519417 0.0274968
0.0413367 0.0504005 0.0265965
0.0503853 0.0484627 0.0255131
0.0602579 0.0464942 0.0243534
0.0732128 0.0435492 0.0225834
0.087892 0.040177 0.0205386
0.104738 0.0362707 0.0182193
0.124163 0.0318456 0.015671
0.147402 0.0268864 0.0129244
0.172839 0.0212711 0.00981155
0.202319 0.0152895 0.00662242
0.235752 0.00907912 0.00335698
0.272099 0.00415045 0.000762951
0.312734 0.00247196 0.000137331
0.356573 0.00151064 7.62951e-05
0.403998 0.000808728 3.0518e-05
0.454902 0.000350958 1.5259e-05
0.508202 6.10361e-05 0
0.564508 0 0
0.621912 0 0
0.681254 0 0
0.740703 0 0
0.800122 0 0
0.858305 0 0
0.885435 0 0
0.885435 0 0
0.885435 0 0
0.885435 0 0
0.885405 0 0
0.0151369 0.065919 0.0323186
0.0183413 0.0655375 0.0320745
0.0221714 0.065095 0.0317845
0.0274205 0.0643168 0.0313115
0.0337987 0.0632639 0.0306554
0.0419471 0.0617685 0.0297551
0.0510262 0.0600137 0.0287327
0.0610056 0.0579843 0.0275425
0.0747692 0.0549477 0.0256809
0.0898299 0.0514839 0.0235752
0.107195 0.0474098 0.0211795
0.127398 0.0425574 0.0184329
0.150866 0.0366979 0.0152285
0.177249 0.0299382 0.0117037
0.207385 0.0222019 0.00787366
0.241367 0.0143587 0.00399786
0.278553 0.00888075 0.00128176
0.319371 0.00672923 0.000549325
0.363882 0.00495918 0.000289921
0.411719 0.00302129 0.000137331
0.463004 0.00123598 7.62951e-05
0.516487 0.000183108 1.5259e-05
0.572641 0 0
0.63035 0 0
0.689815 0 0
0.748699 0 0
0.807752 0 0
0.865995 0 0
0.892897 0 0
0.892897 0 0
0.892866 0 0
0.892866 0 0
0.892866 0 0
0.0149691 0.0794995 0.0360113
0.0181735 0.0792554 0.0357977
0.0218814 0.0788891 0.0354925
0.0271763 0.078294 0.0350347
0.033875 0.0773938 0.0343938
0.0421454 0.0761273 0.0335241
0.0512245 0.0746319 0.0325322
0.0614786 0.0729839 0.0313878
0.0758831 0.0699931 0.0294347
0.0911421 0.0667887 0.0273442
0.109041 0.0628367 0.0248417
0.130053 0.0580301 0.0218814
0.153582 0.0524605 0.0184939
0.181079 0.045716 0.0146181
0.211933 0.0381018 0.0103456
0.246159 0.0302434 0.0062562
0.284245 0.0234531 0.0033875
0.32549 0.0178683 0.00180056
0.370764 0.0124971 0.000915541
0.418967 0.00708019 0.000427253
0.470558 0.00268559 0.000183108
0.524727 0.0009308 3.0518e-05
0.581155 0.000457771 0
0.638727 0.000274662 0
0.698192 7.62951e-05 0
0.757137 0 0
0.816007 0 0
0.873259 0 0
0.90045 0 0
0.90045 0 0
0.90042 0 0
0.90042 0 0
0.900481 0 0
0.0146487 0.095964 0.040238
0.0177462 0.0959182 0.0400549
0.0213321 0.0956588 0.0397803
0.0266575 0.0951705 0.0393225
0.0337377 0.094255 0.0386206
0.0421149 0.0930495 0.0377508
0.0514534 0.0915084 0.0367132
0.0622263 0.0897993 0.0354925
0.0768902 0.0867933 0.0334936
0.0922866 0.0836042 0.0313878
0.110796 0.0795911 0.0287785
0.132555 0.0746777 0.0256352
0.156344 0.0692149 0.0221256
0.185016 0.0623789 0.0179141
0.216571 0.0546273 0.0131991
0.251301 0.0462348 0.00885023
0.290288 0.0375677 0.00575265
0.331807 0.0289769 0.00332647
0.377829 0.0208591 0.00190738
0.426581 0.0130007 0.000946059
0.47834 0.00700389 0.000320439
0.532967 0.00491341 0.000106813
0.589502 0.00350958 1.5259e-05
0.647272 0.002121 0
0.706615 0.00062562 0
0.765347 0 0
0.823819 0 0
0.880629 0 0
0.907469 0 0
0.907469 0 0
0.907469 0 0
0.907469 0 0
0.907454 0 0
0.0140536 0.114977 0.0449226
0.0169833 0.115099 0.04477
0.0205081 0.114992 0.0445258
0.0260471 0.114595 0.0440681
0.0332952 0.113832 0.0433509
0.0417639 0.11281 0.0425116
0.0514076 0.111421 0.041474
0.063035 0.10959 0.040116
0.0777752 0.106859 0.0382086
0.09337 0.103853 0.0361486
0.112474 0.0999313 0.0334783
0.134905 0.0950942 0.0302281
0.158602 0.0899062 0.0267796
0.188388 0.082948 0.0223545
0.220417 0.075288 0.0174868
0.255604 0.0667277 0.0128939
0.295445 0.0569619 0.00907912
0.337453 0.0471046 0.00541695
0.384237 0.0373541 0.00344854
0.433677 0.0278325 0.00183108
0.485695 0.0199435 0.000686656
0.54081 0.0151369 0.000320439
0.597528 0.0102388 6.10361e-05
0.655314 0.00540169 0
0.714534 0.00149538 0
0.773312 0 0
0.83151 0 0
0.887404 0 0
0.913878 0 0
0.913878 0 0
0.913878 0 0
0.913878 0 0
0.913863 0 0
0.0130617 0.136889 0.0501564
0.015671 0.137362 0.0500801
0.0191958 0.137438 0.0498665
0.0251774 0.137224 0.0494087
0.0325017 0.136736 0.0487678
0.0409247 0.136004 0.0479744
0.0508888 0.134905 0.0469673
0.0633707 0.133135 0.0455482
0.078233 0.130663 0.0437476
0.0944381 0.127794 0.0416724
0.114122 0.123934 0.0389715
0.137041 0.119417 0.0357824
0.161196 0.11426 0.0323339
0.191669 0.107393 0.0278477
0.224369 0.0999161 0.0229801
0.26006 0.0915847 0.0180972
0.300847 0.0819409 0.0131533
0.342931 0.0719463 0.00820935
0.390524 0.061387 0.00552377
0.440131 0.0505989 0.00321965
0.492729 0.040177 0.00140383
0.548211 0.0308232 0.000686656
0.605203 0.0213779 0.000137331
0.663294 0.0123293 0
0.722118 0.00621042 0
0.780743 0.00358587 0
0.838865 0.00270085 0
0.893507 0.00172427 0
0.918853 0.0012665 0
0.918853 0.0012665 0
0.918837 0.00125124 0
0.918837 0.00125124 0
0.918837 0.00125124 0
0.0115358 0.163607 0.0563058
0.01355 0.164141 0.0562448
0.0169223 0.16437 0.0560616
0.0235294 0.164004 0.0555734
0.0310216 0.163378 0.0549477
0.0394446 0.162875 0.0542458
0.0497902 0.161868 0.0532235
0.0632334 0.159915 0.0516823
0.0782177 0.157534 0.0499275
0.0952468 0.154498 0.0478065
0.115755 0.15053 0.0451057
0.138903 0.145861 0.0419318
0.164004 0.140612 0.0384222
0.195163 0.133623 0.0338293
0.228351 0.12607 0.0289158
0.264805 0.117586 0.0234226
0.306127 0.107866 0.0173342
0.349187 0.0980697 0.0116274
0.396963 0.0870222 0.00816358
0.44715 0.0753338 0.00509651
0.499962 0.0630808 0.00257877
0.555596 0.0507515 0.00117494
0.612619 0.0391546 0.000228885
0.670558 0.0286107 0
0.729015 0.0221561 0
0.78732 0.0179599 0
0.844724 0.0141756 0
0.897246 0.00955215 0
0.920531 0.00724804 0
0.920531 0.00724804 0
0.920531 0.00724804 0
0.920531 0.00727855 0
0.920531 0.00727855 0
0.00895705 0.193774 0.0632792
0.011429 0.194385 0.0632486
0.0153506 0.19469 0.0630655
0.0219577 0.194507 0.0626383
0.0292973 0.1944 0.0621958
0.0379644 0.19408 0.0615396
0.0486763 0.193149 0.0605325
0.0623941 0.191531 0.0590677
0.0775921 0.189578 0.0573587
0.0952773 0.186892 0.0552377
0.116442 0.183185 0.0524758
0.1402 0.179019 0.0493477
0.166674 0.173907 0.0457008
0.19791 0.167376 0.0411688
0.231861 0.160189 0.0361639
0.269047 0.151934 0.0305486
0.310643 0.142351 0.0243992
0.354543 0.132586 0.0184939
0.402869 0.121218 0.0133364
0.453437 0.109422 0.00877394
0.506889 0.0968032 0.00466926
0.562509 0.0839704 0.00175479
0.619821 0.0713207 0.000350958
0.677775 0.0588998 1.5259e-05
0.736248 0.0487678 0
0.793988 0.0390936 0
0.850965 0.0290837 0
0.900923 0.0191806 0
0.921462 0.0148623 0
0.921462 0.0148623 0
0.921462 0.0148623 0
0.921462 0.0148013 0
0.921462 0.0148013 0
0.00662242 0.228229 0.0712749
0.00953689 0.229068 0.0712749
0.0138094 0.229526 0.071107
0.0201114 0.229725 0.0707866
0.0269932 0.229877 0.0703899
0.035996 0.229633 0.0697032
0.0472419 0.228641 0.0686503
0.0610513 0.2271 0.0671855
0.076463 0.225315 0.0654917
0.0950027 0.22269 0.0632792
0.116869 0.219104 0.0604868
0.140764 0.214878 0.0572976
0.168597 0.209583 0.0534371
0.200092 0.203281 0.0488899
0.234714 0.196002 0.0437781
0.27277 0.187884 0.0380713
0.314977 0.178897 0.0318608
0.359533 0.169299 0.0256504
0.408331 0.158282 0.0191653
0.459358 0.146563 0.0132448
0.513222 0.134218 0.00755322
0.568795 0.121538 0.00308232
0.626154 0.108461 0.0011902
0.684245 0.0952163 0.000167849
0.742443 0.0825971 4.57771e-05
0.799695 0.0699016 4.57771e-05
0.855833 0.0568399 3.0518e-05
0.903944 0.0447852 1.5259e-05
0.922011 0.039765 0
0.922011 0.039765 0
0.922011 0.039765 0
0.922011 0.039765 0
0.922011 0.0396277 0
0.00497444 0.267399 0.0803082
0.00814832 0.268391 0.0803082
0.0122683 0.269123 0.0802014
0.0178988 0.269459 0.079881
0.0240635 0.269703 0.0794842
0.033402 0.269474 0.0787213
0.0453498 0.268742 0.0776074
0.0593118 0.267323 0.0761578
0.0752728 0.265629 0.0744182
0.0945754 0.262974 0.0721141
0.116976 0.259342 0.0692302
0.141268 0.255451 0.0660563
0.17026 0.249866 0.0619516
0.202014 0.243702 0.0573892
0.237415 0.236454 0.0522011
0.276448 0.228244 0.0463722
0.318746 0.219471 0.0400854
0.364309 0.209796 0.0334173
0.413123 0.199191 0.026215
0.464683 0.187762 0.0192569
0.518868 0.17554 0.0122683
0.574853 0.163226 0.00643931
0.632288 0.150149 0.00326543
0.690211 0.136995 0.00077821
0.748196 0.123903 0.000381476
0.805066 0.111223 0.000350958
0.860746 0.0990005 0.000213626
0.906874 0.0881666 7.62951e-05
0.92253 0.0839399 4.57771e-05
0.92253 0.0839399 4.57771e-05
0.92253 0.0837873 4.57771e-05
0.92253 0.0837873 4.57771e-05
0.92253 0.083772 4.57771e-05
0.00415045 0.310231 0.0899672
0.00714122 0.311589 0.090013
0.0105135 0.312612 0.0899519
0.0151217 0.313375 0.0897231
0.0204776 0.313924 0.0893873
0.0302129 0.313985 0.0885939
0.0428321 0.313405 0.0874189
0.0568856 0.312459 0.0860456
0.0739605 0.310735 0.0841688
0.0938125 0.308293 0.0818036
0.116548 0.30486 0.0789044
0.141421 0.301106 0.0756847
0.171252 0.295766 0.0715038
0.203326 0.289937 0.0669718
0.23949 0.282979 0.061738
0.279332 0.274922 0.0558175
0.322164 0.266148 0.0494545
0.368307 0.256428 0.0425269
0.417472 0.245975 0.0350958
0.469688 0.234546 0.027451
0.524224 0.222354 0.0197604
0.579995 0.21004 0.0128786
0.637446 0.196948 0.00764477
0.695186 0.184161 0.00354009
0.752987 0.171084 0.00216678
0.809064 0.158724 0.00158694
0.864118 0.14696 0.00103761
0.908644 0.136217 0.000488289
0.922789 0.131868 0.000350958
0.922789 0.131868 0.000350958
0.922789 0.131868 0.000350958
0.922789 0.131868 0.000350958
0.922789 0.131868 0.000350958
0.00404364 0.357702 0.10045
0.00627146 0.359014 0.100481
0.00846876 0.360082 0.100481
0.0118715 0.360815 0.100252
0.0170748 0.361532 0.099855
0.0270542 0.361425 0.0989548
0.0399023 0.360998 0.0977798
0.0540322 0.36025 0.096437
0.0722362 0.358404 0.094377
0.0927291 0.355947 0.0919509
0.116167 0.352941 0.0890516
0.142123 0.34873 0.0856031
0.172259 0.343755 0.0814374
0.205341 0.338018 0.0768139
0.242069 0.331487 0.0715953
0.282338 0.323705 0.0656748
0.325841 0.3149 0.0591592
0.372778 0.305501 0.0521401
0.422293 0.295018 0.0446479
0.474601 0.283986 0.0367895
0.529259 0.272282 0.028748
0.585245 0.260212 0.0211948
0.642908 0.24773 0.0146029
0.700191 0.235111 0.0096437
0.7579 0.222675 0.00622568
0.813214 0.211063 0.00422675
0.866194 0.199619 0.0028687
0.908385 0.189181 0.00163272
0.922087 0.18471 0.00115969
0.922087 0.18471 0.00115969
0.922087 0.18471 0.00115969
0.922087 0.18471 0.00115969
0.922087 0.18471 0.00115969
0.00325017 0.41004 0.111849
0.00454719 0.411612 0.111971
0.00576791 0.412985 0.112016
0.0083772 0.413962 0.111833
0.0145876 0.414679 0.11133
0.0249027 0.414878 0.110399
0.0370794 0.414618 0.109255
0.0507057 0.414023 0.107897
0.0697185 0.412177 0.10573
0.0907301 0.40972 0.103197
0.114687 0.406714 0.100221
0.141817 0.402548 0.0966201
0.172152 0.397803 0.0924697
0.206149 0.392126 0.0877699
0.243671 0.385245 0.0824903
0.284703 0.377798 0.0766461
0.329046 0.3691 0.0701152
0.375982 0.359564 0.0631571
0.426276 0.348837 0.0556954
0.479042 0.338048 0.0479744
0.534005 0.326421 0.0399329
0.590158 0.314366 0.0319219
0.647395 0.302144 0.0242618
0.704631 0.289799 0.017792
0.76202 0.277882 0.012253
0.816617 0.266529 0.00883497
0.867369 0.255665 0.00646983
0.906966 0.245838 0.00416571
0.921126 0.241566 0.00321965
0.921126 0.241566 0.00321965
0.921126 0.241566 0.00321965
0.921126 0.241566 0.00321965
0.921141 0.241367 0.00320439
0.00187686 0.465843 0.123934
0.00241093 0.467597 0.124071
0.00314336 0.469108 0.124147
0.00588998 0.470359 0.123949
0.0127413 0.471061 0.123339
0.0226596 0.471382 0.122438
0.0339818 0.471427 0.121309
0.0479896 0.470832 0.119799
0.0673533 0.469078 0.117571
0.0885939 0.466941 0.115099
0.113176 0.463798 0.112062
0.141436 0.459907 0.108431
0.171984 0.455192 0.104372
0.207279 0.449332 0.0996109
0.245487 0.442512 0.0943465
0.286641 0.435004 0.0886397
0.331746 0.426246 0.0821851
0.378897 0.416831 0.075349
0.429892 0.406287 0.0679332
0.482994 0.395499 0.0602884
0.538445 0.384314 0.0523079
0.594583 0.372534 0.0441596
0.651774 0.360311 0.0360418
0.708721 0.348547 0.0287022
0.765286 0.336828 0.0219577
0.819532 0.32575 0.0168002
0.86833 0.31545 0.0127565
0.90602 0.30602 0.00924697
0.921019 0.302022 0.00772107
0.921019 0.302022 0.00772107
0.921019 0.301808 0.00770581
0.921019 0.301808 0.00770581
0.921019 0.301808 0.00770581
0.000503548 0.525414 0.136736
0.000549325 0.527367 0.136904
0.00129702 0.528908 0.13695
0.00483711 0.530266 0.13666
0.0114595 0.531075 0.136049
0.0199435 0.531426 0.135134
0.0299687 0.531334 0.133959
0.0452125 0.530678 0.132296
0.0647746 0.529137 0.130114
0.0863661 0.527184 0.127703
0.111604 0.524056 0.124727
0.140719 0.52015 0.121157
0.171664 0.515389 0.117189
0.207858 0.509392 0.112413
0.246769 0.502617 0.10721
0.288563 0.495155 0.101549
0.334447 0.48632 0.0950942
0.381918 0.476997 0.0883345
0.433509 0.466712 0.0809491
0.486992 0.45597 0.0733043
0.542062 0.444617 0.0653239
0.598199 0.433158 0.0571603
0.655146 0.421347 0.0489967
0.711894 0.409781 0.0411536
0.767697 0.398215 0.0337835
0.82182 0.387915 0.0272221
0.869322 0.377844 0.0215305
0.905684 0.368902 0.0169985
0.921736 0.364965 0.0149081
0.921736 0.364965 0.0149081
0.921736 0.364752 0.0148623
0.921736 0.364752 0.0148623
0.921736 0.364752 0.0148623
0.000106813 0.588327 0.150088
0.000213626 0.590387 0.150271
0.00128176 0.592294 0.150362
0.00511177 0.593317 0.149981
0.0102541 0.594141 0.149401
0.0164645 0.594812 0.148623
0.024979 0.594919 0.147555
0.0419928 0.594141 0.14583
0.0619516 0.59263 0.14374
0.0843824 0.5906 0.14136
0.110765 0.587503 0.138384
0.140093 0.583291 0.134905
0.171801 0.578546 0.130999
0.208652 0.572412 0.126207
0.248203 0.565682 0.120958
0.29073 0.558038 0.11519
0.337362 0.548852 0.108598
0.385214 0.539727 0.101869
0.437217 0.52929 0.0944381
0.490929 0.518425 0.0867323
0.54609 0.507256 0.0787518
0.602335 0.49572 0.0705119
0.659052 0.484306 0.0623484
0.715785 0.472801 0.0542306
0.770932 0.46183 0.0466316
0.82385 0.451362 0.0394446
0.870207 0.441611 0.0330358
0.906645 0.43331 0.0277867
0.923751 0.429496 0.02533
0.923751 0.429496 0.02533
0.923766 0.429725 0.0253758
0.923751 0.429709 0.0253605
0.923751 0.429709 0.0253605
1.5259e-05 0.653574 0.16408
0.000427253 0.655879 0.164324
0.00167849 0.657603 0.16437
0.00442512 0.65861 0.164034
0.00759899 0.659434 0.163577
0.0124971 0.659998 0.162921
0.0208133 0.660044 0.161929
0.0390784 0.659083 0.160235
0.0589914 0.657572 0.158312
0.0820172 0.655329 0.155856
0.109361 0.652003 0.152743
0.138979 0.648142 0.14931
0.172213 0.643061 0.145159
0.209323 0.637079 0.140383
0.249699 0.630381 0.135073
0.293141 0.622477 0.129137
0.340124 0.613306 0.12253
0.388525 0.60412 0.115755
0.440864 0.593591 0.108263
0.494469 0.582742 0.100542
0.549966 0.571542 0.0925002
0.606241 0.560128 0.0843061
0.662745 0.54876 0.076173
0.719097 0.537301 0.0680705
0.77348 0.52668 0.0604715
0.825086 0.516472 0.0532082
0.870695 0.507073 0.0464942
0.908309 0.499107 0.0408637
0.92668 0.495644 0.0383917
0.92668 0.495644 0.0383917
0.92668 0.495644 0.0383917
0.926665 0.49543 0.0383459
0.926665 0.49543 0.0383459
0.00015259 0.72079 0.179156
0.000595102 0.722972 0.179416
0.00144961 0.724514 0.179431
0.00270085 0.725643 0.179171
0.0039826 0.726543 0.178775
0.00900282 0.72697 0.178058
0.0189517 0.726879 0.17702
0.0368658 0.725841 0.175341
0.0562448 0.724376 0.173419
0.0796521 0.72195 0.170886
0.107927 0.718273 0.167559
0.138018 0.714244 0.163989
0.172641 0.708751 0.159594
0.210254 0.702556 0.154742
0.250996 0.695628 0.149355
0.295369 0.687282 0.143221
0.342596 0.678111 0.136553
0.391897 0.66865 0.129625
0.444602 0.658106 0.122087
0.498924 0.647517 0.114336
0.554467 0.636194 0.106279
0.610468 0.624949 0.0982071
0.666651 0.613306 0.0900282
0.722805 0.602014 0.0820172
0.776638 0.591104 0.0744335
0.826246 0.581277 0.0674907
0.871015 0.572152 0.0609293
0.910399 0.564431 0.0554208
0.929686 0.561471 0.0532692
0.929686 0.561471 0.0532692
0.929671 0.561257 0.053193
0.929671 0.561257 0.053193
0.929671 0.561257 0.053193
0.000106813 0.788495 0.194736
0.000289921 0.790433 0.194934
0.000579843 0.791974 0.194965
0.000915541 0.793317 0.194781
0.00134279 0.794263 0.194369
0.00733959 0.794308 0.193484
0.0194247 0.793957 0.192279
0.0355383 0.792798 0.19057
0.054551 0.791058 0.188464
0.0783093 0.788235 0.185718
0.107057 0.784405 0.182345
0.137652 0.780407 0.178729
0.173495 0.774212 0.174075
0.211521 0.767987 0.169177
0.252842 0.760693 0.163638
0.297917 0.752285 0.157351
0.345495 0.743175 0.150637
0.395727 0.73344 0.143557
0.448447 0.72285 0.135988
0.50251 0.711864 0.128176
0.558007 0.700587 0.120211
0.613977 0.689296 0.112322
0.669993 0.677745 0.104356
0.725216 0.666773 0.0966201
0.779217 0.655787 0.0893263
0.827695 0.645502 0.0827497
0.871672 0.636042 0.0766766
0.912367 0.628046 0.0715496
0.93228 0.624842 0.0695354
0.932265 0.624842 0.0695201
0.932265 0.624628 0.0694591
0.932265 0.624628 0.0694591
0.932265 0.624628 0.0694591
0 0.855756 0.21033
0 0.857298 0.210361
0 0.859083 0.210468
0.00015259 0.860258 0.210254
0.00143435 0.861418 0.209903
0.00819409 0.860868 0.208896
0.0200198 0.859251 0.207462
0.0335699 0.857023 0.205692
0.0528267 0.854047 0.203372
0.0775616 0.850156 0.200488
0.106874 0.84535 0.196994
0.138476 0.840085 0.193133
0.175006 0.833616 0.188403
0.213748 0.826871 0.183322
0.255818 0.819333 0.17763
0.301671 0.811154 0.171283
0.349737 0.802304 0.164477
0.400305 0.793103 0.157336
0.453254 0.78294 0.149783
0.507362 0.771969 0.142016
0.563088 0.760433 0.134203
0.618692 0.748745 0.126574
0.674449 0.73698 0.118929
0.728786 0.725673 0.111543
0.782116 0.714672 0.104555
0.829343 0.704387 0.0982681
0.872038 0.695048 0.0925917
0.913344 0.68719 0.0878004
0.933501 0.683925 0.0858778
0.933501 0.684306 0.0859998
0.933501 0.684306 0.0859998
0.933501 0.684123 0.0859541
0.933501 0.684123 0.0859541
0 0.914626 0.225879
0 0.915801 0.225956
0 0.916915 0.226032
0.000320439 0.917601 0.225879
0.0033875 0.917098 0.225254
0.010193 0.915022 0.224018
0.0193027 0.911742 0.222416
0.0305638 0.908232 0.220584
0.0507362 0.903944 0.218067
0.0770275 0.899229 0.21503
0.106905 0.894118 0.211444
0.139895 0.888762 0.20737
0.176699 0.882704 0.202548
0.216526 0.876539 0.197269
0.259388 0.869978 0.191455
0.30547 0.863218 0.185122
0.354086 0.856229 0.178378
0.405081 0.849134 0.171389
0.458351 0.839734 0.163897
0.512489 0.829068 0.156329
0.568215 0.816938 0.148562
0.623987 0.804837 0.141039
0.679515 0.793072 0.133669
0.733059 0.781735 0.126635
0.785443 0.77084 0.119814
0.831174 0.76109 0.113741
0.872587 0.752178 0.108324
0.914031 0.744625 0.103746
0.934325 0.741421 0.101823
0.934325 0.741421 0.101823
0.934325 0.741421 0.101823
0.934325 0.741222 0.101778
0.934325 0.741222 0.101778
0 0.941329 0.240803
0 0.941329 0.240894
4.57771e-05 0.941268 0.240925
0.000564584 0.940993 0.240726
0.00392157 0.940063 0.239887
0.00967422 0.938476 0.238499
0.0162051 0.936645 0.236896
0.0285344 0.934569 0.234821
0.0500801 0.932204 0.232136
