luts/varicam_official/Winter.cube
TITLE "Generated by Resolve"
LUT_3D_SIZE 5
0.0156252 0.0156252 0.0156252
0.0442054 0.00730907 0.010193
0.16939 0 0.00015259
0.489799 0 0
0.753918 0 0
0.00776684 0.0647135 0.0251316
0.0489815 0.0564279 0.0197452
0.190265 0.0233158 0.00401312
0.529671 1.5259e-05 0
0.792538 0 0
0.0009308 0.277089 0.0717327
0.0363622 0.27335 0.0661631
0.205051 0.240742 0.0409094
0.567056 0.156191 0.00173953
0.824689 0.09514 0
0 0.772686 0.172396
0.0049897 0.767346 0.165057
0.19762 0.729824 0.135012
0.580774 0.644495 0.0739757
0.825803 0.59057 0.0358129
0 0.969573 0.232639
0.00518807 0.964477 0.222812
0.199207 0.953368 0.1897
0.59176 0.905409 0.128252
0.823117 0.851255 0.0920882
0.0149844 0.0168612 0.0760052
0.046128 0.00779736 0.0745403
0.17464 0 0.0575265
0.499077 0 0.0135195
0.762768 0 0.00213626
0.00703441 0.069337 0.101427
0.0504311 0.0606088 0.0990158
0.195758 0.0261692 0.0811627
0.538018 1.5259e-05 0.029221
0.801022 0 0.00863661
0.00077821 0.287343 0.166751
0.037705 0.282856 0.164599
0.210269 0.249592 0.144656
0.574472 0.164614 0.0928511
0.831479 0.104387 0.0569924
0 0.785611 0.294026
0.00576791 0.780362 0.290867
0.20296 0.741039 0.267201
0.588113 0.656077 0.215167
0.830228 0.601801 0.182696
0 0.973373 0.37261
0.00509651 0.968856 0.366644
0.205112 0.960235 0.339757
0.598383 0.915297 0.285832
0.827543 0.860426 0.255619
0.0123751 0.0230869 0.350484
0.0474098 0.0129854 0.354391
0.180835 7.62951e-05 0.346014
0.510353 0 0.306676
0.774533 0 0.27216
0.00556954 0.0801862 0.399161
0.0509651 0.0715801 0.402533
0.202106 0.0345922 0.392569
0.549416 0.000106813 0.351598
0.811933 0 0.317708
0.000442512 0.306676 0.497154
0.0382239 0.30164 0.499916
0.216205 0.267018 0.487083
0.584543 0.182147 0.444633
0.839872 0.122332 0.413764
0 0.809628 0.659358
0.0090486 0.802808 0.659403
0.209796 0.762478 0.640955
0.59704 0.676234 0.595239
0.835462 0.62324 0.567742
0 0.980011 0.752651
0.0040589 0.976349 0.749538
0.213336 0.97113 0.726162
0.607996 0.93164 0.676951
0.832349 0.877104 0.650385
0.00767529 0.0342107 0.838026
0.0478676 0.0231327 0.839124
0.187137 0.00157168 0.826902
0.524071 0 0.780377
0.788357 0 0.740688
0.00585946 0.0965744 0.879255
0.0509957 0.0873274 0.878462
0.209537 0.0488136 0.861143
0.562783 0.00120546 0.809842
0.824781 0 0.770809
0.000137331 0.331975 0.954208
0.038819 0.325811 0.951904
0.223621 0.289982 0.931411
0.596918 0.203494 0.876432
0.850294 0.144015 0.837461
0 0.837934 0.999832
0.0131533 0.830274 0.999435
0.219211 0.786221 0.998718
0.609308 0.699565 0.977722
0.842893 0.647028 0.942946
0 0.98645 1
0.00363165 0.984115 1
0.224918 0.983413 1
0.621363 0.944503 0.997879
0.839918 0.894423 0.98468
0.00672923 0.0378882 0.984176
0.0493172 0.0263828 0.97911
0.192432 0.00273136 0.956252
0.533791 0 0.895369
0.797772 0 0.847959
0.00694286 0.102586 0.996719
0.0525521 0.0930343 0.992981
0.215213 0.0536812 0.966369
0.57232 0.00140383 0.903395
0.833219 0 0.856947
0.000259403 0.342718 1
0.0406043 0.336034 1
0.229953 0.299062 0.997223
0.605814 0.211429 0.938552
0.857923 0.153094 0.894057
0 0.85069 1
0.0158236 0.841138 1
0.226383 0.796033 1
0.618051 0.708293 0.998337
0.848966 0.656916 0.970214
0 0.988693 1
0.00442512 0.987564 1
0.232761 0.986221 1
0.630732 0.948302 1
0.846036 0.900221 0.999069
