luts/varicam_official/Winter.cube
TITLE "Generated by Resolve"
LUT_3D_SIZE 9
0.0156252 0.0156252 0.0156252
0.0186465 0.014725 0.0150607
0.0442054 0.00730907 0.010193
0.0887007 0 0.00320439
0.16939 0 0.00015259
0.301946 0 0
0.489799 0 0
0.718578 0 0
0.753918 0 0
0.0139162 0.0260166 0.01738
0.0209964 0.0250248 0.0163577
0.0475166 0.0190585 0.0119326
0.094789 0.0104372 0.00456245
0.179324 0.00134279 0.000717174
0.316136 1.5259e-05 0
0.507393 0 0
0.736965 0 0
0.77113 0 0
0.00776684 0.0647135 0.0251316
0.0204776 0.0625772 0.0235142
0.0489815 0.0564279 0.0197452
0.0999161 0.0445106 0.0123903
0.190265 0.0233158 0.00401312
0.334142 0.00389105 9.15541e-05
0.529671 1.5259e-05 0
0.758785 0 0
0.792538 0 0
0.00389105 0.139178 0.0426184
0.0159762 0.137606 0.0410468
0.0461891 0.132876 0.0372778
0.102464 0.12163 0.0292363
0.201007 0.0987411 0.0149081
0.350362 0.0619974 0.00105287
0.550622 0.0235447 1.5259e-05
0.778698 0.00222782 0
0.812528 0.00202945 0
0.0009308 0.277089 0.0717327
0.00607309 0.276616 0.0702373
0.0363622 0.27335 0.0661631
0.0991989 0.262821 0.0573129
0.205051 0.240742 0.0409094
0.3626 0.204807 0.0169528
0.567056 0.156191 0.00173953
0.792569 0.102647 0
0.824689 0.09514 0
0 0.494789 0.115633
0.00129702 0.494804 0.114015
0.0220493 0.491615 0.109621
0.0875868 0.480827 0.100175
0.202518 0.458778 0.0831006
0.368612 0.422721 0.0568704
0.575555 0.376211 0.0251469
0.79736 0.326375 0.00341802
0.82829 0.319844 0.00207523
0 0.772686 0.172396
4.57771e-05 0.772473 0.17052
0.0049897 0.767346 0.165057
0.0723735 0.755077 0.154177
0.19762 0.729824 0.135012
0.370718 0.691951 0.107652
0.580774 0.644495 0.0739757
0.796674 0.596979 0.0402991
0.825803 0.59057 0.0358129
0 0.966522 0.230442
0 0.964569 0.227634
0.00543221 0.960616 0.22089
0.063447 0.954299 0.208209
0.198596 0.946548 0.187762
0.379614 0.936751 0.159747
0.590982 0.896635 0.126513
0.798657 0.848035 0.0942092
0.823087 0.8421 0.0902266
0 0.969573 0.232639
0 0.967849 0.229725
0.00518807 0.964477 0.222812
0.063386 0.959274 0.210101
0.199207 0.953368 0.1897
0.380591 0.945632 0.161624
0.59176 0.905409 0.128252
0.798428 0.857252 0.0961013
0.823117 0.851255 0.0920882
0.0154421 0.0158236 0.0309606
0.0193332 0.0146944 0.0312047
0.0451362 0.00735485 0.0278172
0.0902419 0 0.021149
0.171649 0 0.00921645
0.30515 0 0.00198367
0.494102 0 0
0.722774 0 0
0.757656 0 0
0.0135348 0.0272984 0.0366369
0.0214542 0.0260777 0.036347
0.048249 0.0200351 0.0332799
0.0960708 0.0110933 0.0267796
0.181537 0.00137331 0.0143282
0.319371 3.0518e-05 0.00306706
0.511147 0 0
0.740444 0 0
0.775006 0 0
0.00746166 0.0665599 0.0492561
0.020798 0.0641184 0.0480964
0.0496071 0.0579538 0.0448463
0.101076 0.0460212 0.0378424
0.192615 0.0243381 0.0240787
0.337102 0.0043946 0.00714122
0.533394 1.5259e-05 0.000274662
0.76228 0 0
0.79617 0 0
0.00442512 0.141848 0.0690471
0.0162356 0.140337 0.0679484
0.0467994 0.135607 0.0645609
0.103777 0.124102 0.0570077
0.203204 0.100923 0.0420844
0.353735 0.0640726 0.0195163
0.554376 0.0249485 0.00268559
0.7823 0.00267033 6.10361e-05
0.815869 0.00241093 1.5259e-05
0.000839246 0.281086 0.101122
0.00668345 0.280507 0.0999466
0.0370184 0.277073 0.0963607
0.100649 0.266575 0.088426
0.207279 0.244465 0.0732891
0.365743 0.208057 0.0490578
0.569924 0.15935 0.0191043
0.795758 0.106233 0.00367742
0.827619 0.0988022 0.00250248
1.5259e-05 0.49984 0.14963
0.00125124 0.499687 0.148455
0.0226291 0.496452 0.144839
0.0889754 0.485664 0.136141
0.204822 0.462943 0.119905
0.371374 0.426795 0.0949264
0.579004 0.38056 0.0632181
0.800229 0.33106 0.0312352
0.830976 0.324407 0.0272831
0 0.778241 0.211246
3.0518e-05 0.778042 0.21004
0.00518807 0.772763 0.205295
0.07393 0.759243 0.195132
0.200076 0.73431 0.177371
0.373953 0.696422 0.151553
0.584131 0.649119 0.120165
0.799023 0.600946 0.0885328
0.827832 0.595148 0.0845502
0 0.968154 0.275639
0 0.966293 0.273671
0.00555428 0.962402 0.26807
0.0654154 0.956664 0.256626
0.201251 0.949569 0.237446
0.383093 0.940536 0.210651
0.594064 0.899992 0.179095
0.80087 0.852033 0.149096
0.825086 0.84593 0.145403
0 0.971115 0.27805
0 0.969497 0.276097
0.00526436 0.966247 0.270359
0.0653544 0.961532 0.258732
0.201587 0.956252 0.239521
0.38407 0.949432 0.212818
0.594293 0.909316 0.18114
0.800565 0.861234 0.15111
0.825101 0.854994 0.147417
0.0149844 0.0168612 0.0760052
0.0199741 0.0153964 0.0767987
0.046128 0.00779736 0.0745403
0.0920577 0.00015259 0.0692607
0.17464 0 0.0575265
0.309316 0 0.0371252
0.499077 0 0.0135195
0.727855 0 0.00265507
0.762768 0 0.00213626
0.0128176 0.029633 0.0851148
0.0219272 0.0281682 0.085481
0.0491951 0.0218967 0.0832074
0.0976577 0.0123903 0.0777752
0.184161 0.00143435 0.0659495
0.323537 4.57771e-05 0.0454414
0.516213 0 0.0191806
0.745815 0 0.00463874
0.779934 0 0.00358587
0.00703441 0.069337 0.101427
0.0212863 0.0666209 0.100938
0.0504311 0.0606088 0.0990158
0.102556 0.0487068 0.0935531
0.195758 0.0261692 0.0811627
0.340917 0.0052491 0.0595102
0.538018 1.5259e-05 0.029221
0.767376 0 0.0106203
0.801022 0 0.00863661
0.00494392 0.146166 0.127001
0.0162661 0.144564 0.126757
0.0474556 0.139681 0.124559
0.105425 0.127947 0.118517
0.205997 0.10457 0.105577
0.357458 0.0673533 0.0840772
0.559213 0.0272831 0.0542916
0.786801 0.00329595 0.0255894
0.820142 0.00294499 0.0221866
0.00077821 0.287343 0.166751
0.00738537 0.286809 0.166598
0.037705 0.282856 0.164599
0.102342 0.272007 0.158129
0.210269 0.249592 0.144656
0.369741 0.213153 0.122393
0.574472 0.164614 0.0928511
0.799695 0.111559 0.0609598
0.831479 0.104387 0.0569924
3.0518e-05 0.507515 0.223514
0.00111391 0.507073 0.223239
0.0231479 0.503609 0.221042
0.0905623 0.492638 0.214221
0.207828 0.469688 0.199741
0.375067 0.433188 0.176837
0.582834 0.386831 0.147692
0.803906 0.337774 0.117494
0.834455 0.331243 0.113466
0 0.785611 0.294026
6.10361e-05 0.785824 0.294194
0.00576791 0.780362 0.290867
0.0757458 0.766735 0.282673
0.20296 0.741039 0.267201
0.378073 0.703471 0.244175
0.588113 0.656077 0.215167
0.801984 0.608072 0.186358
0.830228 0.601801 0.182696
0 0.970474 0.369757
0 0.968673 0.368566
0.00547799 0.964965 0.363928
0.067628 0.959548 0.354025
0.204807 0.953567 0.337163
0.387335 0.946548 0.312551
0.598169 0.906203 0.283726
0.803418 0.85742 0.256245
0.827543 0.851713 0.253422
0 0.973373 0.37261
0 0.971817 0.371191
0.00509651 0.968856 0.366644
0.0677806 0.964599 0.356802
0.205112 0.960235 0.339757
0.38793 0.955306 0.314977
0.598383 0.915297 0.285832
0.803189 0.866682 0.258717
0.827543 0.860426 0.255619
0.013962 0.0191653 0.174273
0.0204013 0.0173037 0.175952
0.0469825 0.00949111 0.175402
0.0939345 0.0012665 0.172274
0.177813 4.57771e-05 0.163195
0.313893 0 0.14522
0.504479 0 0.118425
0.734035 0 0.0853742
0.768582 0 0.0804761
0.0115816 0.0335699 0.188434
0.0220798 0.031632 0.189654
0.0498817 0.0252689 0.189471
0.0992142 0.0149538 0.186435
0.187137 0.00148013 0.177096
0.327962 7.62951e-05 0.158831
0.521935 0 0.131777
0.751614 0 0.0986038
0.785504 0 0.0938277
0.00628672 0.0737469 0.212055
0.0212863 0.0710918 0.212787
0.0509194 0.0650645 0.212451
0.103899 0.052842 0.208942
0.198932 0.0294041 0.198627
0.345708 0.00656138 0.180011
0.543572 1.5259e-05 0.152804
0.77229 0 0.12108
0.806348 0 0.116716
0.00531014 0.152422 0.245731
0.0159609 0.150759 0.246433
0.0477607 0.145632 0.246082
0.107225 0.133776 0.24242
0.208957 0.110246 0.232059
0.362264 0.0727398 0.213031
0.564141 0.030808 0.186023
0.791928 0.00411994 0.155489
0.824826 0.00369268 0.151156
0.000640879 0.295567 0.295064
0.00794995 0.295277 0.296483
0.0381628 0.291203 0.295979
0.103899 0.280034 0.291646
0.213123 0.257191 0.280369
0.374166 0.220554 0.261143
0.579278 0.17229 0.234409
0.804074 0.11931 0.20502
0.83563 0.112047 0.201038
3.0518e-05 0.517601 0.362707
0.000885023 0.517342 0.363653
0.0234836 0.513222 0.362722
0.0919356 0.501884 0.357488
0.211124 0.478676 0.34548
0.37937 0.442603 0.325124
0.587533 0.395972 0.298985
0.807218 0.347021 0.271611
0.838071 0.340841 0.268421
0 0.796567 0.443549
6.10361e-05 0.796094 0.444556
0.00741588 0.790555 0.443061
0.0778515 0.776745 0.436744
0.206287 0.75082 0.423072
0.381933 0.712245 0.401984
0.592447 0.66511 0.376059
0.805478 0.617487 0.350332
0.832822 0.611429 0.347127
0 0.973587 0.529335
0 0.972045 0.529564
0.00515755 0.968612 0.526207
0.0700999 0.963882 0.518029
0.208316 0.958556 0.502449
0.392142 0.954742 0.48011
0.602808 0.914366 0.453468
0.805905 0.86511 0.428687
0.829877 0.858991 0.425864
0 0.976425 0.53286
0 0.975006 0.532509
0.00469978 0.972335 0.529152
0.0701762 0.968734 0.520897
0.208957 0.965316 0.505608
0.392737 0.963363 0.482963
0.602823 0.923522 0.455787
0.805814 0.874128 0.431418
0.829892 0.867918 0.428733
0.0123751 0.0230869 0.350484
0.0204166 0.020798 0.353124
0.0474098 0.0129854 0.354391
0.0953078 0.00332647 0.353155
0.180835 7.62951e-05 0.346014
0.318807 0 0.331014
0.510353 0 0.306676
0.73959 0 0.276539
0.774533 0 0.27216
0.00975052 0.0393378 0.369924
0.0217899 0.0369879 0.371954
0.0500038 0.0305486 0.373297
0.100465 0.0191806 0.372198
0.190005 0.00167849 0.364981
0.332937 0.000198367 0.348943
0.527733 0 0.324483
0.757519 0 0.294743
0.791394 0 0.290349
0.00556954 0.0801862 0.399161
0.0206912 0.0775921 0.401404
0.0509651 0.0715801 0.402533
0.105501 0.0588846 0.400885
0.202106 0.0345922 0.392569
0.350011 0.00918593 0.376501
0.549416 0.000106813 0.351598
0.778103 0 0.321965
0.811933 0 0.317708
0.00529488 0.160967 0.440925
0.0150301 0.15935 0.442969
0.0476997 0.153964 0.443702
0.108553 0.14168 0.441291
0.212116 0.118059 0.432563
0.366964 0.0801251 0.415366
0.569787 0.0359045 0.390234
0.796765 0.00526436 0.361776
0.829602 0.0047303 0.358236
0.000442512 0.306676 0.497154
0.00817884 0.305882 0.499062
0.0382239 0.30164 0.499916
0.10544 0.290318 0.497063
0.216205 0.267018 0.487083
0.378393 0.230167 0.469169
0.584543 0.182147 0.444633
0.808789 0.129412 0.417334
0.839872 0.122332 0.413764
4.57771e-05 0.530053 0.571603
0.000564584 0.530205 0.573877
0.0233768 0.525765 0.573678
0.093492 0.514046 0.569635
0.214206 0.490272 0.558282
0.383536 0.454246 0.53991
0.59266 0.407385 0.514611
0.811414 0.358541 0.488746
0.842023 0.351995 0.485313
0 0.809628 0.659358
7.62951e-05 0.80882 0.6607
0.0090486 0.802808 0.659403
0.0797436 0.788693 0.65359
0.209796 0.762478 0.640955
0.386709 0.723674 0.620676
0.59704 0.676234 0.595239
0.808682 0.629038 0.570535
0.835462 0.62324 0.567742
0 0.977356 0.748898
0 0.975723 0.748898
0.00453193 0.972854 0.746563
0.0728771 0.968627 0.73843
0.212619 0.964492 0.722866
0.396826 0.962097 0.700572
0.60798 0.923018 0.674739
0.808576 0.874617 0.650629
0.832319 0.86865 0.647776
0 0.980011 0.752651
0 0.978683 0.752514
0.0040589 0.976349 0.749538
0.0728771 0.973358 0.74139
0.213336 0.97113 0.726162
0.397101 0.971069 0.70309
0.607996 0.93164 0.676951
0.808347 0.883192 0.653071
0.832349 0.877104 0.650385
0.010132 0.0285801 0.594278
0.019913 0.025803 0.597223
0.0475166 0.0180209 0.598871
0.0964828 0.00552377 0.598169
0.183749 0.000396735 0.591409
0.323705 0 0.576196
0.516777 0 0.552331
0.746349 0 0.52221
0.78088 0 0.5178
0.00740063 0.0468605 0.615595
0.0208743 0.0440986 0.617868
0.0497444 0.0374304 0.619348
0.101335 0.0247959 0.61828
0.193317 0.00567636 0.611215
0.337896 0.000457771 0.594903
0.534279 0 0.570214
0.76347 0 0.539712
0.797589 0 0.535714
0.005066 0.0884871 0.646265
0.0197604 0.085832 0.648005
0.0507362 0.0794995 0.649348
0.107073 0.0664378 0.647623
0.205509 0.0415808 0.639033
0.354818 0.0126192 0.621988
0.555413 0.000701915 0.596551
0.784161 0 0.566781
0.817884 0 0.562448
0.00486763 0.170977 0.687861
0.0138705 0.169451 0.690227
0.0478981 0.163912 0.6907
0.110094 0.151202 0.687648
0.214984 0.127291 0.677989
0.372183 0.0888685 0.660365
0.575814 0.0422217 0.634668
0.802441 0.00775158 0.605325
0.834806 0.00674449 0.601312
0.000213626 0.319478 0.744366
0.00798047 0.318547 0.745678
0.0381628 0.313863 0.745937
0.106645 0.30193 0.74197
0.219425 0.278645 0.731838
0.383505 0.241505 0.712489
0.589853 0.192996 0.686229
0.81355 0.140414 0.657496
0.844694 0.133471 0.654063
4.57771e-05 0.544381 0.816464
0.000335698 0.544015 0.817685
0.0231632 0.539681 0.817273
0.0953384 0.527565 0.811826
0.217777 0.50338 0.79884
0.388388 0.46659 0.778042
0.598108 0.420111 0.751537
0.815793 0.371618 0.723568
0.846098 0.365087 0.71986
0 0.824186 0.89839
7.62951e-05 0.823346 0.899107
0.0111086 0.816831 0.896422
0.0822919 0.801999 0.889204
0.213748 0.77528 0.874846
0.392004 0.736019 0.85243
0.602518 0.688334 0.824857
0.812619 0.641321 0.797803
0.838468 0.635431 0.79443
0 0.98114 0.968704
0 0.979675 0.968063
0.00390631 0.976913 0.964752
0.0760815 0.973724 0.958785
0.21767 0.970825 0.946578
0.402701 0.969604 0.922423
0.613382 0.930526 0.892622
0.811887 0.884367 0.865019
0.835416 0.877516 0.860792
0 0.983536 0.971069
0 0.982376 0.970367
0.00340276 0.980407 0.967071
0.0761273 0.97821 0.960678
0.218097 0.977234 0.949081
0.402777 0.978164 0.924331
0.61384 0.938888 0.894499
0.811719 0.892668 0.866789
0.835508 0.886503 0.863493
0.00767529 0.0342107 0.838026
0.0194705 0.0310216 0.839216
0.0478676 0.0231327 0.839124
0.0982071 0.00924697 0.83624
0.187137 0.00157168 0.826902
0.329458 0 0.808423
0.524071 0 0.780377
0.754116 0 0.745846
0.788357 0 0.740688
0.00541695 0.0542916 0.854826
0.0203098 0.0511635 0.85597
0.0499428 0.0442359 0.855406
0.102678 0.0309758 0.852003
0.197238 0.010605 0.841337
0.34374 0.000686656 0.821454
0.541711 0 0.792142
0.770855 0 0.757336
0.804852 0 0.75227
0.00585946 0.0965744 0.879255
0.0193484 0.0940108 0.879744
0.0509957 0.0873274 0.878462
0.108965 0.0736858 0.873243
0.209537 0.0488136 0.861143
0.361089 0.0165103 0.839979
0.562783 0.00120546 0.809842
0.790951 0 0.775555
0.824781 0 0.770809
0.00399786 0.181048 0.911131
0.0133059 0.179202 0.911055
0.0485237 0.173617 0.909621
0.112535 0.16083 0.903212
0.219348 0.136187 0.889891
0.378103 0.0970321 0.867628
0.583032 0.0480964 0.83769
0.809125 0.0125582 0.803922
0.840909 0.0110323 0.799268
0.000137331 0.331975 0.954208
0.00762951 0.330922 0.954131
0.038819 0.325811 0.951904
0.108766 0.313649 0.945403
0.223621 0.289982 0.931411
0.38967 0.252399 0.907988
0.596918 0.203494 0.876432
0.819333 0.151156 0.842145
0.850294 0.144015 0.837461
1.5259e-05 0.55874 0.992126
0.000381476 0.558312 0.992676
0.0229496 0.553079 0.992615
0.0982071 0.541009 0.987945
0.222538 0.516152 0.97702
0.394644 0.478767 0.956497
0.604593 0.431434 0.924605
0.821149 0.38378 0.891691
0.850629 0.37734 0.887221
0 0.837934 0.999832
9.15541e-05 0.836515 0.999741
0.0131533 0.830274 0.999435
0.0859541 0.814481 0.999115
0.219211 0.786221 0.998718
0.398489 0.746654 0.993591
0.609308 0.699565 0.977722
0.817884 0.65272 0.947143
0.842893 0.647028 0.942946
0 0.984176 1
0 0.98294 1
0.00401312 0.980774 1
0.0807202 0.978302 1
0.22446 0.977203 1
0.410361 0.973388 0.999924
0.621057 0.936873 0.997757
0.816251 0.892454 0.986526
0.839796 0.885801 0.983719
0 0.98645 1
0 0.98555 1
0.00363165 0.984115 1
0.0810864 0.982971 1
0.224918 0.983413 1
0.410498 0.981079 0.999924
0.621363 0.944503 0.997879
0.816251 0.900603 0.987213
0.839918 0.894423 0.98468
0.00674449 0.0378424 0.982467
0.0202487 0.0341955 0.981277
0.0492714 0.0263218 0.977539
0.100557 0.0132753 0.969955
0.192401 0.00270085 0.954818
0.336919 0 0.929335
0.533349 0 0.89427
0.762768 0 0.853193
0.797543 0 0.847044
0.00544747 0.059266 0.98999
0.0207065 0.0558785 0.988251
0.0512245 0.0487221 0.984024
0.106142 0.0351873 0.975006
0.203052 0.013489 0.958328
0.350973 0.000656138 0.932204
0.550912 0 0.896742
0.780133 0 0.855894
0.814008 0 0.849836
0.0069276 0.102495 0.995789
0.0199283 0.0997024 0.995315
0.0524605 0.0928817 0.992004
0.112551 0.0791791 0.983047
0.215091 0.0536202 0.965576
0.369375 0.0196536 0.93872
0.571939 0.00140383 0.902953
0.799985 0 0.862486
0.833036 0 0.85658
0.00341802 0.18912 0.999344
0.0142367 0.187167 0.999191
0.0504616 0.181323 0.99855
0.116289 0.168032 0.995132
0.225406 0.14258 0.980209
0.386191 0.102861 0.952361
0.591684 0.0526741 0.91577
0.817609 0.0168002 0.875502
0.84892 0.0148318 0.869902
0.000259403 0.342336 1
0.00755322 0.340932 1
0.040589 0.336019 1
0.11249 0.323507 0.999954
0.229786 0.298726 0.997024
0.397314 0.260578 0.975067
0.605997 0.211383 0.938308
0.826947 0.159838 0.89929
0.857755 0.152743 0.893874
0 0.570687 1
0.000991836 0.570245 1
0.0240024 0.565133 1
0.102449 0.551537 1
0.229023 0.526421 0.999985
0.402975 0.48864 0.997726
0.613108 0.441199 0.971893
0.827451 0.393622 0.934386
0.855741 0.387701 0.92929
0 0.850217 1
0.000106813 0.84831 1
0.0157626 0.840696 1
0.0910353 0.824384 1
0.226108 0.795682 1
0.40708 0.755703 1
0.617685 0.707942 0.998322
0.824811 0.662272 0.974746
0.848844 0.656519 0.970169
0 0.986313 1
1.5259e-05 0.98558 1
0.0047303 0.9841 1
0.0869917 0.982834 1
0.232349 0.980163 1
0.419562 0.976333 1
0.630014 0.941192 1
0.822354 0.898589 0.999115
0.845701 0.892012 0.998627
0 0.988647 1
1.5259e-05 0.988144 1
0.00437934 0.987488 1
0.0872663 0.987488 1
0.232563 0.986191 1
0.419928 0.982986 1
0.63035 0.948257 1
0.822538 0.906203 0.99939
0.845899 0.900114 0.999069
0.00672923 0.0378882 0.984176
0.0203098 0.034226 0.982834
0.0493172 0.0263828 0.97911
0.100694 0.0133211 0.971496
0.192432 0.00273136 0.956252
0.337102 0 0.930617
0.533791 0 0.895369
0.76321 0 0.854154
0.797772 0 0.847959
0.00546273 0.0593576 0.991501
0.020737 0.0559548 0.989685
0.0512245 0.0487526 0.985306
0.106233 0.0352483 0.976226
0.203189 0.0135195 0.959411
0.351324 0.000656138 0.933165
0.550927 0 0.897581
0.780346 0 0.856535
0.814221 0 0.850462
0.00694286 0.102586 0.996719
0.0199435 0.099733 0.996231
0.0525521 0.0930343 0.992981
0.112642 0.0793317 0.983978
0.215213 0.0536812 0.966369
0.369375 0.0196841 0.939361
0.57232 0.00140383 0.903395
0.800198 0 0.862867
0.833219 0 0.856947
0.00340276 0.189258 0.999527
0.0142977 0.187304 0.999405
0.0505074 0.181552 0.99884
0.116304 0.167956 0.995529
0.225544 0.142672 0.980652
0.386358 0.102937 0.952697
0.592081 0.0528115 0.916075
0.817578 0.0168154 0.875776
0.849088 0.0148928 0.870176
0.000259403 0.342718 1
0.00755322 0.341131 1
0.0406043 0.336034 1
0.112581 0.323674 0.999985
0.229953 0.299062 0.997223
0.397681 0.260685 0.975311
0.605814 0.211429 0.938552
0.8271 0.159991 0.899458
0.857923 0.153094 0.894057
0 0.570687 1
0.0010071 0.570687 1
0.0240787 0.565347 1
0.102647 0.551949 1
0.229053 0.526406 0.999985
0.402975 0.48864 0.997787
0.613474 0.441337 0.971923
0.827756 0.393988 0.934432
0.855879 0.387427 0.929274
0 0.85069 1
0.000106813 0.848524 1
0.0158236 0.841138 1
0.0910506 0.824338 1
0.226383 0.796033 1
0.407263 0.755886 1
0.618051 0.708293 0.998337
0.824811 0.662058 0.974731
0.848966 0.656916 0.970214
0 0.986404 1
1.5259e-05 0.985504 1
0.00474556 0.984237 1
0.0872358 0.98291 1
0.2327 0.980346 1
0.419562 0.976257 1
0.630396 0.941405 1
0.822049 0.8981 0.9991
0.845853 0.892149 0.998627
0 0.988693 1
1.5259e-05 0.98819 1
0.00442512 0.987564 1
0.0874037 0.987564 1
0.232761 0.986221 1
0.420142 0.983017 1
0.630732 0.948302 1
0.822675 0.90631 0.99939
0.846036 0.900221 0.999069
