luts/varicam_official/Winter.cube
TITLE "Generated by Resolve"
LUT_3D_SIZE 33
0.0156252 0.0156252 0.0156252
0.0156252 0.0156252 0.0156252
0.0156252 0.0156252 0.0156252
0.0159609 0.0155184 0.0155642
0.0186465 0.014725 0.0150607
0.0241398 0.013077 0.0140078
0.0299992 0.0113222 0.0128939
0.0364843 0.00941482 0.0116732
0.0442054 0.00730907 0.010193
0.0532387 0.00500496 0.00846876
0.063035 0.00256352 0.00660716
0.0742504 0.000534066 0.00476081
0.0887007 0 0.00320439
0.104875 0 0.00175479
0.123049 0 0.00062562
0.144991 0 0.000213626
0.16939 0 0.00015259
0.196689 0 9.15541e-05
0.228824 0 6.10361e-05
0.262577 0 1.5259e-05
0.301946 0 0
0.343938 0 0
0.389258 0 0
0.438163 0 0
0.489799 0 0
0.544167 0 0
0.600809 0 0
0.659205 0 0
0.718578 0 0
0.753918 0 0
0.753918 0 0
0.753918 0 0
0.753918 0 0
0.0156252 0.0156252 0.0156252
0.0156252 0.0156252 0.0156252
0.0156252 0.0156252 0.0156252
0.0164187 0.0153964 0.0154726
0.0195315 0.0144656 0.0148928
0.0250095 0.0128176 0.0138552
0.030869 0.0110628 0.0127413
0.0374609 0.00914015 0.01149
0.0453803 0.00701915 0.0099794
0.0544594 0.00474556 0.00825513
0.0642405 0.00233463 0.00639353
0.0758679 0.000579843 0.00468452
0.090486 0.000137331 0.00317388
0.106722 0.000122072 0.00173953
0.125002 0.000106813 0.000671397
0.147265 7.62951e-05 0.00030518
0.172 3.0518e-05 0.000213626
0.199649 0 0.000122072
0.231968 0 7.62951e-05
0.265782 0 1.5259e-05
0.305516 0 0
0.347616 0 0
0.393118 0 0
0.44213 0 0
0.493843 0 0
0.548272 0 0
0.604944 0 0
0.663386 0 0
0.722698 0 0
0.757351 0 0
0.757351 0 0
0.757351 0 0
0.757351 0 0
0.0155337 0.0161593 0.0157168
0.0155337 0.0161746 0.0157168
0.0155337 0.0162203 0.0157321
0.0168612 0.0158694 0.0154726
0.0204623 0.014847 0.0148013
0.0259403 0.0132601 0.0137789
0.0317998 0.0115511 0.0126802
0.0384833 0.00968948 0.011429
0.0466011 0.00767529 0.00994888
0.0556649 0.00570687 0.00833143
0.0653697 0.00367742 0.00660716
0.0774548 0.00238041 0.00497444
0.0921645 0.00198367 0.00343328
0.108339 0.00177005 0.00187686
0.12694 0.00143435 0.00077821
0.149554 0.000976577 0.000427253
0.174395 0.000427253 0.000289921
0.202304 6.10361e-05 0.000183108
0.234348 0 0.000106813
0.268376 0 1.5259e-05
0.308965 0 0
0.351171 0 0
0.396994 0 0
0.446372 0 0
0.498283 0 0
0.55288 0 0
0.609583 0 0
0.66807 0 0
0.72726 0 0
0.761517 0 0
0.761517 0 0
0.761501 0 0
0.761501 0 0
0.0149233 0.0198367 0.0163272
0.0149081 0.0199435 0.0163424
0.0148775 0.0201724 0.0163882
0.0167697 0.0198215 0.0160678
0.0208438 0.0188907 0.0153658
0.0262913 0.0175784 0.0144045
0.032105 0.016144 0.0133974
0.038819 0.0145571 0.012253
0.0471504 0.0126955 0.0108034
0.0563058 0.0107424 0.00921645
0.0660258 0.00865187 0.00750744
0.0785992 0.0071107 0.00576791
0.0934768 0.00596628 0.0039826
0.109667 0.00476081 0.00213626
0.128649 0.00349432 0.000915541
0.151629 0.00215152 0.000610361
0.176791 0.000869764 0.000442512
0.205173 0.000106813 0.000289921
0.237247 0 0.000183108
0.271427 0 1.5259e-05
0.312245 0 0
0.354849 0 0
0.401175 0 0
0.450721 0 0
0.502861 0 0
0.557626 0 0
0.614359 0 0
0.672862 0 0
0.731975 0 0
0.76614 0 0
0.76614 0 0
0.766125 0 0
0.766125 0 0
0.0139162 0.0260166 0.01738
0.0138857 0.0261692 0.0174105
0.0139315 0.0264286 0.0174868
0.016434 0.0260166 0.0171054
0.0209964 0.0250248 0.0163577
0.0264134 0.0238193 0.0154574
0.0322118 0.0224918 0.0145113
0.0389868 0.0209659 0.0133974
0.0475166 0.0190585 0.0119326
0.0567788 0.0170291 0.0103456
0.0665446 0.0148013 0.00865187
0.0796979 0.012665 0.00669871
0.094789 0.0104372 0.00456245
0.111116 0.00801099 0.00241093
0.130495 0.00564584 0.00111391
0.153796 0.00334173 0.000900282
0.179324 0.00134279 0.000717174
0.208286 0.000259403 0.000503548
0.240543 9.15541e-05 0.000289921
0.274983 3.0518e-05 1.5259e-05
0.316136 1.5259e-05 0
0.358877 0 0
0.405371 0 0
0.454826 0 0
0.507393 0 0
0.5626 0 0
0.619501 0 0
0.677882 0 0
0.736965 0 0
0.771145 0 0
0.771145 0 0
0.771145 0 0
0.77113 0 0
0.0126802 0.0334478 0.0187839
0.0126802 0.0335699 0.0188296
0.0131991 0.0337224 0.0188296
0.0162814 0.0331273 0.0183719
0.0211032 0.0320897 0.0176089
0.0265202 0.0308843 0.0167391
0.0323796 0.0295567 0.0157931
0.0393988 0.0279545 0.0146334
0.0480812 0.0259098 0.0131533
0.0573129 0.0237125 0.0115511
0.0671092 0.0213474 0.00988785
0.0809033 0.0183108 0.00761425
0.0962844 0.014847 0.00517281
0.112978 0.0112001 0.00291447
0.132799 0.0077821 0.00172427
0.156252 0.004654 0.0015259
0.182116 0.00221256 0.00120546
0.211612 0.00106813 0.000839246
0.244175 0.000656138 0.000442512
0.279316 0.000213626 3.0518e-05
0.320577 0.000122072 0
0.363302 3.0518e-05 0
0.410147 0 0
0.459831 0 0
0.512581 0 0
0.567681 0 0
0.62443 0 0
0.683406 0 0
0.742473 0 0
0.776349 0 0
0.776349 0 0
0.776333 0 0
0.776333 0 0
0.0112764 0.0420081 0.0204929
0.0112917 0.0421912 0.0205539
0.0125887 0.0421454 0.0204166
0.0162051 0.0414588 0.0198672
0.021088 0.0405127 0.0191348
0.0264897 0.0393835 0.018265
0.0324254 0.0381476 0.017319
0.0397955 0.0364843 0.0161288
0.0485084 0.0344854 0.0146487
0.0578164 0.0323033 0.0131075
0.0678721 0.0299229 0.0115663
0.0819409 0.0265049 0.00933852
0.0974594 0.0227054 0.00694286
0.114702 0.0187381 0.00480659
0.134997 0.014847 0.00352483
0.158541 0.0109712 0.00280766
0.184741 0.00756847 0.00199893
0.214664 0.00492866 0.00129702
0.247517 0.00256352 0.000595102
0.283619 0.000793469 4.57771e-05
0.324773 0.000381476 0
0.367971 0.000106813 0
0.415091 0 0
0.464988 0 0
0.517937 0 0
0.573129 0 0
0.629755 0 0
0.688624 0 0
0.747509 0 0
0.781628 0 0
0.781628 0 0
0.781628 0 0
0.781628 0 0
0.00955215 0.0526894 0.0226444
0.00956741 0.052903 0.0227054
0.0117342 0.0526284 0.0224155
0.0159304 0.0518502 0.0217746
0.0208591 0.0508888 0.0210117
0.0262608 0.0498207 0.0202029
0.0323186 0.0486 0.0193332
0.0400397 0.0468605 0.018204
0.0488441 0.0448615 0.0168765
0.0582132 0.0427405 0.0155337
0.0689097 0.0402991 0.0139925
0.0831617 0.0368505 0.011841
0.0987259 0.0330663 0.00952163
0.116442 0.0289616 0.00743114
0.137255 0.0245365 0.00578317
0.160708 0.0197452 0.00428778
0.187533 0.0147555 0.00289921
0.218189 0.00959792 0.00178531
0.251118 0.00447089 0.000686656
0.288197 0.00141909 4.57771e-05
0.329549 0.000640879 0
0.373236 0.000167849 0
0.42063 0 0
0.470756 0 0
0.523934 0 0
0.579202 0 0
0.636072 0 0
0.694652 0 0
0.753292 0 0
0.787106 0 0
0.787091 0 0
0.787091 0 0
0.787091 0 0
0.00776684 0.0647135 0.0251316
0.00814832 0.0648814 0.0251621
0.0110018 0.0644083 0.0248264
0.0155184 0.0635691 0.0242008
0.0204776 0.0625772 0.0235142
0.0258488 0.0615091 0.022797
0.0320897 0.0602274 0.021973
0.0401617 0.0583963 0.0209354
0.0489815 0.0564279 0.0197452
0.0585336 0.0543221 0.0184634
0.0699321 0.0516518 0.016846
0.0843366 0.0482032 0.0146639
0.0999161 0.0445106 0.0123903
0.118196 0.0401923 0.0101778
0.139467 0.0352178 0.00810254
0.163149 0.0296788 0.0059205
0.190265 0.0233158 0.00401312
0.221332 0.0161898 0.00247196
0.254444 0.00917067 0.000946059
0.292653 0.00556954 0.000244144
0.334142 0.00389105 9.15541e-05
0.378286 0.00247196 1.5259e-05
0.42594 0.00128176 0
0.476371 0.000350958 0
0.529671 1.5259e-05 0
0.584985 0 0
0.641703 0 0
0.700145 0 0
0.758785 0 0
0.792554 0 0
0.792554 0 0
0.792538 0 0
0.792538 0 0
0.00611887 0.078584 0.0283513
0.007187 0.0785229 0.0282902
0.0105745 0.0779278 0.0279393
0.0150454 0.0770886 0.0273899
0.0198825 0.076173 0.0268406
0.0252995 0.0752575 0.0262455
0.031693 0.0739757 0.0254215
0.0400092 0.0721904 0.0243534
0.0488594 0.0702525 0.0231937
0.0585489 0.0682231 0.021912
0.0707256 0.0654459 0.0201419
0.0852827 0.062089 0.0179599
0.100786 0.0585946 0.0157321
0.119692 0.0541238 0.0132906
0.141543 0.0488136 0.0107271
0.165576 0.0429541 0.00805676
0.193317 0.0359197 0.00569161
0.224537 0.027924 0.00358587
0.257771 0.0201877 0.0015259
0.296605 0.0157321 0.000762951
0.338293 0.0117037 0.000320439
0.382925 0.00784314 7.62951e-05
0.431205 0.00402838 0
0.481804 0.0010071 0
0.535149 6.10361e-05 0
0.59057 0 0
0.647471 0 0
0.70573 0 0
0.76405 0 0
0.797864 0 0
0.797848 0 0
0.797848 0 0
0.797848 0 0
0.0047303 0.0959182 0.032639
0.00633249 0.0957504 0.0324865
0.0100252 0.09514 0.0320592
0.0143587 0.0944076 0.0315404
0.0189975 0.0936599 0.0309911
0.0243381 0.0927291 0.0303655
0.0310063 0.0915084 0.0295415
0.0393225 0.090013 0.0285191
0.0482185 0.0883345 0.0274052
0.0580301 0.0864271 0.0261234
0.0709239 0.0835737 0.0242466
0.0856031 0.0802625 0.0220798
0.10132 0.0767681 0.0197604
0.120775 0.0721752 0.0170138
0.14313 0.0667277 0.0139467
0.167636 0.0607156 0.0108034
0.196216 0.0534371 0.00796521
0.227558 0.0454108 0.0052491
0.261112 0.0372168 0.00265507
0.300557 0.0299229 0.00157168
0.342473 0.0222477 0.000579843
0.387717 0.0149844 0.000106813
0.43592 0.00798047 0
0.48687 0.00317388 0
0.540627 0.00170901 0
0.596414 0.00123598 0
0.653117 0.000717174 0
0.711116 0.000198367 0
0.769436 1.5259e-05 0
0.803159 0 0
0.803143 0 0
0.803143 0 0
0.803143 0 0
0.0041352 0.115923 0.0373236
0.00576791 0.115755 0.0371557
0.00932326 0.115175 0.0367132
0.0133669 0.114519 0.0361944
0.0177157 0.113832 0.0356603
0.0230411 0.112978 0.0350195
0.0300603 0.111818 0.034165
0.0383917 0.110353 0.0331121
0.0473945 0.108629 0.0319677
0.0576028 0.106706 0.0306249
0.0708324 0.103914 0.0287327
0.0856184 0.100771 0.0265812
0.102037 0.0970932 0.0241245
0.121996 0.0924697 0.0211185
0.144472 0.087129 0.0177005
0.169512 0.0810407 0.0142214
0.198688 0.0736858 0.0108949
0.230503 0.0656596 0.00756847
0.26479 0.0570993 0.00445563
0.30457 0.0473793 0.00260929
0.346426 0.0376745 0.00077821
0.392035 0.0285344 0.000137331
0.440528 0.0196689 1.5259e-05
0.491829 0.0134585 0
0.54548 0.0099794 0
0.601236 0.00691234 0
0.658228 0.00363165 0
0.716228 0.000762951 0
0.774227 7.62951e-05 0
0.808042 0 0
0.808026 0 0
0.808026 0 0
0.808026 0 0
0.00389105 0.139178 0.0426184
0.00540169 0.139071 0.0424506
0.00854505 0.138643 0.0420233
0.0120851 0.138125 0.0415656
0.0159762 0.137606 0.0410468
0.0212253 0.136858 0.0403601
0.0286717 0.135683 0.0394293
0.0370031 0.134401 0.0384222
0.0461891 0.132876 0.0372778
0.057023 0.130892 0.0358434
0.0704814 0.128222 0.0339361
0.0851301 0.125246 0.0317693
0.102464 0.12163 0.0292363
0.123003 0.117098 0.0260777
0.145357 0.112108 0.0225986
0.170993 0.105989 0.0188602
0.201007 0.0987411 0.0149081
0.233112 0.0909285 0.0108949
0.268193 0.0823377 0.00706493
0.308171 0.0722515 0.00392157
0.350362 0.0619974 0.00105287
0.396521 0.051606 0.000198367
0.445243 0.0409552 7.62951e-05
0.496803 0.0317235 1.5259e-05
0.550622 0.0235447 1.5259e-05
0.606394 0.0159152 0
0.663264 0.00872816 0
0.721218 0.00302129 0
0.778698 0.00222782 0
0.812543 0.00204471 0
0.812543 0.00204471 0
0.812543 0.00204471 0
0.812528 0.00202945 0
0.00396735 0.166995 0.0486763
0.00512703 0.166949 0.0485237
0.00756847 0.166659 0.048127
0.0102998 0.166217 0.0476539
0.0136568 0.165713 0.0471199
0.0189364 0.165011 0.0464332
0.0267033 0.163745 0.0454871
0.0349584 0.162646 0.0445106
0.0443732 0.161059 0.0433204
0.0558328 0.15906 0.0417639
0.0695048 0.156405 0.0397955
0.084184 0.153536 0.0376898
0.10222 0.149737 0.0349584
0.123217 0.145174 0.0317235
0.145724 0.140169 0.0282292
0.171969 0.134081 0.0242008
0.202655 0.126879 0.0196078
0.235355 0.119051 0.0148928
0.271397 0.110353 0.0102541
0.311177 0.10042 0.00564584
0.354208 0.0897993 0.0019379
0.40061 0.0784009 0.000686656
0.449561 0.0663157 0.000274662
0.501259 0.0538186 9.15541e-05
0.555444 0.0413367 4.57771e-05
0.611109 0.0301976 0
0.668086 0.0203555 0
0.72575 0.0127718 0
0.78291 0.011368 0
0.81651 0.0102388 0
0.816526 0.0102846 0
0.816526 0.0102846 0
0.816526 0.0102846 0
0.00354009 0.196979 0.0551003
0.00430304 0.197223 0.0550546
0.00595102 0.196994 0.0546883
0.00775158 0.196765 0.0542458
0.0109255 0.196429 0.053727
0.0167239 0.195666 0.0529793
0.0244755 0.194751 0.052079
0.0326238 0.193683 0.051133
0.0422065 0.192386 0.0499275
0.0543221 0.190555 0.0483101
0.0682231 0.188251 0.0463417
0.0828412 0.18558 0.0442512
0.101701 0.181964 0.0414435
0.123262 0.177371 0.0381476
0.146212 0.172564 0.0345922
0.173068 0.166735 0.030396
0.203922 0.159762 0.0254826
0.236957 0.152132 0.0204166
0.274006 0.143648 0.015198
0.313802 0.134249 0.00962844
0.357671 0.123537 0.00547799
0.40441 0.112139 0.00292973
0.45359 0.0999619 0.00108339
0.50544 0.0872969 0.000274662
0.559716 0.0741283 9.15541e-05
0.615518 0.0616617 0
0.672389 0.0501717 0
0.729702 0.0400549 0
0.786587 0.032639 0
0.819623 0.0280613 0
0.819623 0.0280613 0
0.819623 0.0280613 0
0.819608 0.0280003 0
0.002533 0.235416 0.0631113
0.00296025 0.235508 0.0629892
0.00389105 0.235309 0.0626688
0.00491341 0.235142 0.0622416
0.00817884 0.234882 0.0617075
0.0145571 0.234165 0.0609293
0.0218051 0.233433 0.060029
0.0296178 0.232471 0.0590524
0.0394446 0.231022 0.0577401
0.0518959 0.228962 0.0560159
0.0658885 0.226658 0.0540169
0.0811627 0.224018 0.0518502
0.100618 0.220172 0.0489509
0.122515 0.215595 0.0456245
0.146136 0.210803 0.0420386
0.173816 0.204578 0.037644
0.204685 0.19765 0.0326848
0.238087 0.190021 0.027451
0.275776 0.181231 0.0216373
0.315785 0.171893 0.0154879
0.360678 0.16112 0.0102388
0.407736 0.149889 0.00563058
0.457298 0.137667 0.00209049
0.509407 0.124865 0.000656138
0.563775 0.11162 0.000244144
0.619623 0.0982986 4.57771e-05
0.676295 0.0851606 1.5259e-05
0.733272 0.0724346 0
0.789853 0.0601511 0
0.822446 0.0532235 0
0.822446 0.0532235 0
0.822446 0.0532235 0
0.822431 0.0530861 0
0.0009308 0.277089 0.0717327
0.00105287 0.277211 0.0716259
0.00129702 0.277165 0.0712902
0.0024567 0.276951 0.0708476
0.00607309 0.276616 0.0702373
0.0121309 0.276127 0.0694438
0.0186465 0.275288 0.0685283
0.0261082 0.274968 0.067628
0.0363622 0.27335 0.0661631
0.0490425 0.271351 0.0644236
0.0629435 0.269261 0.0625162
0.0791638 0.266575 0.0602426
0.0991989 0.262821 0.0573129
0.121218 0.258656 0.0540627
0.145418 0.253803 0.0503853
0.173953 0.247486 0.0458381
0.205051 0.240742 0.0409094
0.238941 0.23328 0.0355383
0.27715 0.224689 0.0294957
0.317281 0.215381 0.0230869
0.3626 0.204807 0.0169528
0.409995 0.193637 0.0110323
0.459937 0.18172 0.00640879
0.512428 0.169085 0.00347906
0.567056 0.156191 0.00173953
0.622889 0.142809 0.000732433
0.67924 0.12932 0.000244144
0.736202 0.115908 1.5259e-05
0.792569 0.102647 0
0.824689 0.09514 0
0.824689 0.09514 0
0.824689 0.09514 0
0.824689 0.09514 0
4.57771e-05 0.324132 0.0813153
4.57771e-05 0.324331 0.0812238
3.0518e-05 0.324483 0.0809339
0.00163272 0.324056 0.0803845
0.00514229 0.32372 0.0797284
0.00991836 0.3234 0.0789807
0.0149691 0.322744 0.0780957
0.0217441 0.321965 0.0770275
0.0326696 0.320607 0.0755627
0.0455787 0.318685 0.0738079
0.0593729 0.31696 0.0720073
0.0768292 0.313909 0.0695048
0.097322 0.31017 0.0665446
0.119402 0.306142 0.0633097
0.144427 0.301213 0.0595102
0.173678 0.295018 0.0549325
0.205249 0.288319 0.0499733
0.240009 0.280812 0.0445106
0.278477 0.272206 0.038407
0.318944 0.263127 0.0320287
0.364767 0.252415 0.0250858
0.412314 0.241367 0.018265
0.462623 0.229557 0.0125124
0.515267 0.217044 0.00756847
0.569696 0.204288 0.00418097
0.62591 0.191409 0.00205997
0.682368 0.178119 0.000717174
0.73904 0.164996 0.000198367
0.795087 0.151888 4.57771e-05
0.826459 0.1449 0
0.826459 0.1449 0
0.826459 0.144717 0
0.826459 0.144717 0
0 0.376104 0.0917983
0 0.376379 0.091722
0.000198367 0.376516 0.0914015
0.00178531 0.376333 0.0908675
0.00437934 0.376013 0.0901961
0.00730907 0.375555 0.0894331
0.0106661 0.375113 0.0885786
0.0171359 0.374289 0.0874495
0.0285191 0.372717 0.0858778
0.0414893 0.370886 0.0841382
0.0551614 0.369131 0.0822919
0.0737926 0.366033 0.0796368
0.0946517 0.362463 0.0766918
0.117174 0.358343 0.0734112
0.142824 0.353353 0.0695964
0.172702 0.34725 0.0650034
0.204837 0.340566 0.0600748
0.24033 0.332952 0.0545663
0.279026 0.324514 0.0485084
0.320302 0.315343 0.0420233
0.3664 0.304707 0.0346075
0.414038 0.293996 0.0272831
0.464637 0.282063 0.0203708
0.517555 0.269673 0.0136721
0.571832 0.257008 0.00877394
0.627817 0.244038 0.00502022
0.684169 0.231067 0.00222782
0.740673 0.218204 0.0010071
0.796597 0.205722 0.000122072
0.827619 0.198978 1.5259e-05
0.827619 0.198978 1.5259e-05
0.827619 0.198978 1.5259e-05
0.827619 0.198779 1.5259e-05
0 0.432929 0.103243
1.5259e-05 0.43328 0.103182
0.000411994 0.433539 0.102815
0.00148013 0.433143 0.10222
0.00288396 0.432822 0.101564
0.00437934 0.432563 0.100832
0.00689708 0.432334 0.100008
0.0141146 0.431388 0.0988174
0.0251926 0.429877 0.0972305
0.0375219 0.428138 0.0955367
0.051194 0.426123 0.0936141
0.0703746 0.42295 0.0908827
0.0914626 0.419257 0.087892
0.114656 0.415076 0.0845502
0.141375 0.410361 0.0807355
0.171206 0.404456 0.0762798
0.203952 0.397559 0.0712444
0.240284 0.390066 0.0656443
0.279377 0.381476 0.0594949
0.321492 0.372244 0.052842
0.367712 0.361959 0.0453956
0.415641 0.351171 0.0378119
0.466514 0.339605 0.0301518
0.519524 0.327443 0.0223697
0.574044 0.314961 0.0160067
0.629786 0.302022 0.0103304
0.685786 0.289479 0.00576791
0.742138 0.27657 0.00302129
0.797375 0.264179 0.000854505
0.828138 0.257588 0.00047303
0.828138 0.257588 0.00047303
0.828138 0.257801 0.00047303
0.828138 0.257801 0.00047303
0 0.494789 0.115633
1.5259e-05 0.495323 0.115602
0.000274662 0.495537 0.115251
0.000762951 0.495094 0.114641
0.00129702 0.494804 0.114015
0.00190738 0.494575 0.113313
0.00419623 0.494255 0.112474
0.0122072 0.493034 0.111147
0.0220493 0.491615 0.109621
0.033051 0.489937 0.107942
0.0472114 0.487816 0.105898
0.0666056 0.484428 0.103105
0.0875868 0.480827 0.100175
0.111727 0.476478 0.0966659
0.13901 0.47126 0.0926375
0.1691 0.465354 0.0881514
0.202518 0.458778 0.0831006
0.239734 0.450935 0.0773175
0.278828 0.442664 0.0712444
0.322103 0.433356 0.0644083
0.368612 0.422721 0.0568704
0.417029 0.411902 0.0491035
0.468116 0.400458 0.04094
0.521126 0.388495 0.0327001
0.575555 0.376211 0.0251469
0.631373 0.363592 0.0180056
0.687068 0.351034 0.0118715
0.742794 0.33843 0.00715648
0.79736 0.326375 0.00341802
0.82829 0.319844 0.00207523
0.82829 0.319844 0.00207523
0.82829 0.319615 0.00205997
0.82829 0.319844 0.00207523
0 0.560021 0.128862
0 0.560296 0.128725
3.0518e-05 0.560159 0.128328
7.62951e-05 0.560449 0.127916
0.000122072 0.560311 0.127352
0.00047303 0.559915 0.12665
0.00291447 0.559442 0.125734
0.0103456 0.558007 0.124285
0.018204 0.556771 0.122774
0.0274968 0.555169 0.12105
0.0426947 0.552758 0.118791
0.0623941 0.549386 0.115999
0.0835279 0.546059 0.113085
0.108461 0.541253 0.109422
0.136599 0.535897 0.105226
0.166995 0.530098 0.100664
0.201221 0.523186 0.0954147
0.238651 0.515312 0.0896162
0.277958 0.50695 0.0834669
0.322057 0.49752 0.0764782
0.369162 0.487221 0.0690013
0.417929 0.476585 0.0612345
0.469245 0.46508 0.0529946
0.522454 0.453254 0.0445716
0.577005 0.440848 0.0361639
0.632502 0.428351 0.0280461
0.688014 0.416022 0.0205539
0.743282 0.4038 0.013901
0.797238 0.39176 0.00834669
0.828199 0.38526 0.00560006
0.828199 0.38526 0.00560006
0.828183 0.38526 0.00560006
0.828199 0.385031 0.0055848
0 0.628351 0.142947
0 0.628565 0.142763
0 0.628412 0.142306
0 0.62829 0.141787
0 0.628412 0.141253
0.000793469 0.628138 0.140505
0.00367742 0.62742 0.139406
0.00849927 0.626245 0.138003
0.0136873 0.624765 0.136431
0.0213169 0.623224 0.134707
0.0379339 0.620264 0.132174
0.0579538 0.617075 0.129412
0.0796674 0.613382 0.126375
0.105486 0.608545 0.122576
0.13402 0.603067 0.118303
0.165179 0.59704 0.113573
0.200229 0.589654 0.108125
0.237797 0.581765 0.102296
0.277546 0.573343 0.0961013
0.322515 0.563684 0.0889143
0.369329 0.55346 0.0814679
0.418875 0.542626 0.07364
0.470466 0.531518 0.0654154
0.523995 0.519615 0.0567788
0.578592 0.50724 0.0479438
0.633753 0.494636 0.0392462
0.688991 0.482429 0.0308537
0.743984 0.470344 0.022858
0.79733 0.458778 0.0159457
0.82797 0.452415 0.0121004
0.82797 0.452186 0.0120699
0.82797 0.452186 0.0120699
0.82797 0.452186 0.0120546
0 0.699763 0.157458
0 0.699763 0.157275
0 0.700069 0.156924
0 0.699672 0.156283
0 0.699443 0.155673
0.000701915 0.699046 0.154849
0.00280766 0.698146 0.153597
0.00523384 0.69691 0.152193
0.00915541 0.695384 0.150591
0.0178531 0.693782 0.148775
0.0345006 0.69099 0.146212
0.0538186 0.687572 0.143404
0.076051 0.683619 0.140154
0.102281 0.678798 0.136263
0.130938 0.67332 0.13196
0.162783 0.666941 0.127077
0.198825 0.65951 0.121462
0.236988 0.651606 0.115572
0.277623 0.642893 0.109178
0.322332 0.63299 0.102052
0.36968 0.622629 0.0945449
0.419272 0.611658 0.0866102
0.471046 0.600122 0.0782788
0.524514 0.588113 0.0696422
0.579446 0.576089 0.0608835
0.634592 0.563729 0.0521248
0.68983 0.551553 0.0434882
0.744503 0.53933 0.0349889
0.796948 0.528054 0.0271916
0.827466 0.521721 0.0226749
0.827466 0.521721 0.0226749
0.827466 0.521492 0.0225986
0.827466 0.521492 0.0225986
0 0.772686 0.172396
0 0.772915 0.172259
0 0.772824 0.171786
0 0.772747 0.171206
4.57771e-05 0.772473 0.17052
0.00030518 0.771771 0.169528
0.000946059 0.770397 0.16817
0.00161746 0.769223 0.166766
0.0049897 0.767346 0.165057
0.0152438 0.765133 0.162936
0.0313725 0.762737 0.160479
0.0492103 0.759503 0.157702
0.0723735 0.755077 0.154177
0.0993973 0.749874 0.150103
0.128344 0.744274 0.145739
0.161013 0.737484 0.140703
0.19762 0.729824 0.135012
0.236301 0.721614 0.128954
0.278126 0.712535 0.122347
0.323095 0.702663 0.115251
0.370718 0.691951 0.107652
0.420478 0.680781 0.0996872
0.472389 0.669093 0.091371
0.526116 0.656809 0.0827192
0.580774 0.644495 0.0739757
0.635615 0.632181 0.0652628
0.690425 0.619928 0.0566262
0.745251 0.608209 0.048188
0.796674 0.596979 0.0402991
0.825803 0.590814 0.0358892
0.825803 0.59057 0.0358434
0.825803 0.59057 0.0358129
0.825803 0.59057 0.0358129
0 0.844816 0.187274
0 0.844846 0.187106
0 0.844633 0.186618
0 0.84445 0.186069
1.5259e-05 0.843854 0.185275
6.10361e-05 0.842649 0.184115
0.000137331 0.841184 0.182757
0.00062562 0.839597 0.181277
0.00468452 0.837354 0.179385
0.0152438 0.834714 0.177096
0.0291905 0.831434 0.174456
0.0449531 0.827909 0.171572
0.0687724 0.823087 0.16788
0.0966354 0.817899 0.163745
0.126207 0.812192 0.159304
0.159899 0.805508 0.154223
0.196735 0.797574 0.148455
0.235874 0.78941 0.142367
0.278676 0.780148 0.135592
0.323613 0.770367 0.128496
0.371786 0.759808 0.120821
0.421927 0.74873 0.112825
0.47396 0.737057 0.104509
0.527687 0.72462 0.0959182
0.5823 0.712505 0.0873274
0.636896 0.700008 0.0787366
0.691386 0.687587 0.0702983
0.745312 0.67512 0.0619516
0.796216 0.663615 0.0541695
0.824308 0.657679 0.0499428
0.824308 0.657679 0.0499428
0.824308 0.657679 0.0499428
0.824308 0.657679 0.0499428
0 0.911315 0.202182
0 0.91107 0.202014
0 0.910307 0.201541
0 0.9093 0.2009
0 0.90782 0.199969
0 0.905867 0.198688
0 0.903548 0.197223
0.00109865 0.901244 0.195682
0.00619516 0.898299 0.193622
0.0154421 0.894774 0.191165
0.0262303 0.890944 0.188525
0.0417945 0.886671 0.185412
0.0662394 0.881422 0.181598
0.0943923 0.8757 0.177371
0.124666 0.869947 0.172869
0.159335 0.862791 0.167468
0.196704 0.855787 0.161837
0.236271 0.848188 0.155673
0.279744 0.839841 0.148791
0.325002 0.831113 0.141604
0.373861 0.821637 0.133852
0.424231 0.811673 0.125917
0.476448 0.800534 0.117693
0.530282 0.787884 0.109163
0.584634 0.775311 0.100679
0.639078 0.762707 0.092256
0.693049 0.750088 0.0839551
0.74638 0.737697 0.0757763
0.796414 0.726131 0.068101
0.823209 0.719814 0.06392
0.823209 0.719814 0.0638895
0.823209 0.719814 0.0638895
0.823209 0.719814 0.0638895
0 0.946944 0.216464
0 0.946685 0.216388
0 0.945876 0.215915
0 0.944686 0.215152
0 0.943191 0.21413
0 0.941451 0.212879
0 0.939574 0.211505
0.00148013 0.937499 0.209903
0.00668345 0.934768 0.20763
