luts/unknown_leica_like/Classic_Rec2020.cube
TITLE "Software Leica Camera LUT Film V6.3 Rec2020 Gamma 2.4"
LUT_3D_SIZE 9
0.00277714 0.00183108 0.00263981
0.0271 0.020325 0.019379
0.144701 0.0745556 0.041001
0.360372 0.143725 0.0789044
0.569009 0.226947 0.124605
0.648005 0.258457 0.143114
0.65745 0.262287 0.165499
0.658045 0.262531 0.166217
0.658076 0.262547 0.166278
0.0116884 0.0107424 0.011841
0.020264 0.016907 0.0174411
0.125353 0.0675059 0.038407
0.325551 0.130068 0.0713359
0.544427 0.217136 0.119219
0.646097 0.257679 0.141604
0.65713 0.262165 0.165179
0.65803 0.262531 0.166201
0.658076 0.262547 0.166278
0.0707256 0.107652 0.0598917
0.0622568 0.0946365 0.0556497
0.112856 0.100221 0.0542153
0.32108 0.143145 0.0736095
0.53344 0.212757 0.116823
0.644709 0.25713 0.141192
0.657023 0.262119 0.165072
0.65803 0.262531 0.166201
0.658076 0.262547 0.166278
0.200061 0.306905 0.11545
0.180941 0.277562 0.104524
0.176806 0.271229 0.102144
0.319326 0.29305 0.116747
0.563851 0.29984 0.141085
0.687572 0.282963 0.165286
0.656794 0.262028 0.164691
0.65803 0.262531 0.166201
0.658076 0.262547 0.166278
0.337713 0.518074 0.194888
0.332143 0.509514 0.191669
0.313176 0.480415 0.180728
0.344442 0.524681 0.197467
0.587488 0.55285 0.219272
0.7841 0.535607 0.229206
0.78645 0.45362 0.206806
0.66363 0.264759 0.170138
0.658076 0.262547 0.166278
0.424842 0.650752 0.273548
0.421912 0.646433 0.267414
0.42092 0.644953 0.265248
0.416846 0.639445 0.240589
0.586557 0.729351 0.278874
0.830014 0.792828 0.313664
0.907149 0.765896 0.310185
0.884276 0.679622 0.281346
0.730648 0.351644 0.18822
0.465476 0.706233 0.436164
0.464332 0.704982 0.426978
0.46392 0.704585 0.423285
0.463645 0.70428 0.420996
0.485145 0.726131 0.360281
0.810162 0.834989 0.331395
0.946654 0.894606 0.355322
0.947936 0.898131 0.363287
0.940795 0.876143 0.362844
0.489555 0.729671 0.621408
0.488716 0.729137 0.612848
0.488334 0.728893 0.609125
0.48809 0.728756 0.606561
0.487938 0.728649 0.604898
0.659113 0.84773 0.632425
0.932998 0.937301 0.618799
0.968292 0.947372 0.592554
0.970626 0.952361 0.619959
0.500526 0.737377 0.714733
0.500526 0.737377 0.714702
0.500511 0.737377 0.714672
0.500511 0.737377 0.714565
0.500511 0.737377 0.714549
0.500481 0.737362 0.714351
0.876417 0.946685 0.837446
0.986755 0.980224 0.840864
0.987289 0.982345 0.834958
0.00863661 0.00698863 0.0105898
0.0259861 0.0196689 0.0204471
0.13521 0.070634 0.0406806
0.341115 0.136141 0.0747234
0.553155 0.220615 0.121126
0.645945 0.257618 0.141726
0.657237 0.262196 0.16527
0.658045 0.262531 0.166217
0.658076 0.262547 0.166278
0.0157321 0.0153201 0.0182345
0.0202487 0.0177157 0.0195773
0.114839 0.0631418 0.0374609
0.30457 0.123445 0.0671092
0.522225 0.20827 0.114351
0.643641 0.256703 0.140978
0.656794 0.262028 0.164813
0.65803 0.262531 0.166201
0.658076 0.262547 0.166278
0.0703899 0.107118 0.0603342
0.060441 0.091783 0.0552377
0.102037 0.0952316 0.0536965
0.296941 0.134249 0.0684977
0.510582 0.203647 0.111818
0.641382 0.255802 0.140459
0.65655 0.261921 0.164538
0.65803 0.262531 0.166201
0.658076 0.262547 0.166278
0.195254 0.299535 0.112749
0.174899 0.268299 0.101152
0.167361 0.256733 0.096849
0.29543 0.273823 0.108904
0.535195 0.280797 0.132937
0.67805 0.273121 0.15816
0.655955 0.261692 0.163149
0.65803 0.262531 0.166201
0.658076 0.262547 0.166278
0.33547 0.514626 0.193622
0.329335 0.505211 0.190051
0.307912 0.472343 0.177691
0.333303 0.509621 0.191745
0.570138 0.537804 0.21323
0.771572 0.52015 0.223514
0.776516 0.434394 0.201343
0.663493 0.264729 0.169665
0.658076 0.262547 0.166278
0.426719 0.653223 0.285435
0.423758 0.648859 0.279301
0.422614 0.64715 0.276905
0.416556 0.638941 0.24271
0.574182 0.727535 0.277684
0.822278 0.786328 0.31104
0.904585 0.758556 0.307668
0.881956 0.672038 0.278813
0.721325 0.335286 0.185443
0.466117 0.706783 0.443351
0.464836 0.705348 0.434089
0.464469 0.704997 0.430488
0.464195 0.704707 0.428077
0.482628 0.727138 0.372183
0.803479 0.838209 0.339132
0.947112 0.895827 0.357488
0.947997 0.898161 0.3682
0.939773 0.872496 0.373861
0.489662 0.729686 0.622858
0.488838 0.729137 0.614969
0.488472 0.728878 0.61149
0.488212 0.72871 0.609033
0.488075 0.728679 0.606897
0.654536 0.846281 0.632288
0.930907 0.936614 0.618585
0.968292 0.947372 0.593072
0.970642 0.952392 0.620432
0.500633 0.737438 0.715709
0.500618 0.737438 0.715663
0.500618 0.737438 0.715633
0.500618 0.737438 0.715618
0.500603 0.737423 0.715511
0.500587 0.737408 0.715312
0.870344 0.944732 0.836789
0.986603 0.980072 0.842329
0.987411 0.982498 0.836591
0.0370489 0.0237583 0.103334
0.0379187 0.0244144 0.094789
0.124071 0.0632029 0.0980087
0.323018 0.129335 0.107744
0.549294 0.219165 0.145861
0.648554 0.258793 0.17644
0.659281 0.263081 0.178943
0.658122 0.262562 0.166567
0.658076 0.262547 0.166278
0.0374151 0.0284733 0.102678
0.0347295 0.0260929 0.0874952
0.104921 0.0565194 0.0876173
0.288685 0.118135 0.0902571
0.508232 0.202762 0.126802
0.646174 0.257816 0.170474
0.658579 0.262776 0.176165
0.658091 0.262547 0.166461
0.658076 0.262547 0.166278
0.0733959 0.107607 0.109026
0.0615091 0.0902266 0.090959
0.0915694 0.0904555 0.0880751
0.27985 0.128038 0.0912947
0.499107 0.1991 0.121218
0.641581 0.255955 0.160632
0.658503 0.26276 0.176867
0.658152 0.262577 0.16672
0.658076 0.262547 0.166278
0.19501 0.297856 0.146151
0.172351 0.263478 0.123522
0.163134 0.249775 0.108354
0.277607 0.263294 0.113268
0.517494 0.27393 0.138781
0.672755 0.268574 0.170199
0.658091 0.262592 0.178195
0.658671 0.262791 0.168673
0.658076 0.262547 0.166278
0.335393 0.513802 0.213947
0.329183 0.504341 0.208896
0.304509 0.466926 0.18201
0.324178 0.496864 0.18703
0.552789 0.523827 0.20763
0.760845 0.507942 0.220356
0.770962 0.424369 0.204242
0.665339 0.265522 0.182605
0.658076 0.262547 0.166278
0.433066 0.661707 0.319097
0.428504 0.65507 0.308324
0.426947 0.652796 0.304631
0.418219 0.640955 0.259541
0.561135 0.729122 0.277699
0.814191 0.780041 0.308446
0.900847 0.750896 0.305959
0.879606 0.665431 0.280949
0.71809 0.328618 0.190539
0.469642 0.710842 0.465995
0.467658 0.708446 0.454826
0.466865 0.7075 0.45008
0.466438 0.707027 0.44715
0.483558 0.732143 0.399771
0.796857 0.846326 0.36614
0.948333 0.899138 0.368505
0.948684 0.899672 0.385321
0.939635 0.870985 0.401709
0.490318 0.730068 0.629755
0.489509 0.729519 0.621912
0.489113 0.729244 0.618235
0.488869 0.729107 0.615625
0.488701 0.72903 0.613733
0.652094 0.846464 0.638239
0.929641 0.937575 0.628138
0.969055 0.948928 0.60322
0.971359 0.953811 0.630014
0.500862 0.73756 0.717876
0.500847 0.737545 0.717678
0.500832 0.737545 0.717586
0.500832 0.737545 0.717464
0.500816 0.737545 0.717388
0.500801 0.73753 0.717235
0.867704 0.944015 0.838056
0.986297 0.980133 0.844755
0.987625 0.982834 0.839338
0.0778821 0.0546273 0.26746
0.0745098 0.0460365 0.259876
0.120348 0.0578317 0.261738
0.299214 0.121508 0.256229
0.516625 0.20708 0.267628
0.65333 0.261479 0.29781
0.664759 0.265919 0.286458
0.665614 0.266041 0.257465
0.663325 0.264851 0.212985
0.0797436 0.0596628 0.270619
0.0733654 0.0528878 0.25069
0.101656 0.0559396 0.249332
0.279149 0.113954 0.24126
0.487449 0.195239 0.238712
0.649302 0.259724 0.278553
0.663279 0.265217 0.271489
0.664561 0.265522 0.244221
0.661952 0.26421 0.194369
0.0990158 0.109926 0.282841
0.0865797 0.0919814 0.255451
0.0857557 0.0875715 0.247929
0.268574 0.12546 0.24239
0.492836 0.197375 0.237552
0.63975 0.25568 0.244373
0.662943 0.265064 0.269215
0.664347 0.265431 0.242161
0.661723 0.264103 0.190326
0.20383 0.297597 0.312367
0.178973 0.261448 0.273228
0.169436 0.248371 0.252094
0.260288 0.258976 0.251331
0.501244 0.271 0.247257
0.673014 0.269657 0.249134
0.661601 0.264393 0.25037
0.664652 0.265583 0.247028
0.661891 0.264179 0.193225
0.341543 0.515846 0.354284
0.33254 0.502678 0.339147
0.305715 0.463661 0.289219
0.317876 0.483696 0.273381
0.532418 0.512505 0.278264
0.746319 0.496239 0.286732
0.767117 0.415442 0.270527
0.67126 0.268284 0.254887
0.663096 0.264744 0.209766
0.444175 0.673869 0.41651
0.439994 0.667994 0.405249
0.438483 0.665919 0.400366
0.426673 0.650858 0.337041
0.53843 0.735836 0.332372
0.802029 0.773419 0.324926
0.895567 0.740703 0.355947
0.875608 0.657664 0.346532
0.723522 0.332052 0.278599
0.478676 0.720516 0.528557
0.477073 0.718959 0.51606
0.476234 0.718059 0.510445
0.475654 0.717418 0.506737
0.49247 0.746777 0.46067
0.790784 0.860456 0.44625
0.950393 0.90837 0.422232
0.950988 0.904189 0.443412
0.940536 0.870817 0.465537
0.49218 0.730968 0.650187
0.491432 0.730571 0.642344
0.491112 0.730434 0.638621
0.490867 0.730282 0.636271
0.4907 0.730175 0.634668
0.650568 0.849256 0.659266
0.928023 0.941314 0.657588
0.971298 0.953399 0.633387
0.973526 0.957916 0.659968
0.501503 0.737942 0.723445
0.501457 0.737911 0.722957
0.501427 0.737896 0.722728
0.501396 0.737881 0.722499
0.501396 0.737881 0.722408
0.501366 0.737865 0.722133
0.866255 0.943832 0.842481
0.986343 0.98056 0.851377
0.988083 0.98349 0.84593
0.134188 0.10692 0.448554
0.132387 0.103853 0.444205
0.138094 0.0945144 0.473777
0.301091 0.137392 0.486107
0.507973 0.206928 0.463493
0.654978 0.263981 0.450614
0.67863 0.273793 0.483528
0.678721 0.273289 0.449241
0.677363 0.272374 0.423102
0.135424 0.112566 0.447395
0.131823 0.107881 0.437568
0.133791 0.103075 0.450813
0.277165 0.135103 0.468772
0.489006 0.199207 0.44712
0.650248 0.261799 0.428779
0.675914 0.272404 0.463279
0.677119 0.272389 0.429892
0.675166 0.271168 0.395758
0.150042 0.147265 0.464668
0.142779 0.135668 0.449195
0.141909 0.133318 0.448707
0.262119 0.152529 0.469535
0.489754 0.200183 0.453452
0.654917 0.263615 0.428153
0.674556 0.271717 0.453971
0.676585 0.272084 0.42417
0.674479 0.270771 0.386603
0.223621 0.296834 0.499275
0.20824 0.274006 0.474113
0.202609 0.265568 0.465126
0.245655 0.272953 0.476616
0.492805 0.279423 0.466575
0.687694 0.277821 0.44387
0.68014 0.273411 0.418585
0.676509 0.272053 0.423987
0.674327 0.270695 0.384543
0.357061 0.520134 0.5561
0.332876 0.485039 0.517494
0.317952 0.464485 0.48539
0.325719 0.47834 0.477638
0.515038 0.509422 0.49337
0.734264 0.497322 0.472572
0.77377 0.421988 0.441276
0.692103 0.278248 0.422187
0.674846 0.27097 0.391287
0.454505 0.67628 0.588327
0.450431 0.670756 0.577554
0.447517 0.666743 0.570703
0.439567 0.660227 0.502586
0.516152 0.736416 0.519371
0.785702 0.766674 0.515511
0.889464 0.732967 0.502327
0.874952 0.657984 0.491905
0.744961 0.355398 0.450416
0.488457 0.726009 0.63975
0.487404 0.725277 0.630426
0.486885 0.724895 0.625818
0.48658 0.724681 0.623102
0.513588 0.772808 0.570321
0.778851 0.881788 0.595117
0.948608 0.924163 0.558831
0.955596 0.911192 0.569726
0.943969 0.873426 0.597818
0.497383 0.73492 0.691569
0.496437 0.734112 0.685145
0.495949 0.733669 0.68188
0.495689 0.73344 0.68011
0.495521 0.733303 0.678904
0.651041 0.856458 0.707225
0.926452 0.949462 0.723552
0.976379 0.962982 0.701991
0.978485 0.967132 0.72491
0.503105 0.738842 0.737667
0.502968 0.738766 0.73637
0.502892 0.738735 0.735775
0.502861 0.73872 0.735409
0.502831 0.738689 0.73518
0.5028 0.738689 0.734829
0.866163 0.944656 0.854704
0.986999 0.981796 0.867887
0.989288 0.985183 0.86273
0.204807 0.219074 0.602075
0.202731 0.215457 0.598672
0.206729 0.222538 0.605066
0.287434 0.243763 0.667201
0.526772 0.250172 0.695262
0.687694 0.281056 0.665858
0.689677 0.281071 0.635081
0.687404 0.279835 0.619074
0.690913 0.280797 0.601175
0.209033 0.22739 0.607019
0.204211 0.218997 0.599222
0.204608 0.219394 0.600519
0.253635 0.230579 0.651728
0.501732 0.242847 0.682582
0.677989 0.276921 0.650401
0.691508 0.281468 0.621195
0.689265 0.280278 0.607034
0.691142 0.280461 0.581186
0.230518 0.266438 0.634821
0.224521 0.256641 0.625025
0.22327 0.253788 0.624872
0.247044 0.262379 0.657893
0.495186 0.267353 0.684352
0.68275 0.278981 0.655543
0.694957 0.282856 0.623575
0.689342 0.280217 0.602457
0.69044 0.280034 0.573159
0.276112 0.353292 0.664012
0.270283 0.343526 0.657633
0.26949 0.341527 0.658946
0.279561 0.352651 0.677028
0.497551 0.357931 0.698619
0.704387 0.327749 0.682017
0.713161 0.290669 0.642283
0.689586 0.280201 0.59762
0.690135 0.279835 0.569543
0.356832 0.499306 0.68162
0.350866 0.490272 0.673747
0.350713 0.490135 0.673121
0.360388 0.504768 0.685878
0.514138 0.536904 0.71812
0.73283 0.530053 0.708751
0.800046 0.465064 0.677653
0.737209 0.313756 0.643626
0.690166 0.27985 0.56968
0.464149 0.675196 0.729732
0.455863 0.663157 0.71667
0.440513 0.64155 0.687236
0.456855 0.668605 0.688212
0.514702 0.727993 0.712474
0.771267 0.762768 0.738247
0.88777 0.735622 0.716869
0.885405 0.677165 0.70013
0.796948 0.450111 0.669123
0.497627 0.729427 0.740658
0.496483 0.728176 0.735576
0.495949 0.727565 0.733349
0.49485 0.726299 0.729076
0.533852 0.792706 0.706767
0.765972 0.895628 0.756466
0.940185 0.927993 0.75024
0.959731 0.909163 0.753185
0.949248 0.875593 0.763684
0.503319 0.737987 0.747463
0.502876 0.737697 0.743801
0.502663 0.73756 0.742153
0.502541 0.737469 0.741238
0.502464 0.737438 0.740658
0.658549 0.868025 0.783215
0.925444 0.959121 0.820783
0.984146 0.97612 0.806332
0.985214 0.97789 0.819532
0.505455 0.739666 0.761929
0.505302 0.739635 0.760128
0.505211 0.739605 0.759274
0.50515 0.73959 0.758633
0.505119 0.73959 0.758206
0.505089 0.739559 0.757916
0.8692 0.946822 0.878569
0.98764 0.983948 0.899306
0.991638 0.988342 0.896162
0.366155 0.503319 0.743938
0.366888 0.504143 0.746242
0.373968 0.514931 0.75436
0.439094 0.534829 0.776608
0.598566 0.555322 0.800275
0.766979 0.544167 0.810437
0.814359 0.482689 0.795422
0.764599 0.351232 0.750484
0.686732 0.280751 0.669612
0.359899 0.492912 0.739559
0.357122 0.487922 0.739391
0.361318 0.494057 0.745861
0.405615 0.509285 0.765423
0.566506 0.527855 0.790265
0.743008 0.515419 0.801587
0.803952 0.454887 0.786786
0.750698 0.326055 0.737118
0.68101 0.278386 0.662379
0.366964 0.504982 0.74313
0.362737 0.497597 0.741711
0.365164 0.500938 0.746487
0.398306 0.514336 0.765286
0.557916 0.532586 0.790478
0.737072 0.52018 0.802319
0.80441 0.458244 0.78764
0.756497 0.337667 0.742611
0.679652 0.27779 0.65977
0.386587 0.538048 0.753246
0.381674 0.529778 0.750927
0.382971 0.531548 0.753628
0.40209 0.545113 0.771359
0.557687 0.567132 0.798459
0.740093 0.558343 0.812207
0.817288 0.498833 0.799344
0.785672 0.401862 0.768963
0.679042 0.277531 0.658488
0.426017 0.603586 0.773159
0.421744 0.596506 0.771176
0.423239 0.598871 0.772427
0.434943 0.616175 0.785168
0.566476 0.644663 0.816129
0.753674 0.650538 0.834958
0.847913 0.599313 0.826749
0.836591 0.534691 0.808377
0.697017 0.284932 0.678325
0.475273 0.685481 0.788067
0.473991 0.68336 0.78764
0.477363 0.688762 0.789776
0.491295 0.710735 0.800168
0.563104 0.756008 0.832639
0.774212 0.787594 0.8636
0.893172 0.767605 0.865293
0.908522 0.730785 0.852674
0.870832 0.62359 0.828153
0.50106 0.727916 0.794781
0.499611 0.725811 0.792523
0.496941 0.722133 0.786892
0.51371 0.749462 0.791775
0.550301 0.807065 0.815564
0.769924 0.893294 0.867796
0.931441 0.921279 0.890837
0.965209 0.911894 0.884642
0.95761 0.888747 0.881071
0.507012 0.73814 0.792767
0.506828 0.738048 0.791211
0.506722 0.738018 0.79028
0.506676 0.738003 0.789731
0.509102 0.742229 0.78851
0.686793 0.884413 0.859678
0.925887 0.964874 0.901808
0.9897 0.981933 0.904448
0.989578 0.981277 0.90724
0.507942 0.739895 0.791287
0.50782 0.739925 0.789578
0.507744 0.739925 0.788678
0.507698 0.73994 0.788113
0.507668 0.73994 0.78764
0.507652 0.73994 0.787396
0.879103 0.950896 0.903578
0.987549 0.985138 0.922377
0.993698 0.991028 0.924636
0.609949 0.77499 0.84741
0.613474 0.773678 0.847501
0.632837 0.7794 0.850828
0.673961 0.790143 0.857694
0.754192 0.808362 0.869657
0.851652 0.824689 0.881117
0.921324 0.816144 0.883619
0.925093 0.780713 0.876173
0.915526 0.746838 0.868025
0.589883 0.762783 0.842466
0.588785 0.758572 0.841474
0.60267 0.761334 0.843809
0.642573 0.769543 0.85005
0.723049 0.785916 0.862104
0.829129 0.801465 0.874784
0.906096 0.789151 0.876829
0.915846 0.748028 0.868162
0.897551 0.689525 0.853162
0.588129 0.764584 0.842557
0.58381 0.757809 0.840635
0.595026 0.758206 0.842145
0.633738 0.765789 0.848356
0.714229 0.781552 0.86041
0.822354 0.797452 0.873457
0.901747 0.783917 0.875502
0.913802 0.740581 0.866163
0.890593 0.671458 0.848432
0.587976 0.772244 0.8439
0.581918 0.764721 0.841749
0.591791 0.764202 0.842908
0.629694 0.771008 0.848737
0.710384 0.786023 0.860822
0.820035 0.801984 0.874235
0.902129 0.79118 0.877089
0.915877 0.74815 0.868116
0.895216 0.681788 0.851194
0.585901 0.790738 0.847044
0.57879 0.782406 0.844572
0.587366 0.782223 0.845777
0.625635 0.789227 0.85182
0.709163 0.804654 0.864225
0.822644 0.823163 0.878676
0.907942 0.817349 0.883299
0.925261 0.781338 0.876219
0.910628 0.728862 0.863523
0.56762 0.817349 0.847547
0.561593 0.810498 0.845396
0.567971 0.81268 0.848432
0.603632 0.822293 0.855787
0.704097 0.841474 0.87042
0.828641 0.866285 0.887709
0.921416 0.872312 0.895476
0.945876 0.849638 0.892576
0.93724 0.821637 0.886168
0.55256 0.808576 0.83299
0.550866 0.805997 0.831235
0.553216 0.809567 0.833707
0.565576 0.827512 0.846677
0.657877 0.868498 0.870832
0.823301 0.915587 0.895903
0.935714 0.93724 0.909545
0.973907 0.934936 0.911467
0.970993 0.92636 0.910201
0.508431 0.738277 0.808957
0.508309 0.738109 0.808728
0.508232 0.738003 0.808576
0.517678 0.753124 0.813458
0.560494 0.820768 0.840528
0.763775 0.911849 0.890562
0.932601 0.966857 0.916014
0.990234 0.981872 0.923491
0.990951 0.983246 0.924422
0.509224 0.739727 0.808164
0.509102 0.739559 0.807767
0.509026 0.739483 0.807553
0.50898 0.739437 0.807355
0.508965 0.739406 0.807202
0.53228 0.776776 0.818555
0.899367 0.9579 0.912169
0.988159 0.985473 0.925185
0.994003 0.991516 0.92813
0.833738 0.913771 0.897337
0.835691 0.914244 0.897658
0.839948 0.91519 0.898161
0.852079 0.918532 0.89987
0.876661 0.922744 0.90248
0.919493 0.931151 0.907408
0.962325 0.938842 0.911452
0.972259 0.930083 0.910872
0.967895 0.917205 0.908202
0.833478 0.913802 0.897322
0.835508 0.914382 0.897673
0.839261 0.91519 0.8981
0.850202 0.918303 0.899748
0.872969 0.922499 0.902205
0.913283 0.929915 0.906691
0.957748 0.939055 0.911223
0.973114 0.932616 0.911101
0.968063 0.917693 0.908339
0.833265 0.914153 0.897459
0.835218 0.914595 0.897658
0.838895 0.915496 0.898131
0.849607 0.918425 0.899702
0.871855 0.922759 0.902205
0.911131 0.929915 0.9066
0.955993 0.939467 0.911238
0.973709 0.934386 0.911421
0.968414 0.91873 0.908568
0.8327 0.915114 0.897627
0.834577 0.915419 0.897704
0.838285 0.916365 0.898253
0.84889 0.919234 0.899809
0.871061 0.923568 0.902235
0.910399 0.931014 0.906691
0.955398 0.941161 0.911559
0.97467 0.937163 0.912123
0.969284 0.92137 0.90901
0.830671 0.91751 0.897704
0.832715 0.917861 0.898009
0.836805 0.918822 0.898573
0.84712 0.92137 0.899901
0.870344 0.926146 0.902785
0.910353 0.934569 0.907454
0.95613 0.94609 0.912734
0.976562 0.942702 0.913207
0.971832 0.928847 0.910796
0.825254 0.923613 0.898528
0.827848 0.923781 0.898848
0.832074 0.924666 0.899458
0.84303 0.927108 0.900664
0.868376 0.932723 0.904128
0.910796 0.943038 0.90927
0.958694 0.957748 0.915465
0.98117 0.955886 0.916472
0.977371 0.944915 0.914412
0.802731 0.922713 0.896605
0.807919 0.924376 0.897459
0.814343 0.926452 0.898405
0.82771 0.930129 0.900542
0.857984 0.937514 0.904418
0.907942 0.953246 0.911803
0.959976 0.969818 0.918608
0.987686 0.974243 0.921401
0.986374 0.97052 0.920851
0.705333 0.891081 0.882124
0.72256 0.897154 0.885069
0.737484 0.902449 0.887297
0.76495 0.911925 0.891173
0.814404 0.929442 0.899641
0.886992 0.952209 0.91043
0.956115 0.974441 0.920409
0.991547 0.984909 0.924865
0.992615 0.987793 0.926268
0.511177 0.742382 0.81239
0.511177 0.742382 0.81239
0.511177 0.742382 0.81239
0.511177 0.742382 0.81239
0.552651 0.808835 0.832242
0.781155 0.9187 0.89427
0.93547 0.969696 0.918532
0.990814 0.986587 0.925689
0.994095 0.991745 0.928267
