luts/unknown_leica_like/Classic_Rec2020.cube
TITLE "Software Leica Camera LUT Film V6.3 Rec2020 Gamma 2.4"
LUT_3D_SIZE 5
0.00277714 0.00183108 0.00263981
0.144701 0.0745556 0.041001
0.569009 0.226947 0.124605
0.65745 0.262287 0.165499
0.658076 0.262547 0.166278
0.0707256 0.107652 0.0598917
0.112856 0.100221 0.0542153
0.53344 0.212757 0.116823
0.657023 0.262119 0.165072
0.658076 0.262547 0.166278
0.337713 0.518074 0.194888
0.313176 0.480415 0.180728
0.587488 0.55285 0.219272
0.78645 0.45362 0.206806
0.658076 0.262547 0.166278
0.465476 0.706233 0.436164
0.46392 0.704585 0.423285
0.485145 0.726131 0.360281
0.946654 0.894606 0.355322
0.940795 0.876143 0.362844
0.500526 0.737377 0.714733
0.500511 0.737377 0.714672
0.500511 0.737377 0.714549
0.876417 0.946685 0.837446
0.987289 0.982345 0.834958
0.0370489 0.0237583 0.103334
0.124071 0.0632029 0.0980087
0.549294 0.219165 0.145861
0.659281 0.263081 0.178943
0.658076 0.262547 0.166278
0.0733959 0.107607 0.109026
0.0915694 0.0904555 0.0880751
0.499107 0.1991 0.121218
0.658503 0.26276 0.176867
0.658076 0.262547 0.166278
0.335393 0.513802 0.213947
0.304509 0.466926 0.18201
0.552789 0.523827 0.20763
0.770962 0.424369 0.204242
0.658076 0.262547 0.166278
0.469642 0.710842 0.465995
0.466865 0.7075 0.45008
0.483558 0.732143 0.399771
0.948333 0.899138 0.368505
0.939635 0.870985 0.401709
0.500862 0.73756 0.717876
0.500832 0.737545 0.717586
0.500816 0.737545 0.717388
0.867704 0.944015 0.838056
0.987625 0.982834 0.839338
0.134188 0.10692 0.448554
0.138094 0.0945144 0.473777
0.507973 0.206928 0.463493
0.67863 0.273793 0.483528
0.677363 0.272374 0.423102
0.150042 0.147265 0.464668
0.141909 0.133318 0.448707
0.489754 0.200183 0.453452
0.674556 0.271717 0.453971
0.674479 0.270771 0.386603
0.357061 0.520134 0.5561
0.317952 0.464485 0.48539
0.515038 0.509422 0.49337
0.77377 0.421988 0.441276
0.674846 0.27097 0.391287
0.488457 0.726009 0.63975
0.486885 0.724895 0.625818
0.513588 0.772808 0.570321
0.948608 0.924163 0.558831
0.943969 0.873426 0.597818
0.503105 0.738842 0.737667
0.502892 0.738735 0.735775
0.502831 0.738689 0.73518
0.866163 0.944656 0.854704
0.989288 0.985183 0.86273
0.366155 0.503319 0.743938
0.373968 0.514931 0.75436
0.598566 0.555322 0.800275
0.814359 0.482689 0.795422
0.686732 0.280751 0.669612
0.366964 0.504982 0.74313
0.365164 0.500938 0.746487
0.557916 0.532586 0.790478
0.80441 0.458244 0.78764
0.679652 0.27779 0.65977
0.426017 0.603586 0.773159
0.423239 0.598871 0.772427
0.566476 0.644663 0.816129
0.847913 0.599313 0.826749
0.697017 0.284932 0.678325
0.50106 0.727916 0.794781
0.496941 0.722133 0.786892
0.550301 0.807065 0.815564
0.931441 0.921279 0.890837
0.95761 0.888747 0.881071
0.507942 0.739895 0.791287
0.507744 0.739925 0.788678
0.507668 0.73994 0.78764
0.879103 0.950896 0.903578
0.993698 0.991028 0.924636
0.833738 0.913771 0.897337
0.839948 0.91519 0.898161
0.876661 0.922744 0.90248
0.962325 0.938842 0.911452
0.967895 0.917205 0.908202
0.833265 0.914153 0.897459
0.838895 0.915496 0.898131
0.871855 0.922759 0.902205
0.955993 0.939467 0.911238
0.968414 0.91873 0.908568
0.830671 0.91751 0.897704
0.836805 0.918822 0.898573
0.870344 0.926146 0.902785
0.95613 0.94609 0.912734
0.971832 0.928847 0.910796
0.802731 0.922713 0.896605
0.814343 0.926452 0.898405
0.857984 0.937514 0.904418
0.959976 0.969818 0.918608
0.986374 0.97052 0.920851
0.511177 0.742382 0.81239
0.511177 0.742382 0.81239
0.552651 0.808835 0.832242
0.93547 0.969696 0.918532
0.994095 0.991745 0.928267
