luts/unknown_leica_like/Classic_Rec2020.cube
TITLE "Software Leica Camera LUT Film V6.3 Rec2020 Gamma 2.4"
LUT_3D_SIZE 33
0.00277714 0.00183108 0.00263981
0.00665293 0.00535592 0.00630198
0.00947585 0.00781262 0.00877394
0.0153048 0.0127108 0.0130617
0.0271 0.020325 0.019379
0.049897 0.0336309 0.0280308
0.07776 0.0468757 0.0329137
0.107988 0.059678 0.0361791
0.144701 0.0745556 0.041001
0.190387 0.0900435 0.0464637
0.244297 0.105608 0.0552987
0.301472 0.121538 0.0662852
0.360372 0.143725 0.0789044
0.416785 0.166232 0.0912642
0.467048 0.186267 0.102266
0.515709 0.205692 0.112932
0.569009 0.226947 0.124605
0.607431 0.242267 0.133028
0.630289 0.251377 0.138033
0.641932 0.256031 0.140581
0.648005 0.258457 0.143114
0.652216 0.260166 0.152468
0.654673 0.261158 0.160067
0.65658 0.261936 0.164599
0.65745 0.262287 0.165499
0.657862 0.262455 0.165957
0.658 0.262516 0.166125
0.658015 0.262516 0.166186
0.658045 0.262531 0.166217
0.658061 0.262531 0.166247
0.658061 0.262531 0.166262
0.658076 0.262547 0.166278
0.658076 0.262547 0.166278
0.00447089 0.00352483 0.00444038
0.00694286 0.00563058 0.00668345
0.00917067 0.00759899 0.00862135
0.0139773 0.0117647 0.0124361
0.0237736 0.018143 0.0178683
0.0444495 0.0308995 0.0265965
0.0715343 0.0441138 0.0323491
0.100832 0.0565652 0.0352789
0.135683 0.0712444 0.0396582
0.178759 0.0865187 0.0455177
0.230762 0.10219 0.0529488
0.28748 0.117006 0.063447
0.346365 0.13817 0.0758526
0.404578 0.161364 0.0885939
0.458183 0.182742 0.100328
0.507439 0.20238 0.111116
0.560403 0.223499 0.122713
0.601511 0.239902 0.131731
0.627008 0.250065 0.137301
0.640726 0.255543 0.140322
0.647166 0.258122 0.142199
0.651606 0.259907 0.150698
0.654169 0.26096 0.158694
0.65626 0.261814 0.163928
0.657298 0.262226 0.165347
0.657786 0.262425 0.165881
0.657969 0.262501 0.166094
0.658015 0.262516 0.166171
0.658045 0.262531 0.166217
0.658061 0.262531 0.166232
0.658061 0.262531 0.166262
0.658076 0.262547 0.166278
0.658076 0.262547 0.166278
0.00585946 0.00480659 0.00575265
0.00750744 0.00621042 0.00730907
0.00939956 0.00788891 0.00894179
0.0133822 0.0113832 0.0121767
0.0216983 0.0168765 0.0169985
0.0412451 0.0294041 0.0256809
0.0682994 0.0428626 0.0321202
0.0973678 0.0552224 0.0350958
0.130526 0.0693828 0.0389258
0.172122 0.0844129 0.04477
0.222232 0.100053 0.0514687
0.278508 0.114397 0.0617075
0.337026 0.134478 0.0738231
0.395331 0.157671 0.0865644
0.450202 0.179553 0.0985885
0.501793 0.200137 0.10988
0.55552 0.221561 0.121645
0.598505 0.238697 0.13106
0.625437 0.249454 0.136965
0.639994 0.255253 0.140154
0.646738 0.257939 0.141848
0.651255 0.25977 0.149706
0.653941 0.260868 0.158007
0.656123 0.261753 0.163577
0.657237 0.262211 0.165286
0.657755 0.262409 0.165835
0.657969 0.262501 0.166094
0.658015 0.262516 0.166171
0.65803 0.262531 0.166217
0.658045 0.262531 0.166232
0.658061 0.262531 0.166262
0.658076 0.262547 0.166278
0.658076 0.262547 0.166278
0.00802625 0.00688182 0.00798047
0.00863661 0.00737011 0.00849927
0.010132 0.00869764 0.00976577
0.0133974 0.0116121 0.0124056
0.0205692 0.0163882 0.0167544
0.038941 0.0281834 0.0250858
0.0660716 0.0420081 0.0319524
0.0950942 0.0543526 0.0349126
0.127779 0.0684367 0.0384833
0.169009 0.0833906 0.044419
0.217853 0.0989548 0.0506447
0.27332 0.1131 0.0607309
0.329992 0.131716 0.0722972
0.387961 0.154726 0.084947
0.443198 0.176761 0.0970474
0.494759 0.19733 0.108339
0.551461 0.219944 0.12076
0.596506 0.237903 0.130632
0.624186 0.248951 0.13669
0.63949 0.255055 0.140047
0.646372 0.257801 0.141711
0.651011 0.259663 0.149172
0.653834 0.260822 0.15758
0.656001 0.261707 0.163333
0.657176 0.262181 0.165225
0.657725 0.262394 0.165805
0.657954 0.262501 0.166079
0.658015 0.262516 0.166171
0.65803 0.262531 0.166217
0.658045 0.262531 0.166232
0.658061 0.262531 0.166262
0.658076 0.262547 0.166278
0.658076 0.262547 0.166278
0.0116884 0.0107424 0.011841
0.0113527 0.0102846 0.0113832
0.0121767 0.0110475 0.0120851
0.0145113 0.0129854 0.0137179
0.020264 0.016907 0.0174411
0.0359655 0.0269322 0.0245975
0.0637217 0.0411841 0.0318914
0.0927596 0.0534981 0.0348669
0.125353 0.0675059 0.038407
0.166629 0.0825513 0.0442664
0.215061 0.0982528 0.0501717
0.269642 0.112261 0.0600443
0.325551 0.130068 0.0713359
0.382437 0.152529 0.0837415
0.436622 0.174136 0.095613
0.488258 0.194736 0.10692
0.544427 0.217136 0.119219
0.594354 0.237049 0.130159
0.623194 0.248554 0.136477
0.639017 0.254856 0.13994
0.646097 0.257679 0.141604
0.650843 0.259602 0.148852
0.653712 0.260777 0.157244
0.655909 0.261662 0.163134
0.65713 0.262165 0.165179
0.657694 0.262394 0.165774
0.657954 0.262486 0.166064
0.658015 0.262516 0.166155
0.65803 0.262531 0.166201
0.658045 0.262531 0.166232
0.658061 0.262531 0.166262
0.658076 0.262547 0.166262
0.658076 0.262547 0.166278
0.0205692 0.0220951 0.0214694
0.0188754 0.0196536 0.0196689
0.0188602 0.0193942 0.0194553
0.0200504 0.0202792 0.0201877
0.0233921 0.0227665 0.0221866
0.0342718 0.0292973 0.0269169
0.0590066 0.0401465 0.0320134
0.0892348 0.0525521 0.0349432
0.122637 0.0668803 0.0387121
0.164172 0.0818036 0.044358
0.212924 0.0976577 0.0500649
0.26746 0.112032 0.0597391
0.323537 0.129885 0.0710307
0.379797 0.151492 0.0831769
0.432029 0.172305 0.0946059
0.481804 0.192157 0.105501
0.536217 0.21387 0.117433
0.5888 0.234836 0.128939
0.622232 0.248173 0.136263
0.638682 0.254734 0.139864
0.645884 0.257603 0.141527
0.65066 0.259525 0.148455
0.65362 0.260731 0.157031
0.655833 0.261631 0.16289
0.657084 0.26215 0.165133
0.657679 0.262379 0.165759
0.657954 0.262501 0.166064
0.658015 0.262516 0.166155
0.65803 0.262531 0.166201
0.658045 0.262531 0.166232
0.658061 0.262531 0.166262
0.658076 0.262547 0.166262
0.658076 0.262547 0.166278
0.0338445 0.0476234 0.0373083
0.0318303 0.0427405 0.0346532
0.0310369 0.0407263 0.0336461
0.0311284 0.0402686 0.0334478
0.0319066 0.0404212 0.0335393
0.0360113 0.0421759 0.0346838
0.0514229 0.0440681 0.0349889
0.0835126 0.0553445 0.0372168
0.118456 0.0682536 0.0399939
0.160494 0.0816968 0.0449836
0.210376 0.0975357 0.0500801
0.264836 0.112596 0.0596017
0.322713 0.130755 0.071107
0.379904 0.151583 0.0832074
0.431586 0.172137 0.0944991
0.478401 0.190799 0.104768
0.528344 0.210727 0.115694
0.580713 0.231601 0.127169
0.619471 0.247059 0.135653
0.638331 0.254582 0.139788
0.645655 0.257511 0.141436
0.650523 0.259464 0.148104
0.653544 0.2607 0.156725
0.655741 0.261601 0.162676
0.657069 0.262135 0.165118
0.657664 0.262379 0.165728
0.657938 0.262486 0.166064
0.658015 0.262516 0.166155
0.65803 0.262531 0.166201
0.658045 0.262531 0.166232
0.658061 0.262531 0.166247
0.658076 0.262547 0.166262
0.658076 0.262547 0.166278
0.0507973 0.0768444 0.0495918
0.0474708 0.0715343 0.047715
0.0455482 0.068452 0.0466468
0.0445716 0.0668803 0.0460517
0.0440223 0.0659342 0.0455634
0.0441138 0.0655222 0.0454108
0.051194 0.0639048 0.0441138
0.0788739 0.0695811 0.0440223
0.114763 0.0776074 0.0454108
0.157259 0.0876478 0.0471809
0.207782 0.101289 0.0508278
0.263005 0.115297 0.0599527
0.321935 0.133501 0.0715801
0.380636 0.152239 0.0834363
0.434241 0.17319 0.0950942
0.481163 0.191913 0.105364
0.527016 0.210193 0.115404
0.574105 0.228977 0.125719
0.613657 0.244755 0.134386
0.636728 0.253941 0.139437
0.645472 0.257435 0.141375
0.650355 0.259403 0.147677
0.653452 0.26067 0.156359
0.655711 0.261585 0.162539
0.657038 0.262119 0.165087
0.657664 0.262379 0.165728
0.657938 0.262486 0.166049
0.658015 0.262516 0.166155
0.65803 0.262531 0.166201
0.658045 0.262531 0.166232
0.658061 0.262531 0.166247
0.658061 0.262531 0.166262
0.658076 0.262547 0.166278
0.0707256 0.107652 0.0598917
0.0665599 0.101259 0.057847
0.0640726 0.0973983 0.056672
0.063035 0.0958114 0.0560769
0.0622568 0.0946365 0.0556497
0.0615091 0.0934615 0.0552071
0.0622873 0.093492 0.055024
0.0799878 0.0962081 0.0543069
0.112856 0.100221 0.0542153
0.155047 0.106493 0.0543374
0.205783 0.115557 0.0567025
0.261219 0.127733 0.0629129
0.32108 0.143145 0.0736095
0.380713 0.157626 0.084596
0.437049 0.174487 0.0957504
0.486641 0.19408 0.106554
0.53344 0.212757 0.116823
0.576593 0.229969 0.126268
0.610773 0.243595 0.133745
0.633249 0.252567 0.138674
0.644709 0.25713 0.141192
0.650141 0.259312 0.147158
0.653361 0.260624 0.156054
0.65565 0.261555 0.162417
0.657023 0.262119 0.165072
0.657649 0.262364 0.165713
0.657938 0.262486 0.166049
0.658015 0.262516 0.166155
0.65803 0.262531 0.166201
0.658045 0.262531 0.166232
0.658061 0.262531 0.166247
0.658061 0.262531 0.166262
0.658076 0.262547 0.166278
0.096376 0.14728 0.0705119
0.0910811 0.139101 0.0683604
0.0872358 0.133165 0.0667277
0.0856641 0.130739 0.0661936
0.0843366 0.12871 0.0655222
0.0832685 0.127047 0.0650187
0.0834974 0.127413 0.0651865
0.089128 0.130053 0.0650339
0.113695 0.132998 0.0640116
0.153109 0.13698 0.0636454
0.202838 0.143374 0.0654917
0.259403 0.152667 0.0692454
0.319326 0.163455 0.0782788
0.379553 0.173816 0.0880751
0.438895 0.18291 0.0977798
0.493736 0.197314 0.108217
0.542763 0.216464 0.118853
0.584955 0.233295 0.128099
0.615824 0.245609 0.134859
0.634577 0.253086 0.138964
0.643137 0.256504 0.140841
0.6495 0.259052 0.145708
0.653223 0.260563 0.155566
0.655589 0.26154 0.162264
0.656992 0.262104 0.165057
0.657649 0.262364 0.165698
0.657938 0.262486 0.166049
0.658015 0.262516 0.166155
0.65803 0.262531 0.166201
0.658045 0.262531 0.166232
0.658061 0.262531 0.166247
0.658061 0.262531 0.166262
0.658076 0.262547 0.166278
0.127993 0.196078 0.0818494
0.122026 0.186892 0.0796826
0.117281 0.179538 0.0781872
0.114183 0.174746 0.0771801
0.111894 0.171237 0.0763104
0.110414 0.168948 0.0757458
0.10985 0.168063 0.0755169
0.111772 0.170809 0.0757305
0.122011 0.17348 0.0748302
0.154101 0.176654 0.0735485
0.200977 0.181628 0.074403
0.257435 0.188342 0.0791638
0.317861 0.195911 0.0867933
0.379797 0.203418 0.0954147
0.439796 0.208713 0.103777
0.497292 0.21207 0.111849
0.551629 0.221729 0.121157
0.596887 0.238102 0.130724
0.626062 0.249699 0.137102
0.642466 0.256229 0.140749
0.650782 0.259571 0.145327
0.649393 0.259007 0.144945
0.652689 0.260349 0.153719
0.655512 0.261509 0.162066
0.656977 0.262104 0.165042
0.657633 0.262364 0.165698
0.657938 0.262486 0.166049
0.658015 0.262516 0.166155
0.65803 0.262531 0.166201
0.658045 0.262531 0.166232
0.658061 0.262531 0.166247
0.658061 0.262531 0.166262
0.658076 0.262547 0.166278
0.163088 0.250172 0.0945296
0.157916 0.242222 0.0922408
0.152026 0.233143 0.0897536
0.147417 0.226062 0.0877852
0.144106 0.220951 0.0865187
0.142321 0.218204 0.0859541
0.141238 0.216526 0.0855726
0.141436 0.216831 0.0856336
0.144228 0.220218 0.0857099
0.161318 0.223575 0.0858778
0.202258 0.22768 0.0880751
0.257313 0.233494 0.0932174
0.318547 0.239979 0.099855
0.380194 0.244663 0.106752
0.441367 0.247761 0.113863
0.501076 0.249668 0.121141
0.557641 0.249317 0.128008
0.609735 0.250721 0.135119
0.647684 0.258778 0.141939
0.661631 0.263951 0.145418
0.663111 0.264561 0.162783
0.660243 0.263401 0.164111
0.654963 0.261265 0.157336
0.65507 0.261326 0.160845
0.656962 0.262089 0.165026
0.657618 0.262364 0.165698
0.657938 0.262486 0.166049
0.658015 0.262516 0.166155
0.65803 0.262531 0.166201
0.658045 0.262531 0.166232
0.658061 0.262531 0.166247
0.658061 0.262531 0.166262
0.658076 0.262547 0.166278
0.200061 0.306905 0.11545
0.19675 0.301808 0.113542
0.19089 0.292836 0.11017
0.185519 0.284596 0.107134
0.180941 0.277562 0.104524
0.177676 0.272557 0.102678
0.175723 0.269566 0.101579
0.175021 0.268498 0.101183
0.176806 0.271229 0.102144
0.181872 0.27657 0.104097
0.209201 0.282155 0.107103
0.25919 0.287282 0.111238
0.319326 0.29305 0.116747
0.381384 0.297032 0.12256
0.444068 0.299565 0.128695
0.505531 0.30045 0.134951
0.563851 0.29984 0.141085
0.617761 0.296468 0.146563
0.664408 0.29131 0.151217
0.69041 0.289662 0.154971
0.687572 0.282963 0.165286
0.677562 0.27155 0.170962
0.66862 0.266773 0.171756
0.66041 0.263478 0.166049
0.656794 0.262028 0.164691
0.657618 0.262364 0.165682
0.657923 0.262486 0.166049
0.658015 0.262516 0.166155
0.65803 0.262531 0.166201
0.658045 0.262531 0.166232
0.658061 0.262531 0.166247
0.658061 0.262531 0.166262
0.658076 0.262547 0.166278
0.236851 0.363333 0.13669
0.234195 0.359258 0.135149
0.231128 0.354574 0.133379
0.225864 0.346487 0.130343
0.220584 0.338369 0.127291
0.215122 0.330007 0.124147
0.212009 0.325216 0.122347
0.210819 0.3234 0.12166
0.211719 0.324773 0.122179
0.215579 0.330632 0.124376
0.225788 0.33875 0.127611
0.262806 0.344427 0.13106
0.320455 0.350256 0.135851
0.383276 0.354849 0.141146
0.447227 0.357733 0.146654
0.511116 0.360159 0.152697
0.570443 0.35906 0.157885
0.625193 0.355764 0.162585
0.673854 0.349477 0.166339
0.712978 0.341833 0.169085
0.718914 0.334218 0.171572
0.709865 0.316884 0.175296
0.694606 0.290227 0.17583
0.678386 0.271321 0.176303
0.666148 0.265766 0.171328
0.658076 0.262547 0.165957
0.657938 0.262486 0.166049
0.658015 0.262516 0.166155
0.65803 0.262531 0.166201
0.658045 0.262531 0.166232
0.658061 0.262531 0.166247
0.658061 0.262531 0.166262
0.658076 0.262547 0.166278
0.272053 0.417334 0.157
0.269566 0.413535 0.155566
0.268223 0.41146 0.154788
0.265888 0.407874 0.153445
0.260471 0.399573 0.150317
0.254154 0.389868 0.14667
0.248463 0.38114 0.143389
0.246845 0.378668 0.142458
0.247501 0.37969 0.142824
0.251011 0.385061 0.144854
0.256901 0.393988 0.148211
0.272206 0.403159 0.151995
0.322988 0.409796 0.15639
0.385473 0.415946 0.161608
0.45066 0.420233 0.166949
0.514961 0.422492 0.172183
0.576333 0.422583 0.177127
0.632944 0.420539 0.181552
0.682643 0.415732 0.185016
0.72903 0.406836 0.187442
0.748806 0.395789 0.186969
0.745739 0.380011 0.185122
0.733989 0.357412 0.183764
0.716426 0.326482 0.18172
0.692866 0.286046 0.179873
0.673228 0.268772 0.17557
0.659663 0.263172 0.167239
0.658015 0.262516 0.166155
0.65803 0.262531 0.166201
0.658045 0.262531 0.166232
0.658061 0.262531 0.166247
0.658061 0.262531 0.166262
0.658076 0.262547 0.166278
0.305715 0.468971 0.176425
0.303502 0.465583 0.175143
0.301854 0.46305 0.174197
0.300908 0.461601 0.173648
0.299092 0.458824 0.17261
0.293736 0.450599 0.169512
0.286641 0.439704 0.165408
0.281147 0.431296 0.162249
0.281453 0.431754 0.162417
0.285054 0.437278 0.164492
0.291005 0.446418 0.167941
0.299702 0.459297 0.172793
0.327932 0.469566 0.177447
0.386908 0.477272 0.182635
0.452766 0.482628 0.187808
0.518181 0.485664 0.192767
0.581369 0.487205 0.197635
0.639628 0.486625 0.201968
0.690608 0.483314 0.20531
0.736294 0.476585 0.207538
0.770474 0.463706 0.207279
0.779171 0.448631 0.204059
0.772656 0.429129 0.198566
0.759793 0.403601 0.193103
0.741512 0.370184 0.188357
0.714427 0.322744 0.183856
0.682948 0.275013 0.178637
0.661509 0.26392 0.168704
0.65803 0.262531 0.166201
0.658045 0.262531 0.166232
0.658061 0.262531 0.166247
0.658061 0.262531 0.166262
0.658076 0.262547 0.166278
0.337713 0.518074 0.194888
0.335607 0.514839 0.193683
0.334066 0.512474 0.192782
0.332982 0.510796 0.192157
0.332143 0.509514 0.191669
0.33135 0.508309 0.191211
0.325551 0.499413 0.187869
0.316701 0.485832 0.182757
0.313176 0.480415 0.180728
0.316548 0.485603 0.182681
0.322942 0.495399 0.186358
0.331212 0.508064 0.191135
0.344442 0.524681 0.197467
0.388205 0.535714 0.202991
0.453712 0.543725 0.208667
0.521813 0.549035 0.214038
0.587488 0.55285 0.219272
0.647547 0.553506 0.22359
0.699702 0.551431 0.226856
0.745922 0.546242 0.229038
0.7841 0.535607 0.229206
0.80383 0.520211 0.226551
0.805814 0.502556 0.221714
0.798795 0.480858 0.214969
0.78645 0.45362 0.206806
0.76791 0.418036 0.198367
0.740215 0.367681 0.189456
0.698497 0.294575 0.181262
0.66363 0.264759 0.170138
0.658045 0.262531 0.166232
0.658061 0.262531 0.166247
0.658061 0.262531 0.166262
0.658076 0.262547 0.166278
0.368109 0.564691 0.212421
0.365789 0.561135 0.211093
0.364569 0.559258 0.210391
0.36347 0.55758 0.209751
0.362737 0.556435 0.209323
0.362005 0.555337 0.208911
0.361242 0.554162 0.208469
0.355993 0.546105 0.205432
0.345357 0.529793 0.199298
0.345281 0.529671 0.199252
0.350912 0.538308 0.202502
0.357595 0.548547 0.206363
0.370748 0.568689 0.213931
0.394018 0.58938 0.222065
0.45275 0.60148 0.228611
0.523842 0.6103 0.234928
0.591897 0.615259 0.240253
0.654887 0.618479 0.245151
0.709957 0.619318 0.249134
0.758007 0.616007 0.251591
0.797345 0.608209 0.252262
0.822812 0.595956 0.250645
0.831601 0.578897 0.246296
0.830014 0.558251 0.240055
0.823575 0.534722 0.232624
0.812787 0.5066 0.223682
0.795148 0.470085 0.212879
0.767773 0.417533 0.199115
0.720821 0.333288 0.185351
0.66804 0.266621 0.171847
0.658061 0.262531 0.166247
0.658061 0.262531 0.166262
0.658076 0.262547 0.166278
0.389593 0.597635 0.224918
0.387915 0.595071 0.223926
0.386954 0.593606 0.223362
0.386404 0.592752 0.223026
0.38587 0.591928 0.222721
0.385367 0.591165 0.222416
0.384939 0.590494 0.222171
0.384527 0.589883 0.221927
0.379065 0.581506 0.218769
0.370062 0.567697 0.213565
0.373571 0.573068 0.215579
0.380285 0.583383 0.219455
0.389761 0.597894 0.224918
0.40798 0.624063 0.234806
0.451698 0.643946 0.243427
0.520745 0.661402 0.252384
0.591028 0.672877 0.259709
0.659098 0.678523 0.265339
0.71722 0.681971 0.270024
0.768688 0.681208 0.273182
0.810315 0.676844 0.274754
0.84126 0.668284 0.274403
0.856489 0.655116 0.271519
0.859678 0.637949 0.266514
0.855497 0.616449 0.259648
0.848051 0.591882 0.251637
0.837324 0.562158 0.241978
0.820844 0.524422 0.229877
0.795285 0.470665 0.213413
0.747189 0.379767 0.191714
0.674983 0.271 0.172808
0.658061 0.262531 0.166262
0.658076 0.262547 0.166278
0.410529 0.62948 0.246021
0.408927 0.62707 0.243503
0.407782 0.625345 0.241825
0.406836 0.623926 0.240528
0.406088 0.622797 0.239536
0.405478 0.621866 0.238743
0.404974 0.621103 0.238087
0.404669 0.620645 0.23769
0.404349 0.620172 0.237232
0.399969 0.613519 0.232578
0.393027 0.602914 0.226902
0.39765 0.61001 0.22948
0.404379 0.62034 0.233371
0.418006 0.640681 0.241032
0.457069 0.668055 0.252094
0.519875 0.69099 0.262623
0.589578 0.713283 0.273472
0.659525 0.729946 0.282689
0.721111 0.737881 0.288792
0.776638 0.741512 0.293385
0.821271 0.739773 0.29575
0.855924 0.734737 0.296529
0.876814 0.724865 0.294911
0.885069 0.711528 0.291341
0.884764 0.694835 0.286091
0.87985 0.674342 0.279347
0.872648 0.649607 0.271168
0.862654 0.619821 0.26128
0.846662 0.581262 0.248432
0.822141 0.526589 0.230701
0.775799 0.433204 0.203479
0.686259 0.282887 0.17435
0.658244 0.262608 0.166369
0.424842 0.650752 0.273548
0.423728 0.649104 0.271092
0.422995 0.648005 0.269627
0.4224 0.64715 0.268421
0.421912 0.646433 0.267414
0.421546 0.645884 0.266606
0.421393 0.64564 0.266209
0.421134 0.645258 0.265721
0.42092 0.644953 0.265248
0.420706 0.644648 0.264836
0.416449 0.6383 0.257206
0.411215 0.630655 0.241901
0.416846 0.639445 0.240589
0.424567 0.651087 0.244938
0.456504 0.67747 0.25539
0.520317 0.70367 0.267063
0.586557 0.729351 0.278874
0.658274 0.756939 0.291814
0.723644 0.776562 0.30193
0.78262 0.788495 0.309316
0.830014 0.792828 0.313664
0.868299 0.792935 0.316197
0.893034 0.787839 0.316228
0.905318 0.779019 0.314244
0.907149 0.765896 0.310185
0.902495 0.749187 0.30454
0.897276 0.730037 0.2981
0.891432 0.707881 0.290684
0.884276 0.679622 0.281346
0.871183 0.64123 0.268482
0.848173 0.584543 0.249531
0.80473 0.490455 0.219532
0.730648 0.351644 0.18822
0.437232 0.668818 0.304921
0.435935 0.666941 0.30132
0.435142 0.665812 0.298985
0.434562 0.664973 0.297276
0.434073 0.664256 0.296056
0.433707 0.663706 0.295033
0.433341 0.663188 0.294057
0.433036 0.66276 0.293187
0.432761 0.662364 0.292378
0.432624 0.662165 0.291936
0.432532 0.662043 0.291707
0.428443 0.656046 0.281621
0.42562 0.652369 0.26183
0.43241 0.663066 0.256229
0.448692 0.677516 0.255695
0.513848 0.707927 0.268299
0.579385 0.734066 0.280171
0.653254 0.76054 0.29279
0.722774 0.785626 0.304952
0.783658 0.80705 0.315572
0.834577 0.823133 0.323964
0.875792 0.83418 0.33019
0.905821 0.838361 0.333501
0.924788 0.835264 0.333745
0.92491 0.826322 0.330861
0.921096 0.813657 0.326497
0.916426 0.797971 0.321126
0.911376 0.780682 0.315221
0.905653 0.76054 0.30837
0.898711 0.735546 0.299947
0.889403 0.700038 0.288075
0.873075 0.645502 0.269947
0.846326 0.579751 0.247974
0.450065 0.686961 0.347265
0.44918 0.685771 0.343313
0.448554 0.684916 0.340597
0.448157 0.684382 0.339025
0.447807 0.683879 0.337545
0.447395 0.68333 0.335851
0.447089 0.682902 0.334676
0.446845 0.682551 0.333837
0.446555 0.682139 0.333013
0.446387 0.68191 0.332586
0.446143 0.681559 0.331746
0.445914 0.681239 0.330846
0.44065 0.673823 0.312856
0.438025 0.670787 0.286412
0.447227 0.682918 0.276417
0.491341 0.70309 0.268574
0.563851 0.734997 0.280262
0.639582 0.757427 0.291051
0.715862 0.783368 0.303807
0.784421 0.807248 0.315694
0.838788 0.829145 0.326223
0.880369 0.850126 0.335729
0.912825 0.865766 0.342931
0.936721 0.873854 0.347127
0.940291 0.875074 0.347753
0.938399 0.869215 0.345724
0.935164 0.859098 0.342199
0.930602 0.844617 0.337209
0.925566 0.828367 0.33167
0.920043 0.810147 0.325521
0.913115 0.786648 0.317479
0.903822 0.754055 0.306233
0.894301 0.718853 0.294347
0.460029 0.700069 0.395575
0.459342 0.699214 0.391531
0.458946 0.698711 0.389319
0.458579 0.698253 0.387182
0.45832 0.697917 0.385687
0.457984 0.69749 0.38407
0.457694 0.697124 0.382559
0.457481 0.696834 0.381537
0.457282 0.696574 0.380545
0.457099 0.69633 0.379644
0.456855 0.69601 0.378653
0.456733 0.695842 0.378073
0.45655 0.695598 0.377157
0.451102 0.68838 0.351781
0.450629 0.688975 0.321645
0.464561 0.700603 0.294743
0.530068 0.731609 0.296757
0.607141 0.757519 0.294591
0.690349 0.782528 0.302876
0.772519 0.808423 0.315404
0.832807 0.828977 0.325795
0.880461 0.848219 0.335103
0.916472 0.865995 0.343236
0.939254 0.880171 0.349355
0.944503 0.887999 0.35227
0.944915 0.889235 0.352712
0.944106 0.886885 0.351904
0.942535 0.881987 0.350195
0.940368 0.875303 0.34789
0.937377 0.866011 0.345251
0.9337 0.854444 0.34229
0.928069 0.836439 0.336751
0.921386 0.814542 0.328588
0.465476 0.706233 0.436164
0.465003 0.705715 0.432685
0.464714 0.705394 0.430243
0.4645 0.705165 0.428382
0.464332 0.704982 0.426978
0.464195 0.704845 0.425757
0.464103 0.704753 0.424918
0.464012 0.704677 0.424125
0.46392 0.704585 0.423285
0.463828 0.704479 0.422324
0.463752 0.704387 0.42182
0.463691 0.704326 0.421332
0.463645 0.70428 0.420996
0.463584 0.704219 0.420401
0.46009 0.700374 0.391959
0.464408 0.708385 0.366918
0.485145 0.726131 0.360281
0.566079 0.761364 0.356252
0.648402 0.787655 0.335851
0.740276 0.815412 0.328389
0.810162 0.834989 0.331395
0.868406 0.853284 0.337484
0.910216 0.870405 0.345159
0.936477 0.885267 0.351675
0.946654 0.894606 0.355322
0.94786 0.898116 0.356741
0.948318 0.899443 0.358526
0.948257 0.89926 0.360052
0.947936 0.898131 0.363287
0.947219 0.895903 0.364355
0.945602 0.890913 0.365835
0.943435 0.884153 0.367025
0.940795 0.876143 0.362844
0.473121 0.715084 0.483894
0.472496 0.714382 0.479713
0.472068 0.713909 0.476967
0.471641 0.713405 0.474479
0.47129 0.712993 0.472602
0.471046 0.712703 0.471122
0.470817 0.712428 0.46981
0.470542 0.712093 0.468315
0.470359 0.711864 0.467445
0.470161 0.711635 0.466331
0.470039 0.711482 0.465675
0.469947 0.711376 0.465156
0.46978 0.711162 0.46421
0.469642 0.711009 0.463432
0.469505 0.710857 0.462699
0.4701 0.713466 0.43679
0.480323 0.73019 0.425437
0.515541 0.755535 0.429084
0.603937 0.791684 0.43415
0.697414 0.823392 0.421729
0.780255 0.848951 0.404654
0.846754 0.868559 0.381262
0.894484 0.883543 0.374594
0.928344 0.895125 0.378515
0.949172 0.902922 0.380438
0.950942 0.906569 0.382254
0.951797 0.90901 0.386862
0.952575 0.911055 0.394263
0.953292 0.912871 0.402396
0.95378 0.914031 0.410224
0.953719 0.913634 0.415213
0.952941 0.911269 0.416678
0.952056 0.90866 0.415351
0.480873 0.723445 0.535805
0.480125 0.722637 0.530968
0.479683 0.722179 0.527871
0.479316 0.721813 0.525078
0.479072 0.721584 0.523247
0.478828 0.721325 0.521538
0.47863 0.721126 0.520012
0.478477 0.720989 0.518654
0.47834 0.720867 0.517433
0.478218 0.72076 0.516365
0.478141 0.720684 0.515709
0.478035 0.720562 0.515099
0.477897 0.720424 0.514122
0.477806 0.720317 0.513344
0.477699 0.720211 0.512566
0.477638 0.720165 0.512215
0.481239 0.727855 0.485145
0.497719 0.753582 0.485405
0.553429 0.78526 0.495689
0.654124 0.823514 0.50277
0.750027 0.854643 0.491707
0.824964 0.877653 0.47715
0.879774 0.894011 0.462623
