luts/unknown_leica_like/Natural_Rec2020.cube
TITLE "Software Leica Camera LUT Modern V6.2 Rec2020 Gamma 2.4"
LUT_3D_SIZE 9
0 0 0
0.0321202 0.0126955 0.00683604
0.117998 0.0470283 0.0257725
0.282582 0.112688 0.0618601
0.504143 0.201068 0.110445
0.720241 0.287266 0.158816
0.82327 0.328374 0.185199
0.823301 0.328389 0.18854
0.823331 0.328405 0.189425
0.0134127 0.0206149 0.00770581
0.0201724 0.0182193 0.00730907
0.110765 0.0449226 0.0244297
0.279576 0.111498 0.0612039
0.503777 0.200916 0.110399
0.720226 0.287251 0.159014
0.82327 0.328374 0.185214
0.823301 0.328389 0.18854
0.823331 0.328405 0.189425
0.06804 0.104402 0.0392462
0.0664683 0.101961 0.0383459
0.104234 0.0999466 0.0395056
0.273381 0.12462 0.0632944
0.500938 0.199786 0.109697
0.719722 0.287053 0.15935
0.82327 0.328359 0.185199
0.823301 0.328389 0.18854
0.823331 0.328405 0.189425
0.176059 0.270085 0.101595
0.174899 0.268315 0.100938
0.173175 0.265644 0.0999313
0.272297 0.264149 0.104234
0.498054 0.277775 0.128008
0.71548 0.294759 0.158877
0.82327 0.328374 0.18555
0.823301 0.328389 0.18854
0.823331 0.328405 0.189425
0.335073 0.514015 0.193362
0.334646 0.513344 0.193118
0.334081 0.512505 0.192798
0.331685 0.508827 0.191409
0.510506 0.511635 0.20087
0.724971 0.51252 0.21706
0.839414 0.455863 0.212512
0.823301 0.328389 0.18854
0.823331 0.328405 0.189425
0.490913 0.753063 0.283299
0.490898 0.753048 0.283284
0.490822 0.752941 0.283253
0.490059 0.751751 0.282795
0.523018 0.748867 0.282994
0.74374 0.755825 0.296117
0.902617 0.749645 0.304692
0.881773 0.669459 0.278004
0.823331 0.328405 0.189425
0.621073 0.951095 0.406287
0.621149 0.951217 0.406256
0.621103 0.951141 0.406378
0.621073 0.95111 0.406027
0.620066 0.949554 0.405554
0.743816 0.95227 0.412512
0.935256 0.961227 0.421469
0.965408 0.948562 0.403326
0.944961 0.889387 0.352758
0.638239 0.966934 0.619989
0.638254 0.966934 0.62034
0.638254 0.966934 0.620218
0.638239 0.966918 0.619898
0.638224 0.966918 0.619532
0.638285 0.966934 0.620752
0.901732 0.987778 0.631205
0.986313 0.996429 0.62797
0.985611 0.996262 0.599817
0.65069 0.96878 0.836439
0.65069 0.96878 0.836439
0.65069 0.96878 0.836439
0.65069 0.96878 0.836439
0.650675 0.968765 0.83624
0.650645 0.968765 0.835859
0.773922 0.977554 0.840589
0.985595 0.997421 0.846479
0.993042 0.998184 0.839231
0.00488289 0.00262455 0.0180514
0.0317082 0.012665 0.0193179
0.119051 0.0474861 0.0312657
0.283665 0.113146 0.0653086
0.50486 0.201373 0.114641
0.720012 0.28719 0.1635
0.823301 0.328389 0.187762
0.823301 0.328389 0.18854
0.823331 0.328405 0.189425
0.0152438 0.0226444 0.0194705
0.0194553 0.019501 0.0195315
0.111345 0.045304 0.0301671
0.280568 0.11191 0.064683
0.504341 0.20116 0.114824
0.720317 0.287312 0.164172
0.823301 0.328389 0.188235
0.823301 0.328389 0.18854
0.823331 0.328405 0.189425
0.0709239 0.108782 0.0420996
0.0690623 0.105913 0.0411231
0.105516 0.10428 0.0424048
0.274434 0.127611 0.0661936
0.501274 0.199939 0.113771
0.719753 0.287083 0.164965
0.823331 0.328405 0.188922
0.823301 0.328389 0.18854
0.823331 0.328405 0.189425
0.178729 0.274189 0.103136
0.177661 0.272557 0.102525
0.175753 0.269612 0.101427
0.273335 0.268177 0.105638
0.498085 0.28072 0.129076
0.715602 0.296223 0.163592
0.823362 0.32842 0.191699
0.823301 0.328389 0.18854
0.823331 0.328405 0.189425
0.335698 0.514977 0.193729
0.335256 0.51429 0.193469
0.334691 0.513436 0.193149
0.332433 0.509957 0.191836
0.510475 0.512444 0.201144
0.725002 0.513466 0.21735
0.839704 0.457588 0.213291
0.823346 0.32842 0.190982
0.823331 0.328405 0.189425
0.490394 0.752285 0.282994
0.49044 0.752361 0.283024
0.490379 0.752255 0.282994
0.489586 0.751034 0.282536
0.522484 0.74789 0.282628
0.743282 0.755154 0.295872
0.902434 0.748989 0.304463
0.881834 0.669718 0.278096
0.823331 0.328405 0.189425
0.620935 0.950271 0.422065
0.621073 0.950454 0.422309
0.621027 0.950408 0.422232
0.620859 0.950149 0.421942
0.619852 0.948608 0.421424
0.743481 0.951461 0.427497
0.935058 0.96054 0.435279
0.965225 0.94754 0.415595
0.944656 0.888441 0.352941
0.638498 0.966964 0.625299
0.638514 0.966964 0.62565
0.638514 0.966964 0.625772
0.638483 0.966964 0.625208
0.638483 0.966964 0.625086
0.638529 0.966964 0.626062
0.901686 0.987793 0.636011
0.98645 0.996475 0.633219
0.985779 0.996292 0.606287
0.650782 0.96878 0.837736
0.650782 0.96878 0.837736
0.650782 0.96878 0.837736
0.650782 0.96878 0.837736
0.650767 0.96878 0.837537
0.650752 0.96878 0.837369
0.773602 0.977539 0.841672
0.985626 0.997421 0.847562
0.993118 0.998199 0.840864
0.0281224 0.0160067 0.0996414
0.0373388 0.018555 0.0999771
0.120516 0.0488899 0.101976
0.28513 0.113985 0.114916
0.505516 0.20177 0.147616
0.72015 0.287327 0.186358
0.823484 0.328511 0.203387
0.823331 0.328405 0.190723
0.823331 0.328405 0.189425
0.0298924 0.0226291 0.100893
0.0304417 0.0204471 0.101472
0.1122 0.0459602 0.103166
0.281804 0.112673 0.115541
0.504524 0.201373 0.148348
0.720546 0.287495 0.188098
0.823438 0.328496 0.2047
0.823346 0.32842 0.191165
0.823331 0.328405 0.189425
0.0751202 0.110903 0.105028
0.0732738 0.107912 0.104845
0.105409 0.10544 0.105791
0.275151 0.128481 0.116594
0.501015 0.199969 0.147951
0.719814 0.287205 0.189975
0.823392 0.328496 0.206653
0.823362 0.32842 0.192035
0.823331 0.328405 0.189425
0.181811 0.278019 0.128634
0.180896 0.276616 0.128527
0.179034 0.273732 0.128054
0.274189 0.272084 0.133577
0.498085 0.283482 0.157137
0.715389 0.297475 0.190021
0.823377 0.328511 0.213001
0.823392 0.32845 0.194736
0.823331 0.328405 0.189425
0.335683 0.5149 0.195041
0.335561 0.514717 0.194995
0.334997 0.513863 0.194675
0.332692 0.510307 0.193713
0.510018 0.512795 0.20444
0.724865 0.514183 0.224628
0.840131 0.459663 0.229877
0.823392 0.328496 0.206699
0.823331 0.328405 0.189425
0.489448 0.750683 0.287205
0.489677 0.751019 0.287419
0.489601 0.750912 0.287358
0.488701 0.749523 0.286702
0.521126 0.74638 0.287556
0.742184 0.75375 0.301442
0.90222 0.747921 0.311635
0.881697 0.669093 0.27982
0.823331 0.328405 0.190768
0.620584 0.948913 0.441489
0.620615 0.948959 0.441825
0.620676 0.94905 0.441718
0.620447 0.948699 0.441169
0.619516 0.947265 0.441077
0.742992 0.950134 0.447776
0.934462 0.959213 0.456306
0.965026 0.94609 0.437552
0.94432 0.887098 0.363409
0.638895 0.967025 0.633936
0.638911 0.967025 0.634012
0.638911 0.967025 0.634043
0.638895 0.967025 0.633814
0.63888 0.967025 0.633463
0.638941 0.967025 0.634592
0.901656 0.987823 0.644297
0.986679 0.996521 0.641657
0.986023 0.996353 0.616403
0.650919 0.968811 0.839796
0.650919 0.968811 0.839796
0.650919 0.968811 0.839796
0.650919 0.968811 0.839796
0.650904 0.968811 0.839612
0.650889 0.968811 0.839414
0.773907 0.977584 0.843915
0.985611 0.997436 0.849958
0.99321 0.99823 0.843488
0.0742046 0.0424659 0.262226
0.0742046 0.0424659 0.262089
0.127596 0.0581369 0.26273
0.289372 0.117922 0.266697
0.506813 0.203326 0.278782
0.720699 0.288182 0.296223
0.824247 0.329305 0.298894
0.823987 0.328984 0.263462
0.823331 0.328405 0.189807
0.0746166 0.0426947 0.263645
0.0745708 0.0426642 0.263478
0.116991 0.0547646 0.264012
0.285191 0.11635 0.268254
0.505211 0.202701 0.279896
0.721019 0.288319 0.29865
0.824277 0.329335 0.301289
0.824002 0.329 0.265278
0.823331 0.328405 0.19028
0.0916152 0.100008 0.265126
0.0901808 0.0964065 0.265248
0.105394 0.0926223 0.265812
0.276402 0.121294 0.269215
0.501366 0.201205 0.28072
0.719951 0.287922 0.300587
0.824308 0.329366 0.304555
0.824033 0.32903 0.268452
0.823346 0.32842 0.191028
0.191577 0.28217 0.274159
0.190539 0.280446 0.274205
0.189242 0.278309 0.27425
0.275105 0.275441 0.276402
0.497459 0.286503 0.28603
0.714427 0.296117 0.302281
0.824445 0.329473 0.312627
0.824125 0.329122 0.277409
0.823377 0.328435 0.193332
0.338064 0.513695 0.304112
0.337957 0.513481 0.304494
0.337453 0.512703 0.304616
0.334768 0.508476 0.304356
0.509316 0.511559 0.312139
0.723415 0.513588 0.325216
0.841169 0.460472 0.327382
0.824277 0.329335 0.301274
0.823468 0.328511 0.203494
0.489342 0.747158 0.372229
0.489372 0.747204 0.372549
0.489311 0.747112 0.372442
0.488334 0.745617 0.371878
0.519356 0.742458 0.374029
0.740734 0.750225 0.385702
0.902144 0.744167 0.392035
0.881971 0.666529 0.36173
0.823957 0.328969 0.261967
0.619883 0.945388 0.49424
0.620005 0.945556 0.49456
0.620066 0.945663 0.494469
0.619837 0.945342 0.493889
0.618769 0.943648 0.493965
0.741634 0.946456 0.500114
0.932708 0.955444 0.507195
0.964736 0.942687 0.493156
0.943984 0.883177 0.433051
0.640009 0.967193 0.656641
0.640024 0.967193 0.656962
0.640009 0.967193 0.656641
0.640009 0.967193 0.656535
0.640009 0.967178 0.656428
0.640055 0.967193 0.657526
0.902007 0.987945 0.666941
0.987305 0.996689 0.664775
0.986679 0.996536 0.641917
0.651347 0.968872 0.846006
0.651347 0.968872 0.846021
0.651347 0.968872 0.845823
0.651347 0.968872 0.845823
0.651347 0.968872 0.845838
0.651316 0.968872 0.845518
0.774792 0.977691 0.850095
0.985611 0.997482 0.856001
0.993469 0.998291 0.850095
0.138827 0.0794842 0.490471
0.138827 0.0794842 0.490471
0.148119 0.0818036 0.490913
0.299733 0.129839 0.493095
0.509071 0.208179 0.498344
0.721599 0.29102 0.508064
0.828092 0.332921 0.511543
0.827665 0.332525 0.494743
0.826383 0.331289 0.432288
0.138872 0.0795148 0.490654
0.138949 0.0795453 0.490898
0.142077 0.080354 0.491371
0.294148 0.127886 0.493538
0.50692 0.207355 0.498924
0.720974 0.290791 0.508736
0.828122 0.332952 0.512901
0.827695 0.332555 0.49633
0.826429 0.331334 0.434348
0.143145 0.101961 0.490471
0.142733 0.0994888 0.490944
0.142 0.095079 0.491524
0.282002 0.126955 0.493156
0.501823 0.205386 0.498482
0.718868 0.289967 0.508843
0.828168 0.332982 0.514351
0.827726 0.332601 0.49778
0.826474 0.331365 0.436027
0.220706 0.29276 0.493538
0.219913 0.291234 0.493645
0.218128 0.2878 0.493706
0.280186 0.283223 0.494377
0.496529 0.2925 0.499001
0.711666 0.300923 0.50779
0.828214 0.333013 0.515602
0.827848 0.332692 0.501808
0.826596 0.331472 0.441627
0.347311 0.510674 0.50399
0.347448 0.510887 0.504341
0.346578 0.509422 0.504524
0.343862 0.504967 0.504265
0.507439 0.507927 0.508522
0.720729 0.510933 0.516335
0.844816 0.463203 0.519234
0.828122 0.332952 0.512764
0.826932 0.331777 0.456519
0.490654 0.739208 0.533562
0.490867 0.739513 0.533898
0.490608 0.739101 0.533745
0.489677 0.737636 0.533639
0.518715 0.734401 0.535241
0.73753 0.741833 0.542824
0.902876 0.736645 0.547784
0.883406 0.660273 0.534279
0.827649 0.332525 0.494545
0.618402 0.936965 0.599496
0.618448 0.936996 0.599832
0.618311 0.936828 0.599252
0.618265 0.936736 0.599374
0.617182 0.935027 0.599573
0.738445 0.93756 0.604135
0.929259 0.946548 0.610788
0.964126 0.934447 0.603281
0.943816 0.874922 0.569619
0.642832 0.967605 0.709865
0.642847 0.967605 0.710185
0.642832 0.967605 0.709865
0.642832 0.967605 0.710033
0.642832 0.967605 0.709926
0.642863 0.967605 0.710597
0.902754 0.988251 0.719905
0.988891 0.997101 0.719097
0.988388 0.996979 0.702312
0.652522 0.969055 0.862638
0.652537 0.969055 0.862669
0.652522 0.969055 0.862638
0.652522 0.969055 0.862654
0.652537 0.969055 0.862669
0.652506 0.969039 0.862257
0.777081 0.977966 0.86688
0.985687 0.997589 0.872648
0.994156 0.998474 0.867399
0.210788 0.160632 0.712352
0.210224 0.158038 0.712627
0.209262 0.15314 0.713069
0.313695 0.16405 0.713848
0.507729 0.215442 0.716823
0.715969 0.29337 0.723507
0.835218 0.339529 0.731167
0.835065 0.339406 0.728023
0.834348 0.338766 0.710475
0.220508 0.195956 0.712871
0.219852 0.19353 0.713237
0.218433 0.188495 0.713405
0.310826 0.190112 0.713985
0.50515 0.219944 0.717083
0.714504 0.292805 0.723735
0.835218 0.339544 0.731441
0.835111 0.339437 0.728923
0.834394 0.338796 0.711406
0.241077 0.255665 0.713176
0.240177 0.25304 0.713619
0.238834 0.249348 0.713832
0.312108 0.244877 0.714397
0.503594 0.253162 0.716991
0.711559 0.291752 0.7234
0.835172 0.339513 0.730556
0.835126 0.339467 0.729442
0.834409 0.338811 0.711894
0.289372 0.364477 0.714687
0.288975 0.363684 0.714656
0.287785 0.361151 0.714885
0.32163 0.357061 0.715267
0.507622 0.362966 0.718074
0.711498 0.365423 0.723247
0.835081 0.339406 0.728069
0.835187 0.339513 0.73077
0.834455 0.338857 0.713344
0.377478 0.528756 0.718074
0.377356 0.528496 0.71841
0.376867 0.527611 0.718486
0.374609 0.523461 0.719112
0.516976 0.525933 0.72137
0.720256 0.530526 0.726528
0.85597 0.495689 0.729778
0.835111 0.339452 0.729
0.834638 0.339025 0.717388
0.499046 0.733227 0.728939
0.499062 0.733211 0.729274
0.498543 0.732357 0.729168
0.497948 0.731365 0.729229
0.526894 0.728634 0.730541
0.735576 0.735653 0.735729
0.904005 0.732357 0.740383
0.889448 0.662287 0.735927
0.835248 0.339483 0.727733
0.616449 0.92137 0.755764
0.616556 0.921508 0.756008
0.616464 0.921386 0.755779
0.616403 0.921309 0.755673
0.615045 0.919051 0.756344
0.735698 0.921752 0.759533
0.923033 0.930663 0.765408
0.963867 0.920729 0.763455
0.944839 0.862974 0.749355
0.648951 0.968521 0.810697
0.648951 0.968521 0.810681
0.648951 0.968521 0.810712
0.648951 0.968505 0.81062
0.648951 0.968521 0.810742
0.649104 0.968536 0.811765
0.904356 0.988937 0.819898
0.992355 0.998001 0.820844
0.992035 0.997925 0.812039
0.6551 0.969436 0.897749
0.6551 0.969436 0.897719
0.6551 0.969436 0.897749
0.6551 0.969436 0.897765
0.6551 0.969436 0.897704
0.655085 0.969436 0.897597
0.783291 0.978698 0.902419
0.985702 0.997803 0.908278
0.995712 0.998871 0.905425
0.371786 0.474266 0.898985
0.372168 0.474327 0.89929
0.377066 0.473411 0.899489
0.432166 0.474266 0.900175
0.558587 0.478279 0.901976
0.72781 0.4804 0.90544
0.85594 0.447181 0.909102
0.843671 0.347326 0.912474
0.843809 0.347448 0.914916
0.377386 0.485252 0.899672
0.377432 0.484871 0.899992
0.38114 0.483909 0.900236
0.433478 0.484627 0.900359
0.559945 0.488991 0.902525
0.729107 0.490532 0.905959
0.857542 0.458183 0.909422
0.843656 0.347311 0.912352
0.843839 0.347463 0.915343
0.384817 0.499886 0.899809
0.384848 0.499779 0.900008
0.386938 0.498985 0.900221
0.434333 0.498985 0.900587
0.561303 0.50396 0.902541
0.730114 0.504997 0.905989
0.859876 0.473686 0.909575
0.843626 0.34728 0.911681
0.843839 0.347478 0.915496
0.403433 0.535744 0.899931
0.40325 0.535332 0.900191
0.40264 0.533883 0.900145
0.434669 0.533532 0.900725
0.562387 0.538079 0.902647
0.732708 0.542184 0.906371
0.866896 0.517037 0.909712
0.843992 0.34931 0.91014
0.843854 0.347494 0.915801
0.448005 0.617761 0.901183
0.448081 0.617853 0.901427
0.446998 0.61593 0.901289
0.451453 0.614862 0.90161
0.567254 0.618219 0.903517
0.737987 0.622995 0.906722
0.88513 0.611795 0.910796
0.862654 0.491096 0.910033
0.843915 0.347539 0.916686
0.529 0.758862 0.903838
0.529076 0.758938 0.904082
0.528466 0.757931 0.903944
0.527611 0.756451 0.904067
0.571527 0.75555 0.905272
0.748058 0.76228 0.908736
0.903716 0.761822 0.912917
0.908522 0.712413 0.912749
0.852277 0.420645 0.90869
0.619699 0.909865 0.910353
0.619745 0.909941 0.91043
0.619577 0.909667 0.910353
0.619394 0.909331 0.910536
0.617472 0.906111 0.910964
0.747524 0.91075 0.914015
0.918517 0.918593 0.918685
0.966125 0.910353 0.919646
0.951064 0.863325 0.91635
0.657069 0.969741 0.923415
0.657053 0.969741 0.923354
0.657069 0.969741 0.923415
0.657069 0.969741 0.923476
0.657069 0.969741 0.923415
0.658061 0.969818 0.924727
0.908614 0.990036 0.931655
0.996979 0.999207 0.934691
0.996918 0.999191 0.93312
0.659129 0.970047 0.949462
0.659129 0.970047 0.949477
0.659129 0.970047 0.949508
0.659129 0.970047 0.949538
0.659129 0.970047 0.949462
0.659129 0.970047 0.949416
0.801358 0.980529 0.954528
0.986267 0.998215 0.960143
0.998093 0.999496 0.959579
0.584253 0.755413 0.976364
0.592416 0.756451 0.976486
0.604334 0.757214 0.976638
0.628321 0.757336 0.976806
0.690044 0.760082 0.9776
0.798871 0.764157 0.979065
0.910536 0.76141 0.980392
0.912413 0.715969 0.977661
0.862913 0.475242 0.966003
0.585077 0.758495 0.976562
0.593103 0.759533 0.976684
0.604791 0.759716 0.976761
0.629206 0.760647 0.977066
0.69073 0.763134 0.977798
0.799466 0.767224 0.979171
0.911269 0.764645 0.980606
0.913329 0.719615 0.97789
0.86479 0.487144 0.96643
0.584756 0.762158 0.976791
0.593042 0.762905 0.976898
0.604852 0.763394 0.976944
0.629541 0.76434 0.97731
0.690913 0.767102 0.978012
0.799893 0.770916 0.979507
0.911376 0.768246 0.980743
0.914733 0.725002 0.978225
0.867124 0.501381 0.966964
0.584237 0.771923 0.977417
0.592523 0.773114 0.977554
0.605325 0.773312 0.977676
0.629755 0.774426 0.977951
0.691524 0.777462 0.978729
0.800381 0.780667 0.980102
0.912566 0.778927 0.981537
0.918517 0.739467 0.979141
0.872999 0.535271 0.968322
0.583215 0.798047 0.979034
0.590204 0.798413 0.979217
0.602899 0.798917 0.979263
0.629862 0.80029 0.979629
0.692607 0.803403 0.980468
0.80264 0.807553 0.981979
0.915862 0.807355 0.983474
0.927749 0.773571 0.981414
0.889128 0.616892 0.972091
0.590585 0.850462 0.982834
0.592004 0.85034 0.982849
0.597375 0.850538 0.982895
0.627192 0.852003 0.983291
0.691051 0.854795 0.9841
0.804807 0.860029 0.985611
0.921859 0.863066 0.987533
0.948531 0.844938 0.986618
0.923659 0.758663 0.980407
0.634577 0.924559 0.987167
0.634607 0.92462 0.987167
0.634424 0.9243 0.987213
0.634073 0.92369 0.987472
0.665095 0.923751 0.988022
0.799435 0.930785 0.990967
0.928893 0.937896 0.99353
0.977279 0.934585 0.994003
0.96907 0.90985 0.991867
0.662287 0.970535 0.987594
0.662287 0.970535 0.987579
0.662287 0.970535 0.987594
0.662287 0.970535 0.98764
0.662333 0.97055 0.988205
0.736049 0.975662 0.990799
0.921813 0.991791 0.995834
0.998047 0.998077 0.998047
0.997955 0.994446 0.997986
0.662516 0.970565 0.990387
0.662516 0.970565 0.990417
0.662516 0.970565 0.990387
0.662516 0.970565 0.990387
0.662516 0.970565 0.990372
0.662516 0.970565 0.990372
0.841016 0.984222 0.996231
0.988251 0.998718 0.999695
1 1 1
0.818753 0.937179 0.991974
0.821027 0.937545 0.992035
0.824063 0.937591 0.992081
0.832883 0.938094 0.992233
0.854963 0.939498 0.99263
0.897932 0.942 0.993317
0.954177 0.944762 0.994492
0.979446 0.940978 0.994568
0.972396 0.919936 0.992721
0.81944 0.937865 0.99205
0.821317 0.938094 0.992081
0.82446 0.93814 0.992126
0.833295 0.938659 0.992279
0.855314 0.940002 0.992676
0.898192 0.942504 0.993393
0.954498 0.945251 0.994537
0.979644 0.941573 0.994614
0.972595 0.920516 0.992782
0.819364 0.938384 0.992081
0.821195 0.938598 0.992126
0.824353 0.93872 0.992172
0.833219 0.939132 0.992325
0.855253 0.940475 0.992721
0.898039 0.942901 0.9935
0.954574 0.945769 0.994583
0.979873 0.94226 0.994675
0.972869 0.921355 0.992844
0.818814 0.939788 0.992203
0.820859 0.939849 0.992218
0.823835 0.939757 0.992203
0.832822 0.940444 0.992432
0.855055 0.941848 0.992828
0.898009 0.944213 0.993622
0.954711 0.947173 0.994705
0.980468 0.944106 0.994812
0.973556 0.923445 0.993027
0.817441 0.943038 0.992447
0.819257 0.943084 0.992477
0.822522 0.943206 0.992523
0.831617 0.944045 0.992706
0.854322 0.945418 0.993118
0.897993 0.947936 0.993927
0.955123 0.950698 0.994995
0.981918 0.948257 0.995209
0.975723 0.929931 0.993591
0.813535 0.952712 0.993225
0.815351 0.952819 0.993255
0.818631 0.952972 0.993301
0.827558 0.95346 0.993454
0.852125 0.954833 0.993881
0.897276 0.957687 0.994736
0.955795 0.960708 0.995865
0.985611 0.95903 0.996185
0.98117 0.946075 0.99501
0.798199 0.969879 0.994507
0.80087 0.970062 0.994553
0.804929 0.970397 0.994629
0.814435 0.971008 0.994797
0.840497 0.972488 0.995193
0.892668 0.975814 0.996246
0.956481 0.979599 0.997497
0.993027 0.980346 0.998138
0.990585 0.973373 0.997497
0.722789 0.974716 0.994079
0.72697 0.975021 0.994156
0.732876 0.975464 0.994247
0.750164 0.976761 0.994553
0.787655 0.979706 0.995239
0.863737 0.986267 0.996765
0.948287 0.994492 0.998703
0.999313 0.999924 0.999985
1 1 1
0.662745 0.970611 0.993133
0.662745 0.970611 0.993133
0.662745 0.970611 0.993133
0.662745 0.970611 0.993133
0.662745 0.970611 0.993133
0.681163 0.971817 0.993423
0.906935 0.990341 0.997726
0.992218 0.999146 0.999802
1 1 1
