luts/unknown_leica_like/Natural_Rec709.cube
TITLE "Software Leica Camera LUT Modern V6.2 Rec709 Gamma 2.4"
LUT_3D_SIZE 5
0 0 0
0.1449 0 0
0.613214 0 0.00282292
1 0 0.0616159
1 0 0.0801404
0 0.109056 0
0.110201 0.100465 0
0.608499 0 0.00047303
1 0 0.0616007
1 0 0.0801404
0 0.532494 0
0 0.530953 0
0.523415 0.513405 0
1 0.367071 0
1 0 0.0801404
0 0.984314 0.244038
0 0.984176 0.243565
0 0.982544 0.243061
0.943114 0.966537 0.242802
1 0.883726 0
0 1 0.823728
0 1 0.823728
0 1 0.823514
0.594125 1 0.825422
1 1 0.816571
0 0 0.105806
0.145907 0 0.106447
0.614313 0 0.11664
1 0 0.120485
1 0 0.0801404
0 0.115068 0.105547
0.105974 0.106035 0.106416
0.608484 0 0.118196
1 0 0.127977
1 0 0.0801404
0 0.533822 0.0372931
0 0.53225 0.0372473
0.522072 0.514855 0.0546731
1 0.372183 0.112886
1 0 0.0801404
0 0.981903 0.31574
0 0.981765 0.315404
0 0.980087 0.315435
0.942061 0.964218 0.317128
1 0.880873 0.12723
0 1 0.827665
0 1 0.827665
0 1 0.827451
0.594598 1 0.829358
1 1 0.821637
0 0 0.514702
0.0813001 0 0.515084
0.607691 0 0.517281
1 0 0.517678
1 0 0.429404
0 0.0765545 0.513878
0.00520333 0.0637522 0.514305
0.597681 0 0.516701
1 0 0.519921
1 0 0.432853
0 0.52668 0.506004
0 0.524956 0.506279
0.507103 0.507988 0.508583
1 0.373709 0.515801
1 0 0.455604
0 0.968521 0.548012
0 0.968383 0.547723
0 0.966415 0.548226
0.936156 0.950179 0.550912
1 0.866224 0.511849
0 1 0.853391
0 1 0.853391
0 1 0.853391
0.598566 1 0.855192
1 1 0.849104
0 0.480049 0.933684
0.116579 0.477867 0.933883
0.565179 0.46099 0.935042
1 0.333837 0.940002
1 0 0.94966
0 0.506386 0.932876
0.084184 0.504814 0.933043
0.556283 0.490257 0.934249
1 0.375006 0.93904
1 0 0.949798
0 0.631388 0.9281
0 0.62948 0.928313
0.493034 0.620356 0.92929
1 0.559609 0.933577
1 0 0.950973
0 0.937102 0.913909
0 0.936889 0.913924
0 0.93315 0.915007
0.91783 0.917967 0.918059
1 0.850019 0.919997
0 1 0.950591
0 1 0.950591
0 1 0.950591
0.640909 1 0.953109
1 1 0.953536
0.719783 0.949966 1
0.729732 0.949798 1
0.787213 0.948684 1
0.956374 0.943114 1
1 0.912016 1
0.718975 0.950835 1
0.728557 0.950698 1
0.786297 0.949447 1
0.956161 0.943771 1
1 0.913359 1
0.710994 0.956237 1
0.721065 0.955978 1
0.780743 0.954955 1
0.953841 0.949248 1
1 0.92282 1
0.645243 0.987854 1
0.659175 0.98761 1
0.73196 0.986526 1
0.938613 0.981781 1
1 0.970169 1
0 1 1
0 1 1
0 1 1
0.842588 1 1
1 1 1
