luts/unknown_leica_like/Natural_Rec2020.cube
TITLE "Software Leica Camera LUT Modern V6.2 Rec2020 Gamma 2.4"
LUT_3D_SIZE 5
0 0 0
0.117998 0.0470283 0.0257725
0.504143 0.201068 0.110445
0.82327 0.328374 0.185199
0.823331 0.328405 0.189425
0.06804 0.104402 0.0392462
0.104234 0.0999466 0.0395056
0.500938 0.199786 0.109697
0.82327 0.328359 0.185199
0.823331 0.328405 0.189425
0.335073 0.514015 0.193362
0.334081 0.512505 0.192798
0.510506 0.511635 0.20087
0.839414 0.455863 0.212512
0.823331 0.328405 0.189425
0.621073 0.951095 0.406287
0.621103 0.951141 0.406378
0.620066 0.949554 0.405554
0.935256 0.961227 0.421469
0.944961 0.889387 0.352758
0.65069 0.96878 0.836439
0.65069 0.96878 0.836439
0.650675 0.968765 0.83624
0.773922 0.977554 0.840589
0.993042 0.998184 0.839231
0.0281224 0.0160067 0.0996414
0.120516 0.0488899 0.101976
0.505516 0.20177 0.147616
0.823484 0.328511 0.203387
0.823331 0.328405 0.189425
0.0751202 0.110903 0.105028
0.105409 0.10544 0.105791
0.501015 0.199969 0.147951
0.823392 0.328496 0.206653
0.823331 0.328405 0.189425
0.335683 0.5149 0.195041
0.334997 0.513863 0.194675
0.510018 0.512795 0.20444
0.840131 0.459663 0.229877
0.823331 0.328405 0.189425
0.620584 0.948913 0.441489
0.620676 0.94905 0.441718
0.619516 0.947265 0.441077
0.934462 0.959213 0.456306
0.94432 0.887098 0.363409
0.650919 0.968811 0.839796
0.650919 0.968811 0.839796
0.650904 0.968811 0.839612
0.773907 0.977584 0.843915
0.99321 0.99823 0.843488
0.138827 0.0794842 0.490471
0.148119 0.0818036 0.490913
0.509071 0.208179 0.498344
0.828092 0.332921 0.511543
0.826383 0.331289 0.432288
0.143145 0.101961 0.490471
0.142 0.095079 0.491524
0.501823 0.205386 0.498482
0.828168 0.332982 0.514351
0.826474 0.331365 0.436027
0.347311 0.510674 0.50399
0.346578 0.509422 0.504524
0.507439 0.507927 0.508522
0.844816 0.463203 0.519234
0.826932 0.331777 0.456519
0.618402 0.936965 0.599496
0.618311 0.936828 0.599252
0.617182 0.935027 0.599573
0.929259 0.946548 0.610788
0.943816 0.874922 0.569619
0.652522 0.969055 0.862638
0.652522 0.969055 0.862638
0.652537 0.969055 0.862669
0.777081 0.977966 0.86688
0.994156 0.998474 0.867399
0.371786 0.474266 0.898985
0.377066 0.473411 0.899489
0.558587 0.478279 0.901976
0.85594 0.447181 0.909102
0.843809 0.347448 0.914916
0.384817 0.499886 0.899809
0.386938 0.498985 0.900221
0.561303 0.50396 0.902541
0.859876 0.473686 0.909575
0.843839 0.347478 0.915496
0.448005 0.617761 0.901183
0.446998 0.61593 0.901289
0.567254 0.618219 0.903517
0.88513 0.611795 0.910796
0.843915 0.347539 0.916686
0.619699 0.909865 0.910353
0.619577 0.909667 0.910353
0.617472 0.906111 0.910964
0.918517 0.918593 0.918685
0.951064 0.863325 0.91635
0.659129 0.970047 0.949462
0.659129 0.970047 0.949508
0.659129 0.970047 0.949462
0.801358 0.980529 0.954528
0.998093 0.999496 0.959579
0.818753 0.937179 0.991974
0.824063 0.937591 0.992081
0.854963 0.939498 0.99263
0.954177 0.944762 0.994492
0.972396 0.919936 0.992721
0.819364 0.938384 0.992081
0.824353 0.93872 0.992172
0.855253 0.940475 0.992721
0.954574 0.945769 0.994583
0.972869 0.921355 0.992844
0.817441 0.943038 0.992447
0.822522 0.943206 0.992523
0.854322 0.945418 0.993118
0.955123 0.950698 0.994995
0.975723 0.929931 0.993591
0.798199 0.969879 0.994507
0.804929 0.970397 0.994629
0.840497 0.972488 0.995193
0.956481 0.979599 0.997497
0.990585 0.973373 0.997497
0.662745 0.970611 0.993133
0.662745 0.970611 0.993133
0.662745 0.970611 0.993133
0.906935 0.990341 0.997726
1 1 1
