luts/unknown_leica_like/Natural_Rec709.cube
TITLE "Software Leica Camera LUT Modern V6.2 Rec709 Gamma 2.4"
LUT_3D_SIZE 9
0 0 0
0.0402228 0 0
0.1449 0 0
0.3449 0 0
0.613214 0 0.00282292
0.874769 0 0.0302586
1 0 0.0616159
1 0 0.0764782
1 0 0.0801404
0 0.0222171 0
0.0221714 0.0184634 0
0.135195 0.0100252 0
0.340398 0 0
0.611948 0 0.00393683
0.874495 0 0.0327306
1 0 0.0616159
1 0 0.0764782
1 0 0.0801404
0 0.109056 0
0 0.106188 0
0.110201 0.100465 0
0.330434 0.0771344 0
0.608499 0 0.00047303
0.873838 0 0.0361944
1 0 0.0616007
1 0 0.0764782
1 0 0.0801404
0 0.280507 0
0 0.278508 0
0 0.275715 0
0.284459 0.264485 0
0.591623 0.228946 0
0.867247 0.106386 0.0145113
1 0 0.0635843
1 0 0.076463
1 0 0.0801404
0 0.532494 0
0 0.53196 0
0 0.530953 0
0 0.527047 0
0.523415 0.513405 0
0.833814 0.478111 0
1 0.367071 0
1 0 0.076463
1 0 0.0801404
0 0.779644 0
0 0.77966 0
0 0.7794 0
0 0.778042 0
0.296056 0.772808 0
0.756161 0.759228 0
1 0.729198 0
1 0.638071 0
1 0 0.0801404
0 0.984314 0.244038
0 0.984344 0.243488
0 0.984176 0.243565
0 0.984039 0.242542
0 0.982544 0.243061
0.592371 0.975998 0.247593
0.943114 0.966537 0.242802
1 0.948592 0.200916
1 0.883726 0
0 1 0.566384
0 1 0.566384
0 1 0.566064
0 1 0.566064
0 1 0.565469
0 1 0.566751
0.86128 1 0.5682
1 1 0.55906
1 1 0.521202
0 1 0.823728
0 1 0.823728
0 1 0.823728
0 1 0.823728
0 1 0.823514
0 1 0.823087
0.594125 1 0.825422
0.986297 1 0.825437
1 1 0.816571
0 0 0.0200504
0.0394141 0 0.0203708
0.145983 0 0.0216678
0.345922 0 0.0274052
0.61384 0 0.0427558
0.874907 0 0.0618143
1 0 0.0733501
1 0 0.0764782
1 0 0.0801404
0 0.0240787 0.0195621
0.0199435 0.0200198 0.0200504
0.135912 0.0115358 0.0213321
0.341314 0 0.0274357
0.61239 0 0.0439918
0.874632 0 0.0643626
1 0 0.075288
1 0 0.0764782
1 0 0.0801404
0 0.113375 0.0133516
0 0.110567 0.013901
0.109438 0.105028 0.0152743
0.330999 0.0826581 0.022385
0.608713 0 0.041886
0.873869 0 0.0676585
1 0 0.0784466
1 0 0.0764782
1 0 0.0801404
0 0.284504 0
0 0.282994 0
0 0.279911 0
0.283833 0.268666 0
0.591226 0.233524 0.0147707
0.867018 0.112871 0.0550698
1 0 0.0879835
1 0 0.0764782
1 0 0.0801404
0 0.533318 0
0 0.532769 0
0 0.531762 0
0 0.528099 0
0.523018 0.514412 0
0.833387 0.479118 0
1 0.369345 0.0194858
1 0 0.0857557
1 0 0.0801404
0 0.778836 0
0 0.778836 0
0 0.778592 0
0 0.777188 0
0.296101 0.771695 0
0.755703 0.758419 0
1 0.728313 0
1 0.638392 0
1 0 0.0801404
0 0.983459 0.278508
0 0.983459 0.278508
0 0.983322 0.278187
0 0.983169 0.277867
0 0.981643 0.277775
0.591836 0.97525 0.280354
0.942809 0.965728 0.274662
1 0.947448 0.234867
1 0.88246 0.0330358
0 1 0.572976
0 1 0.572992
0 1 0.572992
0 1 0.572686
0 1 0.572381
0 1 0.573312
0.861265 1 0.57467
1 1 0.56582
1 1 0.529793
0 1 0.825162
0 1 0.825162
0 1 0.825162
0 1 0.825162
0 1 0.824948
0 1 0.824765
0.59443 1 0.826886
0.986221 1 0.826886
1 1 0.818601
0 0 0.105806
0.0345006 0 0.105913
0.145907 0 0.106447
0.347082 0 0.109026
0.614313 0 0.11664
0.8748 0 0.124147
1 0 0.120485
1 0 0.0846876
1 0 0.0801404
0 0.0186465 0.106401
0.0104677 0.0137942 0.106676
0.134859 0.0037232 0.107301
0.342168 0 0.110063
0.612497 0 0.117906
0.87451 0 0.127275
1 0 0.1234
1 0 0.0864118
1 0 0.0801404
0 0.115068 0.105547
0 0.112108 0.105745
0.105974 0.106035 0.106416
0.331167 0.0834669 0.109453
0.608484 0 0.118196
0.873549 0 0.130861
1 0 0.127977
1 0 0.0892653
1 0 0.0801404
0 0.288579 0.0916609
0 0.287022 0.0921035
0 0.283894 0.0929274
0.2822 0.27277 0.0971389
0.590539 0.237446 0.109682
0.866316 0.118013 0.128252
1 0 0.141314
1 0 0.0977951
1 0 0.0801404
0 0.533822 0.0372931
0 0.533272 0.0372625
0 0.53225 0.0372473
0 0.528267 0.04065
0.522072 0.514855 0.0546731
0.8327 0.480034 0.0800183
1 0.372183 0.112886
1 0 0.128359
1 0 0.0801404
0 0.777371 0.0799268
0 0.777371 0.0799268
0 0.777127 0.079469
0 0.775982 0.0790723
0.293843 0.770214 0.0833753
0.75465 0.756954 0.0892195
1 0.727077 0.0990768
1 0.637415 0.0530861
1 0 0.0844434
0 0.981903 0.31574
0 0.98175 0.315847
0 0.981765 0.315404
0 0.981613 0.315099
0 0.980087 0.315435
0.59115 0.973693 0.319432
0.942061 0.964218 0.317128
1 0.945708 0.284932
1 0.880873 0.12723
0 1 0.583703
0 1 0.583368
0 1 0.583368
0 1 0.583368
0 1 0.582773
0 1 0.583978
0.860807 1 0.585489
1 1 0.576867
1 1 0.543328
0 1 0.827665
0 1 0.827665
0 1 0.827665
0 1 0.827665
0 1 0.827451
0 1 0.827253
0.594598 1 0.829358
0.986038 1 0.829557
1 1 0.821637
0 0 0.276036
0.00172427 0 0.275975
0.137011 0 0.276158
0.347158 0 0.277058
0.613672 0 0.279683
0.874006 0 0.281239
1 0 0.271473
1 0 0.223804
1 0 0.0813611
0 0 0.276783
0 0 0.276738
0.120531 0 0.276967
0.340932 0 0.277974
0.611429 0 0.280735
0.873655 0 0.283467
1 0 0.273945
1 0 0.22591
1 0 0.0829786
0 0.098436 0.277211
0 0.0944991 0.27744
0.0828565 0.0874342 0.277684
0.32845 0.0590524 0.278782
0.606424 0 0.281712
0.872282 0 0.285756
1 0 0.277974
1 0 0.230381
1 0 0.0856489
0 0.291676 0.275319
0 0.289662 0.275303
0 0.287388 0.275441
0.275242 0.275883 0.276905
0.586465 0.240925 0.280354
0.863691 0.111147 0.286992
1 0 0.288228
1 0 0.242817
1 0 0.0935531
0 0.531914 0.269306
0 0.531319 0.269474
0 0.530251 0.269566
0.00199893 0.526162 0.270771
0.518563 0.513252 0.274434
0.829572 0.479179 0.279774
1 0.372839 0.285176
1 0 0.274266
1 0 0.120272
0 0.773205 0.290471
0 0.772931 0.290578
0 0.772702 0.290303
0 0.771511 0.290379
0.288304 0.765652 0.293385
0.752102 0.752789 0.29752
1 0.722789 0.29807
1 0.634058 0.277623
1 0 0.220447
0 0.977798 0.402625
0 0.977798 0.402625
0 0.977813 0.402274
0 0.977676 0.401953
0 0.975891 0.402472
0.58941 0.969467 0.405798
0.940398 0.960235 0.404517
1 0.941573 0.38471
1 0.876188 0.308019
0 1 0.611917
0 1 0.611917
0 1 0.611917
0 1 0.611627
0 1 0.611353
0 1 0.612451
0.860136 1 0.613931
1 1 0.606332
1 1 0.576638
0 1 0.834714
0 1 0.834714
0 1 0.834516
0 1 0.834516
0 1 0.834516
0 1 0.834089
0.595621 1 0.836393
0.985626 1 0.83653
1 1 0.829389
0 0 0.514702
0 0 0.514839
0.0813001 0 0.515084
0.339986 0 0.515724
0.607691 0 0.517281
0.869734 0 0.519631
1 0 0.517678
1 0 0.499687
1 0 0.429404
0 0 0.514656
0 0 0.514549
0.050309 0 0.514809
0.331579 0 0.515465
0.60412 0 0.517067
0.868223 0 0.519631
1 0 0.51841
1 0 0.500694
1 0 0.430869
0 0.0765545 0.513878
0 0.0719921 0.514031
0.00520333 0.0637522 0.514305
0.314382 0.0417792 0.514961
0.597681 0 0.516701
0.865293 0 0.519677
1 0 0.519921
1 0 0.50219
1 0 0.432853
0 0.298558 0.511406
0 0.296605 0.511269
0 0.292729 0.511528
0.252262 0.281453 0.5122
0.574899 0.246586 0.514031
0.854292 0.125689 0.517845
1 0 0.521584
1 0 0.506691
1 0 0.439033
0 0.52668 0.506004
0 0.526558 0.506035
0 0.524956 0.506279
0 0.520729 0.506844
0.507103 0.507988 0.508583
0.821027 0.474968 0.511864
1 0.373709 0.515801
1 0 0.518532
1 0 0.455604
0 0.763821 0.507073
0 0.763821 0.507073
0 0.763546 0.507118
0 0.762112 0.507317
0.281086 0.756313 0.50901
0.745953 0.743008 0.511513
1 0.712917 0.513024
1 0.625086 0.50898
1 0 0.498024
0 0.968521 0.548012
0 0.968368 0.548043
0 0.968383 0.547723
0 0.968215 0.547753
0 0.966415 0.548226
0.58587 0.959915 0.550622
0.936156 0.950179 0.550912
1 0.931991 0.542199
1 0.866224 0.511849
0 1 0.676448
0 1 0.676448
0 1 0.676448
0 1 0.676478
0 1 0.676204
0 1 0.677348
0.858152 1 0.67895
1 1 0.67393
1 1 0.652796
0 1 0.853391
0 1 0.853391
0 1 0.853391
0 1 0.853391
0 1 0.853391
0 1 0.852979
0.598566 1 0.855192
0.984665 1 0.855451
1 1 0.849104
0 0.130846 0.745785
0 0.126879 0.745907
0.0102998 0.118669 0.74609
0.316289 0.0939956 0.746456
0.588144 0.0297856 0.747677
0.85211 0 0.750271
1 0 0.754681
1 0 0.751553
1 0 0.73254
0 0.177569 0.745205
0 0.173983 0.745312
0 0.167254 0.74551
0.304265 0.145968 0.746075
0.583261 0.074342 0.747356
0.849439 0 0.74992
1 0 0.754284
1 0 0.751797
1 0 0.732784
0 0.248585 0.744442
0 0.2448 0.744564
0 0.240452 0.744732
0.28513 0.223713 0.745296
0.575418 0.169772 0.746502
0.84538 0.013962 0.749142
1 0 0.753582
1 0 0.752285
1 0 0.733242
0 0.367926 0.742473
0 0.366644 0.742306
0 0.36379 0.742504
0.222614 0.356085 0.743038
0.553506 0.33286 0.744228
0.833661 0.267689 0.746715
1 0 0.750927
1 0 0.753735
1 0 0.734707
0 0.542092 0.737713
0 0.541466 0.737789
0 0.540566 0.737926
0.00788891 0.536065 0.738735
0.491508 0.524788 0.739635
0.803754 0.497017 0.741802
1 0.414527 0.745037
1 0 0.75169
1 0 0.739071
0 0.755657 0.731746
0 0.755322 0.731792
0 0.754574 0.731899
0 0.753338 0.732021
0.281804 0.748043 0.733074
0.735027 0.735164 0.735241
0.995193 0.706523 0.737499
1 0.624491 0.739071
1 0 0.749828
0 0.950957 0.738277
0 0.950957 0.738277
0 0.950957 0.738277
0 0.95082 0.738033
0 0.948455 0.738964
0.583169 0.942123 0.740642
0.927947 0.932219 0.74197
1 0.91548 0.739727
1 0.851743 0.731548
0 1 0.794232
0 1 0.794232
0 1 0.794232
0 1 0.794003
0 1 0.794003
0.0252232 1 0.795239
0.854231 1 0.797208
1 1 0.794903
1 1 0.784604
0 1 0.893004
0 1 0.893004
0 1 0.893004
0 1 0.893004
0 1 0.893004
0 1 0.892851
0.60798 1 0.895262
0.982528 1 0.896101
1 1 0.892439
0 0.480049 0.933684
0.0349432 0.47953 0.933745
0.116579 0.477867 0.933883
0.325551 0.473518 0.934203
0.565179 0.46099 0.935042
0.817243 0.428061 0.936767
1 0.333837 0.940002
1 0 0.947158
1 0 0.94966
0 0.490867 0.933471
0.0271458 0.489921 0.933547
0.10486 0.488289 0.933684
0.317357 0.484504 0.933837
0.561425 0.472618 0.934676
0.815427 0.440131 0.936385
1 0.350942 0.939605
1 0 0.946593
1 0 0.94966
0 0.506386 0.932876
0.0149386 0.505898 0.932937
0.084184 0.504814 0.933043
0.303456 0.500557 0.93341
0.556283 0.490257 0.934249
0.812757 0.458839 0.935943
1 0.375006 0.93904
1 0 0.945861
1 0 0.949798
0 0.544778 0.931456
0 0.543938 0.931548
0.0259709 0.542504 0.93167
0.256229 0.539193 0.931991
0.539391 0.529824 0.93283
0.80441 0.505409 0.934524
1 0.437369 0.937499
1 0.0616312 0.94374
1 0 0.950088
0 0.631388 0.9281
0 0.631083 0.928161
0 0.62948 0.928313
0.122621 0.62771 0.92845
0.493034 0.620356 0.92929
0.78172 0.602945 0.930892
1 0.559609 0.933577
1 0.401038 0.938537
1 0 0.950973
0 0.779492 0.920821
0 0.779232 0.920882
0 0.778531 0.921019
0 0.776822 0.92134
0.342489 0.772335 0.922148
0.725231 0.76228 0.923644
0.973068 0.739544 0.925841
1 0.67953 0.928908
1 0.283742 0.940017
0 0.937102 0.913909
0 0.937102 0.913909
0 0.936889 0.913924
0 0.936492 0.914092
0 0.93315 0.915007
0.603418 0.927642 0.916396
0.91783 0.917967 0.918059
1 0.902235 0.918929
1 0.850019 0.919997
0 1 0.921538
0 1 0.921538
0 1 0.921538
0 1 0.921538
0 1 0.921538
0.0737621 1 0.923095
0.852842 1 0.925048
1 1 0.925444
1 1 0.923735
0 1 0.950591
0 1 0.950591
0 1 0.950591
0 1 0.950591
0 1 0.950591
0 1 0.950515
0.640909 1 0.953109
0.979797 1 0.954574
1 1 0.953536
0.364782 0.771023 1
0.388052 0.771176 1
0.420768 0.770626 1
0.483009 0.768978 1
0.612818 0.765667 1
0.803265 0.756893 1
0.978882 0.737362 1
1 0.682551 1
1 0.371893 1
0.361028 0.773449 1
0.384298 0.773617 1
0.418128 0.772763 1
0.480278 0.771725 1
0.610864 0.768109 1
0.802106 0.75967 1
0.978271 0.740154 1
1 0.68574 1
1 0.387549 1
0.353567 0.777417 1
0.378637 0.777264 1
0.413428 0.77702 1
0.476738 0.775692 1
0.608011 0.772702 1
0.800519 0.763973 1
0.977172 0.744488 1
1 0.692103 1
1 0.408255 1
0.333852 0.788373 1
0.359884 0.788525 1
0.400534 0.787991 1
0.465309 0.786969 1
0.600397 0.784024 1
0.796185 0.775341 1
0.97435 0.756878 1
1 0.708721 1
1 0.456565 1
0.270573 0.817136 1
0.30106 0.816739 1
0.349905 0.81651 1
0.431952 0.81561 1
0.579232 0.812955 1
0.783703 0.805722 1
0.966613 0.789731 1
1 0.74789 1
1 0.562463 1
0.0497902 0.873762 1
0.0950332 0.87361 1
0.165682 0.873365 1
0.332799 0.872572 1
0.521645 0.870207 1
0.752697 0.864836 1
0.948699 0.853437 1
1 0.828367 1
1 0.73048 1
0 0.951324 0.997513
0 0.951446 0.997528
0 0.951064 0.997604
0 0.950271 0.997818
0.324651 0.948394 0.99826
0.685252 0.944274 0.999298
0.9178 0.937652 1
1 0.927672 1
1 0.900298 1
0 1 0.993072
0 1 0.993072
0 1 0.993072
0 1 0.993088
0 1 0.993759
0.47808 1 0.995163
0.86981 1 0.996765
0.997528 0.997604 0.997559
1 0.99321 0.997787
0 1 0.996277
0 1 0.996277
0 1 0.996231
0 1 0.996231
0 1 0.996231
0 1 0.996231
0.718334 1 0.99913
0.980102 1 1
1 1 1
0.719783 0.949966 1
0.723613 0.949905 1
0.729732 0.949798 1
0.746593 0.949554 1
0.787213 0.948684 1
0.862684 0.946639 1
0.956374 0.943114 1
1 0.935317 1
1 0.912016 1
0.719631 0.950286 1
0.723079 0.95024 1
0.729244 0.950027 1
0.746105 0.949767 1
0.786816 0.948913 1
0.862348 0.94696 1
0.956344 0.943221 1
1 0.935607 1
1 0.912459 1
0.718975 0.950835 1
0.722423 0.95079 1
0.728557 0.950698 1
0.74548 0.950317 1
0.786297 0.949447 1
0.861921 0.947509 1
0.956161 0.943771 1
1 0.936339 1
1 0.913359 1
0.716701 0.952377 1
0.720577 0.952209 1
0.726787 0.95201 1
0.743679 0.951766 1
0.784756 0.950988 1
0.860945 0.948943 1
0.955566 0.945312 1
1 0.938552 1
1 0.915862 1
0.710994 0.956237 1
0.714855 0.956176 1
0.721065 0.955978 1
0.738354 0.955825 1
0.780743 0.954955 1
0.858335 0.953002 1
0.953841 0.949248 1
1 0.942992 1
1 0.92282 1
0.694362 0.967269 1
0.698238 0.967193 1
0.704524 0.96701 1
0.722438 0.966751 1
0.769329 0.965835 1
0.850187 0.964096 1
0.949203 0.960433 1
1 0.954726 1
1 0.940612 1
0.645243 0.987854 1
0.650645 0.987701 1
0.659175 0.98761 1
0.679042 0.987335 1
0.73196 0.986526 1
0.828901 0.98468 1
0.938613 0.981781 1
1 0.977951 1
1 0.970169 1
0.440116 1 1
0.452018 1 1
0.470115 1 1
0.518776 1 1
0.610285 1 1
0.765652 1 1
0.914565 1 1
0.998123 1 1
1 1 1
0 1 1
0 1 1
0 1 1
0 1 1
0 1 1
0.257115 1 1
0.842588 1 1
0.986328 1 1
1 1 1
