luts/unknown_leica_like/Natural_Rec709.cube
TITLE "Software Leica Camera LUT Modern V6.2 Rec709 Gamma 2.4"
LUT_3D_SIZE 33
0 0 0
0 0 0
0.00689708 0 0
0.0232395 0 0
0.0402228 0 0
0.0594034 0 0
0.0838636 0 0
0.112413 0 0
0.1449 0 0
0.182177 0 0
0.226947 0 0
0.282536 0 0
0.3449 0 0
0.41117 0 0
0.478721 0 0
0.546273 0 0
0.613214 0 0.00282292
0.679927 0 0.00894179
0.745876 0 0.0157473
0.811093 0 0.0229191
0.874769 0 0.0302586
0.936904 0 0.0373693
0.995468 0 0.0469215
1 0 0.055024
1 0 0.0616159
1 0 0.0669108
1 0 0.0710765
1 0 0.0742046
1 0 0.0764782
1 0 0.0780499
1 0 0.0790875
1 0 0.0797436
1 0 0.0801404
0 0 0
0 0 0
0.00239567 0 0
0.0187991 0 0
0.0362249 0 0
0.0556649 0 0
0.0807507 0 0
0.109606 0 0
0.142718 0 0
0.180255 0 0
0.22562 0 0
0.281224 0 0
0.343908 0 0
0.410513 0 0
0.478019 0 0
0.545983 0 0
0.613214 0 0.00349432
0.679927 0 0.00965896
0.745876 0 0.0164034
0.810803 0 0.0235599
0.874769 0 0.0308995
0.936904 0 0.0379492
0.995468 0 0.0469215
1 0 0.055024
1 0 0.0616159
1 0 0.0669108
1 0 0.0710765
1 0 0.0742046
1 0 0.0764782
1 0 0.0780499
1 0 0.0790875
1 0 0.0797436
1 0 0.0801404
0 0 0
0 0 0
0 0 0
0.0140993 0 0
0.0319677 0 0
0.0519112 0 0
0.077409 0 0
0.106905 0 0
0.140307 0 0
0.178225 0 0
0.223987 0 0
0.279866 0 0
0.342611 0 0
0.409567 0 0
0.477409 0 0
0.54551 0 0
0.612924 0 0.00416571
0.679622 0 0.0103456
0.745876 0 0.0171206
0.810803 0 0.0243229
0.87451 0 0.0314946
0.936904 0 0.038529
0.995468 0 0.0469215
1 0 0.0549935
1 0 0.0616159
1 0 0.0669108
1 0 0.0710765
1 0 0.0742046
1 0 0.0764782
1 0 0.0780499
1 0 0.0790875
1 0 0.0797436
1 0 0.0801404
0 0.00975052 0
0 0.0089723 0
0 0.00799573 0
0.0091249 0.00704967 0
0.0271763 0.00608835 0
0.0475471 0.00491341 0
0.0737011 0.00328069 0
0.103761 0.00112917 0
0.13785 0 0
0.176318 0 0
0.222324 0 0
0.278462 0 0
0.341543 0 0
0.40856 0 0
0.476799 0 0
0.544961 0 0
0.612451 0 0.00415045
0.679622 0 0.0110628
0.745571 0 0.017792
0.810803 0 0.0249485
0.874495 0 0.0321508
0.936904 0 0.0391241
0.995468 0 0.0469215
1 0 0.0549935
1 0 0.0616159
1 0 0.0669108
1 0 0.0710765
1 0 0.0742046
1 0 0.0764782
1 0 0.0780499
1 0 0.0790875
1 0 0.0797436
1 0 0.0801404
0 0.0222171 0
0 0.0212863 0
0 0.0203555 0
0.00399786 0.019379 0
0.0221714 0.0184634 0
0.0428473 0.0172274 0
0.0696574 0.0155337 0
0.100633 0.0132448 0
0.135195 0.0100252 0
0.174151 0.00576791 0
0.2206 0 0
0.276982 0 0
0.340398 0 0
0.407553 0 0
0.476188 0 0
0.544396 0 0
0.611948 0 0.00393683
0.67924 0 0.0111543
0.745571 0 0.0185092
0.810529 0 0.0256199
0.874495 0 0.0327306
0.936645 0 0.0396582
0.995468 0 0.0469215
1 0 0.0549935
1 0 0.0616159
1 0 0.0669108
1 0 0.0710613
1 0 0.0742046
1 0 0.0764782
1 0 0.0780499
1 0 0.0790875
1 0 0.0797436
1 0 0.0801404
0 0.0364691 0
0 0.035584 0
0 0.0346685 0
0 0.0337224 0
0.0161746 0.0326543 0
0.037171 0.0316472 0
0.0649577 0.0300145 0
0.0967117 0.0277256 0
0.132082 0.0246891 0
0.171618 0.0204776 0
0.218616 0.0142977 0
0.275364 0.00521859 0
0.339193 0 0
0.40676 0 0
0.475181 0 0
0.543511 0 0
0.611688 0 0.00366217
0.678752 0 0.0109255
0.745281 0 0.0191501
0.810529 0 0.0263676
0.874495 0 0.0334325
0.936645 0 0.0402991
0.995468 0 0.0469215
1 0 0.0549935
1 0 0.0616159
1 0 0.0669108
1 0 0.0710613
1 0 0.0742046
1 0 0.0764782
1 0 0.0780499
1 0 0.0790875
1 0 0.0797436
1 0 0.0801404
0 0.0557107 0
0 0.0547189 0
0 0.0537881 0
0 0.0529488 0
0.00669871 0.0519722 0
0.0282292 0.0508125 0
0.0576028 0.0493172 0
0.0911269 0.0471962 0
0.127581 0.0440528 0
0.168154 0.0399939 0
0.215885 0.0338293 0
0.273106 0.0245823 0
0.337148 0.0113527 0
0.405158 0 0
0.474022 0 0
0.542779 0 0
0.610773 0 0.00318914
0.678477 0 0.0105745
0.745052 0 0.0188907
0.810254 0 0.0272374
0.874235 0 0.034287
0.936645 0 0.0410773
0.995209 0 0.0470436
1 0 0.0549935
1 0 0.0616007
1 0 0.0669108
1 0 0.0710613
1 0 0.0742046
1 0 0.0764782
1 0 0.0780499
1 0 0.0790875
1 0 0.0797436
1 0 0.0801404
0 0.0805371 0
0 0.0798962 0
0 0.0789349 0
0 0.0780346 0
0 0.0772259 0
0.0137179 0.0762798 0
0.0455634 0.074876 0
0.0820478 0.0728923 0
0.120607 0.0704204 0
0.162707 0.0667277 0
0.211505 0.0614023 0
0.269657 0.0533913 0
0.334401 0.0415961 0
0.403052 0.0244297 0
0.472541 0.000762951 0
0.541527 0 0
0.609949 0 0.00239567
0.677791 0 0.0099794
0.744472 0 0.0183719
0.810086 0 0.0274815
0.87422 0 0.0354162
0.936385 0 0.0420844
0.995209 0 0.0479591
1 0 0.0549935
1 0 0.0616007
1 0 0.0669108
1 0 0.0710613
1 0 0.0742046
1 0 0.0764782
1 0 0.0780499
1 0 0.0790875
1 0 0.0797436
1 0 0.0801404
0 0.109056 0
0 0.108415 0
0 0.107607 0
0 0.10692 0
0 0.106188 0
0 0.105196 0
0.0266423 0.104295 0
0.0681621 0.102647 0
0.110201 0.100465 0
0.154681 0.0973373 0
0.205158 0.0929732 0
0.264454 0.0867933 0
0.330434 0.0771344 0
0.399908 0.0639658 0
0.4701 0.0443732 0
0.539696 0.0159762 0
0.608499 0 0.00047303
0.676585 0 0.00865187
0.743709 0 0.0174563
0.809445 0 0.0269169
0.873838 0 0.0361944
0.936385 0 0.0434272
0.995209 0 0.0492103
1 0 0.0549477
1 0 0.0616007
1 0 0.0669108
1 0 0.0710613
1 0 0.0742046
1 0 0.0764782
1 0 0.0780499
1 0 0.0790875
1 0 0.0797436
1 0 0.0801404
0 0.141695 0
0 0.140841 0
0 0.140429 0
0 0.139681 0
0 0.139391 0
0 0.138445 0
0 0.137545 0
0.0455329 0.136156 0
0.0942245 0.134264 0
0.142733 0.131746 0
0.195865 0.128206 0
0.257176 0.122957 0
0.324666 0.115282 0
0.395544 0.10486 0
0.466606 0.0906996 0
0.536934 0.0707561 0
0.606378 0.0395361 0
0.674784 0 0.00503548
0.742306 0 0.0150759
0.808591 0 0.025452
0.873167 0 0.035523
0.936095 0 0.0449226
0.994949 0 0.0507973
1 0 0.0549477
1 0 0.0616007
1 0 0.0668956
1 0 0.0710613
1 0 0.0741894
1 0 0.0764782
1 0 0.0780499
1 0 0.0790875
1 0 0.0797436
1 0 0.0801404
0 0.179873 0
0 0.179065 0
0 0.178759 0
0 0.178302 0
0 0.17763 0
0 0.176959 0
0 0.176181 0
0.00978103 0.175067 0
0.066743 0.173419 0
0.12398 0.171176 0
0.181918 0.168109 0
0.246479 0.163592 0
0.316426 0.157519 0
0.389227 0.148653 0
0.461753 0.137942 0
0.533028 0.123033 0
0.60322 0.102037 0
0.672358 0.0711986 0
0.740459 0.0217899 0.00941482
0.807157 0 0.0211795
0.872145 0 0.033341
0.935592 0 0.0440528
0.994934 0 0.052903
1 0 0.0565499
1 0 0.0615702
1 0 0.0668956
1 0 0.0710613
1 0 0.0741894
1 0 0.0764782
1 0 0.0780499
1 0 0.0790875
1 0 0.0797436
1 0 0.0801404
0 0.225788 0
0 0.225498 0
0 0.224979 0
0 0.224445 0
0 0.223896 0
0 0.223331 0
0 0.222492 0
0 0.221302 0
0.0200046 0.220188 0
0.0898146 0.218204 0
0.159121 0.215228 0
0.229892 0.21146 0
0.304051 0.206241 0
0.379843 0.198917 0
0.454444 0.190372 0
0.527367 0.178271 0
0.598596 0.162554 0
0.66862 0.140505 0
0.737346 0.108949 0.000885023
0.804623 0.0584268 0.0130007
0.870314 0 0.0267185
0.93431 0 0.0405127
0.994125 0 0.0520027
1 0 0.0590677
1 0 0.0615702
1 0 0.0668956
1 0 0.071046
1 0 0.0741894
1 0 0.0764782
1 0 0.0780499
1 0 0.0790875
1 0 0.0797436
1 0 0.0801404
0 0.280507 0
0 0.280232 0
0 0.279927 0
0 0.279088 0
0 0.278508 0
0 0.278447 0
0 0.277806 0
0 0.276814 0
0 0.275715 0
0.0278172 0.273976 0
0.117601 0.271962 0
0.202319 0.268788 0
0.284459 0.264485 0
0.365316 0.258473 0
0.442985 0.251392 0
0.518532 0.241688 0
0.591623 0.228946 0
0.662882 0.211749 0
0.732647 0.188144 0
0.80087 0.155077 0
0.867247 0.106386 0.0145113
0.931777 0.0221714 0.0310063
0.992447 0 0.046479
1 0 0.0583505
1 0 0.0635843
1 0 0.0668803
1 0 0.071046
1 0 0.0741894
1 0 0.076463
1 0 0.0780499
1 0 0.0790875
1 0 0.0797436
1 0 0.0801404
0 0.341161 0
0 0.340887 0
0 0.340581 0
0 0.339986 0
0 0.339925 0
0 0.339605 0
0 0.339254 0
0 0.338567 0
0 0.337224 0
0 0.335775 0
0.0357366 0.334401 0
0.155962 0.332189 0
0.25452 0.328435 0
0.34345 0.323705 0
0.426535 0.317922 0
0.505348 0.310414 0
0.581262 0.300038 0
0.654505 0.286534 0
0.725551 0.269429 0
0.794919 0.245411 0
0.862623 0.212131 0
0.927825 0.162707 0.0119173
0.989288 0.0750896 0.0327001
1 0 0.049897
1 0 0.0629892
1 0 0.0668803
1 0 0.071046
1 0 0.0741741
1 0 0.076463
1 0 0.0780499
1 0 0.0790875
1 0 0.0797436
1 0 0.0801404
0 0.404852 0
0 0.404578 0
0 0.404303 0
0 0.403998 0
0 0.403967 0
0 0.403647 0
0 0.403296 0
0 0.402655 0
0 0.401923 0
0 0.401114 0
0 0.399588 0
0.0599069 0.397848 0
0.206241 0.395193 0
0.311131 0.391546 0
0.403159 0.386908 0
0.487358 0.380972 0
0.566598 0.373114 0
0.642649 0.362936 0
0.71577 0.349767 0
0.786465 0.33254 0
0.855467 0.308553 0
0.921828 0.275639 0
0.98436 0.227039 0.00314336
1 0.147936 0.0280156
1 0 0.05037
1 0 0.0657054
1 0 0.0710307
1 0 0.0741741
1 0 0.076463
1 0 0.0780499
1 0 0.0790875
1 0 0.0797436
1 0 0.0801404
0 0.468879 0
0 0.468879 0
0 0.46862 0
0 0.468345 0
0 0.468315 0
0 0.468284 0
0 0.467414 0
0 0.467613 0
0 0.466682 0
0 0.466178 0
0 0.465034 0
0 0.463432 0
0.120241 0.461509 0
0.264103 0.458686 0
0.371267 0.454948 0
0.463432 0.450294 0
0.547738 0.444419 0
0.627344 0.436683 0
0.702922 0.42678 0
0.775586 0.414008 0
0.845869 0.397086 0
0.913527 0.374395 0
0.97673 0.342397 0
1 0.2963 0
1 0.222644 0.0148775
1 0.074342 0.0463111
1 0 0.0661784
1 0 0.0741741
1 0 0.076463
1 0 0.0780499
1 0 0.0790875
1 0 0.0797436
1 0 0.0801404
0 0.532494 0
0 0.532494 0
0 0.532219 0
0 0.532235 0
0 0.53196 0
0 0.531945 0
0 0.531365 0
0 0.531304 0
0 0.530953 0
0 0.530526 0
0 0.529717 0
0 0.528511 0
0 0.527047 0
0.19028 0.524712 0
0.326467 0.521782 0
0.431617 0.518593 0
0.523415 0.513405 0
0.607538 0.507607 0
0.686793 0.500343 0
0.761975 0.49015 0
0.833814 0.478111 0
0.902937 0.46183 0
0.967437 0.440055 0
1 0.409979 0
1 0.367071 0
1 0.297719 0
1 0.165652 0.0344854
1 0 0.0643778
1 0 0.076463
1 0 0.0780499
1 0 0.0790875
1 0 0.0797436
1 0 0.0801404
0 0.59588 0
0 0.595621 0
0 0.595621 0
0 0.595346 0
0 0.595346 0
0 0.595346 0
0 0.595087 0
0 0.594781 0
0 0.59443 0
0 0.594064 0
0 0.593591 0
0 0.592737 0
0 0.591394 0
0.0377966 0.589792 0
0.260929 0.587366 0
0.388693 0.584939 0
0.491936 0.58117 0
0.582818 0.576593 0
0.666941 0.570047 0
0.74522 0.562951 0
0.819455 0.553307 0
0.890318 0.541634 0
0.956069 0.52604 0
1 0.505684 0
1 0.477165 0
1 0.436759 0
1 0.371939 0
1 0.24918 0.0102083
1 0 0.0607309
1 0 0.0780499
1 0 0.0790875
1 0 0.0797436
1 0 0.0801404
0 0.658259 0
0 0.658274 0
0 0.658 0
0 0.658 0
0 0.658 0
0 0.65774 0
0 0.65774 0
0 0.657481 0
0 0.65745 0
0 0.656855 0
0 0.656703 0
0 0.656184 0
0 0.654978 0
0 0.653758 0
0.141421 0.652033 0
0.325994 0.649546 0
0.450584 0.646555 0
0.552087 0.642512 0
0.642176 0.638254 0
0.724804 0.63267 0
0.802014 0.625483 0
0.875166 0.616388 0
0.942672 0.604913 0
0.999527 0.58999 0
1 0.570336 0
1 0.543893 0
1 0.505028 0
1 0.443885 0
1 0.328283 0
1 0 0.0556954
1 0 0.0790875
1 0 0.0797436
1 0 0.0801404
0 0.719646 0
0 0.719646 0
0 0.719646 0
0 0.719387 0
0 0.719387 0
0 0.719387 0
0 0.719402 0
0 0.719127 0
0 0.719142 0
0 0.718853 0
0 0.718761 0
0 0.7178 0
0 0.717494 0
0 0.716411 0
0.00259403 0.714794 0
0.210742 0.712703 0
0.391379 0.71046 0
0.510918 0.707713 0
0.611017 0.703441 0
0.699825 0.69926 0
0.78114 0.694072 0
0.857099 0.686839 0
0.927047 0.678111 0
0.985504 0.667384 0
1 0.653529 0
1 0.634592 0
1 0.609445 0
1 0.572641 0
1 0.513222 0
1 0.404135 0
1 0.0375982 0.0461433
1 0 0.0797436
1 0 0.0801404
0 0.779644 0
0 0.779644 0
0 0.779644 0
0 0.779644 0
0 0.77966 0
0 0.77966 0
0 0.779385 0
0 0.7794 0
0 0.7794 0
0 0.779156 0
0 0.778881 0
0 0.77879 0
0 0.778042 0
0 0.777615 0
0 0.776165 0
0.0555428 0.774166 0
0.296056 0.772808 0
0.456062 0.769711 0
0.570871 0.767514 0
0.668894 0.763317 0
0.756161 0.759228 0
0.836072 0.753674 0
0.908858 0.74728 0
0.969482 0.738903 0
1 0.729198 0
1 0.715801 0
1 0.6981 0
1 0.673854 0
1 0.638071 0
1 0.581216 0
1 0.476204 0
1 0.157824 0.0284581
1 0 0.0801404
0 0.838087 0
0 0.838102 0
0 0.837842 0
0 0.837842 0
0 0.837842 0
0 0.837842 0
0 0.837858 0
0 0.837858 0
0 0.837598 0
0 0.837598 0
0 0.837369 0
0 0.837095 0
0 0.836973 0
0 0.836408 0
0 0.83534 0
0 0.834012 0
0.132097 0.832471 0
0.375341 0.830289 0
0.519005 0.82797 0
0.630488 0.825254 0
0.726009 0.821424 0
0.811109 0.817227 0
0.887694 0.812451 0
0.95111 0.806027 0
1 0.798596 0
1 0.789288 0
1 0.776974 0
1 0.75993 0
1 0.737148 0
1 0.702388 0
1 0.6477 0
1 0.545968 0
1 0.248249 0
0 0.893538 0.0191196
0 0.893538 0.0191196
0 0.893538 0.0191196
0 0.893538 0.0191196
0 0.893538 0.0191196
0 0.893538 0.0191196
0 0.893294 0.019501
0 0.893294 0.019501
0 0.893309 0.0191196
0 0.893309 0.0191196
0 0.89308 0.0191196
0 0.89308 0.0191196
0 0.892851 0.0195315
0 0.892454 0.0196841
0 0.891569 0.0214084
0 0.890822 0.0233158
0 0.889387 0.0261387
0.235996 0.887587 0.0292821
0.44828 0.885634 0.0326848
0.581445 0.883131 0.0370947
0.688991 0.880262 0.0424048
0.781598 0.877089 0.0460517
0.863279 0.872892 0.0483253
0.930282 0.868391 0.0464027
0.983215 0.862928 0.0386969
1 0.856245 0.024033
1 0.847745 0.00112917
1 0.835935 0
1 0.820172 0
1 0.798169 0
1 0.765301 0
1 0.712245 0
1 0.613535 0
0 0.94342 0.139895
0 0.94342 0.139895
0 0.94342 0.139895
0 0.94342 0.139895
0 0.94342 0.139895
0 0.943435 0.139025
0 0.943435 0.139025
0 0.943435 0.139025
0 0.943435 0.139025
0 0.943221 0.139208
0 0.943236 0.138506
0 0.943236 0.138506
0 0.943069 0.137835
0 0.943069 0.136965
0 0.942657 0.136812
0 0.941695 0.136751
0 0.940597 0.137224
0.0196078 0.939147 0.137407
0.346624 0.937377 0.137728
0.519432 0.935714 0.137026
0.644572 0.933181 0.13753
0.747173 0.9308 0.136019
0.835386 0.927565 0.135042
0.907225 0.924498 0.130602
0.963119 0.92047 0.124575
1 0.916533 0.114794
1 0.910033 0.101289
1 0.902159 0.0830091
1 0.891417 0.0644846
1 0.877333 0.0327153
1 0.857496 0
1 0.825956 0
1 0.77499 0
0 0.984314 0.244038
0 0.984344 0.243488
0 0.984344 0.243488
0 0.984344 0.243488
0 0.984344 0.243488
0 0.984176 0.243565
0 0.984176 0.243565
0 0.984176 0.243565
0 0.984176 0.243565
0 0.984192 0.243015
0 0.984192 0.243015
0 0.984024 0.243091
0 0.984039 0.242542
0 0.983902 0.242069
0 0.983917 0.241505
0 0.983474 0.241718
0 0.982544 0.243061
0 0.981308 0.244495
0.166415 0.97966 0.245808
0.440146 0.978119 0.246677
0.592371 0.975998 0.247593
0.708965 0.974166 0.247868
0.8056 0.971817 0.247578
0.883452 0.969451 0.245838
0.943114 0.966537 0.242802
0.988464 0.963729 0.23711
1 0.959686 0.229053
1 0.954971 0.2168
1 0.948592 0.200916
1 0.940246 0.161089
1 0.929137 0.105577
1 0.912642 0.0463874
1 0.883726 0
0 1 0.335286
0 1 0.335286
0 1 0.334859
0 1 0.334859
0 1 0.334859
0 1 0.334859
0 1 0.334859
0 1 0.334859
0 1 0.334859
0 1 0.334905
0 1 0.334478
0 1 0.334478
0 1 0.334478
0 1 0.334081
0 1 0.333669
0 1 0.333715
0 1 0.333547
0 1 0.334752
0 1 0.335897
0.293278 1 0.336767
0.528099 1 0.337346
0.665202 1 0.338033
0.773571 1 0.337697
0.859495 1 0.336828
0.923522 1 0.334554
0.971649 0.999512 0.331121
1 0.996994 0.325597
1 0.993942 0.317815
1 0.990402 0.307195
1 0.985489 0.290608
1 0.979171 0.261769
1 0.97084 0.222538
1 0.957534 0.151217
0 1 0.416754
0 1 0.416754
0 1 0.416754
0 1 0.416754
0 1 0.416754
0 1 0.416754
0 1 0.416754
0 1 0.416754
0 1 0.416754
0 1 0.416754
0 1 0.416373
0 1 0.416373
0 1 0.416403
0 1 0.416037
0 1 0.416037
0 1 0.415702
0 1 0.41532
0 1 0.415671
0 1 0.416571
0 1 0.417548
0.428916 1 0.418631
0.611521 1 0.419013
0.737285 1 0.419043
0.833997 1 0.418769
0.904051 1 0.417578
0.955596 1 0.415137
0.993454 1 0.411429
1 1 0.405966
1 1 0.398383
1 1 0.387747
1 1 0.371359
1 1 0.347189
1 1 0.313298
0 1 0.493584
0 1 0.493584
0 1 0.493248
0 1 0.493248
0 1 0.493248
0 1 0.493248
0 1 0.493248
0 1 0.493248
0 1 0.493248
