luts/unknown_leica_like/Natural_Rec2020.cube
TITLE "Software Leica Camera LUT Modern V6.2 Rec2020 Gamma 2.4"
LUT_3D_SIZE 33
0 0 0
0 0 0
0.00459297 0.00161746 0.000732433
0.0180819 0.00706493 0.0037232
0.0321202 0.0126955 0.00683604
0.0480049 0.0190585 0.0103609
0.0680247 0.0270848 0.014786
0.0913405 0.0363928 0.019913
0.117998 0.0470283 0.0257725
0.148867 0.0593423 0.0325475
0.185641 0.0740215 0.0406195
0.231312 0.0922408 0.0506294
0.282582 0.112688 0.0618601
0.337255 0.134508 0.0738384
0.393088 0.156771 0.0860761
0.449012 0.17908 0.0983291
0.504143 0.201068 0.110445
0.559075 0.22298 0.122606
0.613382 0.244633 0.1346
0.66714 0.266072 0.146777
0.720241 0.287266 0.158816
0.771466 0.307698 0.170626
0.819562 0.326879 0.182025
0.823255 0.328359 0.184115
0.82327 0.328374 0.185199
0.823285 0.328374 0.186328
0.823301 0.328389 0.187259
0.823301 0.328389 0.188006
0.823301 0.328389 0.18854
0.823331 0.328405 0.188861
0.823331 0.328405 0.18912
0.823331 0.328405 0.189319
0.823331 0.328405 0.189425
0 0 0
0 0 0
0.00117494 0.000228885 0
0.0147402 0.00575265 0.00303655
0.0290532 0.0114595 0.00613413
0.0451057 0.0179294 0.00975052
0.0656291 0.0261234 0.0142672
0.0894789 0.0356451 0.0194858
0.116655 0.0464942 0.0254673
0.147646 0.058854 0.0322728
0.184909 0.0737316 0.0404517
0.230686 0.0919966 0.0504921
0.282307 0.112581 0.061799
0.337743 0.134691 0.0739452
0.393423 0.156909 0.0861372
0.449348 0.179217 0.0984054
0.504738 0.201312 0.110597
0.55967 0.223209 0.122744
0.614008 0.244892 0.134752
0.667704 0.2663 0.146975
0.720699 0.287449 0.158968
0.772 0.307912 0.170825
0.81976 0.326955 0.182086
0.823255 0.328359 0.184131
0.82327 0.328374 0.185214
0.823285 0.328374 0.186343
0.823301 0.328389 0.187274
0.823301 0.328389 0.188006
0.823301 0.328389 0.18854
0.823316 0.328405 0.188861
0.823331 0.328405 0.18912
0.823331 0.328405 0.189319
0.823331 0.328405 0.189425
0 0 0
0 0 0
0 0 0
0.0107118 0.00410468 0.002121
0.0254063 0.00994888 0.00527962
0.0420539 0.0166934 0.00906386
0.062974 0.0250553 0.0136568
0.0872511 0.0347448 0.0189975
0.114733 0.045716 0.0250401
0.145876 0.0581521 0.0318914
0.18349 0.073167 0.0401465
0.229496 0.0915236 0.0502327
0.281697 0.112337 0.0616617
0.336873 0.134356 0.0737621
0.392874 0.15668 0.0860304
0.44889 0.179034 0.0982986
0.504433 0.20119 0.110552
0.559396 0.223102 0.122698
0.614267 0.244984 0.134859
0.667643 0.266285 0.147005
0.720485 0.287358 0.158953
0.771939 0.307881 0.170871
0.81976 0.326955 0.182071
0.823255 0.328359 0.184131
0.82327 0.328374 0.185214
0.823285 0.328374 0.186343
0.823301 0.328389 0.187274
0.823301 0.328389 0.188006
0.823301 0.328389 0.18854
0.823331 0.328405 0.188861
0.823331 0.328405 0.18912
0.823331 0.328405 0.189319
0.823331 0.328405 0.189425
0.00552377 0.00857557 0.00309758
0.00503548 0.00784314 0.00280766
0.0043946 0.0068513 0.00244144
0.00791943 0.00694286 0.0027924
0.0223239 0.0111849 0.00549325
0.0387579 0.0167239 0.00872816
0.0602731 0.024506 0.0132753
0.0848707 0.0339055 0.0185855
0.112612 0.0448768 0.024567
0.144259 0.0575113 0.0315404
0.182284 0.0726787 0.0398871
0.228702 0.0912032 0.0500649
0.280781 0.111971 0.0614633
0.335958 0.133989 0.0735637
0.392325 0.156466 0.0859083
0.448356 0.17882 0.0981765
0.504433 0.20119 0.110552
0.559731 0.223239 0.122789
0.614008 0.244892 0.134859
0.667597 0.266255 0.147036
0.720424 0.287327 0.158984
0.771878 0.307866 0.170932
0.819806 0.32697 0.182086
0.823255 0.328359 0.184131
0.82327 0.328374 0.185214
0.823285 0.328374 0.186343
0.823301 0.328389 0.187274
0.823301 0.328389 0.188006
0.823301 0.328389 0.18854
0.823316 0.328405 0.188861
0.823331 0.328405 0.18912
0.823331 0.328405 0.189319
0.823331 0.328405 0.189425
0.0134127 0.0206149 0.00770581
0.0128481 0.0197299 0.00737011
0.0122377 0.0188449 0.00698863
0.0123751 0.0180819 0.00674449
0.0201724 0.0182193 0.00730907
0.035584 0.0200961 0.00918593
0.0571908 0.0257725 0.0131838
0.0824903 0.0344396 0.0183719
0.110765 0.0449226 0.0244297
0.142977 0.0573281 0.0313725
0.180865 0.0721141 0.0395666
0.227329 0.0906539 0.0497597
0.279576 0.111498 0.0612039
0.334936 0.133577 0.0733349
0.391592 0.156176 0.0857557
0.448066 0.178698 0.0981155
0.503777 0.200916 0.110399
0.559182 0.223026 0.122683
0.613794 0.2448 0.134859
0.667231 0.266117 0.147005
0.720226 0.287251 0.159014
0.771862 0.307851 0.170993
0.819776 0.32697 0.182086
0.823255 0.328359 0.184131
0.82327 0.328374 0.185214
0.823285 0.328374 0.186343
0.823301 0.328389 0.187274
0.823301 0.328389 0.188006
0.823301 0.328389 0.18854
0.823316 0.328405 0.188861
0.823331 0.328405 0.18912
0.823331 0.328405 0.189319
0.823331 0.328405 0.189425
0.0224613 0.0344854 0.0129244
0.021912 0.0336461 0.012604
0.0213474 0.0327764 0.0122835
0.0207523 0.0318761 0.0119326
0.0228122 0.0311589 0.0118257
0.0342412 0.0312657 0.0124514
0.0547494 0.0337377 0.0149996
0.0797589 0.0390936 0.0191196
0.108644 0.0473487 0.0246433
0.141039 0.0582437 0.0313115
0.179477 0.0721752 0.0394293
0.225971 0.0902724 0.0495155
0.27834 0.110994 0.0609293
0.334417 0.133364 0.0732128
0.390997 0.155947 0.0856184
0.447288 0.178393 0.0979477
0.503319 0.200732 0.110292
0.558541 0.222766 0.12253
0.613336 0.244617 0.134798
0.667338 0.266163 0.147082
0.720424 0.287327 0.159152
0.771664 0.307774 0.171023
0.819745 0.326955 0.182071
0.823255 0.328359 0.184115
0.82327 0.328374 0.185199
0.823285 0.328374 0.186343
0.823301 0.328389 0.187274
0.823301 0.328389 0.188006
0.823316 0.328389 0.18854
0.823316 0.328405 0.188861
0.823331 0.328405 0.18912
0.823331 0.328405 0.189319
0.823331 0.328405 0.189425
0.0344549 0.0528725 0.0198672
0.0339513 0.0520943 0.0195621
0.0333257 0.051133 0.0192111
0.0327764 0.050309 0.0188754
0.0327153 0.0495003 0.0186007
0.037232 0.0487831 0.018555
0.0533455 0.0490272 0.0195315
0.0777447 0.0512398 0.0221714
0.106218 0.0560616 0.0264897
0.138796 0.0637217 0.0322576
0.177386 0.0749065 0.0397192
0.224277 0.0910353 0.0494545
0.277043 0.11075 0.0607156
0.333165 0.132876 0.0729381
0.389944 0.15552 0.0853895
0.446601 0.178119 0.0977951
0.50248 0.200412 0.110094
0.558251 0.222644 0.122454
0.613397 0.244648 0.134813
0.66717 0.266087 0.147112
0.720165 0.287236 0.159213
0.771618 0.307759 0.171099
0.819577 0.326879 0.18204
0.823255 0.328359 0.184115
0.82327 0.328374 0.185214
0.823285 0.328374 0.186343
0.823301 0.328389 0.187274
0.823301 0.328389 0.188006
0.823316 0.328389 0.18854
0.823316 0.328405 0.188861
0.823331 0.328405 0.18912
0.823331 0.328405 0.189319
0.823331 0.328405 0.189425
0.0501869 0.0769818 0.0289464
0.0498054 0.0764172 0.0287327
0.0491646 0.0754253 0.0283513
0.0485542 0.0744945 0.0280003
0.0480201 0.0736858 0.0276799
0.0482338 0.0729992 0.0274815
0.0563821 0.0723278 0.0275578
0.0770886 0.0726024 0.0287938
0.10454 0.0746471 0.0315557
0.136706 0.0785534 0.0357671
0.175433 0.0857404 0.0420081
0.222629 0.0977035 0.0506905
0.275578 0.113787 0.0611734
0.331746 0.133211 0.0728313
0.388922 0.155123 0.0851759
0.445472 0.177676 0.0975509
0.50193 0.200183 0.109957
0.558053 0.222568 0.122408
0.61297 0.24448 0.134676
0.667002 0.266026 0.147082
0.720104 0.287205 0.159335
0.771344 0.307652 0.17116
0.819593 0.326894 0.182162
0.823255 0.328359 0.184131
0.82327 0.328374 0.185199
0.823285 0.328374 0.186343
0.823301 0.328389 0.187274
0.823301 0.328389 0.188006
0.823301 0.328389 0.18854
0.823316 0.328405 0.188861
0.823331 0.328405 0.18912
0.823331 0.328405 0.189319
0.823331 0.328405 0.189425
0.06804 0.104402 0.0392462
0.0677195 0.103899 0.0390631
0.067277 0.103212 0.038819
0.0668193 0.10251 0.0385595
0.0664683 0.101961 0.0383459
0.0657816 0.100908 0.0379492
0.0671702 0.100114 0.0377203
0.0802777 0.0994736 0.0380407
0.104234 0.0999466 0.0395056
0.135363 0.10161 0.0423285
0.1738 0.105776 0.0470741
0.220371 0.113436 0.0542
0.273381 0.12462 0.0632944
0.329931 0.13959 0.0739605
0.387167 0.157183 0.0853742
0.444236 0.177356 0.097322
0.500938 0.199786 0.109697
0.556985 0.222141 0.122133
0.612253 0.24419 0.134447
0.666438 0.265797 0.146929
0.719722 0.287053 0.15935
0.771496 0.307713 0.171359
0.819608 0.326894 0.182376
0.823255 0.328359 0.184115
0.82327 0.328359 0.185199
0.823285 0.328374 0.186343
0.823301 0.328389 0.187259
0.823301 0.328389 0.188006
0.823301 0.328389 0.18854
0.823316 0.328405 0.188861
0.823331 0.328405 0.18912
0.823331 0.328405 0.189319
0.823331 0.328405 0.189425
0.0886854 0.136065 0.0511788
0.0882124 0.135317 0.0509041
0.0879072 0.134859 0.050721
0.0875868 0.134356 0.0505379
0.0873274 0.133974 0.0504005
0.0866712 0.132967 0.0500191
0.0860609 0.132021 0.0496529
0.0899214 0.13106 0.0494698
0.107713 0.130694 0.0500954
0.136065 0.131487 0.0519265
0.172992 0.133455 0.0552071
0.218677 0.137606 0.0605173
0.271595 0.144915 0.0680858
0.328237 0.155413 0.0773785
0.385992 0.168688 0.0877241
0.443046 0.183658 0.098497
0.499702 0.200809 0.109758
0.555383 0.2215 0.121721
0.611002 0.243687 0.134066
0.665827 0.265553 0.1467
0.719524 0.286976 0.159243
0.771405 0.307668 0.171496
0.819425 0.326833 0.182605
0.823255 0.328359 0.184115
0.82327 0.328374 0.185199
0.823285 0.328374 0.186343
0.823301 0.328389 0.187274
0.823301 0.328389 0.188006
0.823301 0.328389 0.18854
0.823316 0.328405 0.188861
0.823331 0.328405 0.18912
0.823331 0.328405 0.189319
0.823331 0.328405 0.189425
0.112551 0.172671 0.0649424
0.112291 0.172274 0.0647898
0.112093 0.171954 0.064683
0.111757 0.17145 0.0644846
0.111269 0.170687 0.06421
0.110765 0.16994 0.06392
0.110231 0.169116 0.0636149
0.109957 0.16846 0.0633707
0.117098 0.167468 0.0632944
0.139651 0.167132 0.0641489
0.173388 0.167559 0.0661631
0.21796 0.169802 0.0700542
0.27042 0.174365 0.0760357
0.327489 0.181308 0.0838178
0.384909 0.190402 0.0927138
0.441749 0.200763 0.102159
0.498192 0.212558 0.112078
0.554314 0.226246 0.122484
0.61001 0.243595 0.133822
0.664958 0.265202 0.146212
0.718593 0.28661 0.158755
0.770901 0.307469 0.171298
0.819425 0.326818 0.182925
0.823255 0.328359 0.184375
0.82327 0.328374 0.185199
0.823285 0.328374 0.186343
0.823301 0.328389 0.187274
0.823301 0.328389 0.188006
0.823301 0.328389 0.18854
0.823316 0.328405 0.188861
0.823331 0.328405 0.18912
0.823331 0.328405 0.189319
0.823331 0.328405 0.189425
0.141588 0.217197 0.0816968
0.141527 0.217121 0.0816815
0.141161 0.216556 0.0814527
0.14078 0.215946 0.081239
0.140352 0.215305 0.0809949
0.13991 0.214633 0.0807355
0.139574 0.214115 0.0805371
0.138827 0.21297 0.0801099
0.138582 0.212024 0.0797742
0.148989 0.210727 0.0796979
0.17731 0.210269 0.0807965
0.218875 0.210956 0.0833295
0.270542 0.213779 0.087892
0.326726 0.217395 0.0938125
0.384161 0.223392 0.101198
0.441123 0.229938 0.109194
0.497597 0.237598 0.117769
0.553735 0.24596 0.126741
0.608804 0.255207 0.135973
0.663294 0.267063 0.145998
0.716976 0.285954 0.1579
0.769772 0.307012 0.170642
0.818799 0.326574 0.182681
0.823255 0.328359 0.184817
0.82327 0.328359 0.185199
0.823285 0.328374 0.186343
0.823301 0.328389 0.187274
0.823301 0.328389 0.188006
0.823301 0.328389 0.18854
0.823316 0.328405 0.188861
0.823331 0.328405 0.18912
0.823331 0.328405 0.189319
0.823331 0.328405 0.189425
0.176059 0.270085 0.101595
0.175967 0.269947 0.101549
0.175723 0.269566 0.101411
0.175143 0.268681 0.101076
0.174899 0.268315 0.100938
0.174899 0.268299 0.100923
0.174487 0.267659 0.100679
0.173922 0.266804 0.100374
0.173175 0.265644 0.0999313
0.17258 0.263905 0.0992905
0.187778 0.263371 0.0996719
0.22359 0.263279 0.101228
0.272297 0.264149 0.104234
0.327611 0.266224 0.108736
0.384131 0.26952 0.114397
0.441321 0.27335 0.120897
0.498054 0.277775 0.128008
0.553674 0.281743 0.135317
0.608377 0.285344 0.142763
0.662394 0.28925 0.150484
0.71548 0.294759 0.158877
0.767742 0.306432 0.169253
0.817426 0.326024 0.181537
0.823255 0.328359 0.184695
0.82327 0.328374 0.18555
0.823285 0.328374 0.186343
0.823301 0.328389 0.187259
0.823301 0.328389 0.188006
0.823301 0.328389 0.18854
0.823316 0.328405 0.188861
0.823331 0.328405 0.18912
0.823331 0.328405 0.189319
0.823331 0.328405 0.189425
0.214343 0.328817 0.12369
0.214267 0.328695 0.123644
0.214008 0.328298 0.123507
0.213764 0.327916 0.123354
0.213779 0.327932 0.123369
0.213489 0.327489 0.123201
0.213214 0.327077 0.123033
0.212711 0.326314 0.122759
0.211795 0.32491 0.122225
0.211063 0.323766 0.121798
0.211032 0.322621 0.121386
0.233433 0.322087 0.122042
0.277195 0.321935 0.12398
0.330022 0.322957 0.12726
0.386084 0.325124 0.131746
0.442954 0.327825 0.137057
0.499275 0.329778 0.142641
0.554726 0.331319 0.148531
0.609247 0.332769 0.154742
0.66273 0.332525 0.160784
0.716075 0.331563 0.167025
0.767239 0.329168 0.173144
0.815412 0.328618 0.180407
0.823224 0.328344 0.183307
0.82327 0.328374 0.185428
0.823285 0.328374 0.186328
0.823301 0.328389 0.187259
0.823301 0.328389 0.187991
0.823301 0.328389 0.18854
0.823316 0.328405 0.188861
0.823331 0.328405 0.18912
0.823331 0.328405 0.189319
0.823331 0.328405 0.189425
0.254353 0.390204 0.146792
0.254276 0.390082 0.146746
0.254383 0.390249 0.146807
0.254139 0.389868 0.146654
0.254017 0.389685 0.146593
0.253742 0.389242 0.146426
0.253452 0.3888 0.146258
0.253162 0.388357 0.14609
0.252796 0.387808 0.145892
0.252216 0.386923 0.145556
0.251362 0.385595 0.145052
0.252216 0.383948 0.144503
0.285649 0.383719 0.145708
0.33521 0.384558 0.148287
0.390219 0.386023 0.151858
0.446097 0.387564 0.156039
0.50193 0.389075 0.160723
0.55729 0.390112 0.165698
0.611612 0.390326 0.170809
0.6654 0.389853 0.176074
0.717968 0.386465 0.180865
0.768704 0.380514 0.185214
0.816297 0.370977 0.1888
0.825238 0.345846 0.185077
0.823224 0.328344 0.183383
0.823285 0.328374 0.186069
0.823301 0.328389 0.187259
0.823301 0.328389 0.187991
0.823301 0.328389 0.18854
0.823316 0.328405 0.188861
0.823331 0.328405 0.18912
0.823331 0.328405 0.189319
0.823331 0.328405 0.189425
0.294743 0.452155 0.170092
0.295048 0.452613 0.17026
0.294865 0.452338 0.170153
0.294682 0.452049 0.170047
0.294591 0.451911 0.170001
0.294499 0.451774 0.169955
0.294057 0.451087 0.169696
0.294331 0.451514 0.169848
0.293675 0.450523 0.169482
0.293309 0.449928 0.169253
0.292515 0.448722 0.168811
0.291478 0.447135 0.1682
0.299214 0.446052 0.168109
0.342245 0.446403 0.16994
0.39527 0.447517 0.172839
0.450431 0.448814 0.176364
0.505699 0.450217 0.180392
0.560967 0.451331 0.184771
0.615747 0.452232 0.189471
0.668849 0.451514 0.193927
0.721096 0.448997 0.198199
0.771786 0.443931 0.201984
0.818753 0.43444 0.204623
0.833051 0.411093 0.200397
0.82829 0.373098 0.190936
0.823819 0.331868 0.183642
0.823285 0.328374 0.186191
0.823301 0.328389 0.187991
0.823301 0.328389 0.18854
0.823316 0.328405 0.188861
0.823331 0.328405 0.18912
0.823331 0.328405 0.189319
0.823331 0.328405 0.189425
0.335073 0.514015 0.193362
0.335164 0.514153 0.193423
0.334951 0.513817 0.193301
0.334905 0.513756 0.193271
0.334646 0.513344 0.193118
0.334874 0.51371 0.193256
0.334447 0.513069 0.193011
0.334371 0.512932 0.19295
0.334081 0.512505 0.192798
0.333761 0.511986 0.192599
0.333288 0.511269 0.192325
0.332692 0.510369 0.191989
0.331685 0.508827 0.191409
0.35198 0.507866 0.191821
0.40116 0.508675 0.194125
0.455467 0.510552 0.197421
0.510506 0.511635 0.20087
0.565545 0.51313 0.204868
0.619852 0.514122 0.209018
0.672755 0.513451 0.212924
0.724971 0.51252 0.21706
0.775448 0.508934 0.2206
0.823072 0.502754 0.223484
0.844251 0.486091 0.221088
0.839414 0.455863 0.212512
0.833127 0.411643 0.200549
0.825788 0.350866 0.186725
0.82327 0.328374 0.185779
0.823301 0.328389 0.18854
0.823316 0.328405 0.188861
0.823331 0.328405 0.18912
0.823331 0.328405 0.189319
0.823331 0.328405 0.189425
0.374914 0.575128 0.216358
0.374838 0.575006 0.216312
0.374777 0.574929 0.216281
0.374563 0.574594 0.216159
0.374792 0.57496 0.216297
0.374716 0.574823 0.216251
0.374502 0.574487 0.216114
0.374258 0.574121 0.215976
0.373983 0.573693 0.215824
0.373754 0.573358 0.215686
0.373663 0.57322 0.215641
0.373129 0.572396 0.215335
0.372305 0.57113 0.214847
0.371664 0.569543 0.214267
0.408392 0.569467 0.21561
0.460822 0.571374 0.218524
0.515618 0.573022 0.221805
0.570184 0.574289 0.225299
0.624384 0.574853 0.228885
0.677455 0.575479 0.232761
0.729274 0.574746 0.236454
0.780285 0.573602 0.240253
0.827512 0.569436 0.243122
0.857511 0.559365 0.242954
0.853117 0.536629 0.236011
0.847547 0.505608 0.226764
0.839933 0.459052 0.213397
0.829725 0.385107 0.193851
0.82327 0.328374 0.185122
0.823316 0.328405 0.188861
0.823331 0.328405 0.18912
0.823331 0.328405 0.189319
0.823331 0.328405 0.189425
0.414252 0.635462 0.239048
0.414343 0.635615 0.239109
0.414115 0.635264 0.238987
0.414389 0.635691 0.239139
0.414313 0.635569 0.239094
0.414069 0.635187 0.238956
0.414008 0.635111 0.238926
0.413809 0.634806 0.238804
0.414054 0.635172 0.238941
0.413657 0.634546 0.238712
0.413504 0.634333 0.238636
0.413138 0.633753 0.238407
0.412253 0.632425 0.237903
0.411414 0.631128 0.23743
0.418723 0.63032 0.2374
0.465553 0.631205 0.239506
0.52015 0.6327 0.242451
0.574716 0.633646 0.245518
0.629038 0.635477 0.249195
0.68246 0.63682 0.252949
0.7346 0.637247 0.256641
0.785153 0.636545 0.260121
0.832547 0.63415 0.263111
0.872038 0.628458 0.264683
0.868482 0.612009 0.259449
0.863722 0.590158 0.252522
0.857404 0.558816 0.242786
0.848478 0.510903 0.228336
0.835523 0.429114 0.205188
0.823255 0.328359 0.18436
0.823331 0.328405 0.18912
0.823331 0.328405 0.189319
0.823331 0.328405 0.189425
0.452827 0.694652 0.261311
0.453193 0.695201 0.261524
0.453178 0.695201 0.261524
0.452964 0.694865 0.261402
0.452888 0.694743 0.261357
0.452811 0.694621 0.261311
0.452766 0.69456 0.26128
0.452857 0.694697 0.261341
0.452827 0.694652 0.261311
0.452583 0.694286 0.261173
0.452476 0.694118 0.261128
0.45182 0.693095 0.260731
0.45153 0.692668 0.260578
0.451057 0.691936 0.260304
0.450095 0.69044 0.259739
0.467277 0.689555 0.260044
0.523033 0.691371 0.262898
0.578531 0.693187 0.266041
0.633112 0.694286 0.269184
0.687312 0.696452 0.272969
0.739559 0.697643 0.2766
0.790005 0.697368 0.279881
0.837674 0.696361 0.282979
0.877943 0.693248 0.285069
0.885176 0.683299 0.282551
0.881102 0.666697 0.277104
0.87599 0.645212 0.2701
0.86891 0.613977 0.260075
0.858534 0.564538 0.244556
0.843183 0.479576 0.219211
0.823545 0.329137 0.183093
0.823331 0.328405 0.189319
0.823331 0.328405 0.189425
0.490913 0.753063 0.283299
0.491066 0.753307 0.283391
0.49102 0.753231 0.28336
0.490974 0.753155 0.28333
0.490898 0.753048 0.283284
0.490822 0.752941 0.283253
0.490898 0.753063 0.283299
0.490867 0.753002 0.283268
0.490822 0.752941 0.283253
0.490623 0.752621 0.283131
0.490394 0.752285 0.283009
0.490578 0.75256 0.283101
0.490059 0.751751 0.282795
0.489723 0.751247 0.282612
0.488731 0.749737 0.282048
0.488228 0.747936 0.281392
0.523018 0.748867 0.282994
0.580743 0.750484 0.285924
0.636484 0.753017 0.289387
0.690822 0.754177 0.292576
0.74374 0.755825 0.296117
0.794629 0.756451 0.299443
0.842878 0.756802 0.302739
0.883757 0.755261 0.305104
0.902617 0.749645 0.304692
0.899336 0.737652 0.300649
0.895155 0.722057 0.295415
0.889586 0.700694 0.288304
0.881773 0.669459 0.278004
0.87042 0.620783 0.262242
0.852781 0.534615 0.235416
0.825498 0.348089 0.185672
0.823331 0.328405 0.189425
0.52784 0.80972 0.304601
0.527932 0.809873 0.304662
0.527733 0.809552 0.30454
0.527672 0.809461 0.304509
0.52781 0.809659 0.304585
0.527825 0.809705 0.304601
0.527779 0.809644 0.30457
0.527749 0.809567 0.304555
0.527535 0.809247 0.304433
0.527474 0.809171 0.304402
0.52755 0.809293 0.304448
0.527382 0.809018 0.304341
0.527214 0.808759 0.30425
0.526772 0.808072 0.30399
0.52604 0.806958 0.303563
0.525139 0.805585 0.303059
0.529366 0.80499 0.302998
0.579812 0.805982 0.305241
0.637446 0.808194 0.308446
0.693126 0.8103 0.311803
0.746975 0.811749 0.315099
0.798535 0.813214 0.318502
0.847623 0.814664 0.321965
0.888792 0.813977 0.324407
0.920516 0.811749 0.325841
0.918013 0.803342 0.322972
0.914733 0.792218 0.319158
0.910369 0.777234 0.314046
0.90457 0.75668 0.307073
0.896071 0.725597 0.296605
0.883757 0.677638 0.28069
0.863935 0.590921 0.252766
0.829969 0.387289 0.194293
0.562707 0.863203 0.32488
0.562768 0.863294 0.324926
0.562737 0.863249 0.324895
0.562829 0.863386 0.324956
0.56286 0.863447 0.324987
0.562814 0.863355 0.324941
0.562646 0.863096 0.324849
0.562615 0.86305 0.324834
0.562585 0.86302 0.324819
0.562768 0.86331 0.324941
0.562631 0.863081 0.324849
0.562585 0.86302 0.324819
0.562402 0.862745 0.324727
0.562081 0.862242 0.324544
0.561685 0.861646 0.324361
0.561227 0.860929 0.324132
0.560296 0.85951 0.323659
0.576822 0.8589 0.324102
0.635813 0.860883 0.327184
0.693217 0.862989 0.330602
0.74902 0.865354 0.33434
0.801999 0.867445 0.337972
0.851331 0.868681 0.341299
0.89366 0.869352 0.343954
0.927474 0.868467 0.345464
0.936599 0.863706 0.344045
0.934264 0.856321 0.341253
0.930892 0.845563 0.337514
0.926436 0.831174 0.33254
0.920317 0.811093 0.325628
0.911589 0.781415 0.315465
0.898344 0.733989 0.299428
0.877241 0.650538 0.271839
0.594415 0.911391 0.357198
0.594553 0.911604 0.357412
0.594675 0.911772 0.357595
0.594629 0.911727 0.357534
0.594583 0.911635 0.357458
0.594522 0.911574 0.357168
0.594491 0.911513 0.357122
0.594568 0.911635 0.357244
0.594659 0.911757 0.357366
0.594476 0.911498 0.357275
0.594446 0.911452 0.357061
0.594415 0.911406 0.357015
0.594247 0.911147 0.35671
0.594339 0.911284 0.356649
0.59411 0.910948 0.356527
0.593454 0.909941 0.35613
0.592706 0.908797 0.35581
0.591943 0.907546 0.355398
0.631113 0.908415 0.357092
0.690867 0.911208 0.360296
0.748363 0.91342 0.363577
0.802747 0.915816 0.366476
0.853437 0.917754 0.36939
0.897276 0.919539 0.37142
0.932036 0.919768 0.372183
0.955001 0.919112 0.371786
0.952972 0.913207 0.367529
0.9505 0.905959 0.362615
0.947143 0.895949 0.357259
0.94287 0.882979 0.350942
0.937072 0.865095 0.344289
0.927947 0.836194 0.334264
0.914488 0.791409 0.318883
0.621073 0.951095 0.406287
0.621225 0.951324 0.406485
0.62121 0.951293 0.406424
0.621195 0.951263 0.406363
0.621149 0.951217 0.406256
0.621027 0.951034 0.406165
0.621073 0.95108 0.406256
0.621134 0.951171 0.406439
0.621103 0.951141 0.406378
0.621088 0.951125 0.406088
0.621073 0.951095 0.406027
0.620966 0.950942 0.405966
0.621073 0.95111 0.406027
0.620966 0.950957 0.405707
0.620966 0.950942 0.405402
0.620676 0.9505 0.40531
0.620066 0.949554 0.405554
0.619364 0.948425 0.405997
0.625147 0.947372 0.40647
0.683589 0.949676 0.409216
0.743816 0.95227 0.412512
0.800778 0.955184 0.415625
0.853284 0.95758 0.41828
0.898924 0.960037 0.420493
0.935256 0.961227 0.421469
0.963348 0.961685 0.420661
0.969116 0.958785 0.416876
0.967559 0.954498 0.410864
0.965408 0.948562 0.403326
0.962615 0.940978 0.38909
0.958892 0.930587 0.37406
0.953613 0.915297 0.362783
0.944961 0.889387 0.352758
0.631998 0.966018 0.457755
0.631998 0.966018 0.457877
0.631983 0.966018 0.457557
0.631983 0.966018 0.457496
0.631983 0.966018 0.457465
0.631998 0.966018 0.45771
0.631998 0.966018 0.457633
0.631998 0.966018 0.457572
0.631983 0.966018 0.457511
0.631983 0.966018 0.457481
0.631983 0.966018 0.457343
0.631983 0.966018 0.457527
0.631983 0.966018 0.457435
0.631983 0.966018 0.457176
0.631968 0.966018 0.456886
0.631968 0.966018 0.45684
0.631968 0.966018 0.456901
0.631998 0.966018 0.457633
0.632013 0.966018 0.458259
0.657084 0.96759 0.459907
0.728878 0.972519 0.46334
0.790631 0.977325 0.466972
0.847654 0.982208 0.470222
0.89691 0.986786 0.472877
0.9355 0.9906 0.474052
0.965377 0.993698 0.474037
0.982147 0.993286 0.471672
0.98114 0.990662 0.466804
0.979858 0.987366 0.460609
0.978119 0.98291 0.45095
0.975708 0.976791 0.435737
0.972717 0.969039 0.417304
0.968154 0.956893 0.392065
0.633707 0.966262 0.5093
0.633707 0.966262 0.509438
0.633707 0.966262 0.509361
0.633707 0.966262 0.509316
0.633722 0.966262 0.509636
0.633722 0.966262 0.509529
0.633707 0.966262 0.509453
0.633707 0.966262 0.509377
0.633707 0.966262 0.509316
0.633707 0.966262 0.509346
0.633707 0.966262 0.509377
0.633707 0.966262 0.509316
0.633707 0.966262 0.509209
0.633692 0.966262 0.508827
0.633692 0.966262 0.508766
0.633692 0.966262 0.508919
0.633677 0.966262 0.508598
0.633692 0.966262 0.508751
0.633707 0.966262 0.509316
0.633738 0.966262 0.509926
0.694606 0.97023 0.512978
0.766567 0.97554 0.516457
0.829068 0.980713 0.519478
0.882933 0.985595 0.522042
0.924666 0.989654 0.523552
0.956298 0.992889 0.523659
0.980316 0.995438 0.522972
0.983856 0.995804 0.519921
0.983764 0.995773 0.515007
0.983627 0.995743 0.508171
