luts/unknown_author/renj1.cube
# Created by Adobe Lightroom plugin Export LUT (1.17.0)
# www.johnrellis.com/lightroom/exportlut.htm
# Preset: 电影质感[素锦印象]-1
# Color profile: /Library/Application Support/Adobe/Color/Profiles/Recommended/AdobeRGB1998.icc
LUT_3D_SIZE 8
DOMAIN_MIN 0.000000 0.000000 0.000000
DOMAIN_MAX 0.903226 0.903226 0.903226
0.058839 0.072084 0.072053
0.089479 0.073457 0.072541
0.154543 0.087495 0.073060
0.272801 0.115969 0.073243
0.439185 0.151217 0.053498
0.654810 0.191379 0.000000
0.806760 0.222446 0.000000
0.928985 0.256931 0.013611
0.065888 0.087770 0.082795
0.076356 0.090852 0.086763
0.152743 0.103029 0.076326
0.264408 0.129946 0.075685
0.426001 0.165011 0.058991
0.628138 0.203037 0.000000
0.786313 0.232486 0.000000
0.917418 0.265171 0.000000
0.084230 0.117586 0.107179
0.085817 0.116243 0.109041
0.112795 0.129793 0.117891
0.291569 0.186007 0.079438
0.464546 0.225895 0.051514
0.657374 0.261906 0.000000
0.820645 0.290654 0.000000
0.939940 0.317571 0.086275
0.105470 0.158724 0.138094
0.105653 0.155032 0.137789
0.110445 0.154665 0.137392
0.184176 0.202976 0.173098
0.520104 0.337835 0.083284
0.713649 0.358373 0.000732
0.838163 0.368841 0.067079
0.944671 0.384833 0.129061
0.130709 0.209628 0.175174
0.130404 0.205081 0.173739
0.128450 0.191012 0.169284
0.157534 0.218112 0.181888
0.278141 0.293462 0.241733
0.630396 0.435798 0.170260
0.842771 0.454139 0.120546
0.949279 0.466438 0.182803
0.161440 0.271611 0.219028
0.162814 0.271427 0.220706
0.156893 0.249973 0.210636
0.149905 0.224125 0.195865
0.226841 0.298405 0.238651
0.404059 0.407904 0.335210
0.753780 0.554986 0.313329
0.950805 0.572503 0.268803
0.207614 0.359289 0.281621
0.206058 0.354376 0.279484
0.194522 0.326940 0.264225
0.176974 0.283787 0.239078
0.194308 0.299809 0.240848
0.338079 0.413428 0.324987
0.563012 0.546868 0.460090
0.849119 0.672999 0.478187
0.304662 0.503563 0.391699
0.300206 0.496468 0.387304
0.287999 0.474983 0.375189
0.270970 0.441810 0.356909
0.221103 0.356420 0.298100
0.335149 0.476783 0.368261
0.563684 0.618158 0.507958
0.749111 0.717433 0.645197
0.061677 0.082795 0.092134
0.080842 0.082948 0.096986
0.143648 0.092958 0.097810
0.252140 0.115755 0.100618
0.411566 0.144259 0.092378
0.606439 0.178866 0.070100
0.770352 0.211215 0.047578
0.903990 0.247410 0.082185
0.068482 0.095369 0.091554
0.085054 0.102602 0.102022
0.145754 0.111269 0.102754
0.254185 0.130343 0.101350
0.411902 0.160433 0.092317
0.597406 0.193454 0.071229
0.756344 0.222416 0.041016
0.891691 0.255100 0.073152
0.089631 0.125551 0.113069
0.098299 0.129946 0.122683
0.120546 0.140230 0.131502
0.276249 0.181094 0.105409
0.437690 0.215457 0.093843
0.618799 0.248142 0.073487
0.777401 0.275151 0.065949
0.910369 0.304814 0.105562
0.113375 0.168338 0.146426
0.116091 0.167391 0.149355
0.118471 0.162081 0.148592
0.182040 0.202579 0.177890
0.466651 0.307378 0.111757
0.653620 0.332067 0.084596
0.793149 0.349096 0.093324
0.916625 0.370855 0.135653
0.142153 0.224216 0.187625
0.140932 0.218418 0.185489
0.137484 0.202182 0.179446
0.158999 0.218784 0.185885
0.267704 0.285039 0.239597
0.605280 0.420203 0.177768
0.819638 0.443275 0.142702
0.932403 0.458076 0.192782
0.169802 0.280766 0.227298
0.168215 0.275090 0.224979
0.162173 0.254795 0.215671
0.151888 0.223819 0.198764
0.225834 0.296757 0.240818
0.402289 0.407507 0.338933
0.746975 0.550805 0.318242
0.940673 0.566705 0.278538
0.210330 0.358312 0.282170
0.206241 0.349279 0.277043
0.196201 0.325322 0.264073
0.180423 0.286534 0.242069
0.193668 0.295598 0.241306
0.330175 0.405097 0.321172
0.545434 0.532158 0.448310
0.834409 0.657740 0.461250
0.301854 0.497261 0.387152
0.299748 0.492836 0.385138
0.288182 0.472511 0.373693
0.271183 0.439857 0.355779
0.239414 0.381506 0.318761
0.341192 0.484230 0.376074
0.558190 0.613916 0.505028
0.740810 0.709926 0.638300
0.074647 0.115541 0.140414
0.081636 0.110292 0.144930
0.132631 0.114199 0.154757
0.250278 0.104524 0.173678
0.422644 0.100893 0.154696
0.613886 0.166323 0.165438
0.778195 0.209537 0.174960
0.910643 0.258061 0.200961
0.085542 0.131838 0.145327
0.097566 0.132998 0.150698
0.136080 0.129183 0.158755
0.254765 0.116548 0.165805
0.415351 0.149722 0.159609
0.604700 0.184298 0.163943
0.769039 0.221958 0.171298
0.905089 0.267491 0.198001
0.097169 0.154147 0.142580
0.110048 0.159518 0.150179
0.148714 0.174838 0.172610
0.270420 0.188235 0.169680
0.446754 0.218601 0.172885
0.625940 0.247745 0.173434
0.778958 0.277226 0.182681
0.909117 0.313634 0.211032
0.126680 0.201175 0.161410
0.136965 0.206363 0.173007
0.162173 0.213260 0.199741
0.219211 0.245243 0.227481
0.497810 0.320409 0.194369
0.660609 0.340978 0.195254
0.799863 0.361212 0.210147
0.920226 0.387549 0.242039
0.160861 0.262242 0.209506
0.170077 0.265751 0.218723
0.184298 0.261845 0.231846
0.186069 0.252018 0.224155
0.309331 0.329137 0.290867
0.640558 0.443702 0.247745
0.817472 0.456519 0.249119
0.930510 0.474983 0.285954
0.198550 0.325719 0.259068
0.205966 0.327001 0.265690
0.206668 0.311040 0.263951
0.187106 0.268589 0.239261
0.243534 0.317418 0.267826
0.420783 0.427893 0.369574
0.754360 0.561578 0.361883
0.942779 0.583825 0.361852
0.253513 0.411719 0.325139
0.256718 0.408362 0.327031
0.241398 0.379461 0.310399
0.216007 0.331731 0.280888
0.205631 0.303502 0.258885
0.343359 0.419776 0.342535
0.569604 0.556451 0.481666
0.853056 0.681971 0.508171
0.348608 0.540063 0.426520
0.340978 0.530694 0.419745
0.324132 0.506584 0.404486
0.307042 0.477211 0.388708
0.266484 0.412909 0.345922
0.339208 0.484932 0.382025
0.565759 0.621851 0.519982
0.752285 0.722286 0.655543
0.080415 0.170443 0.229831
0.092714 0.167208 0.236423
0.141360 0.153170 0.241398
0.225864 0.154147 0.253758
0.387579 0.157412 0.300542
0.598505 0.000000 0.279973
0.752895 0.142885 0.268009
0.888090 0.270207 0.306310
0.100343 0.195987 0.244297
0.113771 0.193790 0.248020
0.148226 0.172641 0.250492
0.232090 0.170077 0.259831
0.395850 0.170413 0.300969
0.594934 0.000000 0.269749
0.746639 0.197086 0.272892
0.886900 0.280003 0.305089
0.114290 0.233402 0.248081
0.132113 0.236362 0.254337
0.177462 0.234867 0.267521
0.250431 0.222232 0.277684
0.429999 0.214481 0.296788
0.612360 0.237430 0.284154
0.775296 0.301183 0.311528
0.904631 0.342199 0.332555
0.142092 0.266819 0.237186
0.156222 0.271336 0.243687
0.203006 0.285710 0.266636
0.280705 0.311986 0.306310
0.458412 0.328222 0.305150
0.631067 0.349981 0.311009
0.780972 0.377813 0.327459
0.910765 0.413764 0.356329
0.199130 0.341436 0.246799
0.209018 0.342016 0.256901
0.243503 0.347601 0.291569
0.276921 0.342382 0.323461
0.371740 0.394965 0.372290
0.672511 0.473884 0.363439
0.808713 0.486122 0.376776
0.923461 0.506706 0.400641
0.245029 0.404303 0.305913
0.259556 0.412543 0.319799
0.282811 0.408942 0.340154
0.290532 0.383764 0.344793
0.287541 0.366613 0.327062
0.474952 0.482338 0.438941
0.781674 0.593225 0.445014
0.940581 0.613825 0.468544
0.301244 0.480293 0.370214
0.307713 0.480293 0.375555
0.324346 0.474983 0.388800
0.312230 0.438087 0.375586
0.253971 0.354345 0.315221
0.373449 0.452644 0.385595
0.599878 0.588525 0.528985
0.869352 0.703731 0.556786
0.411231 0.606439 0.478981
0.414191 0.604791 0.481331
0.416632 0.592370 0.482429
0.388525 0.553704 0.458839
0.332403 0.483131 0.407996
0.341619 0.479561 0.397467
0.571679 0.630030 0.538750
0.765377 0.737026 0.677577
0.094972 0.267277 0.376379
0.119265 0.265202 0.380804
0.147646 0.229129 0.381079
0.255772 0.213596 0.380072
0.376196 0.218021 0.399664
0.535424 0.263035 0.444282
0.734340 0.210788 0.448585
0.885710 0.211490 0.425055
0.124819 0.291569 0.386999
0.144381 0.290654 0.392432
0.164431 0.254429 0.391943
0.261906 0.232975 0.387610
0.379217 0.233982 0.402136
0.541375 0.274998 0.446723
0.737881 0.226871 0.446906
0.885771 0.231327 0.422644
0.168032 0.344610 0.402014
0.192813 0.349554 0.410681
0.235050 0.337896 0.414221
0.279301 0.292088 0.404913
0.387640 0.283482 0.409094
0.551934 0.304601 0.444038
0.743465 0.266239 0.431891
0.879271 0.311070 0.423651
0.184665 0.400885 0.406104
0.204776 0.401801 0.409644
0.267521 0.407996 0.425483
0.339147 0.400031 0.437903
0.414466 0.369146 0.432319
0.593988 0.365545 0.445472
0.750546 0.376318 0.430640
0.884031 0.434394 0.454017
0.228946 0.423987 0.372320
0.244358 0.427558 0.378271
0.291173 0.435279 0.395087
0.360235 0.445899 0.421607
0.440894 0.462837 0.454597
0.623743 0.476905 0.455940
0.769802 0.495979 0.467659
0.899657 0.522881 0.487678
0.300114 0.487831 0.350378
0.313390 0.489815 0.359380
0.337957 0.487861 0.383459
0.378790 0.484932 0.422034
0.386236 0.450416 0.428595
0.519066 0.528954 0.504753
0.799741 0.620478 0.535760
0.922271 0.637324 0.554833
0.370916 0.566430 0.426429
0.375616 0.564111 0.430488
0.392920 0.558556 0.445533
0.417304 0.547478 0.466468
0.395544 0.494362 0.446479
0.388128 0.471168 0.420844
0.622492 0.615045 0.573175
0.884489 0.717830 0.598230
0.468605 0.658564 0.520684
0.470283 0.656123 0.522087
0.475898 0.647944 0.526879
0.494118 0.641474 0.542473
0.450019 0.587518 0.507134
0.350500 0.477394 0.419257
0.557855 0.624414 0.544640
0.768551 0.743130 0.692226
0.205386 0.409216 0.557763
0.227054 0.408911 0.561486
0.245396 0.378943 0.561822
0.316289 0.343816 0.556207
0.415503 0.300023 0.534264
0.542046 0.311376 0.548425
0.691493 0.391638 0.590234
0.850584 0.430365 0.620630
0.224918 0.422431 0.556085
0.240543 0.419623 0.556847
0.263981 0.394751 0.556390
0.315007 0.352575 0.549462
0.411322 0.310155 0.529351
0.537865 0.320775 0.544579
0.688716 0.399115 0.588251
0.849943 0.432197 0.617212
0.299107 0.488380 0.583764
0.308324 0.483742 0.581994
0.340154 0.469032 0.578576
0.353185 0.416297 0.570306
0.430213 0.367803 0.545922
0.549523 0.369299 0.554314
0.694392 0.441749 0.596002
0.857603 0.454353 0.615839
0.325292 0.540032 0.585931
0.340734 0.538781 0.586572
0.398077 0.542260 0.596521
0.456458 0.533562 0.603601
0.478523 0.470710 0.584131
0.580255 0.455116 0.580682
0.719142 0.502037 0.613367
0.876616 0.493629 0.613733
0.328527 0.581842 0.570611
0.345220 0.582910 0.573816
0.397009 0.585107 0.583429
0.472602 0.587915 0.599023
0.529839 0.569512 0.601801
0.585687 0.525628 0.585046
0.738338 0.534600 0.599420
0.880400 0.538293 0.589075
0.363165 0.584588 0.517418
0.378943 0.589258 0.524346
0.417700 0.593713 0.537194
0.474189 0.598779 0.556054
0.533776 0.599725 0.574792
0.608881 0.614099 0.605524
0.770840 0.636133 0.619745
0.900969 0.654841 0.632441
0.468238 0.657221 0.521141
0.479896 0.660365 0.527855
0.507622 0.663691 0.541650
0.543114 0.664088 0.565484
0.566522 0.650080 0.588281
0.535943 0.589227 0.563500
0.672572 0.667811 0.645686
0.915496 0.753597 0.680995
0.560479 0.728481 0.587945
0.562524 0.726894 0.589899
0.570642 0.722408 0.597559
0.586114 0.717006 0.612146
0.592889 0.698878 0.619501
0.542138 0.636133 0.579217
0.541344 0.620203 0.556420
0.784421 0.762692 0.723842
0.382849 0.545586 0.692195
0.398810 0.547631 0.694911
0.414435 0.532555 0.694331
0.423194 0.492409 0.692042
0.487251 0.458656 0.679866
0.567681 0.407446 0.661402
0.681117 0.429206 0.672267
0.809598 0.534325 0.715785
0.385992 0.549554 0.687007
0.400061 0.550774 0.689235
0.422583 0.540002 0.689204
0.420172 0.494606 0.685298
0.480812 0.459876 0.672633
0.557733 0.405554 0.652064
0.670222 0.424475 0.662348
0.799588 0.525628 0.705653
0.441352 0.595544 0.701503
0.449439 0.594049 0.701350
0.473365 0.586725 0.699489
0.477272 0.552117 0.694911
0.503960 0.505211 0.680934
0.567315 0.444129 0.658045
0.680323 0.466285 0.671321
0.810361 0.560662 0.717983
0.489052 0.646174 0.712917
0.498146 0.645319 0.712917
0.528740 0.644404 0.715267
0.557610 0.631983 0.712825
0.552483 0.580316 0.700343
0.594842 0.522087 0.677882
0.696651 0.530388 0.686213
0.821347 0.603357 0.730037
0.487892 0.676509 0.701869
0.496162 0.675288 0.701869
0.528283 0.674952 0.705776
0.581353 0.678340 0.716793
0.615839 0.662104 0.715694
0.616114 0.596918 0.691035
0.699306 0.582544 0.688716
0.831785 0.638727 0.734188
0.496834 0.716426 0.694881
0.506493 0.716457 0.696498
0.537591 0.716732 0.702052
0.585657 0.718502 0.712795
0.641016 0.719600 0.726436
0.686488 0.705959 0.731746
0.724788 0.662501 0.712245
0.865232 0.674861 0.733486
0.535454 0.721218 0.656184
0.544335 0.723018 0.659785
0.567773 0.725338 0.667994
0.603906 0.729549 0.681361
0.644556 0.732021 0.695521
0.690181 0.732937 0.710994
0.745083 0.738460 0.730709
0.893645 0.761196 0.746151
0.612116 0.771420 0.655787
0.616876 0.772366 0.658076
0.639704 0.780575 0.671656
0.667445 0.787442 0.685817
0.699672 0.792203 0.703365
0.714382 0.779660 0.719509
0.666102 0.708461 0.679469
0.812558 0.796201 0.773465
0.563378 0.674006 0.798306
0.571496 0.675105 0.799588
0.583581 0.668513 0.798489
0.580407 0.642298 0.798093
0.602289 0.616236 0.793698
0.645991 0.582544 0.784085
0.714260 0.550835 0.777615
0.806821 0.572595 0.789334
0.564111 0.676478 0.796048
0.572015 0.677546 0.797360
0.589929 0.674495 0.797238
0.584527 0.647486 0.795804
0.601953 0.619226 0.791470
0.644099 0.585321 0.781704
0.709926 0.550347 0.773678
0.803464 0.572473 0.786099
0.579706 0.695308 0.798428
0.585870 0.695399 0.799069
0.600610 0.690974 0.797787
0.616907 0.679774 0.800900
0.617731 0.644038 0.795743
0.651575 0.608392 0.783993
0.711421 0.568505 0.774044
0.805631 0.590417 0.788235
0.603845 0.727108 0.805814
0.610437 0.727779 0.807065
0.625788 0.725063 0.807126
0.652338 0.721096 0.808927
0.651179 0.689113 0.805936
0.672114 0.652522 0.795132
0.720394 0.604669 0.781094
0.814511 0.624689 0.796750
0.609155 0.754452 0.802976
0.616907 0.755947 0.805234
0.636713 0.756405 0.809018
0.671443 0.758816 0.817746
0.698573 0.748043 0.816983
0.694697 0.703182 0.807614
0.730831 0.653040 0.791073
0.826413 0.669368 0.808408
0.618067 0.788663 0.801053
0.622065 0.787808 0.801205
0.638056 0.786526 0.803494
0.668299 0.786831 0.810513
0.713832 0.790372 0.823880
0.757229 0.786343 0.833921
0.766323 0.736446 0.821683
0.840177 0.723415 0.822080
0.637110 0.830076 0.803464
0.640803 0.830137 0.804471
0.654994 0.830167 0.807858
0.683711 0.831113 0.815274
0.725124 0.833799 0.827451
0.779782 0.840482 0.846677
0.824155 0.833463 0.857389
0.851774 0.783322 0.833951
0.676661 0.838590 0.776272
0.679408 0.838499 0.777035
0.691127 0.839689 0.781369
0.714015 0.843473 0.791043
0.745388 0.848539 0.804471
0.783780 0.854643 0.821347
0.827726 0.860410 0.840513
0.873014 0.862303 0.856535
