luts/unknown_author/renj2.cube
# Created by Adobe Lightroom plugin Export LUT (1.17.0)
# www.johnrellis.com/lightroom/exportlut.htm
# Preset: 电影质感[素锦印象]-2
# Color profile: /Library/Application Support/Adobe/Color/Profiles/Recommended/AdobeRGB1998.icc
LUT_3D_SIZE 8
DOMAIN_MIN 0.000000 0.000000 0.000000
DOMAIN_MAX 0.903226 0.903226 0.903226
0.059022 0.070924 0.072145
0.090272 0.072114 0.072602
0.143893 0.082979 0.072724
0.223606 0.105196 0.070314
0.357244 0.150240 0.061860
0.496254 0.198978 0.001038
0.637903 0.244358 0.000000
0.774350 0.281132 0.000000
0.063844 0.082002 0.079927
0.088808 0.088808 0.074311
0.142611 0.093477 0.072786
0.217655 0.113375 0.072663
0.337926 0.152895 0.065949
0.467842 0.197360 0.019867
0.614984 0.244755 0.000000
0.760616 0.284306 0.000000
0.080354 0.106233 0.101564
0.080964 0.106386 0.102022
0.137148 0.126864 0.088624
0.241855 0.153628 0.079713
0.353246 0.188205 0.067964
0.487007 0.232578 0.013275
0.650355 0.283482 0.000000
0.786618 0.316594 0.000000
0.095369 0.130861 0.122469
0.095918 0.129244 0.122988
0.107881 0.147158 0.118288
0.230716 0.201022 0.102449
0.406470 0.263615 0.063661
0.532647 0.298772 0.000000
0.666896 0.333471 0.000000
0.791867 0.358740 0.000000
0.111208 0.160006 0.145541
0.110689 0.156924 0.144442
0.109590 0.156527 0.140993
0.161929 0.203220 0.136263
0.326329 0.280613 0.108186
0.517510 0.353491 0.016022
0.669459 0.389227 0.000000
0.797391 0.412909 0.000000
0.126467 0.189792 0.168032
0.126955 0.188998 0.168612
0.123476 0.175998 0.162142
0.131685 0.206088 0.157137
0.242924 0.281346 0.154696
0.454902 0.390356 0.112398
0.668849 0.466896 0.000000
0.818112 0.483833 0.024872
0.146395 0.232700 0.198550
0.145357 0.229099 0.196994
0.139742 0.211734 0.187411
0.133944 0.203738 0.177523
0.181460 0.278569 0.180545
0.361028 0.396826 0.178439
0.609339 0.518425 0.129091
0.796109 0.559838 0.086122
0.179232 0.310338 0.250431
0.177218 0.303960 0.247074
0.170535 0.283696 0.236545
0.159854 0.251987 0.218753
0.158785 0.289860 0.207675
0.291264 0.429633 0.227390
0.562371 0.588159 0.242161
0.791165 0.654292 0.214664
0.060273 0.077485 0.082826
0.084443 0.078950 0.088655
0.135592 0.092317 0.087831
0.210544 0.112093 0.089143
0.326177 0.145602 0.083314
0.450996 0.186496 0.064179
0.599451 0.233799 0.000000
0.746273 0.273808 0.000000
0.066590 0.088594 0.083009
0.086763 0.096071 0.091920
0.137179 0.102937 0.091249
0.212528 0.120180 0.090303
0.320989 0.151888 0.083589
0.441749 0.190768 0.065766
0.583886 0.235691 0.000000
0.731868 0.276249 0.000000
0.086336 0.111940 0.107851
0.088808 0.111788 0.110689
0.135653 0.130526 0.100954
0.228580 0.151339 0.093660
0.329259 0.180209 0.085054
0.454536 0.220584 0.064546
0.604578 0.267552 0.000000
0.752895 0.306035 0.000000
0.099611 0.135286 0.127047
0.100435 0.134249 0.128206
0.110018 0.148898 0.123842
0.212802 0.189334 0.110109
0.357885 0.235233 0.086213
0.477790 0.271427 0.062318
0.618921 0.313054 0.000000
0.759426 0.346624 0.000000
0.115328 0.164431 0.150088
0.114473 0.161044 0.148775
0.112490 0.157626 0.144808
0.158206 0.199313 0.139040
0.306371 0.265415 0.115755
0.488960 0.335637 0.067353
0.645106 0.377356 0.000000
0.778042 0.404730 0.000000
0.128786 0.191928 0.170504
0.128023 0.188632 0.169009
0.124788 0.176883 0.163272
0.131228 0.203311 0.158450
0.237125 0.275944 0.157687
0.446265 0.384405 0.122194
0.658106 0.460945 0.038544
0.805692 0.478218 0.061280
0.146609 0.231174 0.197940
0.144869 0.225742 0.195041
0.139773 0.210575 0.186954
0.134096 0.200656 0.177462
0.178592 0.273777 0.181277
0.351415 0.387640 0.179965
0.590112 0.503929 0.133516
0.777890 0.548852 0.088411
0.178683 0.307164 0.248508
0.177279 0.302434 0.246342
0.170993 0.283299 0.236484
0.160555 0.252171 0.219120
0.164218 0.298161 0.216068
0.293095 0.435065 0.233097
0.556207 0.584283 0.244175
0.782467 0.648768 0.214725
0.072786 0.102449 0.111910
0.082277 0.102174 0.116548
0.131899 0.105409 0.124147
0.215702 0.120241 0.117708
0.332464 0.152041 0.115358
0.460761 0.194583 0.107301
0.612909 0.239872 0.086458
0.758358 0.276677 0.059937
0.080995 0.111849 0.115236
0.091707 0.114046 0.119478
0.135286 0.114931 0.120882
0.214847 0.129763 0.118715
0.324010 0.158877 0.115724
0.451698 0.198917 0.106996
0.602472 0.243595 0.085634
0.751736 0.281621 0.057343
0.094087 0.127718 0.116701
0.102754 0.131380 0.127138
0.139559 0.144717 0.128817
0.229831 0.162142 0.124788
0.339483 0.191867 0.119600
0.464973 0.229496 0.108217
0.611383 0.271916 0.087373
0.755978 0.307073 0.062531
0.112398 0.155856 0.142763
0.119051 0.158663 0.150240
0.120485 0.162661 0.146822
0.221347 0.204379 0.138613
0.366430 0.246952 0.124269
0.489387 0.282322 0.111513
0.631708 0.321630 0.092042
0.768795 0.351507 0.076783
0.130587 0.186007 0.168307
0.130220 0.182803 0.167697
0.128115 0.171603 0.163668
0.166079 0.214542 0.160922
0.319219 0.282567 0.145602
0.499184 0.346319 0.118288
0.648768 0.383154 0.100557
0.781369 0.408972 0.096834
0.143435 0.213382 0.188113
0.142702 0.209720 0.186984
0.138552 0.195926 0.180240
0.138338 0.210483 0.172305
0.237705 0.282902 0.175570
0.440986 0.385046 0.152651
0.653254 0.461372 0.120699
0.807065 0.483833 0.136995
0.162387 0.256352 0.217624
0.160433 0.250492 0.214572
0.153506 0.231571 0.204074
0.142123 0.202945 0.186587
0.178988 0.276768 0.192691
0.352178 0.395666 0.198306
0.598566 0.515435 0.170565
0.791806 0.562036 0.158999
0.194095 0.333562 0.267369
0.191043 0.325689 0.262974
0.182864 0.303197 0.251041
0.171908 0.272038 0.234195
0.168887 0.291295 0.225345
0.286198 0.433997 0.244480
0.555749 0.592554 0.262760
0.787564 0.657557 0.248753
0.085298 0.131777 0.147951
0.095521 0.134218 0.153140
0.122835 0.128481 0.158206
0.206882 0.133608 0.174472
0.315618 0.150271 0.157748
0.441596 0.185641 0.152834
0.590997 0.230167 0.147463
0.742489 0.268162 0.142031
0.094453 0.143038 0.153689
0.103883 0.144472 0.157595
0.128725 0.138735 0.162814
0.215000 0.139956 0.172457
0.317571 0.161532 0.159243
0.440101 0.194736 0.153475
0.587488 0.237156 0.147250
0.740719 0.274174 0.140658
0.103517 0.156283 0.153536
0.112825 0.160128 0.158877
0.139986 0.167330 0.171878
0.220371 0.174350 0.168673
0.330632 0.197330 0.165499
0.463355 0.234745 0.162753
0.621118 0.278477 0.158572
0.761532 0.307103 0.151034
0.126223 0.186282 0.157931
0.132845 0.188327 0.165805
0.151278 0.191379 0.186954
0.223056 0.222019 0.181460
0.351446 0.251713 0.175235
0.477058 0.284916 0.169314
0.624292 0.322515 0.161685
0.768460 0.352209 0.159518
0.145846 0.218509 0.187228
0.150881 0.218540 0.192538
0.158633 0.212711 0.200168
0.175113 0.233951 0.195895
0.328862 0.304051 0.192874
0.510704 0.361730 0.183719
0.652766 0.393164 0.177584
0.784329 0.414954 0.178103
0.166171 0.253788 0.216373
0.172580 0.257633 0.223514
0.169802 0.241154 0.218448
0.160159 0.224796 0.204074
0.246067 0.306493 0.211643
0.453040 0.406195 0.203525
0.661707 0.474342 0.197421
0.807431 0.493172 0.212528
0.189151 0.301244 0.250156
0.192416 0.300725 0.253117
0.184085 0.279667 0.242069
0.168002 0.242679 0.219669
0.182742 0.287449 0.216190
0.355016 0.414435 0.233097
0.604822 0.529900 0.223484
0.797269 0.573297 0.231205
0.230808 0.393317 0.310002
0.230594 0.389197 0.309178
0.218296 0.362982 0.294224
0.198032 0.317845 0.267674
0.176791 0.276677 0.237400
0.269688 0.426917 0.261540
0.548089 0.602136 0.289799
0.790494 0.668818 0.296117
0.100435 0.177981 0.204105
0.111788 0.180179 0.208927
0.131899 0.170596 0.216068
0.187839 0.168734 0.220981
0.302922 0.169894 0.241794
0.435004 0.159030 0.209171
0.580346 0.230198 0.216953
0.737240 0.276860 0.228977
0.109194 0.188602 0.209354
0.120455 0.192447 0.216037
0.142336 0.185122 0.222843
0.191775 0.177829 0.223972
0.307012 0.174777 0.238407
0.434730 0.185977 0.213413
0.583398 0.240635 0.218631
0.738460 0.284245 0.229404
0.122072 0.211429 0.216800
0.132601 0.214176 0.221012
0.161196 0.215000 0.228855
0.201114 0.204746 0.230716
0.314275 0.195071 0.220127
0.433478 0.231785 0.218418
0.585992 0.269718 0.221408
0.737575 0.304509 0.227085
0.136324 0.221012 0.205356
0.144167 0.222507 0.208042
0.170687 0.229129 0.219425
0.221561 0.248997 0.238743
0.332860 0.263767 0.234501
0.458320 0.289769 0.231785
0.606683 0.321965 0.231144
0.754055 0.344976 0.229374
0.164920 0.261204 0.207095
0.170809 0.262852 0.214084
0.189334 0.265049 0.235508
0.195682 0.247501 0.240879
0.321050 0.318242 0.245762
0.487282 0.360479 0.245426
0.630060 0.388128 0.241886
0.770932 0.409216 0.242679
0.182315 0.292363 0.235264
0.186862 0.292454 0.239994
0.199863 0.289586 0.253025
0.197116 0.264714 0.247379
0.229252 0.305272 0.243778
0.441993 0.413275 0.256535
0.661006 0.483223 0.272251
0.798947 0.498421 0.280827
0.210941 0.350134 0.276585
0.213657 0.347936 0.278904
0.222904 0.341497 0.286809
0.213107 0.308629 0.273228
0.189151 0.274266 0.241733
0.329931 0.412207 0.268223
0.595850 0.536492 0.277623
0.793423 0.579767 0.298619
0.251926 0.440345 0.334142
0.253452 0.437079 0.335027
0.257816 0.425483 0.337102
0.249485 0.397162 0.326696
0.208408 0.319890 0.276646
0.235447 0.394720 0.274022
0.513695 0.595880 0.318090
0.780911 0.673915 0.341314
0.125734 0.265232 0.304662
0.139834 0.267460 0.309575
0.170413 0.257206 0.309636
0.205356 0.224582 0.301122
0.283146 0.227665 0.308415
0.418921 0.225437 0.327733
0.585016 0.187808 0.298863
0.734340 0.296300 0.323766
0.130983 0.263767 0.296056
0.142428 0.264256 0.298924
0.172854 0.259342 0.303716
0.203983 0.228000 0.296361
0.280644 0.231937 0.305058
0.417578 0.227787 0.322148
0.581872 0.195041 0.291875
0.730922 0.310704 0.324681
0.148470 0.291539 0.305760
0.158083 0.290532 0.306798
0.191226 0.290593 0.314427
0.218387 0.261448 0.309209
0.291752 0.261692 0.314031
0.433570 0.247471 0.314702
0.582940 0.272587 0.303563
0.735897 0.344976 0.331884
0.156130 0.317723 0.305638
0.165957 0.316930 0.306432
0.199222 0.319677 0.314305
0.252934 0.326390 0.331884
0.321386 0.312749 0.333074
0.452552 0.321630 0.317205
0.603937 0.354131 0.326482
0.753780 0.389410 0.343694
0.179416 0.311650 0.272282
0.187259 0.313695 0.275456
0.213840 0.322728 0.287510
0.256168 0.340826 0.310430
0.323857 0.361242 0.328679
0.469062 0.384192 0.328191
0.616083 0.409125 0.332555
0.762295 0.429145 0.339574
0.217166 0.366461 0.271550
0.223423 0.369757 0.278843
0.240146 0.370336 0.297459
0.263706 0.366308 0.322545
0.252171 0.326940 0.307225
0.445136 0.447791 0.337011
0.653223 0.501213 0.360082
0.790249 0.509819 0.361700
0.249149 0.430091 0.318608
0.254276 0.431434 0.324010
0.266484 0.427314 0.335729
0.282536 0.416754 0.350652
0.262394 0.361303 0.326024
0.299962 0.413306 0.317906
0.598840 0.565118 0.358923
0.805051 0.610437 0.402533
0.292363 0.520623 0.376654
0.294194 0.517845 0.378119
0.300908 0.509545 0.383551
0.311864 0.496712 0.392584
0.294713 0.444251 0.372107
0.225986 0.334081 0.293431
0.456123 0.580713 0.359258
0.774960 0.690883 0.409827
0.161593 0.365423 0.409705
0.178042 0.369635 0.415961
0.216953 0.366735 0.421668
0.237766 0.323919 0.415473
0.299779 0.282902 0.391699
0.401343 0.306889 0.412116
0.546838 0.309545 0.429664
0.724178 0.305058 0.428199
0.163912 0.363592 0.402014
0.178592 0.367163 0.407568
0.218326 0.367468 0.415900
0.239658 0.327642 0.408087
0.294347 0.283085 0.384710
0.393011 0.305577 0.404028
0.538537 0.305211 0.420386
0.718074 0.303899 0.421057
0.179873 0.391302 0.410773
0.192050 0.391943 0.413275
0.230991 0.393072 0.421241
0.270665 0.373022 0.419501
0.302525 0.312535 0.393927
0.400671 0.332006 0.410925
0.554314 0.327001 0.422370
0.726284 0.335576 0.421881
0.191257 0.426184 0.416297
0.201205 0.424506 0.416449
0.236332 0.424292 0.422309
0.295720 0.427863 0.437110
0.320165 0.369879 0.415473
0.416846 0.380468 0.426612
0.579553 0.363928 0.421393
0.733761 0.395178 0.427558
0.200504 0.440009 0.397894
0.208286 0.439734 0.399023
0.235508 0.443183 0.406836
0.281773 0.449958 0.422156
0.346044 0.446296 0.435950
0.427283 0.418830 0.429450
0.580835 0.431220 0.416999
0.737331 0.482765 0.448310
0.232639 0.436469 0.359075
0.239689 0.438087 0.361761
0.263767 0.445991 0.372534
0.303349 0.461036 0.392767
0.353094 0.476509 0.418647
0.439673 0.501366 0.445686
0.615900 0.531640 0.455909
0.762478 0.552392 0.471321
0.287877 0.516838 0.365576
0.294957 0.520348 0.369604
0.316503 0.525994 0.383215
0.339208 0.525200 0.406806
0.363836 0.512474 0.431067
0.333043 0.432593 0.397192
0.588190 0.601984 0.460578
0.789975 0.640436 0.501976
0.337865 0.602502 0.417273
0.341527 0.602441 0.420722
0.357183 0.606683 0.435981
0.375952 0.603998 0.453834
0.392950 0.588800 0.469337
0.372320 0.524132 0.447425
0.367468 0.535424 0.401465
0.764340 0.720546 0.504997
0.247684 0.516350 0.552453
0.263645 0.519768 0.556970
0.306584 0.521080 0.563470
0.345159 0.500969 0.560510
0.365026 0.436439 0.544335
0.442908 0.396704 0.527764
0.568383 0.443977 0.556298
0.692897 0.464424 0.564752
0.245548 0.515709 0.547326
0.260960 0.518944 0.551720
0.306065 0.522942 0.560571
0.344793 0.503807 0.557855
0.363836 0.440284 0.542412
0.440772 0.399695 0.525902
0.565820 0.446021 0.554314
0.691218 0.463844 0.561913
0.245487 0.528679 0.544396
0.259464 0.530602 0.547662
0.301091 0.532006 0.554314
0.360937 0.534112 0.567193
0.374060 0.470710 0.551690
0.443214 0.421057 0.530358
0.566491 0.463905 0.556420
0.695247 0.475593 0.561944
0.237308 0.553582 0.543236
0.252049 0.556298 0.547082
0.295781 0.559228 0.555138
0.368902 0.569604 0.573510
0.408850 0.537652 0.571283
0.451270 0.463294 0.544121
0.570581 0.497688 0.564019
0.705592 0.500114 0.564904
0.241550 0.589746 0.541527
0.253178 0.592126 0.545159
0.286168 0.592828 0.551873
0.340826 0.595300 0.566217
0.438270 0.608392 0.591547
0.461738 0.535424 0.568292
0.570214 0.538445 0.571405
0.717769 0.534356 0.567620
0.274784 0.618280 0.528557
0.281834 0.619135 0.530755
0.307073 0.624262 0.540124
0.351965 0.637049 0.560906
0.419898 0.650446 0.588769
0.511894 0.650141 0.610620
0.574548 0.601282 0.589166
0.733883 0.592584 0.575677
0.325444 0.631708 0.495491
0.330816 0.632074 0.497200
0.349615 0.634119 0.504173
0.383948 0.639918 0.518914
0.432258 0.648005 0.541192
0.492470 0.658076 0.571130
0.571099 0.667750 0.601556
0.743740 0.690578 0.614984
0.392309 0.692958 0.493080
0.396368 0.693233 0.494789
0.412940 0.696468 0.503044
0.444831 0.704555 0.520684
0.486091 0.712123 0.548699
0.518181 0.706966 0.579339
0.525566 0.666835 0.585992
0.734157 0.767422 0.638148
