luts/unknown_author/renj2.cube
# Created by Adobe Lightroom plugin Export LUT (1.17.0)
# www.johnrellis.com/lightroom/exportlut.htm
# Preset: 电影质感[素锦印象]-2
# Color profile: /Library/Application Support/Adobe/Color/Profiles/Recommended/AdobeRGB1998.icc
LUT_3D_SIZE 5
DOMAIN_MIN 0.000000 0.000000 0.000000
DOMAIN_MAX 0.903226 0.903226 0.903226
0.059022 0.070924 0.072145
0.128817 0.079866 0.072786
0.285435 0.125490 0.068574
0.533379 0.211307 0.000000
0.774350 0.281132 0.000000
0.076539 0.100526 0.096498
0.123812 0.116243 0.084749
0.294041 0.160372 0.073945
0.529442 0.238254 0.000000
0.789975 0.309758 0.000000
0.103883 0.145937 0.134646
0.102785 0.144137 0.131716
0.279667 0.241306 0.105867
0.566186 0.334905 0.000000
0.792203 0.383459 0.000000
0.132021 0.201022 0.176242
0.128542 0.188663 0.170291
0.162020 0.240391 0.164248
0.493172 0.422766 0.114046
0.819120 0.501427 0.061158
0.179232 0.310338 0.250431
0.172519 0.289830 0.239750
0.151522 0.240909 0.205783
0.348882 0.472999 0.230930
0.791165 0.654292 0.214664
0.068544 0.095216 0.103853
0.117617 0.099062 0.114534
0.266972 0.132204 0.108186
0.483925 0.200168 0.090181
0.746487 0.273472 0.000000
0.087831 0.117098 0.108705
0.123171 0.129793 0.118227
0.275608 0.162417 0.111849
0.491432 0.227543 0.090364
0.753689 0.298955 0.003174
0.118318 0.164797 0.151492
0.117769 0.155337 0.149508
0.260960 0.232639 0.132113
0.529015 0.318547 0.093416
0.779385 0.380255 0.062501
0.145846 0.221073 0.193149
0.142153 0.207401 0.186862
0.165682 0.246952 0.178378
0.488136 0.423407 0.148196
0.814298 0.502922 0.133089
0.192966 0.333318 0.266911
0.185061 0.311254 0.255283
0.160098 0.244938 0.216556
0.349401 0.483192 0.248264
0.795895 0.662776 0.248783
0.092470 0.152834 0.173739
0.115511 0.147433 0.182071
0.252262 0.150332 0.206394
0.471839 0.195712 0.181430
0.740139 0.269993 0.184298
0.109743 0.178225 0.183383
0.139651 0.183047 0.194888
0.265080 0.172091 0.192020
0.477638 0.228946 0.185794
0.748775 0.295628 0.187045
0.143465 0.219669 0.179873
0.163058 0.223606 0.202976
0.268833 0.266361 0.210849
0.516381 0.327825 0.203738
0.770565 0.379370 0.201450
0.181033 0.285618 0.235996
0.192172 0.281254 0.246189
0.177249 0.258030 0.221439
0.487068 0.441566 0.234531
0.801938 0.511681 0.249180
0.237919 0.410193 0.318059
0.244266 0.402808 0.322484
0.202548 0.317906 0.271275
0.303990 0.456123 0.275883
0.781430 0.666865 0.311925
0.128695 0.276707 0.317357
0.167330 0.277775 0.327550
0.239689 0.227970 0.314366
0.445533 0.240757 0.348608
0.730098 0.271336 0.336553
0.146975 0.297612 0.319677
0.182010 0.299931 0.329137
0.245335 0.251438 0.317540
0.452186 0.254520 0.338476
0.722225 0.322789 0.341955
0.166781 0.331945 0.309209
0.194919 0.337530 0.318578
0.274296 0.341955 0.340887
0.463813 0.342962 0.325292
0.741482 0.408392 0.358160
0.236149 0.406073 0.295567
0.250278 0.403326 0.309941
0.289921 0.393133 0.351171
0.478431 0.483101 0.363104
0.786496 0.532891 0.387152
0.303319 0.541192 0.387091
0.312596 0.537194 0.395605
0.333684 0.514702 0.413428
0.247044 0.376135 0.316075
0.771298 0.695094 0.428412
0.247684 0.516350 0.552453
0.294591 0.521355 0.561852
0.341283 0.462867 0.555138
0.472450 0.403113 0.533684
0.692897 0.464424 0.564752
0.248051 0.527062 0.547448
0.292454 0.531518 0.556512
0.364263 0.498695 0.559197
0.473060 0.421546 0.535698
0.695216 0.473610 0.563195
0.237919 0.569909 0.541924
0.271458 0.570275 0.548302
0.399023 0.583978 0.578576
0.476326 0.485969 0.550011
0.710506 0.514397 0.565332
0.293126 0.628168 0.526513
0.317082 0.632929 0.535424
0.393927 0.651453 0.570001
0.525261 0.655085 0.610498
0.732479 0.615076 0.580713
0.392309 0.692958 0.493080
0.407324 0.695247 0.500145
0.465675 0.709834 0.532982
0.524987 0.703029 0.585748
0.734157 0.767422 0.638148
