luts/unknown_author/renj1.cube
# Created by Adobe Lightroom plugin Export LUT (1.17.0)
# www.johnrellis.com/lightroom/exportlut.htm
# Preset: 电影质感[素锦印象]-1
# Color profile: /Library/Application Support/Adobe/Color/Profiles/Recommended/AdobeRGB1998.icc
LUT_3D_SIZE 5
DOMAIN_MIN 0.000000 0.000000 0.000000
DOMAIN_MAX 0.903226 0.903226 0.903226
0.058839 0.072084 0.072053
0.134768 0.082826 0.072541
0.353063 0.133883 0.067384
0.700496 0.200046 0.000000
0.928985 0.256931 0.013611
0.079774 0.109438 0.101045
0.102235 0.118502 0.109377
0.362615 0.187411 0.070649
0.703212 0.254398 0.000000
0.942657 0.305913 0.083284
0.116457 0.180514 0.154147
0.116579 0.169375 0.152132
0.232639 0.250217 0.208591
0.748501 0.403998 0.059876
0.945068 0.422827 0.151308
0.173251 0.295140 0.235660
0.167453 0.274968 0.226658
0.171389 0.259129 0.213077
0.442390 0.441627 0.364294
0.937102 0.599451 0.298955
0.304662 0.503563 0.391699
0.291478 0.481392 0.378698
0.235935 0.386175 0.316899
0.389197 0.514153 0.401282
0.749111 0.717433 0.645197
0.071901 0.105074 0.123720
0.115602 0.105409 0.136080
0.325719 0.104433 0.134981
0.646693 0.176333 0.136446
0.901823 0.248753 0.163272
0.089357 0.135653 0.127016
0.128542 0.152193 0.150454
0.344121 0.181643 0.147158
0.659083 0.235782 0.142611
0.908446 0.296117 0.178378
0.137026 0.217350 0.178195
0.156100 0.219791 0.197238
0.245640 0.268101 0.238041
0.707546 0.389960 0.179629
0.930480 0.428321 0.240635
0.211978 0.345434 0.276188
0.210697 0.328832 0.272801
0.189456 0.274754 0.238041
0.458991 0.459937 0.392859
0.936034 0.607599 0.357153
0.345342 0.539971 0.425422
0.329137 0.516869 0.410834
0.281682 0.441840 0.363897
0.401251 0.528496 0.419654
0.760159 0.729274 0.661830
0.083009 0.214633 0.298863
0.121035 0.188022 0.305364
0.297368 0.182742 0.324956
0.624903 0.132174 0.373846
0.885527 0.242679 0.358404
0.131655 0.275334 0.321355
0.179232 0.267613 0.329290
0.314275 0.236210 0.340581
0.637324 0.193637 0.357916
0.886351 0.342718 0.383093
0.177523 0.342138 0.300908
0.225254 0.352209 0.319493
0.357488 0.386023 0.378943
0.666865 0.417121 0.386297
0.906218 0.469184 0.424781
0.288884 0.467292 0.347539
0.311070 0.462318 0.367102
0.341009 0.428992 0.392096
0.526177 0.529778 0.490669
0.930877 0.644495 0.519768
0.431159 0.626581 0.493080
0.442054 0.622034 0.501884
0.415259 0.567926 0.479713
0.373877 0.505150 0.421271
0.761288 0.734585 0.678737
0.236057 0.436469 0.588312
0.272374 0.421210 0.592279
0.377600 0.356725 0.581201
0.575830 0.334051 0.578332
0.832425 0.468299 0.650111
0.300725 0.489784 0.601801
0.336584 0.479652 0.601495
0.394812 0.405524 0.587427
0.576379 0.371862 0.578210
0.833219 0.476783 0.643366
0.347356 0.573846 0.601434
0.397864 0.575525 0.609125
0.496742 0.559319 0.617182
0.588739 0.479591 0.588190
0.859922 0.524651 0.632197
0.413458 0.629023 0.560571
0.443091 0.628077 0.567407
0.533715 0.634272 0.597162
0.643610 0.645624 0.637354
0.895232 0.675898 0.655451
0.581231 0.744808 0.602869
0.592676 0.743343 0.613519
0.621180 0.735378 0.640864
0.575555 0.655726 0.605982
0.788113 0.767605 0.732265
0.563378 0.674006 0.798306
0.583520 0.672602 0.798825
0.584955 0.627283 0.796902
0.659785 0.571527 0.781338
0.806821 0.572595 0.789334
0.577508 0.691188 0.799008
0.595666 0.689570 0.799710
0.602930 0.650813 0.798428
0.661982 0.590448 0.780484
0.806546 0.586969 0.789059
0.606287 0.739925 0.804532
0.626673 0.740749 0.808255
0.672053 0.731563 0.810391
0.684443 0.660212 0.792782
0.818997 0.644343 0.801175
0.627314 0.802243 0.804990
0.642054 0.800809 0.806943
0.696468 0.801755 0.820127
0.774075 0.798062 0.839811
0.842039 0.736294 0.823972
0.676661 0.838590 0.776272
0.687129 0.839139 0.779812
0.728847 0.845975 0.797391
0.794430 0.856321 0.826108
0.873014 0.862303 0.856535
