luts/unknown_author/renj2.cube
# Created by Adobe Lightroom plugin Export LUT (1.17.0)
# www.johnrellis.com/lightroom/exportlut.htm
# Preset: 电影质感[素锦印象]-2
# Color profile: /Library/Application Support/Adobe/Color/Profiles/Recommended/AdobeRGB1998.icc
LUT_3D_SIZE 32
0.059022 0.070924 0.072145
0.059022 0.070924 0.072145
0.062623 0.071199 0.072389
0.075685 0.070710 0.072450
0.090272 0.072114 0.072602
0.102724 0.074250 0.072694
0.115328 0.076936 0.072633
0.128817 0.079866 0.072786
0.143893 0.082979 0.072724
0.160769 0.087617 0.072267
0.179934 0.092226 0.071473
0.200809 0.098268 0.070832
0.223606 0.105196 0.070314
0.248173 0.113039 0.069825
0.285435 0.125490 0.068574
0.322423 0.138033 0.065888
0.357244 0.150240 0.061860
0.391028 0.162020 0.055360
0.424506 0.173953 0.042054
0.459632 0.186160 0.023957
0.496254 0.198978 0.001038
0.533379 0.211307 0.000000
0.569574 0.223178 0.000000
0.604456 0.234226 0.000000
0.637903 0.244358 0.000000
0.670741 0.253727 0.000000
0.703944 0.263157 0.000000
0.738430 0.272038 0.000000
0.774350 0.281132 0.000000
0.811032 0.289860 0.000000
0.847379 0.298314 0.000000
0.882231 0.306523 0.000000
0.059022 0.070924 0.072145
0.059022 0.070924 0.072145
0.063264 0.071107 0.072023
0.075563 0.071504 0.072389
0.090455 0.073610 0.072480
0.102541 0.075807 0.072938
0.114931 0.078096 0.072908
0.128298 0.080690 0.072755
0.143038 0.084230 0.072663
0.159884 0.088228 0.072267
0.178378 0.093080 0.071504
0.199100 0.098665 0.070954
0.221317 0.105379 0.070527
0.245426 0.113283 0.070130
0.281285 0.124880 0.068910
0.316106 0.137118 0.066743
0.349371 0.148470 0.063478
0.382086 0.159976 0.058656
0.414710 0.171359 0.047791
0.449409 0.183536 0.029999
0.485542 0.196078 0.008606
0.522454 0.208621 0.000000
0.558801 0.220493 0.000000
0.594324 0.231846 0.000000
0.628351 0.242130 0.000000
0.661891 0.251896 0.000000
0.695766 0.261387 0.000000
0.730800 0.270603 0.000000
0.767300 0.279850 0.000000
0.804685 0.288853 0.000000
0.841733 0.297459 0.000000
0.877287 0.305791 0.000000
0.058961 0.070924 0.072480
0.059266 0.071626 0.072786
0.063508 0.072236 0.072297
0.076387 0.074037 0.072511
0.090455 0.075898 0.072999
0.102632 0.077913 0.072724
0.114717 0.079896 0.073121
0.127932 0.082124 0.072969
0.142550 0.085664 0.072541
0.159121 0.089387 0.072206
0.177584 0.093904 0.071473
0.197818 0.099947 0.071260
0.219944 0.106661 0.070863
0.244053 0.114076 0.070558
0.279240 0.125765 0.069429
0.312871 0.137301 0.067231
0.345098 0.148287 0.064424
0.377234 0.159518 0.059449
0.409461 0.170809 0.049775
0.443885 0.182986 0.033204
0.480018 0.195468 0.012268
0.517113 0.207858 0.000000
0.553491 0.219760 0.000000
0.589197 0.231174 0.000000
0.623560 0.241794 0.000000
0.657313 0.251377 0.000000
0.691554 0.261143 0.000000
0.726864 0.270603 0.000000
0.763699 0.279820 0.000000
0.801389 0.288945 0.000000
0.838773 0.297581 0.000000
0.874601 0.305882 0.000000
0.061433 0.075807 0.075898
0.061830 0.076112 0.076204
0.062165 0.077516 0.075746
0.076936 0.080446 0.073030
0.091127 0.081025 0.072877
0.103273 0.081910 0.073060
0.115084 0.083833 0.073091
0.128237 0.085939 0.072938
0.142672 0.088746 0.072572
0.159030 0.092683 0.072206
0.177188 0.097108 0.071839
0.197208 0.102754 0.071687
0.219028 0.109407 0.071656
0.244724 0.117311 0.071443
0.277684 0.127993 0.070039
0.309758 0.139162 0.068544
0.340826 0.149538 0.065370
0.371740 0.160372 0.060914
0.402930 0.171328 0.052552
0.436103 0.182559 0.037781
0.471321 0.194766 0.017212
0.507836 0.207095 0.000000
0.544854 0.219394 0.000000
0.582055 0.231296 0.000000
0.618524 0.242527 0.000000
0.654353 0.252842 0.000000
0.690028 0.262852 0.000000
0.726253 0.272587 0.000000
0.763333 0.281773 0.000000
0.800839 0.290776 0.000000
0.837675 0.299260 0.000000
0.872923 0.307439 0.000000
0.063844 0.082002 0.079927
0.064210 0.081941 0.080568
0.065461 0.082094 0.081453
0.069642 0.086213 0.078462
0.088808 0.088808 0.074311
0.103365 0.088289 0.073121
0.115236 0.089143 0.073243
0.128176 0.090822 0.073152
0.142611 0.093477 0.072786
0.158450 0.097047 0.072816
0.176333 0.101350 0.072816
0.196048 0.106874 0.072663
0.217655 0.113375 0.072663
0.244572 0.121828 0.072541
0.275731 0.132052 0.071443
0.306828 0.142489 0.069520
0.337926 0.152895 0.065949
0.369055 0.163485 0.061585
0.400458 0.174350 0.053742
0.433356 0.185733 0.040497
0.467842 0.197360 0.019867
0.503838 0.209537 0.000000
0.540673 0.221530 0.000000
0.578149 0.233494 0.000000
0.614984 0.244755 0.000000
0.651331 0.255406 0.000000
0.687282 0.265324 0.000000
0.723568 0.275029 0.000000
0.760616 0.284306 0.000000
0.798123 0.293309 0.000000
0.835172 0.301732 0.000000
0.870634 0.309850 0.000000
0.067170 0.088167 0.084871
0.067506 0.088106 0.085451
0.068330 0.087984 0.086030
0.068238 0.090761 0.084016
0.080476 0.095094 0.080568
0.099489 0.096468 0.076234
0.115511 0.097108 0.073426
0.129427 0.097597 0.073396
0.143465 0.099825 0.073793
0.159335 0.103334 0.074128
0.177096 0.107607 0.074098
0.196689 0.113008 0.074281
0.218235 0.119081 0.073945
0.246891 0.128389 0.073762
0.276585 0.138125 0.072419
0.307073 0.148104 0.070283
0.337774 0.158511 0.067079
0.369055 0.168917 0.062287
0.400641 0.179721 0.054810
0.434028 0.191104 0.041291
0.469154 0.203067 0.019532
0.505882 0.215335 0.000000
0.606622 0.250034 0.000000
0.640558 0.259983 0.000000
0.672847 0.268864 0.000000
0.704341 0.277256 0.000000
0.736019 0.285252 0.000000
0.768185 0.293004 0.000000
0.800839 0.300603 0.000000
0.833463 0.307897 0.000000
0.864958 0.314946 0.000000
0.894957 0.321782 0.000000
0.072236 0.095247 0.091218
0.072663 0.094911 0.091524
0.072969 0.094850 0.092073
0.073610 0.095308 0.092561
0.076051 0.100038 0.089082
0.092409 0.104158 0.085389
0.112337 0.106813 0.080507
0.132113 0.109102 0.076387
0.149294 0.110262 0.076326
0.166323 0.113375 0.076204
0.185031 0.118227 0.076234
0.205570 0.123751 0.076143
0.232364 0.131991 0.076112
0.263340 0.142031 0.074800
0.293950 0.152255 0.072786
0.323980 0.161959 0.069856
0.354223 0.171847 0.065888
0.385138 0.182040 0.060517
0.417700 0.193118 0.050385
0.453346 0.205142 0.031434
0.492653 0.218631 0.006104
0.535180 0.232731 0.000000
0.578851 0.246891 0.000000
0.620874 0.259617 0.000000
0.660029 0.271031 0.000000
0.695399 0.280613 0.000000
0.729030 0.289158 0.000000
0.762112 0.297063 0.000000
0.795346 0.304601 0.000000
0.828092 0.311894 0.000000
0.859953 0.318883 0.000000
0.890288 0.325689 0.000000
0.076539 0.100526 0.096498
0.076478 0.100526 0.096742
0.076875 0.100191 0.097017
0.077485 0.100099 0.097749
0.076692 0.103120 0.095216
0.085054 0.107851 0.093050
0.102266 0.111269 0.090333
0.123812 0.116243 0.084749
0.146395 0.120150 0.079774
0.165988 0.122683 0.078920
0.186099 0.126589 0.078248
0.208713 0.133120 0.078431
0.236606 0.142184 0.077668
0.265171 0.151217 0.076326
0.294041 0.160372 0.073945
0.322637 0.169345 0.070985
0.351904 0.178775 0.066896
0.382055 0.188632 0.062226
0.414099 0.199374 0.052338
0.449104 0.211063 0.035737
0.487770 0.224277 0.011109
0.529442 0.238254 0.000000
0.572534 0.252018 0.000000
0.614282 0.264805 0.000000
0.653468 0.276249 0.000000
0.689021 0.285801 0.000000
0.722866 0.294285 0.000000
0.756313 0.302159 0.000000
0.789975 0.309758 0.000000
0.823209 0.316991 0.000000
0.855528 0.323919 0.000000
0.886320 0.330632 0.000000
0.080354 0.106233 0.101564
0.080293 0.106233 0.101808
0.080659 0.105928 0.102052
0.081086 0.105379 0.102327
0.080964 0.106386 0.102022
0.082826 0.111482 0.099092
0.094636 0.116426 0.096864
0.112978 0.119295 0.094728
0.137148 0.126864 0.088624
0.162783 0.133303 0.083223
0.186893 0.138155 0.082185
0.215488 0.145571 0.080690
0.241855 0.153628 0.079713
0.269261 0.162051 0.077760
0.296849 0.170657 0.075227
0.324559 0.179232 0.071931
0.353246 0.188205 0.067964
0.382971 0.197848 0.062959
0.414374 0.208011 0.054810
0.449042 0.219699 0.036561
0.487007 0.232578 0.013275
0.527977 0.246159 0.000000
0.570428 0.259922 0.000000
0.611597 0.272374 0.000000
0.650355 0.283482 0.000000
0.685817 0.292882 0.000000
0.719661 0.301366 0.000000
0.753048 0.309148 0.000000
0.786618 0.316594 0.000000
0.819821 0.323613 0.000000
0.852171 0.330358 0.000000
0.882994 0.336919 0.000000
0.083864 0.111574 0.106600
0.084260 0.111543 0.106600
0.084199 0.111543 0.106844
0.084565 0.111025 0.107301
0.084962 0.110506 0.107576
0.084077 0.114595 0.104738
0.090394 0.119783 0.102724
0.105226 0.125612 0.100557
0.125338 0.128664 0.098360
0.153048 0.139406 0.092317
0.185245 0.150179 0.086122
0.213138 0.157321 0.084108
0.244602 0.165194 0.081392
0.272343 0.173312 0.079011
0.300206 0.181888 0.076295
0.328649 0.190860 0.072663
0.358129 0.200320 0.068208
0.388464 0.210056 0.062715
0.420020 0.220340 0.053437
0.453895 0.231449 0.035828
0.490303 0.243595 0.011292
0.528740 0.256077 0.000000
0.568383 0.268559 0.000000
0.607324 0.280186 0.000000
0.644617 0.290593 0.000000
0.679866 0.299931 0.000000
0.714015 0.308385 0.000000
0.748348 0.316320 0.000000
0.782895 0.324071 0.000000
0.817197 0.331334 0.000000
0.850370 0.338201 0.000000
0.881895 0.344701 0.000000
0.087556 0.117067 0.111116
0.087495 0.117067 0.111330
0.087495 0.116854 0.111543
0.087587 0.116396 0.111604
0.088258 0.115846 0.112062
0.087800 0.117678 0.111055
0.089418 0.123079 0.108125
0.099336 0.128969 0.106416
0.117922 0.136385 0.104219
0.141878 0.142336 0.102693
0.173281 0.155245 0.095857
0.209262 0.168276 0.087709
0.238926 0.176547 0.084901
0.272221 0.185367 0.081239
0.303685 0.194217 0.077211
0.331731 0.203006 0.073884
0.360815 0.212070 0.069062
0.390753 0.221714 0.063081
0.421759 0.231418 0.054292
0.455207 0.242405 0.035584
0.491096 0.254246 0.012085
0.529198 0.266636 0.000000
0.568536 0.278904 0.000000
0.607172 0.290349 0.000000
0.644007 0.300633 0.000000
0.678737 0.309545 0.000000
0.712306 0.317540 0.000000
0.746059 0.325170 0.000000
0.780240 0.332647 0.000000
0.814298 0.339788 0.000000
0.847562 0.346441 0.000000
0.879149 0.352880 0.000000
0.090700 0.123110 0.116152
0.090730 0.122896 0.116182
0.090761 0.122683 0.116213
0.091157 0.122225 0.116426
0.091646 0.121309 0.116487
0.091737 0.120882 0.116548
0.090913 0.126375 0.113802
0.097017 0.133242 0.112581
0.111147 0.141360 0.111177
0.134005 0.150393 0.108827
0.160250 0.157351 0.106508
0.195102 0.172610 0.098756
0.262730 0.208560 0.088563
0.300847 0.220890 0.083131
0.340612 0.232425 0.076204
0.379767 0.242863 0.068086
0.409155 0.251133 0.061707
0.438575 0.259403 0.050233
0.468666 0.267887 0.031922
0.500908 0.277256 0.009735
0.534844 0.287205 0.000000
0.569909 0.297215 0.000000
0.604517 0.306645 0.000000
0.638453 0.315312 0.000000
0.671229 0.323308 0.000000
0.702876 0.330297 0.000000
0.734066 0.336858 0.000000
0.765225 0.343023 0.000000
0.796506 0.349096 0.000000
0.827848 0.354925 0.000000
0.858213 0.360662 0.000000
0.887572 0.366247 0.000000
0.095369 0.130861 0.122469
0.095399 0.130678 0.122469
0.095491 0.130282 0.122530
0.095552 0.129885 0.122560
0.095918 0.129244 0.122988
0.096437 0.128206 0.123049
0.095857 0.131777 0.122194
0.097780 0.138796 0.119356
0.107881 0.147158 0.118288
0.126680 0.157198 0.116670
0.154055 0.168002 0.114626
0.187106 0.179843 0.111604
0.230716 0.201022 0.102449
0.281773 0.224277 0.088533
0.322789 0.238895 0.082002
0.364477 0.252079 0.074250
0.406470 0.263615 0.063661
0.438087 0.272099 0.053101
0.467964 0.280461 0.034455
0.499428 0.289311 0.012970
0.532647 0.298772 0.000000
0.567102 0.308507 0.000000
0.601068 0.317571 0.000000
0.634516 0.325963 0.000000
0.666896 0.333471 0.000000
0.698146 0.340276 0.000000
0.729213 0.346624 0.000000
0.760342 0.352728 0.000000
0.791867 0.358740 0.000000
0.823514 0.364508 0.000000
0.854398 0.370123 0.000000
0.884276 0.375769 0.000000
0.099580 0.138674 0.128725
0.099702 0.138308 0.128573
0.099794 0.137942 0.128603
0.099855 0.137575 0.128634
0.099916 0.136294 0.128389
0.099916 0.135042 0.128328
0.099733 0.134890 0.127962
0.099184 0.141634 0.125368
0.104982 0.149783 0.123507
0.118807 0.159365 0.122713
0.141604 0.170993 0.121096
0.171725 0.182315 0.119112
0.208560 0.197574 0.114748
0.254612 0.220676 0.104189
0.307012 0.244877 0.088472
0.348699 0.260014 0.080110
0.389776 0.272831 0.070497
0.431189 0.284245 0.059327
0.467903 0.293706 0.036896
0.499031 0.302434 0.015259
0.531975 0.311620 0.000000
0.566186 0.321263 0.000000
0.599878 0.330083 0.000000
0.633112 0.338293 0.000000
0.665278 0.345617 0.000000
0.696407 0.352117 0.000000
0.727260 0.358221 0.000000
0.758328 0.364141 0.000000
0.789883 0.369909 0.000000
0.821622 0.375616 0.000000
0.852659 0.381140 0.000000
0.882719 0.386664 0.000000
0.103883 0.145937 0.134646
0.103914 0.145785 0.134646
0.103761 0.145449 0.134524
0.103761 0.144472 0.134249
0.103609 0.143130 0.133852
0.103212 0.141634 0.133303
0.103182 0.139742 0.132967
0.102785 0.144137 0.131716
0.104036 0.152163 0.128450
0.113954 0.161563 0.127962
0.131624 0.172793 0.126986
0.158328 0.186282 0.125216
0.190738 0.197818 0.123842
0.231174 0.216495 0.118105
0.279667 0.241306 0.105867
0.332311 0.265843 0.088289
0.375006 0.281498 0.077455
0.415930 0.294224 0.067018
0.458076 0.306157 0.049165
0.500542 0.316991 0.016205
0.532677 0.325841 0.000000
0.566186 0.334905 0.000000
0.599207 0.343267 0.000000
0.632074 0.351232 0.000000
0.664149 0.358312 0.000000
0.695613 0.364874 0.000000
0.727291 0.371191 0.000000
0.759548 0.377386 0.000000
0.792203 0.383459 0.000000
0.824857 0.389502 0.000000
0.856504 0.395148 0.000000
0.886839 0.400763 0.000000
0.107820 0.153292 0.140383
0.107668 0.153017 0.140230
0.107729 0.152682 0.140261
0.107698 0.151888 0.140017
0.107362 0.150515 0.139498
0.107118 0.148775 0.138827
0.106874 0.146822 0.138338
0.106691 0.147219 0.137667
0.106508 0.155306 0.135409
0.111635 0.164584 0.133700
0.125154 0.175570 0.133211
0.146822 0.188357 0.131960
0.176791 0.203189 0.129702
0.210697 0.213809 0.128511
0.253361 0.235203 0.120729
0.302495 0.260594 0.107149
0.355322 0.285344 0.088014
0.400000 0.302251 0.074464
0.442756 0.316320 0.062104
0.487739 0.329808 0.033234
0.534203 0.342138 0.000000
0.571038 0.351843 0.000000
0.604273 0.360174 0.000000
0.636927 0.367773 0.000000
0.668879 0.374578 0.000000
0.700374 0.380865 0.000000
0.732082 0.386938 0.000000
0.764126 0.392859 0.000000
0.796262 0.398566 0.000000
0.827970 0.403937 0.000000
0.858457 0.409033 0.000000
0.887755 0.414130 0.000000
0.111208 0.160006 0.145541
0.111330 0.159701 0.145418
0.111208 0.159274 0.145327
0.110994 0.158389 0.144930
0.110689 0.156924 0.144442
0.110414 0.155245 0.143984
0.110140 0.152804 0.143099
0.109865 0.150454 0.142184
0.109590 0.156527 0.140993
0.110323 0.165774 0.137819
0.119966 0.176394 0.137819
0.136904 0.188907 0.137453
0.161929 0.203220 0.136263
0.195590 0.219669 0.133577
0.230869 0.229587 0.132845
0.275975 0.254368 0.122927
0.326329 0.280613 0.108186
0.379828 0.305882 0.087465
0.426673 0.324285 0.070253
0.471168 0.339330 0.052979
0.517510 0.353491 0.016022
0.564721 0.366003 0.000000
0.605005 0.375158 0.000000
0.637568 0.382635 0.000000
0.669459 0.389227 0.000000
0.700923 0.395392 0.000000
0.732876 0.401404 0.000000
0.765164 0.407263 0.000000
0.797391 0.412909 0.000000
0.829129 0.418219 0.000000
0.859678 0.423224 0.000000
0.888945 0.428260 0.000000
0.115175 0.167147 0.151034
0.115206 0.166995 0.151064
0.118410 0.172793 0.155856
0.118074 0.171603 0.155398
0.117586 0.169741 0.154421
0.116945 0.167453 0.153323
0.116487 0.164523 0.152132
0.115724 0.161135 0.150546
0.115053 0.162142 0.149416
0.115236 0.171725 0.147585
0.120027 0.182956 0.145571
0.133700 0.195895 0.145846
0.155184 0.210758 0.145327
0.185336 0.227695 0.143496
0.223972 0.246830 0.140322
0.262425 0.257267 0.139406
0.312230 0.286107 0.127138
0.365332 0.313756 0.109804
0.420752 0.339818 0.085237
0.470497 0.359136 0.062379
0.516106 0.373877 0.031006
0.563012 0.387213 0.000000
0.608698 0.397650 0.000000
0.650202 0.404669 0.000000
0.679377 0.409491 0.000000
0.708370 0.413977 0.000000
0.737758 0.418463 0.000000
0.768002 0.423102 0.000000
0.799039 0.428077 0.000000
0.830167 0.432929 0.000000
0.860319 0.437659 0.000000
0.889128 0.442451 0.031922
0.119722 0.175967 0.157931
0.120211 0.176455 0.158297
0.120455 0.176822 0.158816
0.120699 0.176638 0.158968
0.120333 0.175479 0.158663
0.120150 0.173373 0.157748
0.119509 0.170443 0.156466
0.118349 0.167117 0.154788
0.117311 0.163241 0.152834
0.117556 0.171206 0.152377
0.118074 0.182284 0.149203
0.127779 0.194644 0.149630
0.144869 0.208988 0.149783
0.169497 0.225193 0.148989
0.202365 0.243320 0.146975
0.241642 0.261509 0.143923
0.283360 0.275395 0.141939
0.334356 0.305058 0.128756
0.388617 0.333684 0.110506
0.445075 0.360449 0.084565
0.497261 0.381170 0.053773
0.545068 0.397040 0.013367
0.592432 0.410254 0.000000
0.637385 0.419837 0.000000
0.679072 0.425940 0.000000
0.710536 0.430335 0.000000
0.740078 0.434668 0.000000
0.770260 0.439094 0.000000
0.801053 0.443793 0.000000
0.831693 0.448402 0.000000
0.861448 0.452827 0.000000
0.889891 0.457404 0.065126
0.123110 0.182559 0.162783
0.123293 0.183139 0.163272
0.123537 0.183505 0.163760
0.123659 0.183108 0.163668
0.123537 0.181979 0.163363
0.123171 0.179721 0.162509
0.122377 0.176944 0.161135
0.121584 0.173434 0.159396
0.120455 0.169497 0.157382
0.119692 0.170993 0.156283
0.120241 0.181643 0.155245
0.124178 0.193820 0.153201
0.137301 0.207614 0.153811
0.157473 0.223423 0.153841
0.185275 0.241154 0.152956
0.221225 0.260990 0.150729
0.262119 0.279057 0.147921
0.306706 0.295995 0.144533
0.359472 0.327001 0.130465
0.415717 0.356878 0.110750
0.473579 0.384131 0.082551
0.528130 0.405982 0.039063
0.576928 0.421942 0.000000
0.623468 0.434058 0.000000
0.666773 0.442267 0.000000
0.707637 0.447456 0.000000
0.742306 0.451270 0.000000
0.771969 0.455268 0.000000
0.802213 0.459510 0.000000
0.832364 0.463783 0.000000
0.861601 0.467964 0.035279
0.889769 0.472297 0.080323
0.126467 0.189792 0.168032
0.126833 0.190341 0.168612
0.127108 0.190677 0.168978
0.127199 0.190188 0.169009
0.126955 0.188998 0.168612
0.126436 0.186740 0.167666
0.125551 0.183719 0.166110
0.124666 0.180026 0.164340
0.123476 0.175998 0.162142
0.121981 0.171481 0.159548
0.122286 0.180667 0.159823
0.123354 0.192721 0.157473
0.131685 0.206088 0.157137
0.147860 0.221408 0.157931
0.171237 0.238987 0.158145
0.202701 0.258732 0.157168
0.242924 0.281346 0.154696
0.286748 0.300694 0.152865
0.336187 0.322728 0.148592
0.394079 0.357488 0.133425
0.454902 0.390356 0.112398
0.516716 0.419532 0.080812
0.574273 0.441840 0.019043
0.623316 0.456611 0.000000
0.668849 0.466896 0.000000
0.711421 0.473671 0.000000
0.752132 0.478035 0.000000
0.789151 0.480629 0.000000
0.818112 0.483833 0.024872
0.846372 0.487160 0.063478
0.873716 0.490517 0.088685
0.900114 0.494484 0.114900
0.132021 0.201022 0.176242
0.131960 0.201022 0.176486
0.131991 0.200900 0.176486
0.131899 0.200015 0.176089
0.131502 0.198245 0.175265
0.130800 0.195651 0.174044
0.129671 0.192477 0.172335
0.128542 0.188663 0.170291
0.127291 0.184360 0.168246
0.125826 0.179599 0.165408
0.125216 0.181369 0.164462
0.126162 0.193332 0.164248
0.129122 0.207309 0.161776
0.142153 0.222751 0.163272
0.162020 0.240391 0.164248
0.189731 0.260533 0.164218
0.225925 0.283238 0.163180
0.270726 0.308751 0.160616
0.317418 0.328679 0.159457
0.371160 0.354650 0.153414
0.431281 0.390417 0.137209
0.493172 0.422766 0.114046
0.553948 0.449683 0.080537
0.608667 0.468666 0.008606
0.655299 0.480934 0.000000
0.699214 0.489662 0.000000
0.741512 0.495888 0.000000
0.781735 0.499702 0.016602
0.819120 0.501427 0.061158
0.847715 0.504051 0.081819
0.874449 0.507103 0.104097
0.900328 0.511009 0.128908
0.135866 0.209598 0.182345
0.136019 0.209689 0.182437
0.135988 0.209567 0.182589
0.135744 0.208499 0.182223
0.135317 0.206485 0.181216
0.134463 0.203952 0.179934
0.133547 0.200473 0.178103
0.132143 0.196506 0.176028
0.130953 0.191958 0.173617
0.129274 0.186954 0.170687
0.127321 0.181460 0.167330
0.128237 0.192020 0.168429
0.129488 0.205600 0.167056
0.136812 0.221164 0.166506
0.153048 0.238621 0.168246
0.176516 0.258518 0.169345
0.208438 0.281346 0.169528
0.248905 0.306981 0.168460
0.298436 0.335637 0.165713
0.348058 0.355993 0.165835
0.406165 0.386603 0.158450
0.469551 0.423957 0.141024
0.533135 0.456214 0.116945
0.593439 0.481239 0.083742
0.637507 0.490913 0.005493
0.682856 0.501884 0.000000
0.726772 0.510277 0.002289
0.768765 0.516014 0.027100
0.808103 0.519402 0.065400
0.843839 0.520775 0.091249
0.873259 0.522881 0.115389
0.899138 0.526940 0.139864
0.141848 0.222629 0.191653
0.141939 0.222721 0.191867
0.142031 0.222507 0.191775
0.141787 0.221134 0.191135
0.140902 0.218997 0.190005
0.140047 0.215824 0.188296
0.138613 0.211887 0.186282
0.137118 0.207248 0.183597
0.135409 0.201907 0.180575
0.133303 0.196353 0.177371
0.131167 0.190127 0.173648
0.130190 0.191348 0.172183
0.131685 0.204440 0.172793
0.133364 0.219974 0.169833
0.146120 0.236667 0.171878
0.165286 0.255833 0.173434
0.192355 0.277653 0.174380
0.227726 0.302281 0.174380
0.272007 0.330175 0.172915
0.325658 0.361700 0.169955
0.377478 0.381659 0.171664
0.439216 0.416327 0.162722
0.503777 0.453498 0.144808
0.566217 0.483406 0.120150
0.622461 0.504173 0.088289
0.671901 0.516869 0.016419
0.716457 0.526635 0.024292
0.759182 0.533593 0.048798
0.799557 0.538293 0.072724
0.836576 0.540856 0.097017
0.869902 0.542138 0.124331
0.899107 0.543969 0.153567
0.146395 0.232700 0.198550
0.146456 0.232883 0.198825
0.146517 0.232700 0.198764
0.146059 0.231418 0.198245
0.145357 0.229099 0.196994
0.144228 0.225803 0.195254
0.143008 0.221775 0.193027
0.141512 0.216983 0.190402
0.139742 0.211734 0.187411
0.137545 0.205844 0.184085
0.135286 0.199435 0.180209
0.132723 0.192538 0.175906
0.133944 0.203738 0.177523
0.135744 0.219150 0.177279
0.141634 0.236698 0.176089
0.157717 0.256260 0.178500
0.181460 0.278569 0.180545
0.213352 0.303899 0.181796
0.254032 0.332464 0.181979
0.304234 0.364569 0.180819
0.361028 0.396826 0.178439
0.418341 0.418799 0.181521
0.483650 0.456641 0.170748
0.549218 0.492439 0.152499
0.609339 0.518425 0.129091
0.662379 0.535119 0.100069
0.710079 0.544915 0.048798
0.754330 0.553674 0.066835
0.796109 0.559838 0.086122
0.834318 0.563622 0.109804
0.868559 0.565789 0.137545
0.899046 0.567956 0.168673
0.152071 0.246159 0.207706
0.152224 0.246128 0.207797
0.151949 0.245457 0.207462
0.151644 0.244053 0.206790
0.150637 0.241276 0.205356
0.149416 0.237766 0.203342
0.148104 0.233433 0.200992
0.146334 0.228367 0.198093
0.144503 0.222873 0.194980
0.142092 0.216556 0.191440
0.139773 0.209903 0.187472
0.137179 0.202670 0.183078
0.136019 0.202853 0.181186
0.137850 0.218265 0.183108
0.140383 0.235996 0.181521
0.151492 0.255772 0.183017
0.171633 0.278233 0.185641
0.199954 0.303716 0.187808
0.236790 0.332647 0.189395
0.282902 0.364965 0.189822
0.338323 0.400549 0.188693
0.398657 0.433448 0.187289
0.459358 0.455146 0.191928
0.527062 0.495186 0.179355
0.591119 0.527428 0.161929
0.648066 0.549157 0.140352
0.698817 0.562676 0.114076
0.744717 0.570001 0.074983
0.787625 0.577295 0.091096
0.827329 0.582452 0.114900
0.862943 0.585748 0.142611
0.894560 0.588708 0.173983
0.157992 0.260044 0.217044
0.157992 0.259983 0.217136
0.157900 0.259403 0.216831
0.157382 0.257786 0.216037
0.156497 0.255344 0.214725
0.155489 0.252049 0.213046
0.154269 0.248264 0.211063
0.153048 0.243961 0.208804
0.151522 0.238956 0.206271
0.149599 0.233219 0.203067
0.147585 0.227024 0.199588
0.145022 0.219669 0.195285
0.142000 0.211856 0.190433
0.143587 0.224125 0.192905
0.146517 0.243870 0.194583
0.151247 0.266484 0.192782
0.169711 0.291386 0.197024
0.196445 0.319524 0.200656
0.232242 0.351202 0.203891
0.277653 0.386389 0.206088
0.332433 0.424628 0.207095
0.396674 0.465156 0.206363
0.463142 0.498451 0.207309
0.528344 0.518883 0.214633
0.596124 0.556237 0.202945
0.655970 0.581292 0.188510
0.709590 0.597070 0.170413
0.757351 0.605585 0.148959
0.798917 0.607965 0.121462
0.836698 0.611688 0.141054
0.870909 0.614801 0.169558
0.901518 0.617853 0.201389
0.169558 0.286992 0.235111
0.169528 0.286625 0.235050
0.169253 0.285740 0.234623
0.168429 0.283757 0.233433
0.167422 0.280613 0.231846
0.166140 0.276646 0.229587
0.164584 0.271977 0.227207
0.162692 0.266514 0.224216
0.160861 0.260349 0.220859
0.158511 0.253635 0.217197
0.155764 0.246006 0.212833
0.152956 0.237858 0.207980
0.149630 0.228794 0.202457
0.147433 0.226352 0.199344
0.150546 0.245975 0.203128
0.153841 0.269078 0.203464
