luts/unknown_author/renj1.cube
# Created by Adobe Lightroom plugin Export LUT (1.17.0)
# www.johnrellis.com/lightroom/exportlut.htm
# Preset: 电影质感[素锦印象]-1
# Color profile: /Library/Application Support/Adobe/Color/Profiles/Recommended/AdobeRGB1998.icc
LUT_3D_SIZE 32
0.058839 0.072084 0.072053
0.058839 0.072084 0.072053
0.062562 0.071992 0.071962
0.075929 0.071809 0.072358
0.089479 0.073457 0.072541
0.102846 0.076081 0.072541
0.117556 0.079164 0.072694
0.134768 0.082826 0.072541
0.154543 0.087495 0.073060
0.177951 0.093172 0.073640
0.205203 0.099702 0.074189
0.236912 0.107424 0.074342
0.272801 0.115969 0.073243
0.311742 0.124605 0.071199
0.353063 0.133883 0.067384
0.395666 0.142550 0.062196
0.439185 0.151217 0.053498
0.483162 0.159945 0.036683
0.543694 0.171328 0.006073
0.602136 0.181704 0.000000
0.654810 0.191379 0.000000
0.700496 0.200046 0.000000
0.739742 0.207919 0.000000
0.774594 0.215274 0.000000
0.806760 0.222446 0.000000
0.837461 0.229862 0.000000
0.867857 0.237919 0.000000
0.898314 0.246769 0.000000
0.928985 0.256931 0.013611
0.959991 0.268711 0.070130
0.991302 0.283085 0.103517
1.000000 0.300786 0.138399
0.058839 0.072084 0.072053
0.058839 0.072084 0.072053
0.062409 0.072358 0.072297
0.076081 0.073335 0.072602
0.089509 0.075715 0.072694
0.102632 0.077913 0.072724
0.117372 0.080934 0.072908
0.133944 0.084718 0.072786
0.153506 0.089082 0.073304
0.176455 0.094514 0.074311
0.203220 0.100984 0.074556
0.234073 0.108583 0.074495
0.269230 0.116701 0.073579
0.307408 0.125490 0.071687
0.347997 0.134493 0.068208
0.390021 0.143252 0.063416
0.432959 0.151827 0.055573
0.476661 0.160342 0.040314
0.535515 0.171542 0.010925
0.592096 0.181765 0.000000
0.644190 0.191073 0.000000
0.690120 0.199771 0.000000
0.729976 0.207462 0.000000
0.765347 0.214633 0.000000
0.798062 0.221744 0.000000
0.829374 0.229160 0.000000
0.860563 0.237095 0.000000
0.891661 0.245884 0.000000
0.923003 0.255772 0.000000
0.954589 0.267460 0.062104
0.986328 0.281285 0.096559
1.000000 0.298436 0.131777
0.059480 0.073121 0.072999
0.059846 0.073457 0.073335
0.061646 0.074342 0.073915
0.076387 0.076631 0.072663
0.089479 0.078584 0.072786
0.102571 0.080751 0.072847
0.117128 0.083314 0.073030
0.133547 0.086702 0.072938
0.152743 0.091371 0.073823
0.175235 0.096620 0.074525
0.201907 0.102998 0.074769
0.232425 0.110445 0.075135
0.267185 0.118898 0.074220
0.305211 0.127352 0.072084
0.345342 0.136202 0.068788
0.387182 0.144961 0.064118
0.429877 0.153719 0.057099
0.473304 0.162203 0.041627
0.531579 0.173068 0.013245
0.587030 0.183230 0.000000
0.638941 0.192721 0.000000
0.685084 0.201114 0.000000
0.725185 0.208591 0.000000
0.760800 0.215854 0.000000
0.793729 0.222934 0.000000
0.825284 0.230076 0.000000
0.856718 0.237827 0.000000
0.888182 0.246433 0.000000
0.919921 0.256199 0.000000
0.951781 0.267918 0.057862
0.983703 0.281498 0.093751
1.000000 0.298222 0.128511
0.062440 0.079561 0.077211
0.062745 0.079835 0.077852
0.063447 0.080446 0.078767
0.068666 0.082399 0.079805
0.090242 0.085176 0.072877
0.103670 0.086061 0.072999
0.117525 0.088624 0.073213
0.134005 0.091981 0.073793
0.152987 0.096132 0.074708
0.175570 0.101289 0.075380
0.201633 0.107759 0.075959
0.231968 0.115175 0.075929
0.266148 0.123507 0.074739
0.303685 0.131899 0.072633
0.343420 0.140688 0.069429
0.384741 0.149386 0.064973
0.427131 0.158022 0.058076
0.472511 0.167025 0.042298
0.527489 0.177493 0.015778
0.580072 0.187137 0.000000
0.630518 0.196078 0.000000
0.676295 0.204257 0.000000
0.717372 0.212070 0.000000
0.754482 0.219181 0.000000
0.789273 0.226352 0.000000
0.822721 0.233738 0.000000
0.855497 0.241703 0.000000
0.887755 0.250370 0.000000
0.919677 0.260105 0.000000
0.951324 0.271366 0.059907
0.982788 0.284459 0.093782
1.000000 0.300450 0.127779
0.065888 0.087770 0.082795
0.066651 0.087953 0.083375
0.067292 0.087831 0.084596
0.069490 0.088838 0.084474
0.076356 0.090852 0.086763
0.099123 0.095369 0.077699
0.117983 0.096010 0.074495
0.134188 0.098848 0.075502
0.152743 0.103029 0.076326
0.174868 0.108186 0.076936
0.200809 0.114534 0.077150
0.230594 0.121889 0.076783
0.264408 0.129946 0.075685
0.301610 0.138460 0.073579
0.341405 0.147402 0.069978
0.383124 0.156374 0.065339
0.426001 0.165011 0.058991
0.474800 0.174990 0.041535
0.527916 0.184970 0.016358
0.579095 0.194430 0.000000
0.628138 0.203037 0.000000
0.673182 0.211276 0.000000
0.713893 0.218479 0.000000
0.751217 0.225528 0.000000
0.786313 0.232486 0.000000
0.820157 0.239719 0.000000
0.853117 0.247227 0.000000
0.885466 0.255711 0.000000
0.917418 0.265171 0.000000
0.949035 0.275975 0.060121
0.980591 0.288731 0.093416
1.000000 0.304295 0.127016
0.070527 0.094118 0.088624
0.070802 0.094362 0.089143
0.071107 0.094301 0.089693
0.072602 0.094087 0.090791
0.076417 0.096132 0.090791
0.083803 0.098878 0.093355
0.108156 0.106386 0.086122
0.134401 0.109316 0.078218
0.154635 0.112398 0.078370
0.176761 0.117647 0.078859
0.202609 0.123751 0.079011
0.232334 0.131197 0.078218
0.266117 0.139254 0.076661
0.303258 0.148226 0.074372
0.342992 0.157229 0.070680
0.384924 0.166354 0.065766
0.427924 0.175051 0.059632
0.479988 0.185641 0.040558
0.531823 0.195682 0.015381
0.582513 0.205142 0.000000
0.631189 0.213809 0.000000
0.676234 0.221530 0.000000
0.775753 0.244419 0.000000
0.808988 0.251041 0.000000
0.839628 0.257542 0.000000
0.868650 0.264225 0.000000
0.896635 0.271611 0.009827
0.924163 0.279606 0.058137
0.951659 0.289036 0.084077
0.979370 0.300114 0.109224
1.000000 0.313481 0.136904
1.000000 0.329686 0.166873
0.075227 0.102266 0.095308
0.075593 0.102205 0.095583
0.075868 0.102144 0.096101
0.076936 0.101991 0.096864
0.078309 0.102876 0.096986
0.084260 0.105592 0.098360
0.093141 0.108919 0.101778
0.122408 0.120119 0.094331
0.158297 0.128145 0.083619
0.187808 0.132845 0.081086
0.215702 0.139834 0.080354
0.247593 0.147768 0.078859
0.282811 0.156222 0.076936
0.320867 0.165133 0.073976
0.360510 0.173983 0.069581
0.401434 0.182406 0.064271
0.447517 0.191867 0.054749
0.502464 0.203342 0.031342
0.555077 0.213596 0.005402
0.607660 0.223392 0.000000
0.658930 0.232792 0.000000
0.707301 0.241581 0.000000
0.751369 0.249729 0.000000
0.791745 0.257633 0.000000
0.828428 0.265415 0.000000
0.860960 0.272648 0.000000
0.890776 0.279942 0.009033
0.919127 0.287724 0.056733
0.947082 0.296635 0.082887
0.974762 0.306981 0.107881
1.000000 0.319493 0.134676
1.000000 0.334783 0.164157
0.079774 0.109438 0.101045
0.079713 0.109438 0.101289
0.080049 0.109133 0.101808
0.080690 0.109041 0.102266
0.081697 0.108431 0.103243
0.084230 0.110964 0.102968
0.091951 0.114290 0.105287
0.102235 0.118502 0.109377
0.134371 0.132448 0.102235
0.175265 0.144411 0.090974
0.215030 0.153292 0.083436
0.250431 0.160983 0.080690
0.285527 0.169711 0.078187
0.323278 0.178714 0.074739
0.362615 0.187411 0.070649
0.403143 0.196048 0.064759
0.454902 0.207706 0.053071
0.505882 0.218143 0.031678
0.555779 0.227756 0.004456
0.606134 0.236881 0.000000
0.656001 0.246067 0.000000
0.703212 0.254398 0.000000
0.746639 0.262211 0.000000
0.786465 0.269627 0.000000
0.822934 0.276738 0.000000
0.855589 0.283543 0.000000
0.885649 0.290379 0.010376
0.914336 0.297642 0.058534
0.942657 0.305913 0.083284
0.970581 0.315709 0.107515
0.998566 0.327642 0.133883
1.000000 0.342199 0.163760
0.084230 0.117586 0.107179
0.084474 0.117525 0.107637
0.084474 0.117311 0.107881
0.085176 0.116762 0.108339
0.085817 0.116243 0.109041
0.087007 0.116762 0.109407
0.091585 0.120272 0.109895
0.100618 0.124453 0.112947
0.112795 0.129793 0.117891
0.149172 0.146700 0.110903
0.195315 0.162509 0.098817
0.247044 0.176974 0.085542
0.291569 0.186007 0.079438
0.329229 0.195102 0.075715
0.368200 0.203861 0.071290
0.415106 0.214878 0.063905
0.464546 0.225895 0.051514
0.512840 0.235630 0.029541
0.560601 0.244511 0.004608
0.609277 0.253422 0.000000
0.657374 0.261906 0.000000
0.703273 0.269780 0.000000
0.745663 0.277195 0.000000
0.784756 0.284123 0.000000
0.820645 0.290654 0.000000
0.853056 0.296788 0.000000
0.883055 0.303075 0.023438
0.911711 0.309880 0.063539
0.939940 0.317571 0.086275
0.967712 0.326665 0.110536
0.995575 0.337835 0.136049
1.000000 0.351537 0.164492
0.088869 0.126192 0.114076
0.089204 0.125948 0.114290
0.089204 0.125765 0.114504
0.089570 0.125307 0.114748
0.089967 0.124453 0.115236
0.091005 0.123476 0.115908
0.093202 0.126070 0.115419
0.100069 0.130282 0.117739
0.110445 0.135622 0.121340
0.124544 0.142061 0.127504
0.165072 0.161929 0.120394
0.216495 0.181399 0.106935
0.278172 0.200992 0.089265
0.329381 0.212497 0.079042
0.380804 0.224613 0.070924
0.429511 0.236362 0.063111
0.477882 0.247135 0.048890
0.525231 0.256504 0.026032
0.571710 0.264958 0.003906
0.618250 0.273014 0.000000
0.663233 0.280491 0.000000
0.705562 0.287236 0.000000
0.744869 0.293400 0.000000
0.781521 0.299199 0.000000
0.816007 0.304906 0.000000
0.848051 0.310552 0.000000
0.878447 0.316258 0.030518
0.907897 0.322759 0.067781
0.936858 0.330358 0.090547
0.965515 0.339391 0.114656
0.993957 0.350469 0.140505
1.000000 0.364050 0.170077
0.093507 0.135256 0.120943
0.093538 0.135042 0.120974
0.093935 0.134646 0.121004
0.094026 0.134066 0.121248
0.094728 0.133242 0.121706
0.095277 0.131838 0.122011
0.096193 0.131533 0.122377
0.100008 0.136294 0.122255
0.109163 0.141695 0.126070
0.121828 0.148226 0.130556
0.138125 0.156130 0.137942
0.183352 0.179141 0.130953
0.240208 0.202090 0.116518
0.312169 0.227909 0.096956
0.380621 0.246952 0.077546
0.441657 0.258976 0.062593
0.487770 0.268711 0.049195
0.533196 0.277287 0.026032
0.577844 0.284916 0.005066
0.622827 0.292363 0.000000
0.666224 0.299351 0.000000
0.707515 0.305608 0.000000
0.746120 0.311345 0.000000
0.782223 0.316716 0.000000
0.816068 0.321904 0.000000
0.847501 0.326879 0.011719
0.877256 0.332036 0.050019
0.906188 0.337804 0.074891
0.934752 0.344732 0.096529
0.963134 0.353063 0.119203
0.991424 0.363470 0.144808
1.000000 0.376440 0.173831
0.098543 0.145052 0.128145
0.098573 0.144869 0.128176
0.098939 0.144503 0.128206
0.099001 0.143801 0.128634
0.099519 0.142885 0.128695
0.100069 0.141421 0.129000
0.100435 0.139620 0.129152
0.102480 0.142031 0.129274
0.108827 0.147829 0.130892
0.119905 0.154574 0.135531
0.135042 0.162631 0.141146
0.154330 0.172732 0.150668
0.227390 0.217807 0.153048
0.307378 0.253483 0.135561
0.396338 0.285466 0.109560
0.483009 0.309056 0.072816
0.547601 0.319493 0.046235
0.599481 0.325566 0.009857
0.639307 0.330083 0.000000
0.677516 0.334020 0.000000
0.713863 0.337713 0.000000
0.748135 0.341100 0.000000
0.780606 0.344244 0.005219
0.811826 0.347692 0.029541
0.841489 0.351080 0.058015
0.869627 0.354833 0.073671
0.896452 0.358862 0.089662
0.922576 0.363653 0.106294
0.948486 0.369543 0.124147
0.974578 0.377081 0.144839
1.000000 0.386755 0.168521
1.000000 0.399207 0.196262
0.105470 0.158724 0.138094
0.105501 0.158419 0.138308
0.105440 0.157809 0.138033
0.105440 0.156741 0.137972
0.105653 0.155032 0.137789
0.105867 0.153140 0.137636
0.105989 0.150729 0.137209
0.106294 0.148440 0.137057
0.110445 0.154665 0.137392
0.119814 0.162142 0.141238
0.134859 0.172396 0.148470
0.156222 0.186099 0.158114
0.184176 0.202976 0.173098
0.253574 0.241733 0.168856
0.339757 0.280583 0.150332
0.430457 0.313298 0.124086
0.520104 0.337835 0.083284
0.585443 0.348119 0.053407
0.642267 0.352605 0.006195
0.678706 0.355535 0.000000
0.713649 0.358373 0.000732
0.746914 0.360967 0.010620
0.778531 0.363378 0.026123
0.809079 0.366125 0.049409
0.838163 0.368841 0.067079
0.865904 0.371832 0.081117
0.892638 0.375341 0.095338
0.918700 0.379522 0.111177
0.944671 0.384833 0.129061
0.970916 0.391974 0.149386
0.997314 0.401129 0.172976
1.000000 0.413062 0.200595
0.110933 0.169284 0.145907
0.110811 0.168887 0.145815
0.110719 0.168338 0.145693
0.110719 0.167361 0.145663
0.110780 0.165499 0.145205
0.110658 0.163210 0.144808
0.110842 0.160678 0.144411
0.110872 0.157809 0.143893
0.113039 0.159396 0.144167
0.119142 0.168307 0.146181
0.133150 0.178866 0.153536
0.151980 0.192050 0.162722
0.176669 0.208011 0.173922
0.208133 0.226627 0.190799
0.282200 0.267491 0.186496
0.370764 0.307042 0.166751
0.460914 0.338933 0.140230
0.547875 0.362219 0.102876
0.618860 0.374426 0.065248
0.672786 0.378302 0.036225
0.714778 0.380041 0.022187
0.747341 0.382116 0.034638
0.778408 0.383948 0.053712
0.808591 0.386114 0.066041
0.837308 0.388373 0.078401
0.864805 0.390784 0.091524
0.891264 0.393744 0.104585
0.917205 0.397375 0.120119
0.943114 0.402319 0.137514
0.969268 0.409003 0.157748
0.995666 0.417792 0.181003
1.000000 0.429450 0.208743
0.116457 0.180514 0.154147
0.116487 0.180362 0.154147
0.116457 0.179721 0.154055
0.116182 0.178317 0.153628
0.116060 0.176486 0.153079
0.115969 0.174228 0.152712
0.116518 0.172122 0.152621
0.116579 0.169375 0.152132
0.116701 0.166415 0.151522
0.121462 0.173770 0.153384
0.131014 0.184146 0.157504
0.147768 0.196841 0.166506
0.169863 0.212161 0.177127
0.198032 0.230137 0.189944
0.232639 0.250217 0.208591
0.309300 0.292027 0.204135
0.399481 0.331884 0.183963
0.489265 0.363287 0.158053
0.575341 0.386542 0.123568
0.651057 0.400275 0.077638
0.702174 0.403693 0.067048
0.748501 0.403998 0.059876
0.778775 0.405188 0.068391
0.808347 0.406714 0.078645
0.836912 0.408576 0.090059
0.864561 0.410742 0.102846
0.891630 0.413672 0.116609
0.918364 0.417548 0.132906
0.945068 0.422827 0.151308
0.971893 0.429969 0.173098
0.998871 0.439399 0.197971
1.000000 0.451728 0.227298
0.123507 0.194766 0.164279
0.123476 0.194644 0.164431
0.123445 0.194064 0.164340
0.123476 0.193118 0.164309
0.123568 0.191318 0.163943
0.123568 0.189120 0.163485
0.123323 0.186313 0.162814
0.123171 0.183078 0.162051
0.123079 0.179232 0.160769
0.124514 0.179110 0.160739
0.131075 0.189578 0.163302
0.144503 0.201816 0.170108
0.163760 0.216007 0.180179
0.188296 0.232547 0.191867
0.218997 0.251347 0.205234
0.255192 0.271763 0.224857
0.333196 0.313756 0.221164
0.425238 0.354559 0.201602
0.516381 0.387152 0.177371
0.603876 0.411566 0.146334
0.680171 0.425940 0.104891
0.733303 0.430121 0.090730
0.777951 0.430549 0.090150
0.813504 0.430732 0.095918
0.841733 0.432166 0.107149
0.869169 0.434119 0.119966
0.895933 0.436713 0.133974
0.922271 0.440284 0.150118
0.948394 0.445197 0.168368
0.974395 0.451789 0.189487
1.000000 0.460395 0.213291
1.000000 0.471839 0.241367
0.130709 0.209628 0.175174
0.130739 0.209110 0.174838
0.130556 0.208347 0.174685
0.130526 0.207156 0.174411
0.130404 0.205081 0.173739
0.130007 0.202335 0.173037
0.129549 0.199344 0.172061
0.129000 0.195224 0.170687
0.128450 0.191012 0.169284
0.127626 0.185977 0.167178
0.132174 0.192081 0.169009
0.140322 0.204257 0.172122
0.157534 0.218112 0.181888
0.179599 0.234073 0.193149
0.206943 0.252262 0.205966
0.239994 0.272313 0.220310
0.278141 0.293462 0.241733
0.357671 0.335912 0.239384
0.451881 0.378027 0.221012
0.544305 0.411536 0.198123
0.630396 0.435798 0.170260
0.703304 0.449348 0.136080
0.759335 0.454017 0.111391
0.802670 0.454902 0.115053
0.842771 0.454139 0.120546
0.870054 0.455787 0.133547
0.896818 0.458198 0.147707
0.923217 0.461646 0.163699
0.949279 0.466438 0.182803
0.975250 0.472908 0.203983
1.000000 0.481453 0.228153
1.000000 0.492958 0.256992
0.138216 0.224552 0.185824
0.138399 0.224430 0.185977
0.143923 0.234897 0.193820
0.143526 0.232944 0.193027
0.142977 0.230228 0.192081
0.142184 0.226719 0.190677
0.141054 0.222080 0.188663
0.139895 0.216831 0.186465
0.138552 0.210880 0.183810
0.136965 0.204440 0.180789
0.136263 0.200076 0.178317
0.144717 0.212650 0.182589
0.157168 0.227543 0.188602
0.178317 0.244114 0.200351
0.204410 0.262791 0.213535
0.236149 0.283360 0.228397
0.274022 0.305852 0.245518
0.316106 0.328832 0.269993
0.399878 0.372717 0.269108
0.497719 0.415869 0.251530
0.589807 0.448646 0.229953
0.670893 0.470253 0.205722
0.738308 0.481056 0.177035
0.795773 0.484749 0.142794
0.835386 0.484627 0.148623
0.871794 0.483192 0.156100
0.901061 0.482582 0.166812
0.925566 0.484627 0.180972
0.950530 0.488502 0.198154
0.975921 0.494331 0.218936
1.000000 0.502647 0.243168
1.000000 0.513603 0.271336
0.147341 0.242679 0.198795
0.148135 0.244053 0.199924
0.148653 0.244694 0.200687
0.149142 0.244450 0.201114
0.149020 0.242679 0.200778
0.148531 0.239536 0.199619
0.147524 0.234897 0.197757
0.146090 0.229465 0.195315
0.144381 0.223178 0.192447
0.142458 0.216403 0.188968
0.140322 0.208835 0.185031
0.143801 0.212222 0.185672
0.152926 0.226566 0.190372
0.169314 0.242588 0.199222
0.192508 0.260410 0.211795
0.220920 0.280308 0.226047
0.254795 0.301946 0.242130
0.294621 0.325353 0.260166
0.338872 0.349493 0.286595
0.423407 0.393957 0.288151
0.522576 0.438514 0.272923
0.615045 0.472206 0.254398
0.693294 0.493416 0.234134
0.758755 0.504265 0.209842
0.815915 0.508080 0.178347
0.858091 0.508629 0.174258
0.893950 0.508202 0.184634
0.927367 0.507622 0.197665
0.952026 0.511162 0.214786
0.976959 0.516716 0.235477
1.000000 0.524620 0.259464
1.000000 0.535454 0.287846
0.154299 0.256901 0.208774
0.154879 0.258091 0.209842
0.155520 0.258854 0.210544
0.155947 0.258640 0.211063
0.155825 0.256565 0.210483
0.155154 0.253208 0.209354
0.153750 0.248508 0.207034
0.152163 0.242649 0.204379
0.150301 0.236057 0.201205
0.148409 0.228885 0.197604
0.145937 0.221073 0.193484
0.142977 0.212345 0.188571
0.151461 0.225437 0.193637
0.162112 0.241459 0.198642
0.182834 0.258854 0.210513
0.208560 0.278294 0.224247
0.239384 0.299382 0.239933
0.275883 0.322423 0.257450
0.318303 0.347417 0.277226
0.365118 0.373205 0.306035
0.451118 0.418585 0.310124
0.551843 0.464363 0.297520
0.642420 0.497902 0.282322
0.716701 0.518120 0.265660
0.779904 0.528832 0.244877
0.835752 0.532921 0.217838
0.881102 0.533135 0.201572
0.916136 0.533989 0.214817
0.949218 0.535058 0.231327
0.977203 0.538720 0.251560
1.000000 0.546197 0.275273
1.000000 0.556481 0.302922
0.161440 0.271611 0.219028
0.162234 0.272923 0.220188
0.162783 0.273655 0.220951
0.163149 0.273289 0.221256
0.162814 0.271427 0.220706
0.162051 0.267948 0.219303
0.160616 0.262913 0.216983
0.158907 0.256779 0.214054
0.156893 0.249973 0.210636
0.154330 0.242191 0.206638
0.151675 0.233799 0.202243
0.148684 0.224704 0.197116
0.149905 0.224125 0.195865
0.159762 0.239567 0.201724
0.174075 0.257298 0.209049
0.197635 0.276555 0.222660
0.226841 0.298405 0.238651
0.261845 0.322484 0.256809
0.303227 0.349126 0.277714
0.351507 0.378149 0.301396
0.404059 0.407904 0.335210
0.495155 0.456672 0.344396
0.596918 0.503349 0.335546
0.683070 0.535485 0.325414
0.753780 0.554986 0.313329
0.815091 0.566003 0.297398
0.869139 0.570397 0.276097
0.917082 0.569757 0.250217
0.950805 0.572503 0.268803
0.982238 0.575830 0.290043
1.000000 0.580407 0.314427
1.000000 0.591150 0.342565
0.173251 0.295140 0.235660
0.173434 0.295262 0.235996
0.173465 0.295018 0.236088
0.173342 0.293736 0.235721
0.172457 0.290745 0.234318
0.171206 0.286595 0.232486
0.169497 0.281102 0.229679
0.167453 0.274968 0.226658
0.165255 0.267948 0.223087
0.162692 0.259892 0.218967
0.159701 0.251072 0.214237
0.156283 0.241184 0.208621
0.152407 0.230381 0.202152
0.159640 0.241032 0.206546
0.171389 0.259129 0.213077
0.190677 0.279118 0.224033
0.218357 0.301030 0.240024
0.251499 0.325292 0.258244
0.290837 0.352026 0.279149
0.336217 0.380621 0.302312
0.387854 0.411109 0.327947
0.442390 0.441627 0.364294
0.532128 0.489082 0.374975
0.628229 0.532586 0.367468
0.708614 0.562310 0.359411
0.776455 0.581506 0.349859
0.836240 0.593317 0.337255
0.889342 0.598962 0.320592
0.937102 0.599451 0.298955
0.973480 0.601923 0.306126
1.000000 0.607813 0.331701
1.000000 0.615930 0.360540
0.182132 0.312444 0.247898
0.182437 0.312871 0.248417
0.182467 0.312688 0.248508
0.182193 0.311223 0.247929
0.181338 0.308415 0.246708
0.179873 0.303990 0.244541
0.177737 0.298375 0.241581
0.175418 0.291539 0.238071
0.172854 0.284001 0.234134
0.169986 0.275822 0.229770
0.166903 0.266606 0.224765
0.163149 0.256382 0.218936
0.158968 0.245365 0.212436
0.157504 0.239536 0.208347
0.168856 0.257359 0.216037
0.182742 0.277806 0.223392
0.207614 0.299870 0.238437
0.238956 0.324376 0.256779
0.276402 0.351415 0.277531
0.320073 0.380621 0.300969
0.369787 0.411841 0.327031
0.425605 0.444770 0.355718
0.483131 0.477180 0.395605
0.572412 0.524620 0.409979
0.653132 0.557092 0.396002
0.729763 0.586053 0.390661
0.796323 0.606348 0.384527
0.855131 0.619409 0.375525
0.907317 0.626703 0.363409
0.954406 0.629145 0.347295
0.994263 0.631250 0.342535
1.000000 0.641108 0.372961
0.196536 0.339086 0.267124
0.197177 0.339757 0.267857
0.197147 0.339452 0.267826
0.196414 0.337530 0.266850
0.195010 0.334112 0.265049
0.192996 0.328985 0.262303
0.190433 0.322576 0.258793
0.187259 0.314763 0.254490
0.183902 0.306126 0.249577
0.180240 0.296635 0.244297
0.176211 0.286290 0.238346
0.171756 0.275120 0.231876
0.167117 0.262974 0.224674
0.161746 0.249851 0.216434
0.166842 0.255894 0.218448
0.179538 0.275395 0.226291
0.196597 0.297093 0.235599
0.225406 0.320684 0.252995
0.260075 0.347021 0.273167
0.301061 0.376226 0.296269
0.348577 0.407691 0.322057
0.401740 0.440803 0.350408
0.459358 0.474434 0.380591
0.516838 0.506462 0.422004
0.600549 0.550408 0.437140
0.683223 0.587213 0.432288
0.756527 0.615900 0.430274
0.820615 0.636316 0.426459
0.877195 0.650538 0.421332
0.927733 0.659663 0.414160
0.973419 0.665126 0.405249
1.000000 0.668238 0.395148
0.207614 0.359289 0.281621
0.208408 0.360052 0.282353
0.208347 0.359838 0.282383
0.207645 0.357977 0.281529
0.206058 0.354376 0.279484
0.204135 0.349432 0.276860
0.201389 0.343114 0.273320
0.198062 0.335515 0.269047
0.194522 0.326940 0.264225
0.190646 0.317723 0.259068
0.186435 0.307256 0.252964
0.181857 0.296086 0.246403
0.176974 0.283787 0.239078
0.171359 0.270268 0.230747
0.166079 0.257542 0.222538
0.178958 0.277317 0.231693
0.194308 0.299809 0.240848
0.218021 0.324590 0.254795
0.251774 0.351507 0.275273
0.291875 0.381353 0.298772
0.338079 0.413428 0.324987
0.390204 0.447089 0.353735
0.446784 0.481331 0.384344
0.505974 0.515251 0.416297
0.563012 0.546868 0.460090
0.639948 0.587335 0.477913
0.716121 0.621393 0.475257
0.787076 0.650874 0.477089
0.849119 0.672999 0.478187
0.903624 0.689570 0.479042
0.952178 0.701991 0.479072
0.995941 0.712215 0.479805
0.222995 0.385626 0.300786
0.223514 0.386023 0.301305
0.223392 0.385534 0.301122
0.222354 0.383276 0.299870
0.220157 0.379095 0.297429
0.217685 0.373632 0.294285
0.214542 0.367041 0.290501
0.210941 0.359228 0.285924
0.207126 0.350591 0.280949
0.203006 0.341100 0.275517
0.198459 0.330816 0.269596
0.193606 0.319585 0.262974
0.188388 0.307134 0.255497
0.182589 0.293675 0.247135
0.176150 0.278813 0.237705
0.178408 0.279698 0.236820
0.193637 0.302312 0.247105
0.212039 0.327733 0.257572
0.243015 0.355200 0.276585
0.281773 0.385107 0.300175
0.326848 0.417578 0.326513
0.377630 0.451545 0.355383
0.433051 0.486305 0.386267
0.491310 0.520623 0.418524
0.550439 0.553857 0.451606
0.604181 0.583551 0.497200
0.674434 0.620966 0.517174
0.745571 0.653071 0.515618
0.813565 0.683101 0.520806
0.873381 0.707088 0.526543
0.925658 0.726284 0.532921
0.972015 0.742916 0.540581
0.239567 0.412451 0.320623
0.239841 0.412604 0.320897
0.239506 0.411933 0.320623
0.238468 0.409827 0.319432
0.236759 0.406439 0.317510
0.234806 0.402228 0.315221
0.232486 0.397253 0.312657
0.230289 0.391821 0.309850
0.227634 0.385534 0.306615
0.224613 0.378393 0.302953
0.221164 0.370367 0.298680
0.217166 0.361120 0.293492
0.212253 0.350011 0.287083
0.206332 0.337041 0.279240
0.199344 0.322240 0.269871
0.191653 0.305547 0.259037
0.205631 0.324926 0.268528
0.226261 0.352819 0.281743
0.252171 0.383703 0.296483
0.293919 0.415991 0.322332
0.341558 0.450233 0.350866
0.394537 0.485695 0.381872
0.451179 0.521080 0.414374
0.509545 0.555474 0.448066
0.567254 0.587579 0.482307
0.621149 0.616358 0.516655
0.668330 0.642939 0.563226
0.730343 0.676478 0.582879
0.795224 0.706386 0.582422
0.857450 0.735378 0.589654
0.912535 0.760128 0.598993
0.960632 0.781613 0.610254
0.274357 0.463020 0.359594
0.274510 0.462928 0.359747
0.273960 0.462043 0.359197
0.272496 0.459541 0.357702
0.270207 0.455512 0.355230
0.267155 0.450446 0.352087
0.263798 0.444404 0.348608
0.260288 0.437781 0.344793
0.256504 0.430304 0.340459
0.252262 0.421973 0.335729
0.247593 0.412634 0.330388
0.242222 0.401984 0.324102
0.236423 0.390265 0.317144
0.229587 0.376654 0.308659
0.221958 0.361456 0.299077
0.213535 0.344884 0.288334
