luts/lumix_color_lab_B/Majestic_Noir_33.cube
TITLE "Generated by Resolve"
LUT_3D_SIZE 5
0.0392615 0.044358 0.0476081
0.0495003 0.0359045 0.0426032
0.133928 0.0140078 0.0102541
0.201953 0.0139925 0.00723278
0.20708 0.0139925 0.00701915
0.0369421 0.0655528 0.0386664
0.0581826 0.0733959 0.0277409
0.237736 0.0247196 0.0062562
0.363165 0.032105 0.00387579
0.417975 0.0405127 0.00373846
0.196506 0.374548 0.0691997
0.304784 0.464347 0.0927291
0.781735 0.503746 0.09308
0.964553 0.477378 0.090425
0.965652 0.505592 0.0979782
0.503655 0.659449 0.117281
0.568093 0.675074 0.13753
0.892393 0.702251 0.123125
0.964935 0.67776 0.12842
0.96527 0.677073 0.12958
0.506035 0.668635 0.128954
0.594949 0.687999 0.150301
0.90901 0.704021 0.129793
0.964599 0.681086 0.130709
0.965301 0.680705 0.130861
0.0323339 0.0373999 0.055436
0.0664988 0.0292515 0.0630198
0.155016 0.0125277 0.0161288
0.211994 0.0134585 0.00759899
0.217731 0.0134432 0.00740063
0.0284886 0.0831159 0.0653391
0.0749828 0.0796826 0.0788739
0.285695 0.020798 0.0127108
0.501213 0.0323339 0.0148165
0.591638 0.0425574 0.0260014
0.209598 0.421988 0.0872206
0.33431 0.536797 0.126009
0.865248 0.574792 0.130968
0.961181 0.560204 0.164843
0.960082 0.5953 0.189563
0.454597 0.689952 0.181704
0.518593 0.714992 0.225864
0.910338 0.759625 0.210651
0.965301 0.723354 0.196521
0.965316 0.723033 0.200397
0.423758 0.704936 0.221958
0.527932 0.728008 0.259327
0.919463 0.766262 0.231357
0.964508 0.727504 0.203845
0.965286 0.726925 0.203922
0.00515755 0.0243229 0.158068
0.0199283 0.0242008 0.22031
0.344503 0.0201572 0.206546
0.529259 0.0171664 0.169482
0.534676 0.017258 0.17023
0.00344854 0.0644999 0.254185
0.0120394 0.0622416 0.320165
0.503273 0.0359197 0.263523
0.704204 0.0548714 0.259083
0.727749 0.0795148 0.288487
0.12958 0.733562 0.683925
0.196429 0.813626 0.777523
0.776822 0.74139 0.708721
0.891188 0.757748 0.733852
0.894804 0.78294 0.759564
0.242924 0.8851 0.789166
0.315328 0.882856 0.818296
0.825391 0.85948 0.741131
0.928695 0.867582 0.736721
0.927764 0.866804 0.742626
0.25362 0.887953 0.827695
0.348669 0.883726 0.838804
0.840925 0.862959 0.760571
0.926787 0.868727 0.743984
0.9281 0.868788 0.744091
0.0021973 0.0301976 0.212497
0.00827039 0.028397 0.286946
0.291783 0.0280003 0.337072
0.444022 0.0259098 0.289189
0.455619 0.0259709 0.288746
0.000976577 0.0719463 0.312367
0.00608835 0.0954299 0.447654
0.447974 0.0690776 0.393606
0.640848 0.0897231 0.373449
0.657237 0.117784 0.393347
0.152804 0.761425 0.856886
0.230442 0.805402 0.86862
0.771801 0.77966 0.826185
0.876844 0.80589 0.828077
0.884047 0.820722 0.834775
0.276951 0.891539 0.884993
0.373983 0.887404 0.887098
0.827314 0.881132 0.86714
0.914382 0.881559 0.869856
0.915557 0.881651 0.870268
0.284138 0.891035 0.88481
0.3991 0.887343 0.887724
0.839521 0.880964 0.86569
0.914656 0.883162 0.870146
0.916442 0.883391 0.870924
0.0021973 0.0301976 0.214267
0.0080415 0.0284276 0.288731
0.292561 0.0282902 0.346807
0.438331 0.0267185 0.301289
0.450248 0.0267033 0.299702
0.000869764 0.0747845 0.319829
0.00746166 0.107393 0.472709
0.458427 0.0805219 0.40174
0.645899 0.100725 0.382422
0.659251 0.127642 0.401877
0.158328 0.768688 0.862119
0.240497 0.808743 0.86891
0.788434 0.789288 0.829374
0.879454 0.812711 0.831403
0.88571 0.825025 0.837385
0.277531 0.890898 0.885023
0.377661 0.886946 0.887175
0.831769 0.880339 0.867002
0.91458 0.882048 0.871351
0.915633 0.882353 0.871565
0.285054 0.891035 0.885237
0.40116 0.887343 0.887984
0.840894 0.881193 0.866987
0.914977 0.883604 0.872496
0.916442 0.883665 0.872648
