luts/lumix_color_lab_B/Majestic_Noir_33.cube
TITLE "Generated by Resolve"
LUT_3D_SIZE 9
0.0392615 0.044358 0.0476081
0.0393835 0.0439918 0.0475013
0.0495003 0.0359045 0.0426032
0.0788128 0.0163577 0.017258
0.133928 0.0140078 0.0102541
0.183032 0.0140841 0.00798047
0.201953 0.0139925 0.00723278
0.20708 0.0139925 0.00701915
0.20708 0.0139925 0.00701915
0.0389715 0.0458534 0.0473182
0.0404669 0.0464332 0.0465248
0.0539101 0.0368963 0.0404059
0.0847028 0.0171969 0.0159762
0.142351 0.0139773 0.0100404
0.18996 0.0140993 0.00769055
0.208072 0.0141756 0.00700389
0.21474 0.014374 0.00672923
0.21474 0.014374 0.00672923
0.0369421 0.0655528 0.0386664
0.0392462 0.0718547 0.0350652
0.0581826 0.0733959 0.0277409
0.139818 0.035462 0.0111391
0.237736 0.0247196 0.0062562
0.309804 0.0263066 0.00447089
0.363165 0.032105 0.00387579
0.417975 0.0405127 0.00373846
0.417975 0.0405127 0.00373846
0.052903 0.161776 0.0199893
0.06009 0.180514 0.0249332
0.0869764 0.203281 0.0346227
0.232425 0.228901 0.049073
0.671321 0.173083 0.0324865
0.818082 0.153674 0.0209506
0.872892 0.168872 0.023331
0.904845 0.192554 0.0302739
0.904845 0.192554 0.0302739
0.196506 0.374548 0.0691997
0.236789 0.421073 0.0787366
0.304784 0.464347 0.0927291
0.462455 0.52166 0.0881819
0.781735 0.503746 0.09308
0.949691 0.456703 0.0872816
0.964553 0.477378 0.090425
0.965652 0.505592 0.0979782
0.965652 0.505592 0.0979782
0.424201 0.602747 0.110155
0.449821 0.620981 0.112642
0.499016 0.637415 0.120806
0.626184 0.668132 0.114809
0.846113 0.676875 0.113252
0.953643 0.647166 0.120974
0.96408 0.647593 0.122515
0.965057 0.652033 0.124773
0.965057 0.652033 0.124773
0.503655 0.659449 0.117281
0.516533 0.665537 0.123476
0.568093 0.675074 0.13753
0.696788 0.707012 0.121401
0.892393 0.702251 0.123125
0.958602 0.681559 0.128084
0.964935 0.67776 0.12842
0.96527 0.677073 0.12958
0.96527 0.677073 0.12958
0.506035 0.668635 0.128954
0.526284 0.675868 0.139437
0.594949 0.687999 0.150301
0.732067 0.720119 0.129442
0.90901 0.704021 0.129793
0.959548 0.684779 0.131365
0.964599 0.681086 0.130709
0.965301 0.680705 0.130861
0.965301 0.680705 0.130861
0.506035 0.668635 0.128954
0.526284 0.675868 0.139437
0.594949 0.687999 0.150301
0.732067 0.720119 0.129442
0.90901 0.704021 0.129793
0.959548 0.684779 0.131365
0.964599 0.681086 0.130709
0.965301 0.680705 0.130861
0.965301 0.680705 0.130861
0.0391852 0.0442817 0.0476234
0.0397345 0.0435035 0.047364
0.0518502 0.0347143 0.0428321
0.0823072 0.0160372 0.0189517
0.134615 0.013962 0.0103456
0.183352 0.0140688 0.00796521
0.202182 0.0139925 0.00723278
0.207294 0.0139925 0.00700389
0.207294 0.0139925 0.00700389
0.0381933 0.0484627 0.0485389
0.0417182 0.0479286 0.0487831
0.0568093 0.0358434 0.0420233
0.0838636 0.0161593 0.0162203
0.142199 0.0137942 0.0101625
0.191363 0.0140688 0.00767529
0.208515 0.0140841 0.00700389
0.214557 0.0141756 0.00680552
0.214557 0.0141756 0.00680552
0.0354467 0.0700389 0.0401312
0.0392615 0.0778363 0.0361944
0.0639353 0.0796521 0.0299535
0.148669 0.0346227 0.0111086
0.245258 0.024506 0.00610361
0.316106 0.0264591 0.00436408
0.392081 0.0340581 0.00421149
0.472129 0.0444343 0.00500496
0.472129 0.0444343 0.00500496
0.0541543 0.168399 0.0221103
0.0637827 0.19144 0.0276951
0.0995956 0.220035 0.0391852
0.273701 0.253544 0.0536202
0.717235 0.182727 0.034287
0.843931 0.159792 0.021912
0.892226 0.185779 0.034165
0.918608 0.216999 0.0478218
0.918608 0.216999 0.0478218
0.209293 0.390402 0.0725567
0.252384 0.441428 0.0825666
0.329305 0.490227 0.0980697
0.496406 0.547204 0.0915694
0.82118 0.523903 0.0966659
0.957458 0.476402 0.0907912
0.965133 0.502815 0.103929
0.964782 0.534691 0.117205
0.964782 0.534691 0.117205
0.431464 0.610193 0.112276
0.464546 0.633158 0.114214
0.519783 0.654078 0.12369
0.648188 0.685206 0.118349
0.868727 0.691966 0.117723
0.960143 0.664622 0.125307
0.965377 0.660609 0.13257
0.965576 0.666041 0.137591
0.965576 0.666041 0.137591
0.497398 0.667582 0.128847
0.505287 0.676066 0.142123
0.563485 0.689357 0.160052
0.711482 0.723278 0.144472
0.902647 0.717098 0.140124
0.959533 0.693248 0.140169
0.96556 0.689235 0.140246
0.965759 0.688975 0.142153
0.965759 0.688975 0.142153
0.488396 0.681102 0.154269
0.509117 0.690288 0.169879
0.587396 0.705058 0.181903
0.745754 0.739101 0.16051
0.917281 0.722011 0.151751
0.960052 0.698421 0.146181
0.965118 0.693507 0.14406
0.965789 0.693248 0.144305
0.965789 0.693248 0.144305
0.488396 0.681102 0.154269
0.509117 0.690288 0.169879
0.587396 0.705058 0.181903
0.745754 0.739101 0.16051
0.917281 0.722011 0.151751
0.960052 0.698421 0.146181
0.965118 0.693507 0.14406
0.965789 0.693248 0.144305
0.965789 0.693248 0.144305
0.0323339 0.0373999 0.055436
0.0380865 0.0360723 0.0602274
0.0664988 0.0292515 0.0630198
0.117388 0.01355 0.0383917
0.155016 0.0125277 0.0161288
0.195392 0.0133364 0.00856031
0.211994 0.0134585 0.00759899
0.217731 0.0134432 0.00740063
0.217731 0.0134432 0.00740063
0.0307774 0.0443122 0.0618753
0.0361791 0.0401923 0.0632792
0.0753643 0.029633 0.0699931
0.129335 0.013138 0.0416724
0.169879 0.0120546 0.0163577
0.215579 0.012604 0.00888075
0.232273 0.0127718 0.00807202
0.247501 0.0126192 0.00839246
0.247501 0.0126192 0.00839246
0.0284886 0.0831159 0.0653391
0.0307317 0.093492 0.074403
0.0749828 0.0796826 0.0788739
0.2065 0.0342412 0.0446174
0.285695 0.020798 0.0127108
0.335409 0.0202792 0.00720226
0.501213 0.0323339 0.0148165
0.591638 0.0425574 0.0260014
0.591638 0.0425574 0.0260014
0.0484474 0.192203 0.0400092
0.0562753 0.228977 0.0526741
0.113359 0.251347 0.0719768
0.344259 0.284642 0.0842908
0.762417 0.205493 0.0645914
0.87332 0.176867 0.0493477
0.897841 0.22623 0.0884871
0.909728 0.272007 0.118364
0.909728 0.272007 0.118364
0.209598 0.421988 0.0872206
0.250065 0.48307 0.105821
0.33431 0.536797 0.126009
0.545556 0.592432 0.127382
0.865248 0.574792 0.130968
0.962768 0.523766 0.12874
0.961181 0.560204 0.164843
0.960082 0.5953 0.189563
0.960082 0.5953 0.189563
0.41973 0.627756 0.135531
0.44654 0.657237 0.148989
0.506294 0.68574 0.163287
0.671443 0.720943 0.168856
0.895521 0.735668 0.163333
0.964645 0.70573 0.167224
0.965179 0.698482 0.186465
0.964736 0.704433 0.197818
0.964736 0.704433 0.197818
0.454597 0.689952 0.181704
0.4542 0.699687 0.205081
0.518593 0.714992 0.225864
0.72105 0.756741 0.224933
0.910338 0.759625 0.210651
0.958907 0.728817 0.197757
0.965301 0.723354 0.196521
0.965316 0.723033 0.200397
0.965316 0.723033 0.200397
0.423758 0.704936 0.221958
0.443992 0.713176 0.241703
0.527932 0.728008 0.259327
0.747875 0.772259 0.253147
0.919463 0.766262 0.231357
0.958846 0.734386 0.210163
0.964508 0.727504 0.203845
0.965286 0.726925 0.203922
0.965286 0.726925 0.203922
0.423758 0.704936 0.221958
0.443992 0.713176 0.241703
0.527932 0.728008 0.259327
0.747875 0.772259 0.253147
0.919463 0.766262 0.231357
0.958846 0.734386 0.210163
0.964508 0.727504 0.203845
0.965286 0.726925 0.203922
0.965286 0.726925 0.203922
0.0124514 0.0194858 0.116777
0.0187839 0.0189975 0.123461
0.0586862 0.0174716 0.150973
0.186984 0.0166781 0.156115
0.305821 0.0133974 0.112367
0.38175 0.0105898 0.0665293
0.400961 0.00993362 0.0530709
0.414679 0.00985733 0.0536355
0.414679 0.00985733 0.0536355
0.01178 0.0244297 0.126467
0.0128328 0.0207218 0.122164
0.057557 0.0183108 0.157855
0.200305 0.0169528 0.1626
0.341009 0.0140993 0.12105
0.443778 0.0115206 0.0866255
0.480888 0.0112154 0.0838636
0.507454 0.011841 0.0926986
0.507454 0.011841 0.0926986
0.0122683 0.0637217 0.168612
0.0120241 0.0674754 0.182544
0.0520485 0.0580301 0.202029
0.297948 0.0362249 0.189029
0.51165 0.0230564 0.135607
0.619196 0.0180514 0.112795
0.711177 0.0323949 0.1355
0.74287 0.0468605 0.154986
0.74287 0.0468605 0.154986
0.0260777 0.278721 0.233433
0.0327306 0.346975 0.29427
0.0719158 0.390936 0.347738
0.344457 0.332692 0.317449
0.718761 0.286015 0.267536
0.826047 0.25333 0.239857
0.841291 0.348394 0.321508
0.84625 0.41323 0.379461
0.84625 0.41323 0.379461
0.135164 0.546441 0.223453
0.155489 0.617273 0.284581
0.210575 0.661982 0.322332
0.464698 0.647272 0.334218
0.837064 0.677485 0.347692
0.9364 0.643565 0.356649
0.938018 0.678553 0.415396
0.938155 0.707454 0.454002
0.938155 0.707454 0.454002
0.299184 0.69575 0.27303
0.308537 0.728878 0.320256
0.357397 0.748028 0.347799
0.567346 0.760906 0.370382
0.884886 0.811383 0.381384
0.957946 0.783688 0.378058
0.958114 0.779324 0.407446
0.956985 0.784756 0.425559
0.956985 0.784756 0.425559
0.309895 0.767971 0.392447
0.309117 0.781033 0.432059
0.361105 0.77966 0.443793
0.613657 0.789319 0.454841
0.896651 0.827604 0.441077
0.953323 0.804044 0.416938
0.960494 0.797818 0.413306
0.959899 0.797574 0.419821
0.959899 0.797574 0.419821
0.285817 0.805249 0.494499
0.29958 0.807584 0.509789
0.367391 0.799451 0.504189
0.6365 0.800565 0.494285
0.903212 0.831388 0.467018
0.952331 0.808637 0.434455
0.959106 0.801312 0.423514
0.95996 0.800595 0.423484
0.95996 0.800595 0.423484
0.285817 0.805249 0.494499
0.29958 0.807584 0.509789
0.367391 0.799451 0.504189
0.6365 0.800565 0.494285
0.903212 0.831388 0.467018
0.952331 0.808637 0.434455
0.959106 0.801312 0.423514
0.95996 0.800595 0.423484
0.95996 0.800595 0.423484
0.00515755 0.0243229 0.158068
0.00642405 0.0243076 0.168673
0.0199283 0.0242008 0.22031
0.140993 0.0220798 0.250935
0.344503 0.0201572 0.206546
0.497765 0.0183108 0.178149
0.529259 0.0171664 0.169482
0.534676 0.017258 0.17023
0.534676 0.017258 0.17023
0.00477607 0.0286259 0.170611
0.00489815 0.0259403 0.165164
0.0192569 0.0253605 0.229679
0.156207 0.0224308 0.262974
0.370642 0.0210574 0.215808
0.504677 0.0190433 0.190433
0.520974 0.0185855 0.187991
0.523369 0.0191348 0.193576
0.523369 0.0191348 0.193576
0.00344854 0.0644999 0.254185
0.00283818 0.0684367 0.267887
0.0120394 0.0622416 0.320165
0.193057 0.0493019 0.33637
0.503273 0.0359197 0.263523
0.616297 0.0301823 0.231434
0.704204 0.0548714 0.259083
0.727749 0.0795148 0.288487
0.727749 0.0795148 0.288487
0.0217136 0.313268 0.505455
0.0280613 0.38967 0.59057
0.0486305 0.443778 0.657664
0.224002 0.395453 0.601175
0.637995 0.355978 0.507073
0.761334 0.306127 0.456001
0.772213 0.385397 0.522683
0.776455 0.447181 0.576608
0.776455 0.447181 0.576608
0.12958 0.733562 0.683925
0.154772 0.780392 0.735225
0.196429 0.813626 0.777523
0.376776 0.786343 0.758541
0.776822 0.74139 0.708721
0.879133 0.729046 0.702068
0.891188 0.757748 0.733852
0.894804 0.78294 0.759564
0.894804 0.78294 0.759564
0.212924 0.857313 0.69778
0.227955 0.875212 0.753155
0.267079 0.882078 0.783612
0.433066 0.869505 0.764797
0.798627 0.842496 0.7093
0.91841 0.853498 0.720516
0.924773 0.854307 0.736477
0.922789 0.856657 0.751339
0.922789 0.856657 0.751339
0.242924 0.8851 0.789166
0.257923 0.886213 0.810636
0.315328 0.882856 0.818296
0.505257 0.875074 0.795499
0.825391 0.85948 0.741131
0.918685 0.86746 0.73695
0.928695 0.867582 0.736721
0.927764 0.866804 0.742626
0.927764 0.866804 0.742626
0.25362 0.887953 0.827695
0.276921 0.886839 0.836515
0.348669 0.883726 0.838804
0.539117 0.877256 0.813275
0.840925 0.862959 0.760571
0.916838 0.868894 0.750912
0.926787 0.868727 0.743984
0.9281 0.868788 0.744091
0.9281 0.868788 0.744091
0.25362 0.887953 0.827695
0.276921 0.886839 0.836515
0.348669 0.883726 0.838804
0.539117 0.877256 0.813275
0.840925 0.862959 0.760571
0.916838 0.868894 0.750912
0.926787 0.868727 0.743984
0.9281 0.868788 0.744091
0.9281 0.868788 0.744091
0.00238041 0.0300298 0.202838
0.00299077 0.0298009 0.212375
0.0106203 0.0276799 0.279591
0.107439 0.02533 0.350713
0.29482 0.026276 0.297749
0.427482 0.0235904 0.261311
0.469474 0.0227817 0.248035
0.478233 0.0230259 0.248707
0.478233 0.0230259 0.248707
0.0021973 0.0340887 0.213428
0.00239567 0.030808 0.209003
0.0115206 0.0278172 0.289601
0.123293 0.0266117 0.360281
0.317372 0.0261845 0.304799
0.434669 0.0246738 0.274418
0.467796 0.0247959 0.271168
0.475883 0.0257877 0.277195
0.475883 0.0257877 0.277195
0.00114443 0.0688945 0.298817
0.0010071 0.0745403 0.314061
0.00386053 0.0666819 0.365591
0.147814 0.0562142 0.439139
0.418509 0.046128 0.362158
0.559625 0.0469825 0.333242
0.647242 0.0771954 0.350301
0.666621 0.104326 0.372763
0.666621 0.104326 0.372763
0.0138552 0.353628 0.655924
0.0209201 0.430045 0.720851
0.0395056 0.477501 0.763714
0.201007 0.435874 0.704372
0.557397 0.387778 0.622675
0.694102 0.369833 0.586603
0.726513 0.442451 0.629664
0.740444 0.497749 0.666239
0.740444 0.497749 0.666239
0.145434 0.751614 0.833677
0.170504 0.787015 0.853284
0.216098 0.811276 0.868742
0.404791 0.789151 0.854124
0.752178 0.765774 0.81326
0.855467 0.77174 0.805447
0.875364 0.79443 0.816388
0.882933 0.812528 0.826169
0.882933 0.812528 0.826169
0.227939 0.874937 0.859876
0.25275 0.884215 0.874098
0.312428 0.88777 0.883894
0.504738 0.884337 0.883146
0.795727 0.870878 0.856046
0.900908 0.867582 0.851453
0.909102 0.868925 0.854994
0.91078 0.870588 0.85716
0.91078 0.870588 0.85716
0.269474 0.891096 0.876478
0.288487 0.889891 0.87892
0.362661 0.887419 0.881987
0.550408 0.88719 0.879088
0.81799 0.878798 0.8551
0.903441 0.878508 0.854307
0.914672 0.879637 0.858701
0.915831 0.879698 0.859388
0.915831 0.879698 0.859388
0.279911 0.890791 0.880018
0.306508 0.889097 0.881559
0.392493 0.887312 0.884199
0.574228 0.8869 0.878553
0.834455 0.878889 0.855344
0.904723 0.880278 0.856016
0.914916 0.881224 0.859297
0.916655 0.881376 0.860044
0.916655 0.881376 0.860044
0.279911 0.890791 0.880018
0.306508 0.889097 0.881559
0.392493 0.887312 0.884199
0.574228 0.8869 0.878553
0.834455 0.878889 0.855344
0.904723 0.880278 0.856016
0.914916 0.881224 0.859297
0.916655 0.881376 0.860044
0.916655 0.881376 0.860044
0.0021973 0.0301976 0.212497
0.00265507 0.030045 0.220829
0.00827039 0.028397 0.286946
0.0977035 0.0280003 0.374716
0.291783 0.0280003 0.337072
0.398352 0.0267491 0.301976
0.444022 0.0259098 0.289189
0.455619 0.0259709 0.288746
0.455619 0.0259709 0.288746
0.00205997 0.0341039 0.222309
0.00227359 0.0314794 0.220569
0.0100099 0.029099 0.301442
0.118029 0.0288243 0.382132
0.317006 0.0276493 0.335683
0.416434 0.0273289 0.308141
0.452155 0.0269322 0.302052
0.463722 0.0278325 0.304967
0.463722 0.0278325 0.304967
0.000976577 0.0719463 0.312367
0.000915541 0.0810254 0.336034
0.00608835 0.0954299 0.447654
0.15639 0.0835584 0.474266
0.447974 0.0690776 0.393606
0.587533 0.0680552 0.362844
0.640848 0.0897231 0.373449
0.657237 0.117784 0.393347
0.657237 0.117784 0.393347
0.0136416 0.378561 0.694392
0.0230716 0.455711 0.751904
0.0565652 0.504829 0.777432
0.25005 0.476829 0.723186
0.569589 0.430686 0.655131
0.685573 0.418921 0.628031
0.723522 0.469306 0.656855
0.740719 0.5205 0.686885
0.740719 0.5205 0.686885
0.152804 0.761425 0.856886
0.177493 0.793027 0.867918
0.230442 0.805402 0.86862
0.438529 0.791241 0.857389
0.771801 0.77966 0.826185
0.857679 0.787564 0.820813
0.876844 0.80589 0.828077
0.884047 0.820722 0.834775
0.884047 0.820722 0.834775
0.242466 0.875669 0.875731
0.262074 0.882124 0.881529
0.321401 0.880568 0.883406
0.525765 0.878386 0.883589
0.811536 0.872129 0.865385
0.902556 0.871046 0.861677
0.909392 0.873472 0.863371
0.910979 0.874571 0.864607
0.910979 0.874571 0.864607
0.276951 0.891539 0.884993
0.295125 0.890059 0.885145
0.373983 0.887404 0.887098
0.561425 0.887358 0.884855
0.827314 0.881132 0.86714
0.905379 0.881376 0.869123
0.914382 0.881559 0.869856
0.915557 0.881651 0.870268
0.915557 0.881651 0.870268
0.284138 0.891035 0.88481
0.310475 0.889189 0.885298
0.3991 0.887343 0.887724
0.580011 0.887266 0.883268
0.839521 0.880964 0.86569
0.906264 0.882872 0.869596
0.914656 0.883162 0.870146
0.916442 0.883391 0.870924
0.916442 0.883391 0.870924
0.284138 0.891035 0.88481
0.310475 0.889189 0.885298
0.3991 0.887343 0.887724
0.580011 0.887266 0.883268
0.839521 0.880964 0.86569
0.906264 0.882872 0.869596
0.914656 0.883162 0.870146
0.916442 0.883391 0.870924
0.916442 0.883391 0.870924
0.0021973 0.0301976 0.214267
0.00262455 0.030045 0.222431
0.0080415 0.0284276 0.288731
0.0965133 0.0287327 0.379675
0.292561 0.0282902 0.346807
0.392859 0.0275273 0.311833
0.438331 0.0267185 0.301289
0.450248 0.0267033 0.299702
0.450248 0.0267033 0.299702
0.00202945 0.034165 0.224186
0.00225834 0.0328374 0.22797
0.0102388 0.0308232 0.311788
0.119722 0.0297246 0.387228
0.319738 0.0280461 0.341848
0.415305 0.027863 0.314794
0.451896 0.0276799 0.308965
0.465263 0.0286564 0.310857
0.465263 0.0286564 0.310857
0.000869764 0.0747845 0.319829
0.000946059 0.0889906 0.356237
0.00746166 0.107393 0.472709
0.163851 0.095964 0.482628
0.458427 0.0805219 0.40174
0.599374 0.0782788 0.371115
0.645899 0.100725 0.382422
0.659251 0.127642 0.401877
0.659251 0.127642 0.401877
0.0149996 0.397314 0.712047
0.0272374 0.475059 0.764233
0.0665446 0.521538 0.783658
0.275456 0.495125 0.729442
0.581933 0.450095 0.665949
0.691249 0.440787 0.642374
0.727962 0.489586 0.669642
0.745602 0.53669 0.696941
0.745602 0.53669 0.696941
0.158328 0.768688 0.862119
0.183276 0.797421 0.869352
0.240497 0.808743 0.86891
0.458167 0.796613 0.858457
0.788434 0.789288 0.829374
0.863066 0.796689 0.824964
0.879454 0.812711 0.831403
0.88571 0.825025 0.837385
0.88571 0.825025 0.837385
0.246693 0.87686 0.878355
0.264485 0.881437 0.881422
0.328313 0.879927 0.883406
0.534493 0.877928 0.883146
0.820386 0.871717 0.86482
0.903456 0.872114 0.863478
0.909789 0.874327 0.864881
0.911177 0.875471 0.865812
0.911177 0.875471 0.865812
0.277531 0.890898 0.885023
0.296559 0.889403 0.885039
0.377661 0.886946 0.887175
0.565316 0.886687 0.884565
0.831769 0.880339 0.867002
0.905776 0.881773 0.870527
0.91458 0.882048 0.871351
0.915633 0.882353 0.871565
0.915633 0.882353 0.871565
0.285054 0.891035 0.885237
0.312108 0.889189 0.885634
0.40116 0.887343 0.887984
0.581888 0.887266 0.883696
0.840894 0.881193 0.866987
0.906615 0.883284 0.871672
0.914977 0.883604 0.872496
0.916442 0.883665 0.872648
0.916442 0.883665 0.872648
0.285054 0.891035 0.885237
0.312108 0.889189 0.885634
0.40116 0.887343 0.887984
0.581888 0.887266 0.883696
0.840894 0.881193 0.866987
0.906615 0.883284 0.871672
0.914977 0.883604 0.872496
0.916442 0.883665 0.872648
0.916442 0.883665 0.872648
0.0021973 0.0301976 0.214267
0.00262455 0.030045 0.222431
0.0080415 0.0284276 0.288731
0.0965133 0.0287327 0.379675
0.292561 0.0282902 0.346807
0.392859 0.0275273 0.311833
0.438331 0.0267185 0.301289
0.450248 0.0267033 0.299702
0.450248 0.0267033 0.299702
0.00202945 0.034165 0.224186
0.00225834 0.0328374 0.22797
0.0102388 0.0308232 0.311788
0.119722 0.0297246 0.387228
0.319738 0.0280461 0.341848
0.415305 0.027863 0.314794
0.451896 0.0276799 0.308965
0.465263 0.0286564 0.310857
0.465263 0.0286564 0.310857
0.000869764 0.0747845 0.319829
0.000946059 0.0889906 0.356237
0.00746166 0.107393 0.472709
0.163851 0.095964 0.482628
0.458427 0.0805219 0.40174
0.599374 0.0782788 0.371115
0.645899 0.100725 0.382422
0.659251 0.127642 0.401877
0.659251 0.127642 0.401877
0.0149996 0.397314 0.712047
0.0272374 0.475059 0.764233
0.0665446 0.521538 0.783658
0.275456 0.495125 0.729442
0.581933 0.450095 0.665949
0.691249 0.440787 0.642374
0.727962 0.489586 0.669642
0.745602 0.53669 0.696941
0.745602 0.53669 0.696941
0.158328 0.768688 0.862119
0.183276 0.797421 0.869352
0.240497 0.808743 0.86891
0.458167 0.796613 0.858457
0.788434 0.789288 0.829374
0.863066 0.796689 0.824964
0.879454 0.812711 0.831403
0.88571 0.825025 0.837385
0.88571 0.825025 0.837385
0.246693 0.87686 0.878355
0.264485 0.881437 0.881422
0.328313 0.879927 0.883406
0.534493 0.877928 0.883146
0.820386 0.871717 0.86482
0.903456 0.872114 0.863478
0.909789 0.874327 0.864881
0.911177 0.875471 0.865812
0.911177 0.875471 0.865812
0.277531 0.890898 0.885023
0.296559 0.889403 0.885039
0.377661 0.886946 0.887175
0.565316 0.886687 0.884565
0.831769 0.880339 0.867002
0.905776 0.881773 0.870527
0.91458 0.882048 0.871351
0.915633 0.882353 0.871565
0.915633 0.882353 0.871565
0.285054 0.891035 0.885237
0.312108 0.889189 0.885634
0.40116 0.887343 0.887984
0.581888 0.887266 0.883696
0.840894 0.881193 0.866987
0.906615 0.883284 0.871672
0.914977 0.883604 0.872496
0.916442 0.883665 0.872648
0.916442 0.883665 0.872648
0.285054 0.891035 0.885237
0.312108 0.889189 0.885634
0.40116 0.887343 0.887984
0.581888 0.887266 0.883696
0.840894 0.881193 0.866987
0.906615 0.883284 0.871672
0.914977 0.883604 0.872496
0.916442 0.883665 0.872648
0.916442 0.883665 0.872648
