luts/lumix_color_lab_B/Majestic_Noir_33.cube
TITLE "Generated by Resolve"
LUT_3D_SIZE 33
0.0392615 0.044358 0.0476081
0.039353 0.0442817 0.0475929
0.0393835 0.0442206 0.0475471
0.0393835 0.0441444 0.0475319
0.0393835 0.0439918 0.0475013
0.0394446 0.0437629 0.0474098
0.0400702 0.0430762 0.047013
0.0429847 0.0407874 0.0456855
0.0495003 0.0359045 0.0426032
0.05832 0.0289616 0.0374456
0.0650187 0.0226139 0.0305333
0.0706035 0.017792 0.0225681
0.0788128 0.0163577 0.017258
0.0903334 0.0155489 0.0137026
0.104021 0.0149691 0.0119631
0.118761 0.0144808 0.010956
0.133928 0.0140078 0.0102541
0.148867 0.0135348 0.00993362
0.16083 0.0137789 0.00917067
0.17258 0.0140993 0.00842298
0.183032 0.0140841 0.00798047
0.190188 0.0139925 0.00769055
0.195224 0.0139925 0.0075227
0.199039 0.0139925 0.00737011
0.201953 0.0139925 0.00723278
0.204196 0.0139925 0.00712596
0.205905 0.0139925 0.00708019
0.20708 0.0139925 0.00701915
0.20708 0.0139925 0.00701915
0.20708 0.0139925 0.00701915
0.20708 0.0139925 0.00701915
0.20708 0.0139925 0.00701915
0.20708 0.0139925 0.00701915
0.0392462 0.0446479 0.0475776
0.0394446 0.0446174 0.0475319
0.0395361 0.0445716 0.0474861
0.0395819 0.0445106 0.0474708
0.0395666 0.044358 0.047425
0.0396277 0.0441138 0.0473335
0.0402686 0.0433661 0.0469368
0.0432898 0.0409705 0.0455024
0.0499886 0.035996 0.0423438
0.0587472 0.0290837 0.0371862
0.0653086 0.0226444 0.0303197
0.0708324 0.017792 0.0224308
0.0790875 0.0163577 0.0171664
0.0906844 0.0155184 0.0136416
0.104479 0.0149538 0.0119173
0.119356 0.0144656 0.0109255
0.13463 0.0139925 0.0102541
0.149538 0.01355 0.00988785
0.161624 0.0137942 0.00910964
0.173617 0.0140993 0.0083772
0.184009 0.0140688 0.00793469
0.191028 0.0139925 0.00766003
0.196002 0.0139925 0.00749218
0.199786 0.0139925 0.00733959
0.20264 0.0139925 0.00720226
0.204868 0.0139925 0.00709544
0.206516 0.0139925 0.00706493
0.20763 0.0139925 0.00700389
0.20763 0.0139925 0.00700389
0.20763 0.0139925 0.00700389
0.20763 0.0139925 0.00700389
0.20763 0.0139925 0.00700389
0.20763 0.0139925 0.00700389
0.0391852 0.0449378 0.0475013
0.0394446 0.0449683 0.0474403
0.0396887 0.0450599 0.0473182
0.039826 0.0450294 0.0472419
0.0398413 0.0448615 0.0471962
0.0398871 0.0446021 0.0471046
0.0406043 0.0438087 0.0467079
0.0439155 0.0412757 0.045182
0.0508431 0.0361181 0.0419013
0.0595254 0.02916 0.0367437
0.0660258 0.0227054 0.0298772
0.0716259 0.0178836 0.0220798
0.0800336 0.0164492 0.0169223
0.0916152 0.0155489 0.0134737
0.105455 0.0149538 0.0118257
0.120363 0.0144503 0.0108644
0.135744 0.0139467 0.0102388
0.150622 0.0135653 0.00982681
0.162799 0.0138399 0.00901808
0.175143 0.0140993 0.00831617
0.185306 0.0140536 0.00787366
0.192157 0.0139925 0.00762951
0.197086 0.0139925 0.0074464
0.200809 0.0139925 0.00729381
0.203555 0.0139925 0.00715648
0.205676 0.0139925 0.00708019
0.207279 0.0139925 0.00701915
0.20827 0.0139925 0.00698863
0.20827 0.0139925 0.00698863
0.20827 0.0139925 0.00698863
0.20827 0.0139925 0.00698863
0.20827 0.0139925 0.00698863
0.20827 0.0139925 0.00698863
0.0391089 0.0453193 0.0474556
0.0393988 0.0453651 0.047364
0.0397192 0.0454871 0.0471809
0.0400092 0.0455787 0.047013
0.0401617 0.0455024 0.046891
0.0402533 0.0452735 0.0467994
0.0411078 0.0444343 0.0463569
0.0448768 0.0417334 0.0446784
0.0521859 0.0363928 0.0412604
0.060853 0.0293278 0.0360723
0.0671092 0.0228428 0.0293278
0.0727703 0.0180667 0.0215305
0.0818799 0.0167239 0.0165408
0.0940871 0.0157626 0.0131685
0.107836 0.0150301 0.0116732
0.122545 0.0144503 0.0107576
0.137728 0.013901 0.010193
0.152407 0.0135958 0.00973526
0.164538 0.0139315 0.00889601
0.177157 0.0140993 0.00822461
0.186938 0.014023 0.00781262
0.193606 0.0139925 0.00758373
0.198428 0.0139925 0.00740063
0.202106 0.0140078 0.00723278
0.204852 0.0140078 0.0071107
0.206928 0.014023 0.00704967
0.20856 0.014023 0.00697337
0.209598 0.0140383 0.00691234
0.209598 0.0140383 0.00691234
0.209598 0.0140383 0.00691234
0.209598 0.0140383 0.00691234
0.209598 0.0140383 0.00691234
0.209598 0.0140383 0.00691234
0.0389715 0.0458534 0.0473182
0.0392309 0.0459144 0.0472267
0.0395819 0.046067 0.0470436
0.0399939 0.0462806 0.0467842
0.0404669 0.0464332 0.0465248
0.0407874 0.0463264 0.0463264
0.0417792 0.0454566 0.0458381
0.0460212 0.0425422 0.0440223
0.0539101 0.0368963 0.0404059
0.062623 0.0297093 0.0351568
0.0688487 0.0231937 0.0284733
0.0747082 0.0184939 0.0208286
0.0847028 0.0171969 0.0159762
0.0976577 0.016083 0.0127718
0.11194 0.0152438 0.011429
0.127169 0.0145724 0.0105592
0.142351 0.0139773 0.0100404
0.156466 0.0137484 0.00952163
0.168261 0.0141299 0.00866712
0.180743 0.0141909 0.00808728
0.18996 0.0140993 0.00769055
0.196414 0.0140993 0.00747692
0.201205 0.0141146 0.00729381
0.204898 0.0141299 0.00712596
0.208072 0.0141756 0.00700389
0.210758 0.0142367 0.00689708
0.213062 0.014313 0.00680552
0.21474 0.014374 0.00672923
0.21474 0.014374 0.00672923
0.21474 0.014374 0.00672923
0.21474 0.014374 0.00672923
0.21474 0.014374 0.00672923
0.21474 0.014374 0.00672923
0.0387884 0.0467079 0.0470741
0.0390326 0.0467842 0.0469673
0.0393683 0.0469673 0.0467994
0.0398108 0.0472267 0.04654
0.0404822 0.0475776 0.0461738
0.0412451 0.0477913 0.0457313
0.0425879 0.0471351 0.0450752
0.0473487 0.0440833 0.0431067
0.0562905 0.0381323 0.0391546
0.0656596 0.0307012 0.0336767
0.0717174 0.0240177 0.0271763
0.0776989 0.0193637 0.0200046
0.0890669 0.0180209 0.0152743
0.103639 0.0166934 0.012192
0.119066 0.015671 0.0109865
0.134752 0.014847 0.0101778
0.150118 0.0142061 0.00970474
0.164141 0.0140841 0.0091249
0.176379 0.0145724 0.00831617
0.189166 0.0146792 0.00776684
0.198215 0.0146639 0.00741588
0.204715 0.0146487 0.007187
0.209857 0.0146792 0.00700389
0.213977 0.0147707 0.0068513
0.217899 0.0149081 0.00669871
0.221622 0.0150759 0.00656138
0.225177 0.015259 0.00642405
0.227909 0.0154269 0.00631724
0.227909 0.0154269 0.00631724
0.227909 0.0154269 0.00631724
0.227909 0.0154269 0.00631724
0.227909 0.0154269 0.00631724
0.227909 0.0154269 0.00631724
0.0385138 0.0484474 0.0464637
0.0387427 0.0487068 0.0462654
0.0390326 0.0490425 0.0460517
0.0395056 0.049485 0.0457008
0.040177 0.0499886 0.0452277
0.0412604 0.0506142 0.0445869
0.0432593 0.0506752 0.0436103
0.0484016 0.0478828 0.0415656
0.0587472 0.041474 0.0373541
0.0697032 0.0332341 0.0316777
0.0763409 0.0259709 0.0254215
0.0827802 0.021149 0.0188296
0.0966506 0.0196994 0.0141604
0.113787 0.0179751 0.0113069
0.131075 0.0165408 0.0103151
0.147921 0.0154726 0.00962844
0.163668 0.0147707 0.00909438
0.178164 0.0148013 0.00849927
0.191333 0.0154726 0.00767529
0.20473 0.0157778 0.00717174
0.213916 0.0158694 0.00683604
0.220966 0.0158846 0.00660716
0.227192 0.016022 0.00642405
0.233143 0.0162661 0.00621042
0.239048 0.0166171 0.00601205
0.245014 0.0170291 0.00584421
0.251225 0.0175021 0.00564584
0.256626 0.0179599 0.00552377
0.256626 0.0179599 0.00552377
0.256626 0.0179599 0.00552377
0.256626 0.0179599 0.00552377
0.256626 0.0179599 0.00552377
0.256626 0.0179599 0.00552377
0.037995 0.053254 0.044419
0.0381781 0.0540475 0.0439307
0.0384833 0.054902 0.0434272
0.0391089 0.0559701 0.0427405
0.0399023 0.0570993 0.0419318
0.0412299 0.0582589 0.0409552
0.0433356 0.0590982 0.0397803
0.0484016 0.0579995 0.0378424
0.059617 0.0518502 0.0339666
0.0745098 0.0416571 0.0285039
0.0847334 0.0323644 0.0228122
0.0932631 0.0262303 0.0170748
0.110521 0.0237888 0.0126497
0.131746 0.021149 0.0100557
0.152285 0.0191043 0.00918593
0.17171 0.0175479 0.00865187
0.188998 0.0167544 0.00796521
0.205463 0.0167697 0.00733959
0.220676 0.0176699 0.00656138
0.23537 0.0183719 0.00610361
0.246021 0.0187533 0.00576791
0.255161 0.019028 0.00553903
0.264012 0.0194247 0.00535592
0.272862 0.0200504 0.00512703
0.282261 0.0208591 0.00491341
0.292454 0.0218662 0.00471504
0.304082 0.0231174 0.00453193
0.315236 0.0244755 0.00436408
0.315236 0.0244755 0.00436408
0.315236 0.0244755 0.00436408
0.315236 0.0244755 0.00436408
0.315236 0.0244755 0.00436408
0.315236 0.0244755 0.00436408
0.0369421 0.0655528 0.0386664
0.0371099 0.0667887 0.0380407
0.0375219 0.0681773 0.0372473
0.0382239 0.0699016 0.0362402
0.0392462 0.0718547 0.0350652
0.0408637 0.0737774 0.0337377
0.0434119 0.0755322 0.0322423
0.0480507 0.0762493 0.0304417
0.0581826 0.0733959 0.0277409
0.0766918 0.0633707 0.023682
0.0973983 0.0509804 0.0195163
0.115892 0.041474 0.0149996
0.139818 0.035462 0.0111391
0.167147 0.0303807 0.00886549
0.193393 0.0274968 0.00761425
0.217075 0.0255283 0.00709544
0.237736 0.0247196 0.0062562
0.258854 0.0242618 0.00572213
0.277775 0.0247959 0.00511177
0.29575 0.0254673 0.00474556
0.309804 0.0263066 0.00447089
0.321996 0.0271458 0.00428778
0.334752 0.0283818 0.00415045
0.348196 0.0300603 0.0039826
0.363165 0.032105 0.00387579
0.380758 0.034699 0.00376898
0.400778 0.0377813 0.0037232
0.417975 0.0405127 0.00373846
0.417975 0.0405127 0.00373846
0.417975 0.0405127 0.00373846
0.417975 0.0405127 0.00373846
0.417975 0.0405127 0.00373846
0.417975 0.0405127 0.00373846
0.0364233 0.0852369 0.029633
0.0365454 0.0872663 0.0287175
0.0369573 0.0894636 0.0276951
0.0376135 0.091783 0.026688
0.0387427 0.0941176 0.0257267
0.0404669 0.0964218 0.0247349
0.0432593 0.0986496 0.0235599
0.0480049 0.100481 0.0221866
0.0565042 0.100725 0.0210117
0.0731365 0.0964981 0.0201267
0.103044 0.0841993 0.0188602
0.142107 0.0707408 0.0166018
0.182849 0.0604715 0.0129397
0.224369 0.0524147 0.00988785
0.263355 0.0479591 0.00721752
0.296529 0.0457008 0.00584421
0.325017 0.044892 0.00488289
0.353811 0.0437934 0.00450141
0.377157 0.043122 0.0040589
0.398825 0.043122 0.00392157
0.417014 0.0440528 0.00383001
0.432303 0.0456855 0.0037232
0.448508 0.0482795 0.00367742
0.466331 0.051606 0.00370794
0.485542 0.055314 0.00381476
0.50724 0.059617 0.00402838
0.531563 0.0644694 0.00440986
0.5523 0.0686961 0.00489815
0.5523 0.0686961 0.00489815
0.5523 0.0686961 0.00489815
0.5523 0.0686961 0.00489815
0.5523 0.0686961 0.00489815
0.5523 0.0686961 0.00489815
0.0393072 0.107744 0.0209659
0.039765 0.110124 0.0202487
0.0404364 0.112688 0.0195773
0.0413977 0.11548 0.0190738
0.0425727 0.118334 0.0187381
0.0440833 0.121187 0.0185092
0.0462654 0.124071 0.0184329
0.0500191 0.12694 0.0184482
0.0569009 0.129396 0.0191653
0.0700847 0.130053 0.02121
0.0967269 0.126055 0.0250706
0.148104 0.113298 0.0264897
0.216007 0.101106 0.0245975
0.287221 0.0922713 0.0183108
0.35053 0.0855573 0.0130617
0.404517 0.0805371 0.00958267
0.447822 0.0767071 0.00761425
0.483085 0.0741283 0.00634775
0.508522 0.0729839 0.00531014
0.530221 0.0730755 0.00497444
0.550225 0.0742504 0.00502022
0.568658 0.0764782 0.00508125
0.587152 0.0794385 0.00527962
0.606668 0.0830701 0.00560006
0.627665 0.0871748 0.00611887
0.650782 0.0918898 0.00698863
0.675303 0.0971695 0.00820935
0.694987 0.101503 0.00936904
0.694987 0.101503 0.00936904
0.694987 0.101503 0.00936904
0.694987 0.101503 0.00936904
0.694987 0.101503 0.00936904
0.694987 0.101503 0.00936904
0.0451972 0.132555 0.016495
0.0459602 0.135561 0.0165255
0.0468757 0.138811 0.0167391
0.0480964 0.14229 0.0170901
0.049546 0.145922 0.0176089
0.0515602 0.149706 0.0184939
0.0544289 0.153643 0.0197299
0.0585946 0.157824 0.0213474
0.0653086 0.1626 0.0233158
0.0762341 0.167636 0.0263676
0.0977646 0.170825 0.031754
0.144518 0.169055 0.036759
0.228138 0.15671 0.038529
0.326726 0.143908 0.0339666
0.423896 0.133425 0.0274968
0.505394 0.125154 0.0220188
0.57055 0.118471 0.0171969
0.617685 0.113161 0.0136568
0.65008 0.110002 0.0112459
0.672129 0.108934 0.0100862
0.691386 0.109438 0.00993362
0.710964 0.111284 0.0103151
0.730083 0.114229 0.0109407
0.74905 0.118105 0.011841
0.768215 0.122835 0.0130159
0.787152 0.128557 0.0146792
0.805631 0.135225 0.016846
0.819547 0.140871 0.0187991
0.819547 0.140871 0.0187991
0.819547 0.140871 0.0187991
0.819547 0.140871 0.0187991
0.819547 0.140871 0.0187991
0.819547 0.140871 0.0187991
0.052903 0.161776 0.0199893
0.0540475 0.166003 0.0210117
0.0555123 0.170581 0.0221408
0.057435 0.175448 0.0234226
0.06009 0.180514 0.0249332
0.0639353 0.185718 0.0267643
0.0692454 0.191089 0.0290074
0.0765545 0.196674 0.0317845
0.0869764 0.203281 0.0346227
0.100679 0.211368 0.0371862
0.11902 0.220432 0.0403906
0.156374 0.228 0.0446937
0.232425 0.228901 0.049073
0.345342 0.215045 0.0502327
0.469245 0.198779 0.0458534
0.582483 0.184909 0.0387579
0.671321 0.173083 0.0324865
0.733364 0.164004 0.0279545
0.774441 0.157855 0.0244755
0.800137 0.154437 0.0220645
0.818082 0.153674 0.0209506
0.833295 0.155108 0.0207828
0.847044 0.158373 0.0212253
0.860243 0.162936 0.0220493
0.872892 0.168872 0.023331
0.884916 0.176104 0.0252384
0.896559 0.184741 0.0277714
0.904845 0.192554 0.0302739
0.904845 0.192554 0.0302739
0.904845 0.192554 0.0302739
0.904845 0.192554 0.0302739
0.904845 0.192554 0.0302739
0.904845 0.192554 0.0302739
0.0674754 0.198764 0.0292058
0.0706035 0.204654 0.0306554
0.0742351 0.211048 0.032166
0.0785534 0.217807 0.0337682
0.0839704 0.224689 0.035584
0.0906691 0.231739 0.0376745
0.0992447 0.238727 0.0401312
0.11075 0.245884 0.0431525
0.125734 0.25417 0.0464637
0.144076 0.264393 0.0493782
0.165835 0.277134 0.0513924
0.197269 0.291203 0.0532235
0.262196 0.304112 0.0565347
0.364431 0.304723 0.0609598
0.498192 0.284749 0.06215
0.628428 0.26389 0.05832
0.736416 0.245884 0.0512703
0.809598 0.231205 0.0454566
0.855787 0.220233 0.0401923
0.883253 0.213748 0.036286
0.899413 0.211582 0.0342565
0.910475 0.212619 0.0336614
0.920241 0.216388 0.0339971
0.928801 0.222416 0.03505
0.936019 0.230655 0.0368048
0.942382 0.240665 0.0394141
0.947173 0.252277 0.0428168
0.9505 0.262226 0.0459907
0.9505 0.262226 0.0459907
0.9505 0.262226 0.0459907
0.9505 0.262226 0.0459907
0.9505 0.262226 0.0459907
0.9505 0.262226 0.0459907
0.0964675 0.245777 0.0401465
0.101961 0.253697 0.0420081
0.107881 0.262074 0.0439612
0.114321 0.270649 0.0460365
0.12224 0.279484 0.0484474
0.131472 0.288289 0.0511177
0.143191 0.297139 0.0542458
0.158556 0.306081 0.0578775
0.17847 0.316152 0.0614633
0.203632 0.328939 0.0640879
0.232792 0.344549 0.0652628
0.266056 0.36231 0.0650797
0.320531 0.379477 0.0661173
0.406439 0.389349 0.0702373
0.520272 0.38027 0.073991
0.654337 0.353902 0.0732891
0.770611 0.329839 0.0679637
0.851057 0.309621 0.0617838
0.898466 0.295201 0.0562448
0.923522 0.28716 0.0524605
0.937484 0.28484 0.0507362
0.944991 0.286641 0.0504768
0.950378 0.291814 0.0512551
0.954467 0.29984 0.0528878
0.957565 0.309957 0.0552377
0.959701 0.322133 0.0584115
0.961105 0.335607 0.0622721
0.961883 0.346807 0.0656291
0.961883 0.346807 0.0656291
0.961883 0.346807 0.0656291
0.961883 0.346807 0.0656291
0.961883 0.346807 0.0656291
0.961883 0.346807 0.0656291
0.139132 0.304265 0.0538643
0.146868 0.314351 0.0561837
0.155138 0.324971 0.0586252
0.163958 0.335714 0.0610666
0.174289 0.346548 0.0636912
0.186038 0.357321 0.0665141
0.200092 0.367834 0.0696727
0.217884 0.3785 0.0733501
0.240803 0.389899 0.0770886
0.271046 0.403235 0.0799878
0.307622 0.419059 0.0808423
0.343328 0.43743 0.0791791
0.39408 0.455451 0.0775464
0.463371 0.467384 0.0784009
0.55465 0.464286 0.0814679
0.66331 0.444526 0.0836347
0.778653 0.419364 0.0825208
0.863188 0.398505 0.0792248
0.912169 0.383124 0.0749218
0.936263 0.37438 0.0716411
0.948486 0.371786 0.070161
0.955001 0.373648 0.0699931
0.959411 0.379141 0.0707713
0.962676 0.38732 0.0723125
0.964767 0.397406 0.0744488
0.965942 0.409003 0.0772564
0.966217 0.421515 0.0806134
0.966064 0.431662 0.0835126
0.966064 0.431662 0.0835126
0.966064 0.431662 0.0835126
0.966064 0.431662 0.0835126
0.966064 0.431662 0.0835126
0.966064 0.431662 0.0835126
0.196506 0.374548 0.0691997
0.20618 0.386145 0.0715343
0.215946 0.397848 0.0738537
0.225864 0.409628 0.0761883
0.236789 0.421073 0.0787366
0.248936 0.432258 0.0814984
0.263142 0.442817 0.0847334
0.281224 0.45333 0.0886854
0.304784 0.464347 0.0927291
0.336919 0.476829 0.0957809
0.377478 0.490608 0.0959793
0.415366 0.506004 0.0925154
0.462455 0.52166 0.0881819
0.520729 0.534081 0.0866102
0.592767 0.537606 0.088014
0.682933 0.524437 0.0911421
0.781735 0.503746 0.09308
0.866194 0.484215 0.0927443
0.91397 0.469932 0.0910964
0.937621 0.460349 0.0886244
0.949691 0.456703 0.0872816
0.956039 0.457633 0.0870069
0.960174 0.461997 0.0875563
0.96289 0.468772 0.0887007
0.964553 0.477378 0.090425
0.965408 0.487037 0.0927138
0.965698 0.497383 0.0955062
0.965652 0.505592 0.0979782
0.965652 0.505592 0.0979782
0.965652 0.505592 0.0979782
0.965652 0.505592 0.0979782
0.965652 0.505592 0.0979782
0.965652 0.505592 0.0979782
0.259098 0.449027 0.0836805
0.269306 0.460441 0.085893
0.279637 0.471443 0.0880751
0.290105 0.482109 0.0902571
0.301366 0.492241 0.0926223
0.313191 0.501854 0.0950942
0.326452 0.510704 0.0979171
0.343099 0.519432 0.10132
0.36553 0.528298 0.104814
0.396445 0.537987 0.107485
0.435431 0.549126 0.10779
0.473884 0.562219 0.103624
0.517937 0.575998 0.0984054
0.57203 0.588342 0.0954299
0.636103 0.595071 0.0956893
0.710124 0.588617 0.0976272
0.79707 0.570672 0.100267
0.870283 0.553292 0.101595
0.914565 0.539757 0.101289
0.939788 0.531762 0.100801
0.951934 0.52845 0.10042
0.957504 0.528832 0.100389
0.961089 0.532128 0.100893
0.963439 0.537392 0.101854
0.96492 0.544198 0.103304
0.965728 0.551781 0.105226
0.966064 0.559747 0.10753
0.966064 0.565835 0.109545
0.966064 0.565835 0.109545
0.966064 0.565835 0.109545
0.966064 0.565835 0.109545
0.966064 0.565835 0.109545
0.966064 0.565835 0.109545
0.32401 0.51545 0.0968948
0.334035 0.524666 0.0987259
0.34374 0.533501 0.100435
0.353185 0.541772 0.1019
0.362982 0.549615 0.103471
0.372992 0.556771 0.105089
0.384558 0.563745 0.107073
0.398657 0.570413 0.109575
0.41825 0.577432 0.112505
0.447211 0.585184 0.114855
0.485008 0.59411 0.115221
0.521172 0.604959 0.111528
0.562524 0.617441 0.106386
0.615015 0.629694 0.103105
0.675959 0.637766 0.102434
0.742046 0.634714 0.103227
0.815412 0.621378 0.10518
0.879973 0.605203 0.1075
0.917052 0.594369 0.108782
0.940642 0.586389 0.109056
0.95259 0.583169 0.109407
0.957916 0.583383 0.110048
0.961227 0.585733 0.110857
0.963317 0.58941 0.111788
0.964584 0.593805 0.112886
0.965225 0.598733 0.114275
0.965469 0.603723 0.115846
0.965454 0.60763 0.117235
0.965454 0.60763 0.117235
0.965454 0.60763 0.117235
0.965454 0.60763 0.117235
0.965454 0.60763 0.117235
0.965454 0.60763 0.117235
0.381064 0.56669 0.105714
0.388922 0.57348 0.10663
0.396628 0.579995 0.107485
0.40444 0.586191 0.108339
0.412879 0.592126 0.1093
0.422004 0.597604 0.110384
0.433127 0.603006 0.111879
0.446677 0.608255 0.114092
0.46392 0.613367 0.117235
0.489799 0.619242 0.120195
0.525261 0.626627 0.120546
0.559243 0.635706 0.116899
0.598733 0.647318 0.111803
0.648112 0.659327 0.108171
0.706416 0.667704 0.106889
0.767391 0.666041 0.107378
0.830228 0.655802 0.109758
0.888151 0.640238 0.112459
0.920958 0.631617 0.114702
0.941711 0.625406 0.115953
0.952667 0.621729 0.116411
0.957641 0.620829 0.116899
0.960739 0.621653 0.117449
0.962722 0.623652 0.118135
0.963958 0.626337 0.118898
0.96463 0.629282 0.11989
0.964935 0.632242 0.120989
0.964981 0.634577 0.121981
0.964981 0.634577 0.121981
0.964981 0.634577 0.121981
0.964981 0.634577 0.121981
0.964981 0.634577 0.121981
0.964981 0.634577 0.121981
0.424201 0.602747 0.110155
0.430426 0.607691 0.110719
0.43653 0.612345 0.111254
0.442939 0.616785 0.111894
0.449821 0.620981 0.112642
0.457938 0.625132 0.113619
0.468421 0.629252 0.115114
0.482002 0.633433 0.117388
0.499016 0.637415 0.120806
0.523095 0.642069 0.1243
0.555856 0.648722 0.124422
0.587533 0.657053 0.12018
0.626184 0.668132 0.114809
0.673854 0.67985 0.11104
0.730434 0.687922 0.109743
0.788754 0.686442 0.110369
0.846113 0.676875 0.113252
0.895735 0.66334 0.116243
0.925689 0.655665 0.118883
0.944427 0.650324 0.120378
0.953643 0.647166 0.120974
0.958206 0.645594 0.121263
0.961089 0.645411 0.121614
0.962951 0.646235 0.121996
0.96408 0.647593 0.122515
0.964721 0.648997 0.123201
0.965026 0.650645 0.124025
0.965057 0.652033 0.124773
0.965057 0.652033 0.124773
0.965057 0.652033 0.124773
0.965057 0.652033 0.124773
0.965057 0.652033 0.124773
0.965057 0.652033 0.124773
0.456123 0.627085 0.112795
0.460899 0.63035 0.113176
0.465904 0.633524 0.113664
0.471412 0.636698 0.11429
0.477226 0.639643 0.115038
0.484413 0.642741 0.116136
0.494224 0.646159 0.1178
0.507729 0.64976 0.120394
0.524926 0.653147 0.124132
0.548669 0.657374 0.127596
0.578943 0.663783 0.126848
0.609094 0.67187 0.121859
0.648005 0.682841 0.116213
0.695689 0.694057 0.112566
0.750866 0.701198 0.111635
0.807813 0.69929 0.112718
0.860685 0.689799 0.115953
0.903593 0.678157 0.118975
0.930922 0.671107 0.121736
0.947509 0.666209 0.123293
0.9552 0.662989 0.12372
0.959121 0.661311 0.123964
0.9617 0.660456 0.124147
0.963378 0.660395 0.124392
0.96437 0.660914 0.124788
0.964874 0.66154 0.125338
0.965118 0.662348 0.126009
0.965148 0.663081 0.126635
0.965148 0.663081 0.126635
0.965148 0.663081 0.126635
0.965148 0.663081 0.126635
0.965148 0.663081 0.126635
0.965148 0.663081 0.126635
0.478965 0.642527 0.11458
0.482719 0.644907 0.1149
0.486824 0.647211 0.115389
0.491508 0.649592 0.11603
0.497169 0.652247 0.116915
0.504173 0.654994 0.118288
0.513451 0.65774 0.120363
0.526635 0.660594 0.123476
0.54435 0.6636 0.12752
0.568551 0.667903 0.130388
0.596979 0.674357 0.128359
0.627008 0.682582 0.122698
0.666667 0.693492 0.117067
0.71516 0.704051 0.113787
0.769512 0.709743 0.113329
0.825193 0.706493 0.114839
0.873747 0.696834 0.11812
0.910994 0.686763 0.121065
0.935821 0.680293 0.123735
0.950301 0.675685 0.12517
0.956634 0.67248 0.12546
0.960098 0.67068 0.125628
0.96231 0.669764 0.125795
0.963775 0.669322 0.125978
0.964645 0.669276 0.126284
0.965011 0.669352 0.126787
0.965164 0.669657 0.127398
0.965209 0.670008 0.127932
0.965209 0.670008 0.127932
0.965209 0.670008 0.127932
0.965209 0.670008 0.127932
0.965209 0.670008 0.127932
0.965209 0.670008 0.127932
0.493828 0.652522 0.115862
0.497368 0.65449 0.116213
0.501213 0.656565 0.116808
0.505455 0.658656 0.117784
0.510536 0.6607 0.119234
0.517052 0.662821 0.121263
0.526253 0.665095 0.124102
0.539406 0.667445 0.127962
0.557992 0.670375 0.132143
0.583001 0.674952 0.133898
0.610208 0.681544 0.130327
0.641688 0.690333 0.124285
0.682658 0.701244 0.118807
0.732433 0.710979 0.115984
0.786206 0.714992 0.11577
0.840131 0.710094 0.117525
0.88423 0.700633 0.12047
0.917449 0.691585 0.123079
0.940002 0.685603 0.125475
0.952453 0.6813 0.126619
0.957794 0.678264 0.126757
0.960937 0.676417 0.126848
0.962875 0.67538 0.126955
0.964111 0.674846 0.127108
0.964904 0.674525 0.127382
0.965148 0.67425 0.127901
0.96524 0.674235 0.128435
0.965255 0.674327 0.128847
0.965255 0.674327 0.128847
0.965255 0.674327 0.128847
0.965255 0.674327 0.128847
0.965255 0.674327 0.128847
0.965255 0.674327 0.128847
0.503655 0.659449 0.117281
0.506477 0.661067 0.118013
0.509148 0.662516 0.119265
0.512169 0.66392 0.121172
0.516533 0.665537 0.123476
0.523415 0.66746 0.126177
0.533425 0.669505 0.129625
0.547539 0.671763 0.133867
0.568093 0.675074 0.13753
0.594247 0.680232 0.137469
0.620951 0.687007 0.13283
0.65478 0.696422 0.126665
0.696788 0.707012 0.121401
0.747997 0.715816 0.119005
0.800931 0.717922 0.118822
0.852201 0.711559 0.120592
0.892393 0.702251 0.123125
0.922591 0.693904 0.125353
0.94313 0.688441 0.127413
0.953765 0.684428 0.12813
0.958602 0.681559 0.128084
0.961456 0.679728 0.128038
0.963211 0.678691 0.128084
0.964294 0.678126 0.128176
0.964935 0.67776 0.12842
0.965209 0.677378 0.128801
0.96527 0.677165 0.129244
0.96527 0.677073 0.12958
0.96527 0.677073 0.12958
0.96527 0.677073 0.12958
0.96527 0.677073 0.12958
0.96527 0.677073 0.12958
0.96527 0.677073 0.12958
0.507012 0.663508 0.120272
0.5084 0.664561 0.12195
0.510765 0.665797 0.123934
0.51426 0.667262 0.126207
0.519722 0.669123 0.128923
0.528084 0.671244 0.132067
0.539345 0.673365 0.135958
0.555062 0.675914 0.140169
0.577981 0.679744 0.142611
0.604273 0.685237 0.140841
0.631403 0.692348 0.135485
0.667048 0.702098 0.129427
0.710384 0.712306 0.124453
0.762249 0.719844 0.122225
0.814191 0.719829 0.121965
0.862257 0.712276 0.123583
0.899153 0.702983 0.125673
0.926635 0.694972 0.12752
0.945129 0.68983 0.129183
0.954589 0.685985 0.129625
0.958968 0.683238 0.129458
0.961608 0.681468 0.12932
0.963211 0.6804 0.129274
0.964187 0.67982 0.129274
0.964828 0.679515 0.129381
0.965209 0.679301 0.129549
0.965286 0.679057 0.129885
