luts/lumix_color_lab_B/Nostalgic_BleachByPass_33.cube
TITLE "Generated by Resolve"
LUT_3D_SIZE 9
0 0 0
0.00697337 0.000457771 0.00236515
0.0470741 0.00407416 0.00936904
0.123217 0.00689708 0.0164492
0.327794 0.01355 0.0687266
0.600748 0.0186618 0.14902
0.655665 0.023209 0.170245
0.656672 0.023331 0.170657
0.656672 0.023331 0.170657
0.000335698 0.00762951 0.00257877
0.00798047 0.00939956 0.00427253
0.0580911 0.0137484 0.0106813
0.15465 0.0177768 0.020325
0.423697 0.0192111 0.0963607
0.64538 0.0222324 0.16672
0.656519 0.0233463 0.170596
0.656672 0.023331 0.170657
0.656672 0.023331 0.170657
7.62951e-05 0.0722362 0.0252232
0.00703441 0.0796521 0.0301518
0.0879835 0.0943313 0.0436561
0.224582 0.107088 0.0348669
0.510445 0.132845 0.127565
0.693904 0.169238 0.214069
0.692821 0.143618 0.208255
0.68809 0.12604 0.20235
0.687968 0.125444 0.202121
1.5259e-05 0.255177 0.104662
0.000442512 0.275715 0.110536
0.0737469 0.281682 0.122652
0.271229 0.300389 0.158801
0.585061 0.358206 0.219074
0.805325 0.435248 0.299733
0.764706 0.323705 0.269215
0.745815 0.284291 0.255406
0.745388 0.283375 0.25507
0.000228885 0.706661 0.375647
0.000122072 0.697795 0.368261
0.0213779 0.689967 0.363256
0.384787 0.713619 0.397848
0.714275 0.76704 0.451453
0.915358 0.798444 0.425956
0.910323 0.692164 0.373846
0.889555 0.623407 0.359075
0.889296 0.622278 0.35877
0.169146 0.904112 0.640467
0.164904 0.90309 0.638102
0.16553 0.901106 0.632441
0.436988 0.920089 0.653773
0.721401 0.943938 0.683864
0.906905 0.949142 0.648081
0.957794 0.919371 0.540078
0.953552 0.873075 0.480217
0.953536 0.872663 0.479683
0.238788 0.916152 0.677577
0.238651 0.916167 0.677592
0.238605 0.916152 0.677607
0.360388 0.926131 0.6963
0.606638 0.950591 0.747982
0.832563 0.972702 0.795804
0.950851 0.982742 0.75671
0.966018 0.971771 0.691478
0.965896 0.971206 0.689754
0.238819 0.916259 0.677867
0.238819 0.916259 0.677867
0.238819 0.916259 0.677867
0.301289 0.920577 0.689113
0.531289 0.943175 0.7346
0.770336 0.967376 0.799634
0.916167 0.981765 0.812253
0.971389 0.985855 0.75964
0.97142 0.985824 0.757733
0.238819 0.916259 0.677867
0.238819 0.916259 0.677867
0.238819 0.916259 0.677867
0.299611 0.920439 0.688807
0.528939 0.942977 0.734112
0.768521 0.967178 0.799115
0.915221 0.981628 0.812497
0.971435 0.98584 0.760067
0.971496 0.985809 0.758083
1.5259e-05 0.000213626 0.0010071
0.00872816 0.00138857 0.00381476
0.0514839 0.00386053 0.00891127
0.128679 0.00712596 0.0185092
0.360952 0.0135958 0.0782025
0.620768 0.0202792 0.156573
0.656138 0.02327 0.170428
0.656672 0.023331 0.170657
0.656672 0.023331 0.170657
0.00135805 0.00856031 0.00929274
0.00970474 0.0104524 0.0101472
0.0636454 0.0140383 0.0125429
0.167742 0.0170443 0.0238041
0.452934 0.0170901 0.104295
0.650828 0.022858 0.167956
0.65658 0.023331 0.170626
0.656672 0.023331 0.170657
0.656672 0.023331 0.170657
0.000381476 0.0774243 0.0396124
0.00773632 0.0825208 0.0412757
0.0902571 0.0945144 0.0478981
0.232593 0.104189 0.03505
0.517327 0.128618 0.130037
0.693034 0.160555 0.212207
0.690044 0.134569 0.20528
0.683726 0.115312 0.200137
0.683436 0.114626 0.199893
0.00015259 0.271107 0.123598
0.000366217 0.274723 0.117006
0.0790417 0.27097 0.121431
0.272114 0.287236 0.152331
0.583597 0.341375 0.208469
0.796857 0.412955 0.293614
0.756176 0.304494 0.26273
0.738598 0.26836 0.250233
0.73817 0.267491 0.249897
0.000106813 0.702785 0.388708
0.000106813 0.689235 0.367788
0.0239872 0.676585 0.352102
0.380804 0.696956 0.384314
0.712703 0.751553 0.441154
0.91487 0.783215 0.419348
0.903441 0.670619 0.367895
0.883238 0.602487 0.354467
0.882841 0.601236 0.354284
0.158755 0.90341 0.645914
0.147173 0.90103 0.635569
0.141283 0.898268 0.625208
0.433753 0.916564 0.645853
0.723323 0.939391 0.673609
0.908797 0.944915 0.634516
0.957168 0.911894 0.525994
0.95169 0.864302 0.469551
0.951614 0.863783 0.468986
0.237766 0.915434 0.679408
0.238361 0.916121 0.677882
0.237751 0.915755 0.677028
0.365316 0.925994 0.696818
0.614908 0.951171 0.748104
0.83743 0.973541 0.791928
0.952819 0.982559 0.747097
0.965194 0.96733 0.679316
0.965087 0.966705 0.677653
0.238575 0.916091 0.679683
0.238819 0.916243 0.678035
0.238819 0.916259 0.677867
0.304326 0.921111 0.689601
0.535164 0.943725 0.734936
0.773663 0.967636 0.800214
0.917327 0.981964 0.811688
0.971588 0.985946 0.758373
0.971496 0.985946 0.756512
0.238575 0.916106 0.679622
0.238834 0.916243 0.678035
0.238819 0.916259 0.677867
0.302785 0.920958 0.689357
0.532937 0.943496 0.734386
0.771908 0.967468 0.799756
0.91635 0.981872 0.811856
0.971664 0.985962 0.758907
0.971618 0.985962 0.756985
0.00383001 0.00654612 0.0254368
0.0123598 0.0065919 0.0291905
0.0635386 0.010605 0.0451514
0.148898 0.0112154 0.049546
0.40827 0.0135195 0.0927901
0.638941 0.0215 0.1635
0.656596 0.0233158 0.170626
0.656672 0.023331 0.170657
0.656672 0.023331 0.170657
0.00469978 0.0175631 0.0368353
0.0127108 0.0198825 0.0410773
0.0791943 0.026276 0.0642557
0.1991 0.0264591 0.0789044
0.492775 0.0184176 0.116701
0.652979 0.0229038 0.16907
0.656672 0.023331 0.170657
0.656672 0.023331 0.170657
0.656672 0.023331 0.170657
0.00270085 0.0951095 0.087541
0.00619516 0.0978103 0.0884718
0.101823 0.106493 0.10312
0.258915 0.115373 0.121233
0.537911 0.133486 0.144427
0.693477 0.155016 0.211383
0.687465 0.124498 0.201999
0.679774 0.100038 0.194003
0.679469 0.0990768 0.193591
0.000839246 0.319356 0.213092
0.000549325 0.306203 0.19205
0.0857557 0.290227 0.17641
0.290532 0.297566 0.194385
0.60116 0.343755 0.251347
0.78967 0.392889 0.288533
0.74638 0.284733 0.255802
0.731243 0.252674 0.245792
0.730922 0.251881 0.245518
0.000122072 0.718181 0.479744
0.000244144 0.701213 0.448829
0.0268254 0.681193 0.414969
0.384115 0.693034 0.423377
0.715679 0.738842 0.456657
0.913451 0.765637 0.41651
0.896803 0.645655 0.363622
0.874434 0.577798 0.349111
0.874006 0.576577 0.348806
0.0906691 0.900725 0.676493
0.0842603 0.898711 0.663462
0.0982376 0.894743 0.645655
0.424994 0.91107 0.65684
0.724758 0.934249 0.673854
0.91078 0.939193 0.623423
0.956619 0.90251 0.512871
0.950179 0.852079 0.459083
0.950042 0.851453 0.458579
0.205493 0.91487 0.697627
0.212985 0.914733 0.693004
0.219852 0.914916 0.68777
0.36463 0.926314 0.702922
0.622431 0.952346 0.751492
0.84416 0.973999 0.788128
0.955139 0.981567 0.734585
0.963607 0.963119 0.665599
0.9635 0.962539 0.663996
0.211017 0.915328 0.697307
0.2159 0.914778 0.692592
0.223743 0.91487 0.688563
0.302296 0.920882 0.695338
0.538552 0.944335 0.738247
0.777005 0.968063 0.800717
0.919249 0.982223 0.811673
0.971893 0.986099 0.756863
0.97171 0.986084 0.755276
0.21091 0.915312 0.6972
0.215991 0.914763 0.692531
0.223789 0.91487 0.688548
0.300496 0.920714 0.695003
0.53637 0.944152 0.737667
0.775311 0.967865 0.800275
0.918379 0.982132 0.811856
0.971893 0.986145 0.757504
0.971725 0.986145 0.75584
0.00906386 0.0206455 0.0739452
0.016434 0.0206302 0.076051
0.0856336 0.0246128 0.0990311
0.202197 0.033875 0.1337
0.482048 0.0443427 0.197406
0.659831 0.0495155 0.178744
0.682277 0.106523 0.197787
0.671565 0.072282 0.186267
0.671244 0.0712902 0.185931
0.00801099 0.0352026 0.0936599
0.0140688 0.038529 0.0993362
0.10074 0.05066 0.13341
0.261738 0.0630655 0.179126
0.559045 0.062562 0.230228
0.671885 0.0760052 0.18819
0.681895 0.105486 0.19736
0.670069 0.0689708 0.185412
0.66981 0.0682689 0.185199
0.0291447 0.128786 0.199847
0.0315557 0.132204 0.207874
0.120119 0.137148 0.21973
0.301762 0.150179 0.238834
0.586694 0.17673 0.281529
0.706355 0.188907 0.23183
0.700267 0.166979 0.216571
0.688594 0.127489 0.203677
0.688258 0.126131 0.203235
0.0357977 0.406821 0.412436
0.0275883 0.381872 0.379431
0.107454 0.351919 0.33994
0.340246 0.353307 0.34612
0.655955 0.394751 0.389517
0.811399 0.417807 0.352422
0.761563 0.314977 0.26717
0.737377 0.265583 0.25008
0.736721 0.26424 0.249714
0.000213626 0.749569 0.614588
0.000259403 0.73225 0.585275
0.0186313 0.706661 0.54519
0.396155 0.713634 0.551461
0.737499 0.750622 0.578149
0.929335 0.76202 0.506065
0.906172 0.64651 0.412177
0.876509 0.576501 0.355642
0.875792 0.575021 0.354482
0.0634775 0.901152 0.725765
0.0530709 0.897246 0.712489
0.0280308 0.890929 0.694286
0.393027 0.905379 0.707576
0.721523 0.929763 0.736187
0.915618 0.934615 0.692912
0.962005 0.894728 0.571008
0.954742 0.84387 0.49305
0.954574 0.843275 0.492012
0.145342 0.913787 0.726253
0.156832 0.913756 0.720653
0.166308 0.913878 0.713512
0.340642 0.926146 0.726772
0.618524 0.95285 0.775586
0.849836 0.975372 0.813321
0.959548 0.980346 0.755749
0.96527 0.958892 0.681849
0.965118 0.958312 0.680049
0.155001 0.914427 0.724712
0.159762 0.913573 0.718715
0.174838 0.914015 0.712901
0.272801 0.920241 0.716472
0.528389 0.944137 0.757626
0.77641 0.968353 0.81593
0.921889 0.982971 0.827771
0.974411 0.986816 0.771405
0.974289 0.986755 0.76968
0.155016 0.914427 0.724712
0.159869 0.913573 0.718685
0.175082 0.91397 0.712871
0.270878 0.920073 0.716121
0.526116 0.943893 0.757046
0.774701 0.968139 0.815427
0.920928 0.98291 0.827939
0.974472 0.986847 0.772045
0.974365 0.986786 0.770291
0.0194553 0.0538643 0.184649
0.0195926 0.0520943 0.178286
0.111254 0.0642252 0.203433
0.279026 0.0921645 0.280354
0.586862 0.139101 0.38999
0.719753 0.180148 0.36788
0.718517 0.199039 0.303502
0.711406 0.186969 0.2701
0.711147 0.186496 0.268788
0.0311589 0.073518 0.236728
0.0377356 0.0801251 0.26334
0.136202 0.0988022 0.326024
0.362524 0.13254 0.417121
0.65716 0.181903 0.494911
0.728679 0.195361 0.396872
0.719539 0.201877 0.309728
0.711681 0.187579 0.271702
0.711421 0.18706 0.270283
0.0891585 0.207233 0.445869
0.0977035 0.219806 0.474113
0.150454 0.217975 0.484077
0.393164 0.233234 0.512779
0.675883 0.270329 0.557031
0.763088 0.271168 0.464927
0.741955 0.254047 0.345235
0.725124 0.222934 0.296132
0.724605 0.221897 0.294347
0.12195 0.530816 0.628321
0.117556 0.504311 0.60618
0.133211 0.466392 0.575433
0.412406 0.466102 0.601144
0.737072 0.502327 0.666117
0.868742 0.501259 0.608301
0.839582 0.445365 0.463493
0.808515 0.387732 0.397024
0.807523 0.385931 0.395117
0.00479133 0.78117 0.724926
0.00553903 0.768582 0.710079
0.0104219 0.74609 0.685328
0.381826 0.748653 0.706462
0.761822 0.778393 0.768246
0.957351 0.771969 0.723507
0.946441 0.686915 0.593942
0.918944 0.628458 0.515709
0.918135 0.626978 0.513893
0.0823987 0.895903 0.774868
0.0630045 0.892866 0.765438
0.0414282 0.886702 0.751629
0.304829 0.894026 0.762264
0.700938 0.923552 0.818753
0.919814 0.930159 0.811505
0.975525 0.890303 0.709957
0.969635 0.841779 0.621988
0.969467 0.841154 0.620417
0.188266 0.917281 0.772885
0.177249 0.916732 0.76524
0.16762 0.91606 0.755978
0.27808 0.923201 0.761593
0.595865 0.951659 0.812604
0.84976 0.976486 0.857328
0.964767 0.98056 0.818586
0.971222 0.955825 0.75346
0.971084 0.95523 0.751766
0.181079 0.917693 0.769299
0.172564 0.916411 0.760723
0.159915 0.915908 0.75108
0.209613 0.918471 0.746548
0.50013 0.942351 0.786419
0.767346 0.969177 0.842573
0.923919 0.984756 0.865293
0.978302 0.989487 0.819486
0.978271 0.989425 0.817792
0.181048 0.917678 0.769177
0.17258 0.916442 0.760693
0.159777 0.915908 0.750988
0.207645 0.918395 0.746288
0.497688 0.942153 0.785855
0.765362 0.968994 0.841962
0.923033 0.984665 0.865309
0.978317 0.989517 0.820066
0.978286 0.989456 0.818311
0.0715953 0.104631 0.407614
0.0683604 0.103243 0.395529
0.148699 0.119188 0.436866
0.39057 0.174823 0.554742
0.706889 0.261189 0.690394
0.806027 0.309514 0.668055
0.786984 0.298924 0.558007
0.777081 0.283452 0.522255
0.776684 0.282979 0.521126
0.0925612 0.135775 0.483421
0.10544 0.155337 0.527611
0.165698 0.186114 0.579797
0.471794 0.256748 0.678599
0.759014 0.315999 0.771725
0.817136 0.324239 0.706645
0.794079 0.308156 0.581552
0.781628 0.289204 0.536767
0.781231 0.288533 0.535286
0.156725 0.36231 0.638834
0.167987 0.387884 0.656733
0.173083 0.376745 0.655055
0.458457 0.388861 0.714717
0.777096 0.419883 0.812299
0.852796 0.3991 0.767376
0.818204 0.357214 0.616053
0.793088 0.315511 0.552178
0.792248 0.314107 0.550042
0.170642 0.615976 0.723873
0.171511 0.60354 0.717937
0.169451 0.582635 0.709087
0.398596 0.579492 0.745373
0.791867 0.609903 0.862364
0.925658 0.578683 0.857069
0.889982 0.524742 0.701564
0.865675 0.481056 0.637339
0.864973 0.479652 0.635264
0.0851911 0.777066 0.767849
0.0820935 0.772061 0.765698
0.0761578 0.76347 0.759335
0.238163 0.759594 0.77145
0.734783 0.796735 0.879652
0.953109 0.782422 0.908629
0.965072 0.729778 0.800748
0.956283 0.694392 0.743328
0.956069 0.693477 0.741848
0.120272 0.878721 0.802045
0.110613 0.877943 0.800504
0.0851148 0.874037 0.794842
0.114366 0.86978 0.789136
0.625223 0.905821 0.866102
0.909239 0.920409 0.913939
0.987045 0.890364 0.868238
0.987564 0.852567 0.808621
0.987457 0.851957 0.807492
0.231281 0.922835 0.81825
0.222614 0.922103 0.812329
0.21117 0.921294 0.804913
0.211551 0.920623 0.798291
0.52697 0.946181 0.844999
0.83064 0.973938 0.904402
0.967742 0.977447 0.900343
0.981445 0.953475 0.855711
0.981277 0.952941 0.854566
0.228305 0.922469 0.815503
0.217502 0.921752 0.807324
0.205203 0.920348 0.796979
0.200244 0.918868 0.787839
0.42768 0.937575 0.814527
0.741024 0.96762 0.875669
0.922774 0.986999 0.911345
0.984009 0.992798 0.886381
0.98407 0.992798 0.884993
0.228229 0.922454 0.815442
0.217426 0.921752 0.807202
0.205158 0.920348 0.796963
0.200076 0.918853 0.787717
0.425086 0.937316 0.813962
0.738827 0.967422 0.875029
0.921614 0.986847 0.911177
0.983963 0.992798 0.88658
0.984039 0.992782 0.885115
0.123857 0.18294 0.591089
0.123171 0.180484 0.587304
0.168658 0.21973 0.622034
0.468162 0.317205 0.719173
0.793561 0.424445 0.856016
0.884184 0.450538 0.86363
0.875486 0.443397 0.813779
0.867323 0.428885 0.795605
0.867002 0.428305 0.794965
0.154162 0.259892 0.639048
0.168994 0.30341 0.659586
0.180285 0.345602 0.671443
0.429328 0.419226 0.740627
0.789517 0.488472 0.872282
0.89305 0.467658 0.88484
0.884199 0.460472 0.83357
0.874815 0.441215 0.811063
0.874525 0.440558 0.810269
0.188693 0.47126 0.692622
0.187564 0.473213 0.692042
0.189456 0.466285 0.69163
0.310613 0.476127 0.719966
0.751415 0.555642 0.871336
0.911437 0.52282 0.915816
0.900221 0.495201 0.854093
0.882918 0.460945 0.822568
0.882292 0.45977 0.8215
0.178546 0.606668 0.722499
0.178241 0.598733 0.721553
0.179187 0.588098 0.718898
0.209247 0.580209 0.72256
0.686809 0.64976 0.867353
0.932677 0.642954 0.951461
0.942794 0.600839 0.893294
0.927672 0.569314 0.858381
0.92726 0.568276 0.857282
0.108629 0.748837 0.760067
0.11751 0.74023 0.758434
0.127718 0.729305 0.755337
0.136187 0.718212 0.752438
0.566293 0.756146 0.851987
0.914122 0.783307 0.960983
0.978714 0.743252 0.929793
0.970382 0.717769 0.895598
0.970123 0.717006 0.894728
0.0932631 0.860151 0.795193
0.0836957 0.854566 0.793393
0.078233 0.846174 0.790402
0.0705425 0.837903 0.787442
0.406958 0.856947 0.83769
0.855146 0.897398 0.949828
0.984894 0.883345 0.956222
0.98529 0.862119 0.92163
0.985229 0.861662 0.921035
0.237919 0.923095 0.8224
0.233234 0.922454 0.821988
0.220798 0.919676 0.820172
0.212543 0.916655 0.819059
0.328237 0.923262 0.836301
0.762783 0.959716 0.928756
0.95816 0.968093 0.961975
0.989715 0.952499 0.942046
0.9897 0.952148 0.941466
0.243473 0.923919 0.823194
0.243519 0.923964 0.82324
0.242817 0.923934 0.823148
0.240177 0.923919 0.822614
0.28043 0.927047 0.826963
0.668589 0.961791 0.899977
0.910353 0.987243 0.950164
0.991196 0.995331 0.95198
0.99205 0.9953 0.951385
0.243473 0.923919 0.823194
0.243519 0.923964 0.82324
0.242817 0.923934 0.823148
0.24007 0.923903 0.822599
0.278538 0.926894 0.826627
0.665919 0.961501 0.89929
0.909026 0.987045 0.949645
0.991104 0.99559 0.951949
0.99205 0.99559 0.951339
0.173205 0.299702 0.665949
0.171969 0.306935 0.666423
0.181079 0.355474 0.674067
0.38024 0.434318 0.728771
0.774121 0.5579 0.880369
0.924895 0.546838 0.933654
0.928359 0.537743 0.91931
0.927825 0.536721 0.91841
0.92784 0.53669 0.918395
0.181582 0.376913 0.67509
0.185245 0.39881 0.677791
0.185428 0.407004 0.678904
0.353643 0.447517 0.724575
0.760937 0.55729 0.875181
0.922683 0.551064 0.935805
0.929168 0.538964 0.920638
0.928328 0.537835 0.919371
0.928298 0.537789 0.919326
0.188327 0.480903 0.694026
0.187671 0.474998 0.693645
0.189136 0.468376 0.691341
0.270909 0.47599 0.709484
0.719783 0.58027 0.864378
0.92343 0.591348 0.943023
0.932082 0.55169 0.925093
0.929854 0.544671 0.921935
0.929671 0.544442 0.921782
0.179385 0.601022 0.722683
0.17818 0.592371 0.719829
0.1823 0.580911 0.717876
0.19411 0.571313 0.716777
0.655726 0.645716 0.855329
0.917983 0.677485 0.954787
0.958953 0.628687 0.947234
0.955581 0.619181 0.943771
0.955367 0.618875 0.943511
0.1205 0.742855 0.759548
0.120912 0.733577 0.75642
0.132082 0.72134 0.753063
0.14519 0.70695 0.74876
0.527169 0.737545 0.836698
0.881148 0.78436 0.953857
0.982696 0.746136 0.971878
0.981689 0.731624 0.966445
0.981659 0.731212 0.9664
0.0839704 0.857145 0.794018
0.074815 0.850431 0.79205
0.0716869 0.840146 0.787976
0.0607309 0.829129 0.784787
0.334234 0.836698 0.818708
0.813825 0.878264 0.941054
0.974289 0.876463 0.98027
0.989929 0.856703 0.973953
0.989944 0.856352 0.973831
0.236622 0.922911 0.822263
0.225025 0.92137 0.821088
0.214969 0.917372 0.818998
0.197833 0.911971 0.816587
0.242603 0.908248 0.820829
0.710719 0.942687 0.917845
0.937667 0.955352 0.976837
0.991867 0.947814 0.984741
0.991867 0.947555 0.984421
0.243473 0.923919 0.823194
0.243473 0.923919 0.823194
0.243473 0.923919 0.823194
0.243473 0.923919 0.823194
0.246815 0.924224 0.823697
0.593118 0.955169 0.891264
0.881559 0.984955 0.964111
0.992309 0.997772 0.994492
0.994522 0.998062 0.995102
0.243473 0.923919 0.823194
0.243473 0.923919 0.823194
0.243473 0.923919 0.823194
0.243473 0.923919 0.823194
0.246632 0.924193 0.823651
0.589288 0.954787 0.890318
0.879499 0.984787 0.963546
0.991836 0.998352 0.994354
0.994125 0.998688 0.994995
0.174533 0.303929 0.667613
0.173312 0.311452 0.667918
0.181262 0.358557 0.674403
0.374975 0.436072 0.727581
0.773907 0.55903 0.880522
0.925155 0.547265 0.933944
0.928923 0.538598 0.920241
0.928756 0.538247 0.919921
0.928756 0.538231 0.919921
0.181704 0.379446 0.675349
0.185321 0.400412 0.678004
0.185473 0.407279 0.67895
0.354238 0.447639 0.724743
0.761318 0.557366 0.875288
0.922744 0.550958 0.93579
0.929213 0.53901 0.920699
0.928908 0.538628 0.920241
0.928908 0.538613 0.920226
0.188418 0.480797 0.693965
0.187686 0.474876 0.69369
0.189044 0.468223 0.691264
0.271229 0.475914 0.709514
0.720043 0.58024 0.864439
0.923445 0.591104 0.942977
0.932097 0.551537 0.925048
0.930007 0.544839 0.922255
0.929839 0.54464 0.922133
0.179416 0.600855 0.722667
0.178332 0.592142 0.719799
0.182513 0.580652 0.717861
0.194339 0.571084 0.716793
0.65594 0.645594 0.85536
0.918044 0.677302 0.954818
0.958968 0.628458 0.947234
0.955612 0.619226 0.94406
0.955428 0.618936 0.943832
0.120638 0.742672 0.759396
0.12137 0.733349 0.756374
0.132036 0.721126 0.753033
0.145159 0.706676 0.748577
0.527489 0.737301 0.836652
0.881178 0.784192 0.953841
0.982544 0.745861 0.971817
0.981735 0.731426 0.967025
0.98172 0.731014 0.967025
0.083772 0.856992 0.793866
0.074342 0.850294 0.792004
0.071519 0.839933 0.787915
0.0603799 0.828916 0.784741
0.334676 0.83653 0.818738
0.813962 0.878126 0.941085
0.974273 0.876295 0.980255
0.98999 0.856336 0.974655
0.990005 0.855985 0.974563
0.2365 0.922911 0.822248
0.224659 0.921324 0.821027
0.214725 0.917296 0.818998
0.197559 0.911849 0.816526
0.242557 0.908049 0.820768
0.710918 0.942565 0.917891
0.937514 0.955184 0.976776
0.991943 0.947478 0.985611
0.991943 0.947219 0.985306
0.243473 0.923919 0.823194
0.243473 0.923919 0.823194
0.243473 0.923919 0.823194
0.243473 0.923919 0.823194
0.246815 0.924224 0.823697
0.593408 0.9552 0.89131
0.881025 0.984955 0.963973
0.99234 0.997772 0.995392
0.994598 0.998077 0.996078
0.243473 0.923919 0.823194
0.243473 0.923919 0.823194
0.243473 0.923919 0.823194
0.243473 0.923919 0.823194
0.246647 0.924193 0.823667
0.589548 0.954833 0.890364
0.878965 0.984771 0.963409
0.991867 0.998367 0.995239
0.994202 0.998703 0.995956
