luts/lumix_color_lab_B/Nostalgic_BleachByPass_33.cube
TITLE "Generated by Resolve"
LUT_3D_SIZE 33
0 0 0
0 0 0
1.5259e-05 0 0
0.000793469 4.57771e-05 0.000289921
0.00697337 0.000457771 0.00236515
0.0176547 0.002121 0.00494392
0.0268406 0.00341802 0.00631724
0.035111 0.00389105 0.00740063
0.0470741 0.00407416 0.00936904
0.0607462 0.00520333 0.0106966
0.0777752 0.00630198 0.0125582
0.0991989 0.00643931 0.0146944
0.123217 0.00689708 0.0164492
0.152163 0.00891127 0.0209354
0.194415 0.0105287 0.0302739
0.25539 0.0123598 0.0474098
0.327794 0.01355 0.0687266
0.405341 0.0136873 0.090898
0.481071 0.0148928 0.11223
0.547082 0.0166781 0.131334
0.600748 0.0186618 0.14902
0.63772 0.0213016 0.162982
0.652262 0.022797 0.168841
0.654551 0.0230716 0.169772
0.655665 0.023209 0.170245
0.656519 0.0233158 0.170596
0.656672 0.023331 0.170657
0.656672 0.023331 0.170657
0.656672 0.023331 0.170657
0.656672 0.023331 0.170657
0.656672 0.023331 0.170657
0.656672 0.023331 0.170657
0.656672 0.023331 0.170657
0 0 0
0 0 0
1.5259e-05 0 0
0.00077821 4.57771e-05 0.000274662
0.0069276 0.00047303 0.00228885
0.0175937 0.0021973 0.00454719
0.0267948 0.00347906 0.00601205
0.0350652 0.00390631 0.00733959
0.047013 0.00407416 0.00936904
0.0606699 0.00520333 0.0106813
0.0776989 0.00630198 0.0125582
0.0992142 0.00648508 0.0147402
0.124056 0.00691234 0.0167544
0.156786 0.00883497 0.0221103
0.204471 0.0105745 0.032578
0.267964 0.0124056 0.050782
0.342336 0.0134585 0.0730449
0.421561 0.014435 0.0958267
0.496696 0.0157778 0.11664
0.560723 0.0175784 0.135851
0.610986 0.0194705 0.153277
0.641993 0.0216373 0.16492
0.652949 0.022858 0.169162
0.6551 0.0231479 0.170001
0.656123 0.02327 0.170428
0.656596 0.0233158 0.170626
0.656672 0.023331 0.170657
0.656672 0.023331 0.170657
0.656672 0.023331 0.170657
0.656672 0.023331 0.170657
0.656672 0.023331 0.170657
0.656672 0.023331 0.170657
0.656672 0.023331 0.170657
0 1.5259e-05 0
0 1.5259e-05 0
0 1.5259e-05 0
0.000762951 4.57771e-05 0.000274662
0.00688182 0.00047303 0.00224308
0.0175479 0.00227359 0.00425727
0.0267796 0.00364691 0.00581369
0.03505 0.0039826 0.00743114
0.0470283 0.00407416 0.00946059
0.0609903 0.00523384 0.0106813
0.0782635 0.00637827 0.0125582
0.100359 0.00669871 0.0150759
0.127626 0.00712596 0.0177157
0.166125 0.00883497 0.0237736
0.221088 0.0111086 0.0367895
0.289418 0.0128786 0.0569619
0.367529 0.01355 0.0799573
0.448081 0.0151217 0.102693
0.521233 0.0166323 0.123766
0.581567 0.0185092 0.14316
0.626184 0.020737 0.159182
0.64828 0.0223392 0.167437
0.653925 0.0229801 0.169543
0.655512 0.0231937 0.170169
0.656443 0.0233005 0.170565
0.656657 0.023331 0.170657
0.656672 0.023331 0.170657
0.656672 0.023331 0.170657
0.656672 0.023331 0.170657
0.656672 0.023331 0.170657
0.656672 0.023331 0.170657
0.656672 0.023331 0.170657
0.656672 0.023331 0.170657
0 0.0009308 0.000289921
0 0.000961318 0.000289921
3.0518e-05 0.00108339 0.00030518
0.000808728 0.00120546 0.000564584
0.00700389 0.0016022 0.0024567
0.0178225 0.00344854 0.00437934
0.027512 0.00534066 0.00611887
0.0364385 0.00543221 0.00830091
0.0488136 0.00520333 0.0100252
0.0646677 0.0065156 0.0107881
0.0832837 0.00767529 0.012726
0.106371 0.00796521 0.0154574
0.135775 0.00836194 0.0187533
0.178988 0.010071 0.0264591
0.240055 0.0127871 0.0424201
0.313588 0.0141604 0.0642405
0.394217 0.0141604 0.0879988
0.474617 0.0155642 0.110445
0.545693 0.0170901 0.131685
0.601663 0.0188602 0.150866
0.637903 0.0213474 0.163897
0.651987 0.0227665 0.168872
0.654383 0.0230564 0.169711
0.655573 0.0231937 0.170199
0.656489 0.0233158 0.170581
0.656672 0.023331 0.170657
0.656672 0.023331 0.170657
0.656672 0.023331 0.170657
0.656672 0.023331 0.170657
0.656672 0.023331 0.170657
0.656672 0.023331 0.170657
0.656672 0.023331 0.170657
0.656672 0.023331 0.170657
0.000335698 0.00762951 0.00257877
0.000350958 0.00772107 0.00257877
0.000488289 0.00843824 0.00262455
0.00137331 0.00900282 0.00285344
0.00798047 0.00939956 0.00427253
0.0196078 0.0112154 0.00590524
0.0317845 0.0132601 0.00770581
0.0441444 0.013611 0.00975052
0.0580911 0.0137484 0.0106813
0.0758679 0.015198 0.0115969
0.0966812 0.0164797 0.013901
0.121431 0.0173648 0.0162814
0.15465 0.0177768 0.020325
0.202686 0.0192111 0.0304875
0.266926 0.0215915 0.0487221
0.343099 0.0215 0.0720378
0.423697 0.0192111 0.0963607
0.50132 0.0187381 0.118898
0.568078 0.0196078 0.139849
0.618189 0.0207828 0.157198
0.64538 0.0222324 0.16672
0.653574 0.0229953 0.169467
0.654643 0.0231327 0.169833
0.65568 0.0232547 0.17026
0.656519 0.0233463 0.170596
0.656687 0.0233616 0.170672
0.656672 0.0233463 0.170657
0.656672 0.023331 0.170657
0.656672 0.023331 0.170657
0.656672 0.023331 0.170657
0.656672 0.023331 0.170657
0.656672 0.023331 0.170657
0.656672 0.023331 0.170657
0.00192264 0.0202487 0.00761425
0.00192264 0.0203403 0.00761425
0.00202945 0.0209964 0.00769055
0.00274662 0.0215915 0.00796521
0.00854505 0.0227817 0.00892653
0.0212558 0.0254215 0.0102846
0.036759 0.0285344 0.0117647
0.0525826 0.0303349 0.0125277
0.0681926 0.0319829 0.0125277
0.0867323 0.033814 0.0129397
0.109682 0.0355535 0.0149996
0.137346 0.0370031 0.0178378
0.17586 0.0381323 0.0231174
0.229999 0.0404059 0.0353399
0.299092 0.0427558 0.0548104
0.377371 0.0437476 0.0794537
0.457404 0.042359 0.105592
0.530999 0.0393988 0.129702
0.589593 0.0355535 0.149493
0.630503 0.0317998 0.163149
0.651194 0.0298009 0.169955
0.656886 0.0290074 0.171786
0.657435 0.0289311 0.172
0.657786 0.0285954 0.172168
0.657923 0.0278019 0.172061
0.657664 0.026627 0.171725
0.657328 0.0254063 0.171344
0.656977 0.0243076 0.170886
0.656764 0.0237278 0.170626
0.656733 0.023621 0.170581
0.656733 0.023621 0.170581
0.656733 0.023621 0.170581
0.656733 0.023621 0.170581
0.00138857 0.035172 0.0119936
0.00138857 0.0354772 0.0120546
0.00141909 0.0364233 0.0122683
0.00202945 0.0372625 0.0132753
0.00790417 0.0395514 0.015259
0.0223697 0.043473 0.016556
0.040528 0.0471046 0.0181125
0.0582437 0.0502327 0.017792
0.0751507 0.0527504 0.0160067
0.0940719 0.054963 0.0145724
0.118349 0.057084 0.0151217
0.149554 0.059266 0.0181735
0.193942 0.0617685 0.0249332
0.253742 0.0654459 0.0386816
0.327718 0.0691386 0.0607309
0.408087 0.0725719 0.0879683
0.486168 0.0764935 0.115755
0.555138 0.0794995 0.141482
0.60911 0.0801556 0.162737
0.646494 0.0776989 0.176791
0.664851 0.0719921 0.183062
0.669398 0.066392 0.183703
0.669017 0.0650339 0.183459
0.668284 0.0623789 0.183154
0.666758 0.0573892 0.181415
0.664805 0.0503243 0.179202
0.662882 0.0430152 0.177096
0.660609 0.0363317 0.174289
0.659312 0.0328069 0.172625
0.659068 0.0321813 0.172351
0.659068 0.0321813 0.172351
0.659068 0.0321813 0.172351
0.659068 0.0321813 0.172351
0.000244144 0.0516213 0.016022
0.000228885 0.0529183 0.0163119
0.000228885 0.054612 0.0167391
0.000885023 0.0559091 0.0176852
0.00732433 0.058381 0.021088
0.0233158 0.0632029 0.0244144
0.043183 0.0674601 0.0267185
0.0629587 0.0701152 0.027512
0.0819104 0.0725872 0.0261082
0.101564 0.075761 0.0236973
0.126421 0.0781567 0.0206607
0.160525 0.080766 0.0205692
0.210086 0.0840314 0.0272679
0.274479 0.0882429 0.0422217
0.348684 0.093019 0.0657511
0.426551 0.0981613 0.0939651
0.501762 0.106035 0.122881
0.568536 0.115984 0.149859
0.622293 0.124941 0.173785
0.661555 0.129305 0.19176
0.681285 0.12575 0.200229
0.685557 0.118669 0.200748
0.684337 0.114549 0.199847
0.682933 0.109987 0.198566
0.680919 0.10428 0.195682
0.678889 0.0970626 0.193256
0.676844 0.0890822 0.191592
0.674067 0.0812848 0.188495
0.672389 0.0770733 0.186297
0.672068 0.0762798 0.18587
0.672068 0.0762798 0.18587
0.672068 0.0762798 0.18587
0.672068 0.0762798 0.18587
7.62951e-05 0.0722362 0.0252232
4.57771e-05 0.0737011 0.0253605
1.5259e-05 0.0760662 0.0263676
0.000610361 0.0777905 0.0273594
0.00703441 0.0796521 0.0301518
0.0249485 0.0842298 0.0353399
0.0460822 0.0886244 0.0396124
0.0672007 0.0912642 0.0424811
0.0879835 0.0943313 0.0436561
0.108598 0.0980392 0.0421912
0.135378 0.100984 0.0377356
0.172793 0.103853 0.0333104
0.224582 0.107088 0.0348669
0.28867 0.111772 0.0461891
0.360708 0.116991 0.0687114
0.43621 0.123049 0.0970321
0.510445 0.132845 0.127565
0.577432 0.145586 0.156985
0.632013 0.158984 0.183169
0.672633 0.168963 0.203876
0.693904 0.169238 0.214069
0.699016 0.162997 0.215045
0.697505 0.156222 0.213611
0.694835 0.149462 0.211139
0.692821 0.143618 0.208255
0.691585 0.138811 0.206622
0.689967 0.133974 0.20531
0.68864 0.128923 0.203494
0.68809 0.12604 0.20235
0.687968 0.125444 0.202121
0.687968 0.125444 0.202121
0.687968 0.125444 0.202121
0.687968 0.125444 0.202121
0.000183108 0.0972763 0.0383307
0.000167849 0.0981918 0.0386206
9.15541e-05 0.100694 0.0408026
0.000549325 0.102892 0.0424048
0.00515755 0.105028 0.0438544
0.0235294 0.109239 0.0479133
0.0469825 0.113634 0.0534676
0.069337 0.117037 0.0585489
0.0915541 0.120653 0.0615396
0.114244 0.124666 0.0630198
0.143481 0.12845 0.0619364
0.183276 0.131899 0.0583047
0.23534 0.135409 0.0573129
0.298039 0.14023 0.0602884
0.369421 0.145647 0.075349
0.444877 0.152911 0.101534
0.519478 0.164904 0.133211
0.587732 0.180331 0.165423
0.644007 0.196323 0.193637
0.685496 0.209827 0.215976
0.70721 0.212772 0.227787
0.71191 0.205493 0.229099
0.709804 0.195224 0.226322
0.705791 0.184878 0.222583
0.703136 0.176379 0.219593
0.701854 0.171267 0.217807
0.70045 0.167727 0.216144
0.699977 0.163973 0.214878
0.700023 0.161639 0.214343
0.700008 0.161135 0.214237
0.700008 0.161135 0.214237
0.700008 0.161135 0.214237
0.700008 0.161135 0.214237
0.000122072 0.129625 0.0542306
0.000137331 0.131228 0.0552834
0.000183108 0.134173 0.0578622
0.00109865 0.136812 0.059266
0.00323491 0.139803 0.0600595
0.0176547 0.144213 0.0630808
0.0415503 0.14931 0.0688487
0.0667277 0.153475 0.0744182
0.0919203 0.156512 0.0780346
0.117983 0.159869 0.0817273
0.149203 0.163989 0.0854353
0.190707 0.168566 0.0872053
0.24448 0.173648 0.089662
0.308949 0.179248 0.0927138
0.380713 0.184878 0.0979934
0.456565 0.193637 0.114855
0.532448 0.208316 0.143496
0.602533 0.227161 0.177523
0.661692 0.246509 0.208591
0.706004 0.263188 0.232639
0.729122 0.267216 0.245502
0.731945 0.256306 0.246372
0.72694 0.241077 0.241672
0.720287 0.226108 0.236408
0.715709 0.213855 0.232395
0.71313 0.206531 0.229679
0.711238 0.201938 0.228016
0.710536 0.197375 0.226764
0.710369 0.194598 0.226078
0.710307 0.194018 0.225925
0.710307 0.194018 0.225925
0.710307 0.194018 0.225925
0.710307 0.194018 0.225925
4.57771e-05 0.178744 0.0757763
9.15541e-05 0.181765 0.0771801
0.00015259 0.186084 0.0788281
0.000869764 0.190539 0.0799725
0.00149538 0.195041 0.0809033
0.00796521 0.199191 0.0835584
0.0264439 0.203265 0.0885023
0.0556802 0.206561 0.0933242
0.0872663 0.20882 0.097261
0.119219 0.211566 0.102403
0.155352 0.215488 0.109102
0.199771 0.2206 0.116243
0.255741 0.226886 0.122576
0.323827 0.234379 0.130861
0.398215 0.242481 0.139223
0.475273 0.253773 0.149813
0.552621 0.271138 0.169177
0.625376 0.29366 0.198734
0.688167 0.316579 0.229725
0.73669 0.336095 0.25539
0.763592 0.34139 0.26981
0.765179 0.326497 0.269749
0.755138 0.303197 0.262455
0.743557 0.279423 0.25452
0.734813 0.260471 0.248051
0.729519 0.249592 0.244083
0.726421 0.243107 0.241886
0.724819 0.237415 0.240146
0.724102 0.23415 0.239185
0.723918 0.233463 0.239002
0.723918 0.233463 0.239002
0.723918 0.233463 0.239002
0.723918 0.233463 0.239002
1.5259e-05 0.255177 0.104662
7.62951e-05 0.259327 0.106096
9.15541e-05 0.26598 0.108614
0.000335698 0.272343 0.110277
0.000442512 0.275715 0.110536
0.00170901 0.276204 0.111406
0.00996414 0.277516 0.114214
0.0352331 0.279469 0.117952
0.0737469 0.281682 0.122652
0.11606 0.284611 0.12871
0.160632 0.288212 0.136721
0.210956 0.29308 0.147158
0.271229 0.300389 0.158801
0.343038 0.310552 0.172015
0.421775 0.322469 0.187366
0.503624 0.337942 0.203372
0.585061 0.358206 0.219074
0.660105 0.382605 0.237018
0.724025 0.406806 0.259129
0.77438 0.427527 0.283131
0.805325 0.435248 0.299733
0.80856 0.418585 0.300191
0.79556 0.387701 0.290974
0.778912 0.353628 0.279622
0.764706 0.323705 0.269215
0.756069 0.30576 0.26302
0.751339 0.296284 0.2598
0.747814 0.28864 0.257023
0.745815 0.284291 0.255406
0.745388 0.283375 0.25507
0.745388 0.283375 0.25507
0.745388 0.283375 0.25507
0.745388 0.283375 0.25507
3.0518e-05 0.362158 0.148775
4.57771e-05 0.366613 0.151034
4.57771e-05 0.372045 0.153735
0.000137331 0.375158 0.154253
0.000289921 0.374746 0.153231
0.000381476 0.372015 0.151919
0.00205997 0.370733 0.152636
0.014374 0.371435 0.155459
0.0544137 0.373358 0.160449
0.109438 0.375967 0.1664
0.165728 0.379294 0.174594
0.226383 0.384543 0.186969
0.294636 0.393164 0.203403
0.370413 0.405676 0.22179
0.45182 0.421302 0.24065
0.538277 0.440635 0.261585
0.62417 0.463554 0.281849
0.700465 0.487938 0.297002
0.762264 0.510216 0.306233
0.810651 0.528634 0.31809
0.843595 0.536599 0.331075
0.850462 0.5205 0.331884
0.839597 0.487816 0.32285
0.822293 0.447898 0.310262
0.804303 0.407218 0.297444
0.792477 0.381018 0.288884
0.786435 0.367666 0.284306
0.781552 0.357641 0.280934
0.778561 0.352056 0.278965
0.77792 0.350896 0.278523
0.77792 0.350896 0.278523
0.77792 0.350896 0.278523
0.77792 0.350896 0.278523
0.000106813 0.487297 0.21355
7.62951e-05 0.48864 0.214664
0.000122072 0.489174 0.214847
0.00015259 0.487877 0.213626
0.000350958 0.484871 0.211566
0.000350958 0.481102 0.209277
0.000442512 0.477897 0.208499
0.00476081 0.477073 0.21004
0.0403449 0.478294 0.213703
0.105882 0.480537 0.219577
0.177203 0.48426 0.227924
0.249287 0.490822 0.240528
0.325154 0.500938 0.25803
0.405066 0.514229 0.279438
0.488518 0.531167 0.301549
0.575296 0.551308 0.32282
0.660792 0.573968 0.343374
0.736675 0.596139 0.358434
0.797772 0.614679 0.363012
0.843732 0.628794 0.358877
0.875959 0.635126 0.357733
0.885817 0.620966 0.356161
0.878477 0.590173 0.35024
0.863615 0.549218 0.340581
0.845777 0.502953 0.327886
0.833036 0.471595 0.318105
0.826581 0.455909 0.312963
0.821546 0.444404 0.30959
0.818494 0.43801 0.307713
0.817853 0.436713 0.307286
0.817853 0.436713 0.307286
0.817853 0.436713 0.307286
0.817853 0.436713 0.307286
0.000289921 0.607263 0.292073
0.000167849 0.605997 0.291371
0.000259403 0.603754 0.289815
0.000259403 0.601175 0.287755
0.000259403 0.597787 0.285405
0.000228885 0.594186 0.282856
0.000320439 0.590448 0.280781
0.00221256 0.58883 0.28101
0.0262913 0.589395 0.283101
0.0994278 0.591348 0.288228
0.190875 0.595193 0.296376
0.276051 0.602335 0.308873
0.357992 0.61294 0.324865
0.440284 0.625757 0.343908
0.52488 0.641123 0.364523
0.609949 0.658671 0.383154
0.691569 0.677791 0.398428
0.764721 0.695384 0.408789
0.824933 0.70956 0.41149
0.869596 0.719814 0.40264
0.900328 0.72398 0.386648
0.91223 0.711971 0.376272
0.90869 0.684428 0.370748
0.897597 0.646311 0.363684
0.881788 0.600122 0.353643
0.869337 0.566766 0.345693
0.863416 0.550301 0.341848
0.859297 0.538918 0.339117
0.856855 0.532631 0.337362
0.856352 0.53135 0.33695
0.856352 0.53135 0.33695
0.856352 0.53135 0.33695
0.856352 0.53135 0.33695
0.000228885 0.706661 0.375647
0.00015259 0.705165 0.374502
0.000167849 0.702831 0.372747
0.00015259 0.700603 0.370581
0.000122072 0.697795 0.368261
0.000274662 0.694728 0.365606
0.000366217 0.691539 0.363073
0.00161746 0.689509 0.362203
0.0213779 0.689967 0.363256
0.100999 0.692638 0.367147
0.205722 0.697093 0.374456
0.29897 0.704036 0.385229
0.384787 0.713619 0.397848
0.468894 0.725414 0.412299
0.553109 0.738552 0.427466
0.635874 0.752636 0.441444
0.714275 0.76704 0.451453
0.783673 0.779721 0.455314
0.840696 0.789578 0.453147
0.883986 0.796277 0.443748
0.915358 0.798444 0.425956
0.930648 0.788937 0.41117
0.93077 0.766003 0.400244
0.92253 0.733059 0.386419
0.910323 0.692164 0.373846
0.899809 0.658701 0.365866
0.894011 0.640192 0.362264
0.890929 0.629007 0.360311
0.889555 0.623407 0.359075
0.889296 0.622278 0.35877
0.889296 0.622278 0.35877
0.889296 0.622278 0.35877
0.889296 0.622278 0.35877
0.000198367 0.783078 0.455375
0.000259403 0.782101 0.454322
0.000244144 0.780499 0.452781
0.000167849 0.778759 0.451072
0.00015259 0.776699 0.448875
0.000289921 0.774395 0.446494
0.000427253 0.771786 0.444221
0.00138857 0.769833 0.442069
0.0192416 0.770718 0.4421
0.105287 0.7738 0.445289
0.21912 0.778836 0.451759
0.317052 0.785458 0.460182
0.404059 0.79382 0.469978
0.488014 0.804013 0.481285
0.570916 0.814725 0.492241
0.651865 0.825818 0.502617
0.72755 0.836301 0.509636
0.79321 0.845258 0.5093
0.846876 0.851972 0.501823
0.889204 0.856077 0.488197
0.921294 0.856764 0.468986
0.940246 0.849668 0.450996
0.944793 0.831861 0.437156
0.940139 0.805478 0.4224
0.932296 0.772503 0.406485
0.924147 0.740368 0.389319
0.918212 0.720211 0.378531
0.915312 0.709621 0.375265
0.914366 0.704845 0.374533
0.914199 0.703868 0.37438
0.914199 0.703868 0.37438
0.914199 0.703868 0.37438
0.914199 0.703868 0.37438
0.0116121 0.840513 0.529091
0.0116884 0.839796 0.528389
0.0115969 0.838514 0.527276
0.0111391 0.836896 0.525887
0.0104982 0.835767 0.524041
0.00988785 0.834257 0.521874
0.00923171 0.832029 0.519646
0.0107576 0.829984 0.516472
0.0405432 0.830304 0.515496
0.129625 0.833173 0.51812
0.238972 0.838453 0.523751
0.334646 0.844678 0.530999
0.419181 0.852186 0.539742
0.500328 0.860838 0.549279
0.581109 0.869841 0.557961
0.659693 0.878767 0.565988
0.732845 0.88661 0.571679
0.796277 0.892973 0.571496
0.847745 0.897414 0.56321
0.888884 0.89955 0.546349
0.920623 0.899107 0.521843
0.942489 0.894194 0.495842
0.95172 0.881437 0.476356
0.951125 0.861555 0.461707
0.946975 0.836103 0.445945
0.941604 0.807752 0.426688
0.937148 0.788205 0.41297
0.934432 0.778561 0.407645
0.933288 0.774624 0.40621
0.933089 0.773831 0.405982
0.933089 0.773831 0.405982
0.933089 0.773831 0.405982
0.933089 0.773831 0.405982
0.0793317 0.881483 0.593698
0.0792554 0.881117 0.593378
0.0783856 0.880186 0.592782
0.0764172 0.878996 0.591608
0.0734569 0.878294 0.589868
0.0696574 0.877012 0.588006
0.0647746 0.875151 0.585962
0.0627604 0.87361 0.582757
0.0953078 0.873518 0.581598
0.173632 0.876005 0.583886
0.266804 0.88101 0.589288
0.352789 0.886931 0.595789
0.431922 0.893462 0.603876
0.508919 0.900649 0.612512
0.585321 0.908431 0.620203
0.660243 0.915663 0.627451
0.731197 0.921386 0.632654
0.793179 0.925643 0.632959
0.843595 0.928374 0.625895
0.883833 0.92929 0.610285
0.915221 0.928328 0.585046
0.939086 0.925139 0.553841
0.952392 0.916747 0.526223
0.955825 0.902708 0.506188
0.95436 0.883909 0.487922
0.951202 0.861158 0.468116
0.94847 0.843091 0.453223
0.946761 0.833616 0.446021
0.946059 0.830213 0.443687
0.945937 0.829618 0.44329
0.945937 0.829618 0.44329
0.945937 0.829618 0.44329
0.945937 0.829618 0.44329
0.169146 0.904112 0.640467
0.169085 0.904097 0.640055
0.168429 0.903807 0.639597
0.167056 0.903395 0.639033
0.164904 0.90309 0.638102
0.161349 0.902525 0.63679
0.155169 0.901793 0.635447
0.150668 0.901167 0.633356
0.16553 0.901106 0.632441
0.218082 0.903212 0.634623
0.29221 0.907897 0.639658
0.365759 0.913832 0.646113
0.436988 0.920089 0.653773
0.508659 0.926619 0.662364
0.580514 0.933303 0.670695
0.65214 0.939269 0.678141
0.721401 0.943938 0.683864
0.782574 0.94728 0.685115
0.833097 0.949477 0.680232
0.874388 0.950164 0.668559
0.906905 0.949142 0.648081
0.932219 0.946914 0.618967
0.949401 0.941909 0.586862
0.956909 0.93283 0.56144
0.957794 0.919371 0.540078
0.956344 0.902022 0.517052
0.954681 0.885679 0.496086
0.953765 0.876127 0.484016
0.953552 0.873075 0.480217
0.953536 0.872663 0.479683
0.953536 0.872663 0.479683
0.953536 0.872663 0.479683
0.953536 0.872663 0.479683
0.217868 0.912016 0.662272
0.217868 0.912062 0.662013
0.217823 0.912016 0.661845
0.217563 0.912001 0.661723
0.216861 0.912062 0.661524
0.215259 0.912184 0.661021
0.212222 0.91223 0.660517
0.209339 0.911864 0.659419
0.212253 0.911665 0.658793
0.242298 0.913542 0.660777
0.29929 0.917845 0.665888
0.363531 0.923629 0.673655
0.428977 0.929915 0.682414
0.496986 0.93666 0.69247
0.566583 0.943343 0.703105
0.63624 0.949676 0.712627
0.704112 0.955016 0.720821
0.765713 0.959533 0.725139
0.817807 0.963104 0.724392
0.861265 0.964828 0.717128
0.89601 0.964691 0.702953
0.923384 0.963317 0.680766
0.944274 0.960327 0.651194
0.955962 0.954681 0.623011
0.959487 0.945388 0.599496
0.959716 0.932494 0.575402
0.958831 0.918288 0.549569
0.958068 0.909194 0.53225
0.957916 0.906401 0.526513
0.957916 0.906081 0.525795
0.957916 0.906081 0.525795
0.957916 0.906081 0.525795
0.957916 0.906081 0.525795
0.233585 0.914061 0.670344
0.233646 0.914031 0.670359
0.233906 0.913832 0.670649
0.233738 0.913893 0.670604
0.232334 0.914244 0.670512
0.23093 0.914549 0.670527
0.230106 0.914656 0.670451
0.229358 0.914427 0.670069
0.230472 0.914061 0.669764
0.245792 0.915145 0.670787
0.287892 0.918608 0.675151
0.345861 0.923705 0.68307
0.407843 0.929641 0.692424
0.473075 0.936278 0.703456
0.541085 0.943465 0.716014
0.609583 0.950408 0.72871
0.677119 0.956344 0.740948
0.740429 0.961944 0.750668
0.795743 0.967102 0.755871
0.84239 0.970962 0.75462
0.880644 0.973159 0.746883
0.911681 0.974197 0.732387
0.935973 0.973785 0.710124
0.952453 0.971008 0.682063
0.960037 0.965057 0.656382
0.9617 0.955917 0.633692
0.961196 0.944457 0.609216
0.960815 0.935882 0.590097
0.960845 0.932815 0.582574
0.960861 0.932403 0.581476
0.960861 0.932403 0.581476
0.960861 0.932403 0.581476
0.960861 0.932403 0.581476
0.238056 0.915419 0.67538
0.238102 0.915389 0.675425
0.238285 0.915251 0.675654
0.238163 0.915297 0.675624
0.237217 0.915526 0.675563
0.236408 0.915679 0.675624
0.23621 0.915709 0.675639
0.236194 0.915648 0.675578
0.236805 0.91545 0.675517
0.242741 0.915816 0.675883
0.272526 0.918151 0.67953
0.324254 0.922194 0.686625
0.382986 0.92755 0.695247
0.444724 0.933898 0.705882
0.508949 0.940749 0.718547
0.574746 0.947372 0.732479
0.641245 0.953582 0.747082
0.706569 0.959823 0.761837
0.765896 0.965621 0.773342
0.81622 0.970581 0.778607
0.858289 0.974426 0.77734
0.893568 0.977554 0.770413
0.922347 0.979522 0.756542
0.944488 0.97966 0.734585
0.958755 0.978012 0.709667
0.964462 0.97319 0.687465
0.964385 0.96527 0.666926
0.963348 0.957885 0.648875
0.963027 0.954528 0.640116
0.963012 0.953964 0.638575
0.963012 0.953964 0.638575
0.963012 0.953964 0.638575
0.963012 0.953964 0.638575
0.238788 0.916152 0.677577
0.238788 0.916152 0.677577
0.238819 0.916121 0.677623
0.238804 0.916136 0.677607
0.238651 0.916167 0.677592
0.238529 0.916182 0.677607
0.238499 0.916197 0.677607
0.238514 0.916182 0.677607
0.238605 0.916152 0.677607
0.240864 0.916289 0.677913
0.262501 0.917815 0.681392
0.306325 0.921096 0.687984
0.360388 0.926131 0.6963
0.418967 0.932113 0.706722
0.479545 0.938323 0.718883
0.542412 0.944366 0.732754
0.606638 0.950591 0.747982
0.671321 0.957092 0.764569
0.732815 0.96289 0.779934
0.78703 0.968109 0.790997
0.832563 0.972702 0.795804
0.87097 0.976745 0.795209
0.903304 0.979675 0.788968
0.930098 0.981491 0.775784
0.950851 0.982742 0.75671
0.963531 0.982055 0.735027
0.96733 0.979126 0.716518
0.96672 0.974609 0.700328
0.966018 0.971771 0.691478
0.965896 0.971206 0.689754
0.965896 0.971206 0.689754
0.965896 0.971206 0.689754
0.965896 0.971206 0.689754
0.238819 0.916259 0.677867
0.238819 0.916259 0.677867
0.238819 0.916259 0.677867
0.238819 0.916259 0.677867
0.238819 0.916259 0.677867
0.238819 0.916259 0.677867
0.238819 0.916259 0.677867
0.238819 0.916259 0.677867
0.238819 0.916259 0.677867
0.239933 0.91632 0.678096
0.253605 0.917128 0.680735
0.290837 0.919661 0.686915
0.342153 0.9243 0.69543
0.398291 0.930312 0.705638
0.45684 0.936522 0.717266
0.518166 0.942473 0.730877
0.58088 0.948409 0.745892
0.644419 0.954589 0.762051
0.705867 0.960525 0.778653
0.762387 0.965988 0.793713
0.810452 0.970916 0.803967
0.850446 0.975341 0.808606
0.88426 0.978546 0.808255
0.913512 0.980972 0.802716
0.938003 0.983276 0.791653
0.956909 0.98471 0.774197
0.967132 0.984741 0.754452
0.969329 0.983078 0.736858
0.968978 0.98175 0.728237
0.968826 0.981476 0.726726
0.968826 0.981476 0.726726
0.968826 0.981476 0.726726
0.968826 0.981476 0.726726
0.238819 0.916259 0.677867
0.238819 0.916259 0.677867
0.238819 0.916259 0.677867
0.238819 0.916259 0.677867
0.238819 0.916259 0.677867
0.238819 0.916259 0.677867
0.238819 0.916259 0.677867
0.238819 0.916259 0.677867
0.238819 0.916259 0.677867
0.23917 0.916274 0.677943
0.245182 0.916594 0.679164
0.275425 0.918502 0.684382
0.326085 0.922423 0.693217
0.382223 0.92813 0.70338
