luts/lumix_color_lab_B/Nostalgic_BleachByPass_33.cube
TITLE "Generated by Resolve"
LUT_3D_SIZE 5
0 0 0
0.0470741 0.00407416 0.00936904
0.327794 0.01355 0.0687266
0.655665 0.023209 0.170245
0.656672 0.023331 0.170657
7.62951e-05 0.0722362 0.0252232
0.0879835 0.0943313 0.0436561
0.510445 0.132845 0.127565
0.692821 0.143618 0.208255
0.687968 0.125444 0.202121
0.000228885 0.706661 0.375647
0.0213779 0.689967 0.363256
0.714275 0.76704 0.451453
0.910323 0.692164 0.373846
0.889296 0.622278 0.35877
0.238788 0.916152 0.677577
0.238605 0.916152 0.677607
0.606638 0.950591 0.747982
0.950851 0.982742 0.75671
0.965896 0.971206 0.689754
0.238819 0.916259 0.677867
0.238819 0.916259 0.677867
0.528939 0.942977 0.734112
0.915221 0.981628 0.812497
0.971496 0.985809 0.758083
0.00383001 0.00654612 0.0254368
0.0635386 0.010605 0.0451514
0.40827 0.0135195 0.0927901
0.656596 0.0233158 0.170626
0.656672 0.023331 0.170657
0.00270085 0.0951095 0.087541
0.101823 0.106493 0.10312
0.537911 0.133486 0.144427
0.687465 0.124498 0.201999
0.679469 0.0990768 0.193591
0.000122072 0.718181 0.479744
0.0268254 0.681193 0.414969
0.715679 0.738842 0.456657
0.896803 0.645655 0.363622
0.874006 0.576577 0.348806
0.205493 0.91487 0.697627
0.219852 0.914916 0.68777
0.622431 0.952346 0.751492
0.955139 0.981567 0.734585
0.9635 0.962539 0.663996
0.21091 0.915312 0.6972
0.223789 0.91487 0.688548
0.53637 0.944152 0.737667
0.918379 0.982132 0.811856
0.971725 0.986145 0.75584
0.0194553 0.0538643 0.184649
0.111254 0.0642252 0.203433
0.586862 0.139101 0.38999
0.718517 0.199039 0.303502
0.711147 0.186496 0.268788
0.0891585 0.207233 0.445869
0.150454 0.217975 0.484077
0.675883 0.270329 0.557031
0.741955 0.254047 0.345235
0.724605 0.221897 0.294347
0.00479133 0.78117 0.724926
0.0104219 0.74609 0.685328
0.761822 0.778393 0.768246
0.946441 0.686915 0.593942
0.918135 0.626978 0.513893
0.188266 0.917281 0.772885
0.16762 0.91606 0.755978
0.595865 0.951659 0.812604
0.964767 0.98056 0.818586
0.971084 0.95523 0.751766
0.181048 0.917678 0.769177
0.159777 0.915908 0.750988
0.497688 0.942153 0.785855
0.923033 0.984665 0.865309
0.978286 0.989456 0.818311
0.123857 0.18294 0.591089
0.168658 0.21973 0.622034
0.793561 0.424445 0.856016
0.875486 0.443397 0.813779
0.867002 0.428305 0.794965
0.188693 0.47126 0.692622
0.189456 0.466285 0.69163
0.751415 0.555642 0.871336
0.900221 0.495201 0.854093
0.882292 0.45977 0.8215
0.108629 0.748837 0.760067
0.127718 0.729305 0.755337
0.566293 0.756146 0.851987
0.978714 0.743252 0.929793
0.970123 0.717006 0.894728
0.237919 0.923095 0.8224
0.220798 0.919676 0.820172
0.328237 0.923262 0.836301
0.95816 0.968093 0.961975
0.9897 0.952148 0.941466
0.243473 0.923919 0.823194
0.242817 0.923934 0.823148
0.278538 0.926894 0.826627
0.909026 0.987045 0.949645
0.99205 0.99559 0.951339
0.174533 0.303929 0.667613
0.181262 0.358557 0.674403
0.773907 0.55903 0.880522
0.928923 0.538598 0.920241
0.928756 0.538231 0.919921
0.188418 0.480797 0.693965
0.189044 0.468223 0.691264
0.720043 0.58024 0.864439
0.932097 0.551537 0.925048
0.929839 0.54464 0.922133
0.120638 0.742672 0.759396
0.132036 0.721126 0.753033
0.527489 0.737301 0.836652
0.982544 0.745861 0.971817
0.98172 0.731014 0.967025
0.2365 0.922911 0.822248
0.214725 0.917296 0.818998
0.242557 0.908049 0.820768
0.937514 0.955184 0.976776
0.991943 0.947219 0.985306
0.243473 0.923919 0.823194
0.243473 0.923919 0.823194
0.246647 0.924193 0.823667
0.878965 0.984771 0.963409
0.994202 0.998703 0.995956
