luts/lumix_color_lab_B/Realistic_Filmtone_33.cube
TITLE "Generated by Resolve"
LUT_3D_SIZE 9
0.0390021 0.0439918 0.0475013
0.0395209 0.0433814 0.0472267
0.0614633 0.0261082 0.0345159
0.0869001 0.0157626 0.0146029
0.132998 0.014023 0.0103456
0.174929 0.0140841 0.00833143
0.199313 0.0139925 0.00735485
0.209003 0.0139925 0.00694286
0.209613 0.0139925 0.00689708
0.0385901 0.0471504 0.0467994
0.0413367 0.0480659 0.0452735
0.0696574 0.0289769 0.030518
0.104509 0.0184787 0.0125429
0.160708 0.015198 0.0091249
0.208682 0.0163272 0.00700389
0.237873 0.0170596 0.00605783
0.255497 0.0180056 0.00555428
0.257008 0.018143 0.00550851
0.038941 0.105043 0.0223087
0.043595 0.110552 0.0209964
0.0831311 0.107988 0.0210117
0.230228 0.0762493 0.0161135
0.375006 0.0632029 0.00648508
0.462928 0.0605173 0.00434882
0.52079 0.0652476 0.00428778
0.56434 0.0729992 0.00471504
0.568841 0.0739605 0.00479133
0.075349 0.212131 0.0323033
0.0892958 0.223697 0.0366979
0.132891 0.245563 0.0450446
0.299474 0.267582 0.0551766
0.658991 0.218189 0.0461128
0.833036 0.189319 0.0319829
0.884306 0.187518 0.0279698
0.909606 0.1991 0.0299229
0.911528 0.200992 0.0303502
0.21503 0.397452 0.0736553
0.241123 0.416678 0.0795911
0.324788 0.447761 0.0884413
0.459327 0.49601 0.0821546
0.72282 0.473991 0.0878004
0.921706 0.425162 0.0825055
0.956497 0.419455 0.0793164
0.963882 0.434195 0.0819562
0.963943 0.436484 0.0824292
0.39321 0.577081 0.107118
0.415106 0.58851 0.110323
0.488228 0.60528 0.117784
0.605341 0.637201 0.106554
0.785367 0.642603 0.10576
0.926055 0.606912 0.111299
0.958053 0.597833 0.112703
0.96347 0.601022 0.114092
0.963485 0.601755 0.114244
0.483803 0.64651 0.115877
0.505089 0.653071 0.119066
0.570932 0.663905 0.128283
0.674617 0.690776 0.11429
0.831907 0.696422 0.114214
0.934783 0.670512 0.12221
0.958633 0.661463 0.123919
0.963119 0.659251 0.124224
0.963119 0.659312 0.124224
0.502663 0.660975 0.119677
0.525322 0.665446 0.124941
0.593561 0.676158 0.131502
0.697444 0.702937 0.116014
0.848615 0.705715 0.117037
0.938109 0.684306 0.124834
0.959319 0.676051 0.126528
0.96318 0.673808 0.126665
0.96318 0.673793 0.126665
0.502922 0.661387 0.119982
0.526101 0.665797 0.125368
0.59443 0.676509 0.131563
0.698238 0.703182 0.11606
0.848936 0.705684 0.117067
0.938094 0.684306 0.124834
0.959304 0.676036 0.126513
0.963165 0.673777 0.126665
0.963165 0.673777 0.12665
0.038819 0.0438849 0.0476997
0.0403754 0.0424048 0.0474556
0.0690929 0.0243534 0.0371252
0.100938 0.0146181 0.0214084
0.142855 0.0133516 0.0125734
0.183215 0.0135958 0.00868238
0.207874 0.0135348 0.00764477
0.218265 0.0135042 0.00726329
0.219074 0.0135042 0.00724804
0.0370336 0.0516365 0.0493782
0.0432593 0.0504768 0.0496529
0.0780957 0.0276493 0.035462
0.109758 0.0161288 0.0171054
0.15491 0.0139162 0.0104982
0.199008 0.0144808 0.00776684
0.226963 0.0147555 0.00682078
0.270558 0.0164492 0.00650034
0.27303 0.0165408 0.00650034
0.0347295 0.114977 0.0308843
0.0442817 0.119448 0.0299992
0.0966659 0.11606 0.0314031
0.252155 0.0760967 0.0203861
0.378119 0.0581521 0.007187
0.452689 0.0536812 0.00440986
0.528679 0.0602426 0.00552377
0.612833 0.0723735 0.00976577
0.618647 0.0734569 0.0101472
0.0730297 0.226596 0.0399634
0.0919356 0.241962 0.043122
0.15172 0.26508 0.0534676
0.345785 0.289952 0.062562
0.703227 0.224948 0.0489967
0.85362 0.188266 0.0317388
0.897658 0.192004 0.0346532
0.916777 0.216251 0.0486763
0.918257 0.218814 0.0497749
0.214817 0.413855 0.0815442
0.249836 0.44239 0.0856489
0.344564 0.475654 0.0972
0.495323 0.52488 0.0890516
0.767941 0.498131 0.094255
0.939071 0.440955 0.0865797
0.963836 0.43743 0.0895399
0.964309 0.459525 0.102892
0.964263 0.462211 0.103883
0.389151 0.587671 0.118425
0.429129 0.610498 0.116136
0.50695 0.629938 0.124788
0.630228 0.661402 0.114351
0.815595 0.667826 0.112932
0.942641 0.633402 0.119615
0.964569 0.621729 0.124804
0.965743 0.623667 0.132799
0.965743 0.624537 0.133196
0.469749 0.6598 0.137041
0.501839 0.67332 0.138537
0.574151 0.685176 0.151278
0.691402 0.713085 0.136416
0.85304 0.721294 0.131945
0.944472 0.695766 0.136584
0.963973 0.685466 0.138659
0.965667 0.679759 0.14226
0.965667 0.67982 0.142306
0.477424 0.678416 0.153201
0.501747 0.684169 0.159045
0.589136 0.697139 0.166812
0.710124 0.725017 0.149554
0.863127 0.729732 0.142931
0.942107 0.705608 0.144594
0.961257 0.696269 0.14519
0.965286 0.693828 0.145312
0.965286 0.693812 0.145296
0.47689 0.679133 0.154437
0.501884 0.684733 0.160174
0.589975 0.697612 0.167361
0.710796 0.725322 0.149813
0.863325 0.729732 0.142977
0.942077 0.705562 0.144533
0.961227 0.696193 0.145068
0.965286 0.693736 0.145205
0.965286 0.693721 0.14519
0.0233921 0.0242771 0.0742809
0.0368505 0.0234226 0.0859388
0.117342 0.016968 0.105577
0.188907 0.0129244 0.088838
0.235325 0.0106966 0.0547341
0.276585 0.010193 0.029633
0.306035 0.0100557 0.0220493
0.328267 0.00993362 0.0231327
0.330434 0.00991836 0.0234379
0.0214694 0.0392004 0.0889601
0.0330816 0.0319371 0.094728
0.132982 0.0209049 0.116228
0.214771 0.013962 0.0930953
0.262547 0.0110018 0.0542916
0.308431 0.0102083 0.0304265
0.352209 0.0101778 0.026215
0.425376 0.0115358 0.0348516
0.429969 0.0116274 0.0357366
0.0208133 0.142245 0.116884
0.0295262 0.148119 0.128817
0.118212 0.112718 0.126329
0.315587 0.0779736 0.0957504
0.468956 0.0547036 0.0564126
0.559121 0.0425422 0.0342412
0.640146 0.0488441 0.0402991
0.709865 0.0641947 0.0616922
0.713634 0.0654765 0.0634318
0.0503243 0.28838 0.104601
0.0640726 0.315511 0.113588
0.157565 0.303975 0.125566
0.399741 0.320424 0.129946
0.719905 0.266804 0.121111
0.850843 0.225055 0.101045
0.885908 0.236378 0.113893
0.893294 0.279469 0.148165
0.89398 0.283543 0.150973
0.17879 0.477256 0.128252
0.209964 0.510521 0.139681
0.309606 0.525582 0.159884
0.534768 0.569451 0.162081
0.797375 0.560891 0.167239
0.935073 0.504646 0.164477
0.953826 0.50724 0.178317
0.95172 0.535958 0.206165
0.951659 0.538949 0.208255
0.337499 0.626963 0.175891
0.372854 0.651469 0.182986
0.458366 0.667872 0.194614
0.641947 0.703746 0.19884
0.84242 0.727306 0.194995
0.943313 0.695079 0.200122
0.96228 0.679515 0.211276
0.961273 0.681392 0.228489
0.961257 0.682216 0.229267
0.39411 0.692256 0.216312
0.42359 0.705745 0.224933
0.510613 0.717708 0.236866
0.690791 0.753185 0.240818
0.865644 0.77702 0.23209
0.94522 0.750896 0.2271
0.963272 0.734966 0.227268
0.964096 0.728511 0.234867
0.964111 0.728557 0.234928
0.387549 0.711421 0.246098
0.414679 0.715709 0.251667
0.516884 0.727123 0.261891
0.703914 0.763577 0.263813
0.869718 0.784222 0.251255
0.941985 0.760052 0.242557
0.95967 0.745083 0.238422
0.964172 0.740932 0.238041
0.964172 0.740917 0.237995
0.386099 0.712322 0.24831
0.414282 0.716258 0.253285
0.51722 0.727489 0.262852
0.704356 0.763806 0.26424
0.86978 0.784207 0.251225
0.941955 0.75996 0.242267
0.95964 0.744961 0.238102
0.964172 0.740841 0.237797
0.964172 0.740841 0.237781
0.0108949 0.0210727 0.124254
0.0229191 0.0200351 0.139361
0.0951095 0.0178531 0.175891
0.213809 0.0174716 0.172076
0.343877 0.0162966 0.148333
0.458213 0.0142367 0.125444
0.511162 0.0133822 0.118196
0.532235 0.0135195 0.120317
0.533745 0.0135653 0.12079
0.00958267 0.031693 0.146761
0.0152895 0.0257877 0.145266
0.0948653 0.0214084 0.189303
0.242847 0.0191196 0.181476
0.389349 0.0170748 0.153994
0.500099 0.0146944 0.133577
0.552041 0.0145876 0.131121
0.599176 0.0164034 0.139345
0.601358 0.016556 0.140276
0.0149538 0.132509 0.238849
0.0174105 0.136477 0.256397
0.0755322 0.113909 0.257374
0.34313 0.0864576 0.222812
0.569268 0.0639048 0.177798
0.693828 0.0467384 0.152941
0.74844 0.054551 0.157763
0.768795 0.0774243 0.179873
0.76965 0.0793622 0.182025
0.0381018 0.39913 0.355642
0.0486 0.447562 0.405066
0.112444 0.428489 0.406638
0.371054 0.370672 0.365698
0.670802 0.340963 0.325689
0.796307 0.309117 0.297078
0.832303 0.318395 0.307515
0.837812 0.372854 0.357122
0.838193 0.377401 0.361166
0.116915 0.625681 0.37023
0.135225 0.664546 0.402899
0.202319 0.657221 0.39855
0.448005 0.620966 0.38088
0.753704 0.637171 0.387717
0.890898 0.609186 0.393515
0.9178 0.613764 0.408087
0.918975 0.639765 0.444694
0.919158 0.642206 0.447349
0.225345 0.720699 0.363165
0.250019 0.74374 0.387533
0.318349 0.738643 0.379141
0.522942 0.734569 0.390311
0.81091 0.778119 0.405066
0.92607 0.766735 0.408148
0.950423 0.75433 0.418158
0.950027 0.756725 0.440314
0.950011 0.757382 0.441321
0.277104 0.780102 0.439231
0.299794 0.787671 0.44799
0.371084 0.773693 0.426703
0.574685 0.778653 0.430259
0.837568 0.822019 0.434958
0.936355 0.812161 0.422965
0.957183 0.798901 0.423468
0.957397 0.79379 0.434577
0.957397 0.793805 0.434638
0.275517 0.810285 0.508415
0.295842 0.802335 0.491859
0.377722 0.784527 0.460761
0.589807 0.787549 0.458061
0.842374 0.827298 0.455482
0.933364 0.819471 0.439139
0.95349 0.80795 0.435615
0.958511 0.804334 0.436011
0.958526 0.804334 0.435996
0.274647 0.81207 0.513268
0.295583 0.80325 0.494545
0.377905 0.784955 0.462058
0.590097 0.787655 0.458457
0.842405 0.827283 0.455299
0.933318 0.819394 0.438712
0.953506 0.807828 0.435142
0.958526 0.804273 0.435767
0.958526 0.804273 0.435798
0.00567636 0.0234989 0.15433
0.00935378 0.0235447 0.178866
0.054551 0.0238193 0.244862
0.191897 0.0218204 0.245579
0.350774 0.0209506 0.215793
0.481971 0.0197147 0.196689
0.514 0.018616 0.188418
0.521157 0.0186313 0.188785
0.52137 0.0186465 0.189044
0.00466926 0.035111 0.186343
0.00582895 0.028275 0.178347
0.051133 0.0266575 0.261479
0.206943 0.0236667 0.263706
0.379217 0.0225986 0.229221
0.49276 0.0203555 0.20679
0.525841 0.0200961 0.201541
0.571786 0.022858 0.210773
0.573693 0.0231022 0.211902
0.007187 0.142138 0.360815
0.00653086 0.142107 0.375311
0.0348669 0.128969 0.405112
0.238346 0.106767 0.36643
0.538338 0.0870375 0.299092
0.690715 0.0699321 0.263172
0.741268 0.0824903 0.268864
0.755871 0.113802 0.297704
0.755947 0.116442 0.300649
0.0381323 0.443244 0.598108
0.0439918 0.480323 0.644404
0.0851911 0.470466 0.645899
0.270604 0.418357 0.588464
0.603906 0.391012 0.516991
0.736263 0.34136 0.465644
0.777279 0.344457 0.468574
0.783459 0.395514 0.51252
0.783703 0.399939 0.516609
0.132876 0.736797 0.704189
0.150835 0.767285 0.738567
0.205676 0.765866 0.743694
0.38703 0.726757 0.712505
0.699413 0.685298 0.668101
0.839323 0.672068 0.65005
0.86807 0.669551 0.656123
0.876143 0.689555 0.677699
0.876463 0.691676 0.679805
0.196048 0.845228 0.707805
0.21265 0.863035 0.740108
0.261479 0.859449 0.737911
0.419135 0.836225 0.708843
0.724819 0.807767 0.67068
0.891249 0.817502 0.676493
0.917708 0.815641 0.684794
0.922057 0.818128 0.695964
0.922011 0.81857 0.696727
0.233158 0.876905 0.752987
0.250294 0.881605 0.768231
0.308583 0.875151 0.758007
0.464363 0.861509 0.726055
0.733486 0.842069 0.678096
0.900999 0.853178 0.677729
0.927901 0.853925 0.682872
0.932357 0.852201 0.688594
0.932357 0.852201 0.688594
0.24155 0.884184 0.78645
0.259022 0.88336 0.786892
0.32694 0.876448 0.772931
0.486839 0.863798 0.7364
0.743908 0.848676 0.687572
0.901396 0.860441 0.683284
0.927779 0.861845 0.685618
0.933913 0.861967 0.688746
0.933898 0.861982 0.688838
0.241749 0.884489 0.788647
0.259388 0.883482 0.78819
0.327535 0.876539 0.773632
0.487083 0.863813 0.736507
0.743877 0.848615 0.687282
0.901381 0.86038 0.682811
0.92781 0.861799 0.685176
0.933928 0.861967 0.688701
0.933898 0.861982 0.68893
0.00256352 0.0292515 0.194186
0.00486763 0.0283207 0.224186
0.0427253 0.025452 0.316228
0.162936 0.0256352 0.335515
0.30808 0.0257267 0.290852
0.418952 0.0240177 0.267796
0.463478 0.0234226 0.256428
0.478355 0.0237278 0.256809
0.479088 0.0237736 0.257099
0.00202945 0.0412299 0.227588
0.0028687 0.0332189 0.219455
0.0398718 0.027039 0.332799
0.17351 0.0281071 0.35227
0.327214 0.0265965 0.306554
0.430198 0.0257267 0.28397
0.482338 0.0265354 0.27776
0.532677 0.0311131 0.285634
0.534585 0.0314641 0.286763
0.00230411 0.154665 0.436469
0.0018616 0.150454 0.437476
0.0168002 0.13637 0.502968
0.176394 0.119417 0.478096
0.443626 0.105806 0.406744
0.608942 0.0965896 0.368597
0.681468 0.111788 0.3673
0.695415 0.14493 0.390921
0.695079 0.147585 0.393561
0.032105 0.480522 0.726848
0.0363928 0.508614 0.756313
0.0700847 0.499657 0.754788
0.23711 0.451194 0.691997
0.526955 0.416403 0.63035
0.670848 0.39324 0.590372
0.726421 0.404181 0.591989
0.74107 0.450736 0.622553
0.741711 0.454841 0.625711
0.144961 0.749752 0.825299
0.159792 0.770809 0.844038
0.213031 0.766934 0.845899
0.38117 0.735576 0.819883
0.65716 0.707759 0.780148
0.795178 0.70457 0.763439
0.838529 0.713664 0.765957
0.85272 0.731517 0.77612
0.8533 0.733257 0.777295
0.210254 0.861021 0.846677
0.231296 0.872602 0.864057
0.300053 0.870787 0.86862
0.470863 0.861555 0.862333
0.715694 0.84654 0.83888
0.870451 0.836332 0.821378
0.894087 0.837385 0.82327
0.899901 0.839658 0.825986
0.899962 0.839933 0.82623
0.248966 0.885954 0.861753
0.274434 0.889952 0.870756
0.351904 0.887083 0.873289
0.507378 0.885878 0.8701
0.71577 0.874006 0.843122
0.87686 0.866545 0.827192
0.905608 0.868681 0.833783
0.911543 0.868833 0.835615
0.911543 0.868818 0.835599
0.262303 0.890105 0.86949
0.284947 0.889403 0.871427
0.370184 0.8869 0.87303
0.522545 0.886397 0.867887
0.723095 0.877531 0.841871
0.876493 0.873243 0.82768
0.906584 0.875639 0.833814
0.914885 0.87686 0.838148
0.914885 0.87686 0.838132
0.262745 0.890166 0.869886
0.28542 0.889387 0.871611
0.370733 0.8869 0.873106
0.522622 0.886381 0.867872
0.722805 0.877531 0.841779
0.876356 0.873213 0.827512
0.906569 0.875639 0.833661
0.914885 0.87689 0.838193
0.914885 0.87689 0.838178
0.00230411 0.0303044 0.210559
0.00390631 0.0295109 0.23949
0.0382696 0.0268711 0.34583
0.152407 0.0284276 0.371756
0.305516 0.0276036 0.332097
0.391745 0.0269627 0.306752
0.439963 0.0263828 0.296147
0.458152 0.0264286 0.294255
0.459129 0.0264439 0.294347
0.00170901 0.0434882 0.243549
0.00247196 0.0365759 0.244831
0.036408 0.0324559 0.370123
0.169635 0.0327764 0.389609
0.330907 0.0303502 0.34461
0.419165 0.029984 0.321111
0.474189 0.0307927 0.314504
0.516716 0.0355077 0.318257
0.518715 0.035874 0.319051
0.0015259 0.161959 0.460655
0.00201419 0.164828 0.47451
0.0179446 0.165042 0.554543
0.172656 0.147051 0.521126
0.432273 0.134493 0.451865
0.579187 0.125704 0.414496
0.649485 0.135454 0.409461
0.66659 0.160555 0.425498
0.666667 0.163226 0.427741
0.0315099 0.501396 0.767681
0.0387121 0.525704 0.786847
0.0814527 0.518532 0.779126
0.251255 0.477333 0.72311
0.516243 0.441489 0.66949
0.645548 0.421988 0.635416
0.706584 0.439078 0.638453
0.726818 0.475273 0.658763
0.727779 0.479088 0.661234
0.148623 0.755962 0.85362
0.164279 0.770809 0.863249
0.224079 0.762768 0.85864
0.399756 0.73875 0.838071
0.660639 0.718669 0.805142
0.788861 0.720058 0.791135
0.831952 0.733104 0.794308
0.847929 0.748257 0.800336
0.848615 0.749706 0.801068
0.224506 0.861769 0.870878
0.243503 0.868544 0.877256
0.321553 0.863645 0.87834
0.502998 0.858686 0.877333
0.729595 0.850568 0.861372
0.870985 0.844129 0.845121
0.892012 0.847791 0.845762
0.89749 0.850126 0.847089
0.897566 0.850309 0.847211
0.262531 0.886809 0.880171
0.286122 0.888395 0.88423
0.378637 0.885023 0.88632
0.537163 0.884459 0.884855
0.737316 0.878386 0.869978
0.878828 0.872862 0.859327
0.904753 0.872892 0.860182
0.909819 0.873426 0.861204
0.909819 0.873411 0.861204
0.273152 0.890867 0.883543
0.2972 0.889677 0.884596
0.396231 0.887221 0.886946
0.546715 0.887419 0.883909
0.741299 0.882551 0.86891
0.87895 0.879408 0.860883
0.905959 0.879652 0.862577
0.913558 0.8804 0.864942
0.913558 0.8804 0.864942
0.273365 0.890883 0.883665
0.29749 0.889647 0.884627
0.396551 0.887205 0.886961
0.546685 0.887419 0.883894
0.740978 0.882567 0.86891
0.878828 0.879408 0.860822
0.905943 0.879698 0.862562
0.913573 0.880446 0.864958
0.913573 0.880446 0.864958
0.00221256 0.0303044 0.215045
0.00375372 0.0295567 0.24445
0.0372473 0.0274662 0.355734
0.151751 0.0291905 0.383352
0.306981 0.0281224 0.346654
0.384802 0.027985 0.319554
0.433036 0.0274205 0.31104
0.451575 0.0272526 0.307286
0.452552 0.0272526 0.307149
0.00163272 0.0441749 0.249241
0.00247196 0.0436408 0.278904
0.0378119 0.0399634 0.397665
0.177584 0.0391394 0.406073
0.348714 0.0355535 0.358999
0.439597 0.0340124 0.33341
0.496147 0.035523 0.326207
0.526619 0.0386358 0.327794
0.528771 0.0390326 0.328359
0.00158694 0.169207 0.474998
0.00318914 0.18471 0.510048
0.0236362 0.191485 0.583337
0.183642 0.172091 0.538506
0.439002 0.159442 0.470893
0.57789 0.149111 0.433478
0.643656 0.155596 0.426902
0.660533 0.174685 0.439445
0.660838 0.177249 0.441459
0.0331426 0.515496 0.782696
0.045243 0.538231 0.793622
0.0972915 0.532265 0.78262
0.283833 0.500404 0.731395
0.531823 0.468071 0.68423
0.650156 0.451331 0.655253
0.706325 0.465797 0.656764
0.72668 0.493935 0.672267
0.727794 0.497429 0.674357
0.152667 0.76109 0.861479
0.170184 0.770535 0.864057
0.236286 0.762097 0.857877
0.424399 0.74342 0.839323
0.682918 0.731762 0.811276
0.798505 0.734859 0.799664
0.835325 0.746105 0.802029
0.849058 0.75761 0.8065
0.849744 0.758846 0.80705
0.229816 0.863066 0.875456
0.247257 0.865705 0.877409
0.331014 0.860426 0.877699
0.516304 0.855695 0.87628
0.743618 0.850156 0.861738
0.873732 0.847532 0.850385
0.892454 0.851148 0.85095
0.897276 0.853407 0.852003
0.897337 0.853529 0.852079
0.265614 0.886702 0.88278
0.286656 0.886046 0.883696
0.382605 0.882475 0.885679
0.544518 0.881117 0.883757
0.75024 0.875944 0.870344
0.880064 0.873945 0.86424
0.905364 0.874357 0.864851
0.910079 0.875456 0.865568
0.910063 0.875456 0.865553
0.274006 0.890349 0.88455
0.297734 0.888579 0.884825
0.398871 0.885954 0.887388
0.551965 0.885939 0.884932
0.750103 0.881514 0.87158
0.881315 0.880385 0.867674
0.907073 0.881224 0.869886
0.913787 0.881605 0.87068
0.913787 0.881605 0.87068
0.274113 0.890349 0.884565
0.297948 0.888563 0.884825
0.399039 0.885954 0.887388
0.551858 0.885939 0.884947
0.749783 0.881529 0.871611
0.881224 0.880385 0.867674
0.907088 0.88127 0.869917
0.913802 0.881651 0.870695
0.913802 0.881651 0.870695
0.00221256 0.0303197 0.21532
0.00373846 0.029572 0.244816
0.0372473 0.0274968 0.356283
0.151827 0.0292515 0.384054
0.307164 0.0281376 0.34757
0.384421 0.0280461 0.320378
0.432654 0.0274968 0.311971
0.451225 0.0273136 0.30808
0.452216 0.0273136 0.307912
0.00161746 0.0442512 0.249668
0.00247196 0.0441596 0.281254
0.037995 0.0404364 0.399298
0.178454 0.0395972 0.407019
0.350286 0.0359808 0.359838
0.441505 0.0343175 0.334127
0.497551 0.0357671 0.326635
0.527352 0.0387732 0.327993
0.529458 0.0391699 0.328542
0.00161746 0.170062 0.476326
0.00326543 0.185992 0.512047
0.0239261 0.192676 0.584512
0.184558 0.17319 0.539162
0.439811 0.16054 0.471595
0.578454 0.149981 0.434058
0.643992 0.156374 0.427466
0.660639 0.17554 0.440116
0.660945 0.178103 0.442145
0.033402 0.516854 0.783719
0.0457618 0.539467 0.794141
0.0981918 0.533303 0.78294
0.28542 0.501488 0.731777
0.532937 0.469215 0.684779
0.650843 0.452476 0.655924
0.706844 0.466972 0.657465
0.727047 0.495109 0.672969
0.728161 0.498619 0.675059
0.153079 0.761624 0.861906
0.170733 0.770871 0.864118
0.237156 0.762539 0.857954
0.425849 0.74403 0.839506
0.68426 0.732509 0.811521
0.799207 0.735546 0.799954
0.835706 0.746609 0.802243
0.849271 0.757992 0.806668
0.849958 0.759213 0.807218
0.230091 0.863218 0.875624
0.247562 0.865812 0.87744
0.331609 0.860548 0.877745
0.516991 0.855833 0.87631
0.74432 0.850248 0.861723
0.873945 0.847715 0.850507
0.892515 0.851286 0.851057
0.897292 0.853468 0.852049
0.897353 0.85359 0.85211
0.265705 0.886732 0.882795
0.286809 0.886061 0.883711
0.382864 0.88249 0.885695
0.544701 0.881117 0.883757
0.750362 0.875944 0.870344
0.88014 0.873945 0.864302
0.905379 0.874403 0.864988
0.910094 0.875502 0.86569
0.910094 0.875486 0.86569
0.274006 0.890349 0.884565
0.297765 0.888563 0.884825
0.398871 0.885954 0.887388
0.551965 0.885939 0.884932
0.750042 0.881514 0.87158
0.881376 0.880354 0.86775
0.907088 0.881254 0.870039
0.913802 0.881651 0.870832
0.913802 0.881651 0.870832
0.274128 0.890364 0.884565
0.297963 0.888563 0.884825
0.399039 0.885954 0.887388
0.551858 0.885939 0.884947
0.749737 0.881529 0.871611
0.8813 0.880354 0.867735
0.907103 0.881315 0.870069
0.913817 0.881682 0.870848
0.913817 0.881682 0.870848
