luts/lumix_color_lab_B/Realistic_Filmtone_33.cube
TITLE "Generated by Resolve"
LUT_3D_SIZE 33
0.0390021 0.0439918 0.0475013
0.0390478 0.0439612 0.0474708
0.0391089 0.0438849 0.0474556
0.0391852 0.0437476 0.0474098
0.0395209 0.0433814 0.0472267
0.0411994 0.0420386 0.0464637
0.0461891 0.0383001 0.0441444
0.0541238 0.0322728 0.0399786
0.0614633 0.0261082 0.0345159
0.066743 0.0210422 0.0281376
0.0717327 0.0178531 0.0221866
0.0782177 0.0164797 0.0177615
0.0869001 0.0157626 0.0146029
0.0974136 0.0152132 0.012665
0.108827 0.0148165 0.0115969
0.120714 0.0144656 0.0108186
0.132998 0.014023 0.0103456
0.145022 0.0136568 0.0100404
0.155505 0.0136721 0.00952163
0.165133 0.0139467 0.00886549
0.174929 0.0140841 0.00833143
0.183581 0.0140536 0.00794995
0.190173 0.0140078 0.00769055
0.195254 0.0139925 0.00750744
0.199313 0.0139925 0.00735485
0.202625 0.0139925 0.00721752
0.205295 0.0139925 0.0071107
0.207446 0.0139925 0.00701915
0.209003 0.0139925 0.00694286
0.209613 0.0139925 0.00689708
0.209613 0.0139925 0.00689708
0.209613 0.0139925 0.00689708
0.209613 0.0139925 0.00689708
0.0389868 0.0442817 0.0474708
0.0391241 0.0442817 0.047425
0.0392615 0.0442359 0.047364
0.0393835 0.0441138 0.047303
0.0397498 0.0437171 0.0471046
0.0415808 0.0422522 0.0462501
0.0467994 0.0383764 0.0438392
0.0548104 0.0322728 0.0395972
0.0620432 0.0260777 0.0340734
0.0672618 0.0210269 0.0277256
0.0723735 0.0178988 0.0218509
0.0790723 0.0165408 0.0174868
0.0880446 0.0158236 0.0143893
0.0988174 0.0152743 0.0125277
0.110414 0.014847 0.01149
0.122393 0.0144656 0.0107424
0.134768 0.014023 0.0102846
0.146792 0.0136721 0.00996414
0.157259 0.0137331 0.00941482
0.167041 0.0139925 0.00875868
0.176883 0.0141299 0.00825513
0.185382 0.0141146 0.00788891
0.191882 0.0140688 0.00762951
0.196948 0.0140536 0.0074464
0.201053 0.0140688 0.00727855
0.204364 0.0140688 0.00714122
0.207019 0.0140841 0.00704967
0.209125 0.0140993 0.00695811
0.21059 0.0140993 0.00688182
0.211109 0.0140993 0.0068513
0.211109 0.0140993 0.0068513
0.211109 0.0140993 0.0068513
0.211109 0.0140993 0.0068513
0.0389258 0.04477 0.0473945
0.0391241 0.0448157 0.047303
0.0394141 0.0448615 0.0471809
0.0396887 0.0448157 0.0470436
0.040177 0.0444343 0.0467842
0.0422675 0.0428779 0.0458381
0.0479133 0.038819 0.0432593
0.0561379 0.0325933 0.0388952
0.0633097 0.0263371 0.0333715
0.068452 0.0213016 0.0271
0.0737926 0.0182345 0.0213321
0.0810559 0.016907 0.0170291
0.0907149 0.0161593 0.0140383
0.102052 0.0155337 0.012253
0.114046 0.0150149 0.0112764
0.126268 0.0145876 0.0105592
0.138766 0.0141299 0.0101167
0.150805 0.0138247 0.00976577
0.161349 0.0139315 0.00920119
0.171435 0.0142214 0.00857557
0.18143 0.014374 0.00807202
0.189914 0.0143893 0.00772107
0.19646 0.0143893 0.00747692
0.201694 0.0143893 0.00727855
0.206027 0.0144198 0.0071107
0.209552 0.0144503 0.00697337
0.212406 0.0144808 0.00686656
0.214694 0.0145113 0.00677501
0.216312 0.0145571 0.00669871
0.216892 0.0145724 0.00666819
0.216892 0.0145724 0.00666819
0.216892 0.0145724 0.00666819
0.216892 0.0145724 0.00666819
0.0387884 0.0455634 0.0472419
0.0390326 0.0456397 0.0471351
0.0394598 0.0457923 0.0469215
0.0399786 0.0459297 0.0466468
0.0407721 0.0456855 0.0462501
0.0432746 0.0441291 0.0451514
0.0496071 0.0398871 0.0423285
0.058381 0.0334783 0.0377813
0.0656748 0.0271153 0.0322728
0.0708019 0.0220493 0.0261692
0.0765698 0.0190738 0.0205539
0.084947 0.0177768 0.0163577
0.0958419 0.0169223 0.0134432
0.108202 0.0161593 0.0117647
0.121019 0.0154726 0.0108949
0.133806 0.0149233 0.0102235
0.14667 0.014435 0.00976577
0.158984 0.0141756 0.0093843
0.169924 0.0143893 0.0087892
0.180575 0.0147707 0.00816358
0.191028 0.0150149 0.00769055
0.199786 0.0151369 0.00735485
0.206638 0.0151827 0.00709544
0.212284 0.0152132 0.00689708
0.217075 0.0152895 0.00674449
0.221103 0.0153658 0.0065919
0.224491 0.0154574 0.00646983
0.227405 0.0155489 0.00636301
0.22974 0.015671 0.00628672
0.230671 0.0157321 0.0062562
0.230671 0.0157321 0.0062562
0.230671 0.0157321 0.0062562
0.230671 0.0157321 0.0062562
0.0385901 0.0471504 0.0467994
0.038819 0.0473335 0.0466468
0.0393072 0.0476081 0.0463569
0.0400854 0.0479591 0.0459144
0.0413367 0.0480659 0.0452735
0.0444495 0.0467536 0.0439307
0.0517128 0.0424048 0.0408484
0.0616617 0.0356451 0.0360418
0.0696574 0.0289769 0.030518
0.0749981 0.0237888 0.0247196
0.0814374 0.0208133 0.0193942
0.0915389 0.0195163 0.0153353
0.104509 0.0184787 0.0125429
0.118669 0.0174411 0.0109865
0.133089 0.0164645 0.0102541
0.147066 0.0157321 0.00962844
0.160708 0.015198 0.0091249
0.173785 0.0149691 0.00869764
0.185611 0.0152743 0.00808728
0.197253 0.0158389 0.00747692
0.208682 0.0163272 0.00700389
0.21825 0.0166476 0.00666819
0.225818 0.0168154 0.00640879
0.232227 0.0169223 0.00621042
0.237873 0.0170596 0.00605783
0.242832 0.0172274 0.00590524
0.247486 0.0174411 0.00576791
0.251881 0.0177157 0.00564584
0.255497 0.0180056 0.00555428
0.257008 0.018143 0.00550851
0.257008 0.018143 0.00550851
0.257008 0.018143 0.00550851
0.257008 0.018143 0.00550851
0.0381323 0.0517739 0.0449836
0.0383612 0.0521706 0.0446937
0.038941 0.0527199 0.0442359
0.0399634 0.0533608 0.043595
0.0416571 0.0539254 0.0426947
0.0452735 0.0533608 0.0411383
0.0533913 0.0495155 0.0379797
0.0653239 0.042359 0.0331273
0.0758068 0.0347906 0.0277714
0.082948 0.0289006 0.0225071
0.0910811 0.0254215 0.0176547
0.103716 0.023621 0.013901
0.119799 0.0220645 0.0113222
0.136889 0.0205386 0.00984207
0.153903 0.0191653 0.00923171
0.169955 0.018204 0.0087129
0.185077 0.0176699 0.0081178
0.199649 0.0174258 0.00761425
0.213169 0.0177462 0.00701915
0.22649 0.0184634 0.00643931
0.23949 0.0191806 0.0059968
0.250599 0.0197452 0.00567636
0.259571 0.0201724 0.00543221
0.267216 0.0204471 0.00523384
0.274418 0.0207828 0.00508125
0.281498 0.0212558 0.00494392
0.288472 0.0218204 0.00482185
0.294911 0.0224155 0.00471504
0.300374 0.0230259 0.00462348
0.302785 0.0233158 0.00459297
0.302785 0.0233158 0.00459297
0.302785 0.0233158 0.00459297
0.302785 0.0233158 0.00459297
0.0371557 0.0636301 0.0396429
0.0374456 0.0643931 0.0391699
0.0381933 0.0653239 0.038468
0.0395514 0.0663157 0.0376135
0.0417334 0.067277 0.0365148
0.045655 0.0676738 0.0349126
0.0537423 0.065507 0.0321965
0.0672465 0.0591135 0.0281529
0.0826276 0.0504311 0.023743
0.0961471 0.0427253 0.0195468
0.109941 0.0373388 0.0154879
0.127092 0.0337224 0.0122835
0.147417 0.0306706 0.010132
0.168902 0.0282139 0.00865187
0.189776 0.0264134 0.00790417
0.208942 0.025391 0.00737011
0.226474 0.0250401 0.00669871
0.243732 0.0248417 0.00616464
0.26038 0.0249332 0.00569161
0.276173 0.0254063 0.00521859
0.291386 0.0260014 0.00488289
0.30486 0.0266117 0.00463874
0.316121 0.0273136 0.00444038
0.326024 0.0280613 0.00428778
0.335531 0.0289158 0.00416571
0.345006 0.0299229 0.00407416
0.354208 0.0310216 0.0039826
0.362554 0.0321355 0.00392157
0.370001 0.0332494 0.00387579
0.373434 0.0337987 0.00386053
0.373434 0.0337987 0.00386053
0.373434 0.0337987 0.00386053
0.373434 0.0337987 0.00386053
0.0366979 0.0829938 0.030869
0.0370489 0.084123 0.0303044
0.0378729 0.0853132 0.0296483
0.0393378 0.0865339 0.0289006
0.0417945 0.0877699 0.0279393
0.0459754 0.0888228 0.0266117
0.0534066 0.0885481 0.0248569
0.0663615 0.0848249 0.0227207
0.0853742 0.0769207 0.0205081
0.108186 0.0675059 0.0182803
0.133288 0.0594949 0.0156405
0.159838 0.0534066 0.0129702
0.187991 0.0483864 0.0107271
0.217029 0.0445106 0.0087129
0.244556 0.0420233 0.00720226
0.269078 0.0406348 0.00622568
0.29073 0.0401312 0.00546273
0.311849 0.039826 0.0049897
0.332494 0.0395209 0.004654
0.350927 0.0395056 0.0043183
0.368017 0.039765 0.00408942
0.383917 0.0403143 0.00399786
0.397787 0.0412757 0.00392157
0.409979 0.0425422 0.00383001
0.421302 0.0439918 0.00376898
0.432197 0.0455787 0.0037232
0.44271 0.0472419 0.0037232
0.452354 0.0489052 0.0037232
0.461143 0.0505837 0.00373846
0.465293 0.0514076 0.00375372
0.465293 0.0514076 0.00375372
0.465293 0.0514076 0.00375372
0.465293 0.0514076 0.00375372
0.038941 0.105043 0.0223087
0.0393988 0.106355 0.0219272
0.0401923 0.107713 0.0215763
0.0414588 0.109102 0.0213169
0.043595 0.110552 0.0209964
0.0473487 0.112032 0.0205081
0.0538491 0.113054 0.0200656
0.0648356 0.112337 0.0202335
0.0831311 0.107988 0.0210117
0.110994 0.0997635 0.0215915
0.147677 0.0903487 0.0212863
0.188174 0.0824598 0.0193942
0.230228 0.0762493 0.0161135
0.272419 0.0712749 0.0126345
0.311421 0.067628 0.00973526
0.345647 0.0650187 0.00775158
0.375006 0.0632029 0.00648508
0.401526 0.0618601 0.00570687
0.425727 0.0608682 0.00517281
0.445686 0.0604105 0.00468452
0.462928 0.0605173 0.00434882
0.479469 0.0610971 0.00428778
0.494636 0.0621347 0.00428778
0.508202 0.0635691 0.00428778
0.52079 0.0652476 0.00428778
0.532845 0.0671244 0.00433356
0.544396 0.0690776 0.00440986
0.554833 0.0710307 0.00453193
0.56434 0.0729992 0.00471504
0.568841 0.0739605 0.00479133
0.568841 0.0739605 0.00479133
0.568841 0.0739605 0.00479133
0.568841 0.0739605 0.00479133
0.0439155 0.127398 0.0175784
0.0444343 0.128893 0.0175784
0.0452583 0.130465 0.0176699
0.0464942 0.132113 0.0179446
0.0484474 0.133898 0.0184329
0.0516823 0.135912 0.019028
0.0572061 0.138064 0.019852
0.0663462 0.139727 0.0215763
0.0817731 0.139605 0.024567
0.108431 0.135958 0.0276799
0.15024 0.128252 0.0298161
0.203372 0.119341 0.0296025
0.261875 0.111727 0.0261845
0.320974 0.105333 0.0214237
0.375631 0.100008 0.0172885
0.423514 0.0956588 0.0141146
0.464088 0.0920424 0.0116732
0.498177 0.0890516 0.00981155
0.526711 0.0868391 0.00843824
0.548943 0.0856184 0.00735485
0.566583 0.0852979 0.0065919
0.582589 0.0856184 0.00628672
0.597757 0.0864729 0.00624094
0.612161 0.0877394 0.00631724
0.625879 0.0893263 0.00645457
0.638926 0.0911727 0.00669871
0.651179 0.0932174 0.00701915
0.66186 0.0953078 0.00741588
0.67129 0.0974441 0.00784314
0.675731 0.098497 0.00805676
0.675731 0.098497 0.00805676
0.675731 0.098497 0.00805676
0.675731 0.098497 0.00805676
0.0500496 0.151553 0.0185855
0.0506905 0.153384 0.0189822
0.0517433 0.155291 0.019501
0.0534218 0.157305 0.0203098
0.0559701 0.159472 0.0215152
0.0598154 0.16202 0.0230564
0.0657359 0.165225 0.0246891
0.0743877 0.168933 0.0267491
0.0873884 0.172274 0.0299992
0.110262 0.173953 0.033875
0.149828 0.171786 0.0373388
0.207965 0.164446 0.0391089
0.279271 0.154665 0.0376745
0.354711 0.145571 0.0334783
0.426673 0.137774 0.0286564
0.490883 0.131197 0.0242771
0.544976 0.125551 0.0205081
0.588586 0.120745 0.0174716
0.623423 0.117006 0.0151522
0.650355 0.114565 0.0134432
0.670771 0.113237 0.0122072
0.687495 0.112871 0.0114748
0.702403 0.113329 0.0112154
0.716289 0.114458 0.0112612
0.729397 0.11603 0.0115053
0.74168 0.117968 0.0118868
0.753017 0.12018 0.0124208
0.762539 0.12253 0.0130007
0.770657 0.124971 0.0135958
0.774487 0.126177 0.0138857
0.774487 0.126177 0.0138857
0.774487 0.126177 0.0138857
0.774487 0.126177 0.0138857
0.0591897 0.179431 0.0244297
0.0602884 0.181704 0.0250553
0.0619821 0.184039 0.0258335
0.0646067 0.186465 0.0269169
0.0684825 0.189044 0.0284428
0.073991 0.192035 0.0304265
0.0817273 0.195972 0.0325322
0.0916762 0.201175 0.0345159
0.103868 0.207065 0.0369268
0.122927 0.212696 0.0400092
0.15697 0.216892 0.0434272
0.211887 0.215824 0.0465095
0.287526 0.207309 0.0477455
0.375021 0.195483 0.0461585
0.462211 0.184512 0.042237
0.542397 0.17499 0.0371252
0.611185 0.166659 0.0322881
0.665949 0.159503 0.0284276
0.708247 0.153872 0.0254215
0.740032 0.149874 0.0230564
0.763272 0.147295 0.0211948
0.780728 0.145968 0.0198978
0.794873 0.145815 0.0191958
0.80708 0.146624 0.018967
0.818143 0.14815 0.0190433
0.828336 0.150149 0.0193179
0.837598 0.152483 0.0197452
0.845197 0.155093 0.0203098
0.851621 0.157916 0.0209659
0.854643 0.159335 0.0212863
0.854643 0.159335 0.0212863
0.854643 0.159335 0.0212863
0.854643 0.159335 0.0212863
0.075349 0.212131 0.0323033
0.0771344 0.214862 0.0330205
0.0797284 0.21767 0.0339055
0.08365 0.2206 0.0350958
0.0892958 0.223697 0.0366979
0.0970321 0.227176 0.0388037
0.107118 0.231754 0.0411231
0.119326 0.237964 0.0432136
0.132891 0.245563 0.0450446
0.150164 0.25391 0.0469368
0.179278 0.262516 0.0491493
0.228199 0.268956 0.0522316
0.299474 0.267582 0.0551766
0.389502 0.257053 0.0563668
0.486305 0.242893 0.0551461
0.578302 0.229725 0.0512245
0.658991 0.218189 0.0461128
0.72398 0.208072 0.0416114
0.772778 0.199832 0.0378882
0.807996 0.193606 0.0346685
0.833036 0.189319 0.0319829
0.85095 0.186816 0.0299992
0.864347 0.18587 0.0287633
0.875059 0.186206 0.0281529
0.884306 0.187518 0.0279698
0.892668 0.189548 0.0280613
0.900038 0.192111 0.0284123
0.905486 0.195346 0.0290684
0.909606 0.1991 0.0299229
0.911528 0.200992 0.0303502
0.911528 0.200992 0.0303502
0.911528 0.200992 0.0303502
0.911528 0.200992 0.0303502
0.099443 0.249958 0.0411536
0.102022 0.253315 0.0420081
0.105562 0.256733 0.0430762
0.110689 0.260212 0.04448
0.117952 0.263798 0.0463264
0.127947 0.267781 0.0486458
0.140764 0.27306 0.0510719
0.15613 0.280308 0.0531014
0.173037 0.289433 0.0545357
0.191775 0.299931 0.0554208
0.218235 0.311299 0.0561685
0.261158 0.322225 0.0581826
0.3243 0.328389 0.0614481
0.406882 0.324376 0.0643473
0.50367 0.310521 0.0655375
0.602441 0.29369 0.063798
0.69099 0.278355 0.0595102
0.762966 0.264805 0.0547036
0.816632 0.253498 0.0504005
0.854017 0.2448 0.0465553
0.879561 0.238804 0.0433509
0.897398 0.235279 0.0410315
0.910048 0.233814 0.0395972
0.919249 0.234012 0.0389105
0.92639 0.235538 0.0387427
0.932357 0.238148 0.0389715
0.93727 0.241535 0.0395209
0.940429 0.245701 0.0404212
0.942336 0.250523 0.0415656
0.943175 0.252949 0.0421454
0.943175 0.252949 0.0421454
0.943175 0.252949 0.0421454
0.943175 0.252949 0.0421454
0.131106 0.293706 0.0514534
0.134508 0.297749 0.0524605
0.138933 0.301808 0.053666
0.145006 0.305882 0.0551919
0.15349 0.310033 0.0571908
0.16527 0.31458 0.0596933
0.180713 0.320485 0.0621958
0.199832 0.328618 0.0640879
0.221134 0.338918 0.0651865
0.242878 0.350958 0.0653544
0.2692 0.364096 0.0650797
0.307424 0.376928 0.0658122
0.36231 0.386618 0.0682231
0.434119 0.388571 0.0714122
0.52076 0.379416 0.0738537
0.616846 0.362051 0.0738537
0.709087 0.343557 0.0712139
0.785458 0.32723 0.0671855
0.842695 0.31342 0.0629129
0.882002 0.302968 0.0589914
0.907286 0.29601 0.055848
0.923674 0.292042 0.0536507
0.934493 0.290578 0.0523995
0.941665 0.291035 0.0518807
0.9467 0.29305 0.0519112
0.950561 0.296269 0.0523537
0.953536 0.300328 0.0531319
0.955383 0.305104 0.0541848
0.95639 0.31046 0.0554513
0.956817 0.313146 0.0560922
0.956817 0.313146 0.0560922
0.956817 0.313146 0.0560922
0.956817 0.313146 0.0560922
0.170672 0.343511 0.0626535
0.174655 0.348013 0.0636759
0.17966 0.35256 0.0648966
0.186358 0.357168 0.066453
0.19556 0.361929 0.068452
0.208301 0.367178 0.070985
0.225391 0.373754 0.0735943
0.247562 0.38233 0.0756237
0.273152 0.392935 0.0766613
0.298329 0.405447 0.0764172
0.326024 0.419287 0.0752422
0.362142 0.432746 0.0745556
0.409995 0.443565 0.0752422
0.471244 0.448264 0.0772564
0.544625 0.443381 0.0798352
0.628565 0.428946 0.0812238
0.716579 0.410437 0.0805829
0.795026 0.393194 0.0785077
0.854307 0.378653 0.0755474
0.894163 0.367498 0.072282
0.919051 0.359945 0.0694591
0.934295 0.355642 0.0674907
0.943893 0.354055 0.066392
0.950088 0.354528 0.0659953
0.954406 0.356542 0.0660868
0.957748 0.359731 0.0665446
0.960311 0.363714 0.0672923
0.961791 0.36849 0.0683146
0.962402 0.373785 0.0695048
0.962615 0.376394 0.0700847
0.962615 0.376394 0.0700847
0.962615 0.376394 0.0700847
0.962615 0.376394 0.0700847
0.21503 0.397452 0.0736553
0.219226 0.402152 0.0746624
0.224491 0.406882 0.0758679
0.23154 0.411688 0.0774548
0.241123 0.416678 0.0795911
0.254368 0.422248 0.0823072
0.272282 0.429068 0.0851606
0.296101 0.437598 0.0874342
0.324788 0.447761 0.0884413
0.353017 0.459495 0.0876631
0.381872 0.472419 0.0853742
0.416648 0.485115 0.0831311
0.459327 0.49601 0.0821546
0.511131 0.502541 0.0826886
0.572854 0.500786 0.084596
0.644343 0.489982 0.0867475
0.72282 0.473991 0.0878004
0.798535 0.457603 0.087602
0.858122 0.443763 0.0865034
0.89749 0.433005 0.0846265
0.921706 0.425162 0.0825055
0.936584 0.420233 0.0807965
0.946029 0.418021 0.0797589
0.952193 0.417945 0.0793164
0.956497 0.419455 0.0793164
0.959792 0.42208 0.0796216
0.962249 0.425437 0.0801862
0.963546 0.429526 0.0809949
0.963882 0.434195 0.0819562
0.963943 0.436484 0.0824292
0.963943 0.436484 0.0824292
0.963943 0.436484 0.0824292
0.963943 0.436484 0.0824292
0.261555 0.451637 0.0842298
0.265919 0.456123 0.0852064
0.27126 0.460578 0.0863966
0.278294 0.465126 0.087953
0.2878 0.469871 0.0901198
0.30106 0.475135 0.092958
0.319173 0.481407 0.0959029
0.343313 0.489143 0.0982223
0.372854 0.498253 0.0991531
0.40238 0.508553 0.0978256
0.431327 0.519783 0.0946059
0.464576 0.531075 0.0912337
0.504067 0.541314 0.089128
0.54992 0.54905 0.0886854
0.602502 0.550637 0.0897993
0.664363 0.543267 0.0918135
0.734142 0.529793 0.0937362
0.80325 0.515053 0.0948196
0.859815 0.502083 0.0949264
0.898268 0.491859 0.094255
0.922484 0.484306 0.0931563
0.937667 0.479347 0.0920729
0.947082 0.476768 0.0912795
0.952926 0.476112 0.090837
0.956924 0.47686 0.0906996
0.959991 0.47866 0.0908064
0.962264 0.481147 0.0911574
0.963424 0.484398 0.0917525
0.963714 0.488258 0.0925307
0.963775 0.490196 0.0929122
0.963775 0.490196 0.0929122
0.963775 0.490196 0.0929122
0.963775 0.490196 0.0929122
0.309422 0.501198 0.0941176
0.313726 0.505104 0.0949569
0.318807 0.508995 0.0959945
0.325246 0.512917 0.0973526
0.333913 0.517098 0.0992599
0.346227 0.521843 0.101839
0.363684 0.527413 0.104494
0.387472 0.534035 0.106615
0.416373 0.541756 0.107515
0.445563 0.550668 0.106065
0.473869 0.560555 0.102525
0.505867 0.570733 0.0987411
0.543679 0.580453 0.096025
0.58703 0.58851 0.0949416
0.634577 0.59205 0.0953841
0.688594 0.587869 0.0966964
0.750698 0.576806 0.0985122
0.813077 0.563424 0.100221
0.864195 0.551263 0.10103
0.899687 0.541314 0.100969
0.923293 0.533959 0.100618
0.938888 0.529305 0.100298
0.948531 0.526864 0.100053
0.954208 0.526024 0.0999161
0.9579 0.526329 0.0999008
0.960647 0.52755 0.100084
0.962692 0.529381 0.100404
0.963745 0.531868 0.100908
0.964034 0.534905 0.101534
0.964096 0.536446 0.101854
0.964096 0.536446 0.101854
0.964096 0.536446 0.101854
0.964096 0.536446 0.101854
0.354559 0.543191 0.101961
0.358511 0.546517 0.102602
0.363226 0.549874 0.103365
0.369146 0.553216 0.104433
0.377005 0.55671 0.10602
0.387991 0.560632 0.108232
0.403998 0.565286 0.110628
0.426856 0.570886 0.112551
0.454887 0.577325 0.113405
0.482994 0.584909 0.112062
0.510307 0.593698 0.108675
0.540917 0.603037 0.104906
0.577401 0.61236 0.101991
0.619593 0.620661 0.100526
0.665187 0.624872 0.100481
0.714122 0.622812 0.101137
0.769055 0.614343 0.102403
0.825315 0.602136 0.104143
0.871321 0.590738 0.105486
0.902831 0.581689 0.106096
0.924468 0.574746 0.10631
0.939605 0.570062 0.106432
0.949218 0.567529 0.1066
0.954818 0.566567 0.106828
0.958358 0.566674 0.107103
0.960922 0.567468 0.107454
0.962783 0.568704 0.107866
0.96376 0.570413 0.108293
0.963989 0.572564 0.108751
0.964019 0.573663 0.10898
0.964019 0.573663 0.10898
0.964019 0.573663 0.10898
0.964019 0.573663 0.10898
0.39321 0.577081 0.107118
0.396902 0.579934 0.107576
0.401495 0.582803 0.108125
0.40734 0.585611 0.108965
0.415106 0.58851 0.110323
0.425528 0.591623 0.112337
0.440085 0.59527 0.114778
0.461341 0.599817 0.116884
0.488228 0.60528 0.117784
0.515053 0.611734 0.116518
0.541222 0.619532 0.113268
0.570397 0.628199 0.109545
0.605341 0.637201 0.106554
0.646342 0.645594 0.104829
0.690425 0.65008 0.104387
0.736278 0.649042 0.104692
0.785367 0.642603 0.10576
0.835813 0.631632 0.1075
0.877852 0.620768 0.109209
0.906371 0.612863 0.110491
0.926055 0.606912 0.111299
0.940169 0.602396 0.111757
0.949264 0.599557 0.112062
0.95462 0.598215 0.112367
0.958053 0.597833 0.112703
0.96054 0.598016 0.113054
0.962341 0.598596 0.11342
0.963272 0.599619 0.113771
0.96347 0.601022 0.114092
0.963485 0.601755 0.114244
0.963485 0.601755 0.114244
0.963485 0.601755 0.114244
0.963485 0.601755 0.114244
0.424613 0.603235 0.110369
0.428031 0.605524 0.110689
0.432441 0.607828 0.111116
0.438285 0.610147 0.111879
0.446403 0.61268 0.113161
0.457145 0.615442 0.11519
0.471031 0.618402 0.117845
0.490822 0.622095 0.120333
0.51632 0.626871 0.121386
0.541802 0.632593 0.120012
0.566857 0.639612 0.116686
0.594903 0.647791 0.112932
0.628397 0.656565 0.109819
0.66807 0.664759 0.107912
0.710674 0.669306 0.107179
0.754406 0.668727 0.107347
0.79939 0.663371 0.108583
0.844617 0.653498 0.110536
0.883055 0.643168 0.112459
0.909606 0.635935 0.114107
0.927947 0.630793 0.115328
0.94107 0.626764 0.11606
0.949508 0.623911 0.116472
0.954513 0.622202 0.116747
0.957809 0.621286 0.116991
0.96022 0.620935 0.11725
0.961975 0.620951 0.117525
0.96286 0.621424 0.117769
0.963043 0.622263 0.117983
0.963058 0.622736 0.118074
0.963058 0.622736 0.118074
0.963058 0.622736 0.118074
0.963058 0.622736 0.118074
0.449531 0.622507 0.112627
0.45272 0.624277 0.11284
0.456962 0.626184 0.113237
0.462669 0.628199 0.114061
0.470939 0.630488 0.115434
0.482033 0.63299 0.11754
0.495857 0.635554 0.120455
0.514687 0.638682 0.123308
0.538827 0.64303 0.124361
0.563043 0.648402 0.122637
0.587106 0.654963 0.119081
0.61445 0.662791 0.115175
0.647074 0.671336 0.111986
0.685618 0.67924 0.110033
0.726955 0.683757 0.109239
0.76939 0.68336 0.109407
0.812009 0.678279 0.110857
0.85301 0.669245 0.113008
0.887877 0.659724 0.115038
0.912795 0.652934 0.116884
0.930159 0.648264 0.118318
0.942428 0.644602 0.119219
0.950164 0.641901 0.119677
0.954772 0.64007 0.119921
0.9579 0.63888 0.120104
0.96025 0.638148 0.120287
0.961959 0.637736 0.12047
0.962783 0.637781 0.120623
0.962951 0.638239 0.120745
0.962966 0.638514 0.120806
0.962966 0.638514 0.120806
0.962966 0.638514 0.120806
0.962966 0.638514 0.120806
0.469062 0.636362 0.114397
0.472374 0.637995 0.114534
0.476661 0.639719 0.114931
0.482124 0.641489 0.115816
0.49015 0.643519 0.117327
0.501305 0.645762 0.119631
0.515373 0.648066 0.122774
0.533913 0.650935 0.12578
0.556771 0.655055 0.126604
0.579568 0.660182 0.124498
0.602869 0.666499 0.120668
0.629969 0.674159 0.116594
0.662303 0.682475 0.113359
0.699947 0.690044 0.111437
0.740215 0.694499 0.110735
0.781811 0.694041 0.11107
0.822858 0.68893 0.112703
0.860746 0.680568 0.114946
0.892607 0.671855 0.117037
0.915999 0.665492 0.118975
0.93254 0.661112 0.120546
0.94406 0.657633 0.121492
0.951125 0.655055 0.12195
0.955322 0.653223 0.122164
0.958236 0.651911 0.122316
0.960464 0.65095 0.122454
0.962112 0.650248 0.122576
0.96289 0.650034 0.122667
0.963027 0.650233 0.122728
0.963043 0.65037 0.122759
0.963043 0.65037 0.122759
0.963043 0.65037 0.122759
0.963043 0.65037 0.122759
0.483803 0.64651 0.115877
0.48748 0.648127 0.115923
0.491875 0.649729 0.11632
0.497276 0.651301 0.117357
0.505089 0.653071 0.119066
0.516167 0.655024 0.121599
0.530541 0.657115 0.12491
0.549126 0.659907 0.12781
0.570932 0.663905 0.128283
0.592432 0.668849 0.125795
0.615274 0.675059 0.121706
0.642451 0.682673 0.117525
0.674617 0.690776 0.11429
0.711666 0.698039 0.112459
0.751247 0.702266 0.111879
0.792172 0.701579 0.112444
0.831907 0.696422 0.114214
0.867445 0.68864 0.116487
0.896956 0.680613 0.118593
0.919005 0.674632 0.120546
0.934783 0.670512 0.12221
0.945617 0.667201 0.123201
0.952102 0.664637 0.123598
0.955932 0.662821 0.123796
0.958633 0.661463 0.123919
0.960723 0.66041 0.124041
0.96228 0.659556 0.124132
0.963012 0.65919 0.124193
0.963119 0.659251 0.124224
0.963119 0.659312 0.124224
0.963119 0.659312 0.124224
0.963119 0.659312 0.124224
0.963119 0.659312 0.124224
0.494316 0.653864 0.117082
0.498207 0.65539 0.117098
0.502434 0.656748 0.117708
0.507836 0.658137 0.118975
0.515679 0.659709 0.120928
0.526772 0.661433 0.123705
0.54139 0.663401 0.127108
0.560113 0.666148 0.129809
0.581369 0.670146 0.129809
0.602213 0.675074 0.126864
0.624964 0.6813 0.122545
0.652232 0.688884 0.118318
0.684245 0.696834 0.115084
0.720958 0.703777 0.113329
0.760174 0.707668 0.112902
0.800549 0.706722 0.113603
0.839216 0.701564 0.11545
0.872892 0.694224 0.117708
0.900511 0.686793 0.119799
0.921386 0.681178 0.121752
0.936461 0.677317 0.123461
0.946792 0.674174 0.124468
0.952895 0.671626 0.124849
0.956451 0.669779 0.125017
0.959014 0.668437 0.125124
0.960967 0.667384 0.125231
0.962448 0.666514 0.125307
