luts/lumix_color_lab_B/Realistic_Filmtone_33.cube
TITLE "Generated by Resolve"
LUT_3D_SIZE 5
0.0390021 0.0439918 0.0475013
0.0614633 0.0261082 0.0345159
0.132998 0.014023 0.0103456
0.199313 0.0139925 0.00735485
0.209613 0.0139925 0.00689708
0.038941 0.105043 0.0223087
0.0831311 0.107988 0.0210117
0.375006 0.0632029 0.00648508
0.52079 0.0652476 0.00428778
0.568841 0.0739605 0.00479133
0.21503 0.397452 0.0736553
0.324788 0.447761 0.0884413
0.72282 0.473991 0.0878004
0.956497 0.419455 0.0793164
0.963943 0.436484 0.0824292
0.483803 0.64651 0.115877
0.570932 0.663905 0.128283
0.831907 0.696422 0.114214
0.958633 0.661463 0.123919
0.963119 0.659312 0.124224
0.502922 0.661387 0.119982
0.59443 0.676509 0.131563
0.848936 0.705684 0.117067
0.959304 0.676036 0.126513
0.963165 0.673777 0.12665
0.0233921 0.0242771 0.0742809
0.117342 0.016968 0.105577
0.235325 0.0106966 0.0547341
0.306035 0.0100557 0.0220493
0.330434 0.00991836 0.0234379
0.0208133 0.142245 0.116884
0.118212 0.112718 0.126329
0.468956 0.0547036 0.0564126
0.640146 0.0488441 0.0402991
0.713634 0.0654765 0.0634318
0.17879 0.477256 0.128252
0.309606 0.525582 0.159884
0.797375 0.560891 0.167239
0.953826 0.50724 0.178317
0.951659 0.538949 0.208255
0.39411 0.692256 0.216312
0.510613 0.717708 0.236866
0.865644 0.77702 0.23209
0.963272 0.734966 0.227268
0.964111 0.728557 0.234928
0.386099 0.712322 0.24831
0.51722 0.727489 0.262852
0.86978 0.784207 0.251225
0.95964 0.744961 0.238102
0.964172 0.740841 0.237781
0.00567636 0.0234989 0.15433
0.054551 0.0238193 0.244862
0.350774 0.0209506 0.215793
0.514 0.018616 0.188418
0.52137 0.0186465 0.189044
0.007187 0.142138 0.360815
0.0348669 0.128969 0.405112
0.538338 0.0870375 0.299092
0.741268 0.0824903 0.268864
0.755947 0.116442 0.300649
0.132876 0.736797 0.704189
0.205676 0.765866 0.743694
0.699413 0.685298 0.668101
0.86807 0.669551 0.656123
0.876463 0.691676 0.679805
0.233158 0.876905 0.752987
0.308583 0.875151 0.758007
0.733486 0.842069 0.678096
0.927901 0.853925 0.682872
0.932357 0.852201 0.688594
0.241749 0.884489 0.788647
0.327535 0.876539 0.773632
0.743877 0.848615 0.687282
0.92781 0.861799 0.685176
0.933898 0.861982 0.68893
0.00230411 0.0303044 0.210559
0.0382696 0.0268711 0.34583
0.305516 0.0276036 0.332097
0.439963 0.0263828 0.296147
0.459129 0.0264439 0.294347
0.0015259 0.161959 0.460655
0.0179446 0.165042 0.554543
0.432273 0.134493 0.451865
0.649485 0.135454 0.409461
0.666667 0.163226 0.427741
0.148623 0.755962 0.85362
0.224079 0.762768 0.85864
0.660639 0.718669 0.805142
0.831952 0.733104 0.794308
0.848615 0.749706 0.801068
0.262531 0.886809 0.880171
0.378637 0.885023 0.88632
0.737316 0.878386 0.869978
0.904753 0.872892 0.860182
0.909819 0.873411 0.861204
0.273365 0.890883 0.883665
0.396551 0.887205 0.886961
0.740978 0.882567 0.86891
0.905943 0.879698 0.862562
0.913573 0.880446 0.864958
0.00221256 0.0303197 0.21532
0.0372473 0.0274968 0.356283
0.307164 0.0281376 0.34757
0.432654 0.0274968 0.311971
0.452216 0.0273136 0.307912
0.00161746 0.170062 0.476326
0.0239261 0.192676 0.584512
0.439811 0.16054 0.471595
0.643992 0.156374 0.427466
0.660945 0.178103 0.442145
0.153079 0.761624 0.861906
0.237156 0.762539 0.857954
0.68426 0.732509 0.811521
0.835706 0.746609 0.802243
0.849958 0.759213 0.807218
0.265705 0.886732 0.882795
0.382864 0.88249 0.885695
0.750362 0.875944 0.870344
0.905379 0.874403 0.864988
0.910094 0.875486 0.86569
0.274128 0.890364 0.884565
0.399039 0.885954 0.887388
0.749737 0.881529 0.871611
0.907103 0.881315 0.870069
0.913817 0.881682 0.870848
