luts/lumix_color_lab_B/Realistic_Cinetone_33.cube
TITLE "Generated by Resolve"
LUT_3D_SIZE 5
0.00683604 0.00683604 0.00683604
0.118135 0.00712596 0.0136873
0.467414 0.0134432 0.0549325
0.998215 0.0236973 0.155306
0.998215 0.0236973 0.155306
4.57771e-05 0.123659 0.00653086
0.13463 0.141207 0.00807202
0.659144 0.11339 0.0665141
0.998856 0.0233616 0.155306
0.998215 0.0236973 0.155306
0 0.731106 0.0111238
6.10361e-05 0.711284 0.00866712
0.641428 0.699443 0.0601968
0.99971 0.548501 0.000640879
0.999374 0.464118 0.0119478
0 0.964797 0.370962
0.000137331 0.964858 0.369558
0.21033 0.97496 0.430762
0.924147 0.998779 0.355947
0.963226 0.955001 0.288899
0 0.964782 0.371328
0 0.964782 0.371328
6.10361e-05 0.971756 0.420142
0.799283 0.992233 0.500908
0.958373 0.999695 0.361227
0.00671397 0.0106661 0.0931716
0.136812 0.00781262 0.104524
0.557946 0.0150759 0.0793011
0.998215 0.0236973 0.155306
0.998215 0.0236973 0.155306
0.00030518 0.146181 0.14258
0.147448 0.151949 0.150134
0.69276 0.0886702 0.0942702
0.99823 0.0236973 0.155306
0.998215 0.0236973 0.155306
0.000106813 0.730282 0.29163
0.000183108 0.695613 0.198154
0.655512 0.667124 0.137469
0.999496 0.499077 0.00654612
0.999191 0.418814 0.0277104
4.57771e-05 0.963195 0.436774
4.57771e-05 0.964218 0.39884
0.267185 0.976043 0.430198
0.939391 0.994308 0.31577
0.965438 0.933852 0.26659
0 0.964569 0.426993
0.00015259 0.96408 0.400122
4.57771e-05 0.971893 0.428214
0.807904 0.992859 0.498589
0.958007 0.999542 0.359808
4.57771e-05 0.0638285 0.342824
0.158373 0.0599832 0.355962
0.735256 0.0135653 0.556329
0.99971 0.021622 0.4094
0.999649 0.0222171 0.345068
0.000503548 0.242573 0.587167
0.0495003 0.248508 0.646113
0.81236 0.169696 0.695308
0.999619 0.0555123 0.434577
0.999771 0.0217899 0.344732
0.000976577 0.762066 0.754955
0.000259403 0.727749 0.68867
0.676127 0.68101 0.67866
0.999664 0.528206 0.487419
0.99971 0.451545 0.371328
0 0.958007 0.675731
0.000183108 0.959121 0.624613
0.160723 0.971893 0.625208
0.956527 0.977951 0.550225
0.980407 0.9066 0.479118
0.000198367 0.958236 0.66186
1.5259e-05 0.95935 0.605035
0.000350958 0.967514 0.58468
0.812543 0.991806 0.626902
0.965606 0.999695 0.498817
0.000671397 0.209598 0.8374
0.00114443 0.235157 0.881437
0.845197 0.266331 0.999496
0.999664 0.233112 0.95671
0.999847 0.215656 0.926558
0.00047303 0.455756 0.942306
0.000793469 0.4533 0.943191
0.696269 0.433356 0.999298
0.999924 0.279469 0.98027
0.999802 0.234516 0.945373
0.000137331 0.713573 0.887404
0.000259403 0.693187 0.892958
0.266468 0.673213 0.952316
0.999802 0.572808 0.950271
0.999802 0.53286 0.880888
0.000381476 0.951171 0.844129
0.000183108 0.949248 0.841031
0.000289921 0.943481 0.857816
0.926162 0.930938 0.928679
0.999481 0.884184 0.868986
0.000823987 0.951659 0.845624
0.000808728 0.951675 0.845579
3.0518e-05 0.953704 0.833173
0.765286 0.986893 0.873014
0.985107 0.999695 0.830152
0.000747692 0.34316 0.962249
0.000320439 0.386404 0.954971
0.733913 0.43447 0.999771
1 0.31931 1
1 0.31931 1
0.000503548 0.465293 0.941131
0.000289921 0.452674 0.943267
0.639887 0.468437 0.99968
0.999969 0.328847 0.999527
1 0.320958 0.999847
0.000259403 0.705486 0.889921
0.000366217 0.68191 0.895262
0.211902 0.656687 0.94995
0.999588 0.563165 0.99942
0.999741 0.542367 0.999191
0.000381476 0.951598 0.843915
0.000137331 0.944167 0.841566
1.5259e-05 0.924193 0.849592
0.875471 0.900542 0.988479
0.999466 0.863661 0.999344
0.000823987 0.951659 0.845624
0.000823987 0.951659 0.845624
0.000823987 0.951659 0.845624
0.682445 0.982498 0.949752
1 1 1
