luts/lumix_color_lab_B/Realistic_Cinetone_33.cube
TITLE "Generated by Resolve"
LUT_3D_SIZE 9
0.00683604 0.00683604 0.00683604
0.0159304 0.00679026 0.00714122
0.118135 0.00712596 0.0136873
0.24036 0.00988785 0.020737
0.467414 0.0134432 0.0549325
0.853193 0.0200046 0.129061
0.998215 0.0236973 0.155306
0.998215 0.0236973 0.155306
0.998215 0.0236973 0.155306
0.00381476 0.0129549 0.00714122
0.0135042 0.0153353 0.00746166
0.123522 0.0138399 0.0131685
0.268681 0.0104677 0.0255131
0.574578 0.0148775 0.0759442
0.975647 0.023209 0.151446
0.998215 0.0236973 0.155306
0.998215 0.0236973 0.155306
0.998215 0.0236973 0.155306
4.57771e-05 0.123659 0.00653086
0.000244144 0.133043 0.00764477
0.13463 0.141207 0.00807202
0.328801 0.144137 0.00715648
0.659144 0.11339 0.0665141
0.982376 0.0238346 0.153033
0.998856 0.0233616 0.155306
0.998215 0.0236973 0.155306
0.998215 0.0236973 0.155306
0.000228885 0.32314 0.0040589
1.5259e-05 0.344823 0.00234989
0.0222629 0.347295 0.0115816
0.32546 0.350332 0.0115663
0.669718 0.35729 0.000488289
0.983932 0.320058 0.0692607
0.999634 0.200855 0.118257
0.999512 0.149279 0.131304
0.999405 0.132036 0.134859
0 0.731106 0.0111238
0 0.722744 0.00828565
6.10361e-05 0.711284 0.00866712
0.139696 0.703899 0.0438239
0.641428 0.699443 0.0601968
0.948028 0.680751 0.000183108
0.99971 0.548501 0.000640879
0.999069 0.47541 0.00762951
0.999374 0.464118 0.0119478
0.000122072 0.96408 0.283879
9.15541e-05 0.961486 0.278706
0.000137331 0.957244 0.270375
0 0.955734 0.281315
0.515007 0.951156 0.285924
0.846326 0.926055 0.224567
0.974319 0.849302 0.110201
0.983627 0.767224 0.034226
0.984237 0.760464 0.023621
0 0.964797 0.370962
0 0.964782 0.370947
0.000137331 0.964858 0.369558
0 0.967819 0.382223
0.21033 0.97496 0.430762
0.666072 0.986786 0.462745
0.924147 0.998779 0.355947
0.962982 0.960159 0.294743
0.963226 0.955001 0.288899
0 0.964782 0.371328
0 0.964782 0.371328
0 0.964782 0.371328
0.000167849 0.966567 0.378866
0.0104982 0.972152 0.425666
0.548226 0.981857 0.499443
0.819104 0.993118 0.497627
0.95964 0.999771 0.375891
0.95787 0.999619 0.358587
0 0.964782 0.371328
0 0.964782 0.371328
0 0.964782 0.371328
0.000320439 0.96553 0.376837
6.10361e-05 0.971756 0.420142
0.521126 0.981003 0.492882
0.799283 0.992233 0.500908
0.960342 0.999878 0.383948
0.958373 0.999695 0.361227
0.00683604 0.0065156 0.0084535
0.0169985 0.0065919 0.00924697
0.126101 0.00648508 0.0131533
0.248844 0.0102541 0.0214847
0.505882 0.0136721 0.0643168
0.901961 0.0213474 0.137407
0.998215 0.0236973 0.155306
0.998215 0.0236973 0.155306
0.998215 0.0236973 0.155306
0.00360113 0.0133364 0.0174563
0.0146792 0.0158999 0.0157015
0.132525 0.0138094 0.0144656
0.285206 0.0102998 0.026154
0.613718 0.0149233 0.0834821
0.993011 0.0233463 0.154742
0.998215 0.0236973 0.155306
0.998215 0.0236973 0.155306
0.998215 0.0236973 0.155306
0.000350958 0.127855 0.0367437
9.15541e-05 0.134127 0.0290684
0.141649 0.140414 0.0159457
0.339315 0.136538 0.00834669
0.669413 0.095079 0.0737621
0.988876 0.0230716 0.15404
0.99855 0.0235142 0.155306
0.998215 0.0236973 0.155306
0.998215 0.0236973 0.155306
0.000106813 0.335042 0.0545968
0 0.343236 0.0253147
0.0254063 0.337545 0.0191043
0.332616 0.338231 0.0100099
0.677485 0.343084 0.00184634
0.987457 0.299168 0.0798962
0.999329 0.17821 0.12401
0.999374 0.112825 0.13843
0.999496 0.0925002 0.142
0.000122072 0.724208 0.0680858
0.000122072 0.712367 0.0214237
0.000167849 0.697902 0.00466926
0.158221 0.688182 0.0344701
0.647089 0.682826 0.0465858
0.95491 0.66215 0.000106813
0.999344 0.525994 0.00138857
0.999374 0.453803 0.016144
0.999329 0.443198 0.0193484
6.10361e-05 0.960693 0.298604
0.000106813 0.958618 0.278843
7.62951e-05 0.953658 0.261067
0.000122072 0.951492 0.270512
0.525979 0.941848 0.276143
0.854414 0.915572 0.21004
0.975418 0.835599 0.0800336
0.985016 0.752758 0.0105898
0.985809 0.7458 0.00332647
4.57771e-05 0.964385 0.375875
6.10361e-05 0.964752 0.370703
0.000137331 0.965148 0.365805
3.0518e-05 0.967895 0.380758
0.232197 0.976425 0.427771
0.676677 0.987243 0.4495
0.932311 0.996979 0.338277
0.963607 0.950545 0.284413
0.96492 0.9449 0.280018
0 0.96463 0.372137
0 0.964782 0.371328
0 0.964782 0.371328
3.0518e-05 0.966522 0.379919
0.0151064 0.972168 0.427466
0.553323 0.982452 0.500206
0.821637 0.993973 0.496025
0.959472 0.999695 0.374701
0.95787 0.999619 0.358587
0 0.964706 0.37174
0 0.964782 0.371328
0 0.964782 0.371328
3.0518e-05 0.965972 0.376349
9.15541e-05 0.972015 0.421744
0.527291 0.981582 0.494911
0.802396 0.993011 0.499504
0.959716 0.999634 0.381094
0.958129 0.999619 0.360128
0.00671397 0.0106661 0.0931716
0.0177462 0.010071 0.0906386
0.136812 0.00781262 0.104524
0.273518 0.0103304 0.100313
0.557946 0.0150759 0.0793011
0.95172 0.0223392 0.14786
0.998215 0.0236973 0.155306
0.998215 0.0236973 0.155306
0.998215 0.0236973 0.155306
0.00350958 0.0247196 0.107607
0.0107118 0.0258183 0.105821
0.148516 0.020264 0.126406
0.319478 0.010132 0.134081
0.668833 0.0164797 0.0957046
0.997147 0.023682 0.155123
0.998215 0.0236973 0.155306
0.998215 0.0236973 0.155306
0.998215 0.0236973 0.155306
0.00030518 0.146181 0.14258
0.000137331 0.149691 0.139208
0.147448 0.151949 0.150134
0.365438 0.140322 0.143572
0.69276 0.0886702 0.0942702
0.996567 0.0234379 0.154818
0.99823 0.0236973 0.155306
0.998215 0.0236973 0.155306
0.998215 0.0236973 0.155306
0.000259403 0.371695 0.205356
0.000259403 0.36463 0.179004
0.0230259 0.349844 0.165164
0.347539 0.341405 0.154238
0.694392 0.335744 0.0846571
0.99234 0.279225 0.0891432
0.999405 0.149767 0.129946
0.999588 0.0809949 0.144778
0.999588 0.0750439 0.145708
0.000106813 0.730282 0.29163
0.000106813 0.715587 0.245853
0.000183108 0.695613 0.198154
0.165637 0.67924 0.173602
0.655512 0.667124 0.137469
0.960739 0.640253 0.000534066
0.999496 0.499077 0.00654612
0.99913 0.429404 0.0238956
0.999191 0.418814 0.0277104
9.15541e-05 0.955535 0.419074
4.57771e-05 0.952148 0.387945
4.57771e-05 0.947875 0.345342
0.000137331 0.943221 0.32137
0.536049 0.929763 0.292073
0.863447 0.9028 0.201846
0.978103 0.818799 0.057847
0.986328 0.736568 6.10361e-05
0.98674 0.728832 3.0518e-05
4.57771e-05 0.963195 0.436774
6.10361e-05 0.963668 0.419181
4.57771e-05 0.964218 0.39884
0.000167849 0.967742 0.398871
0.267185 0.976043 0.430198
0.691066 0.987961 0.436027
0.939391 0.994308 0.31577
0.965057 0.938582 0.272038
0.965438 0.933852 0.26659
0 0.964294 0.428397
7.62951e-05 0.964126 0.415747
0.00015259 0.96437 0.401358
7.62951e-05 0.965484 0.39649
0.0230869 0.972168 0.433555
0.560342 0.982208 0.501427
0.827146 0.993637 0.496178
0.959838 0.999725 0.373678
0.95787 0.999619 0.358526
0 0.964569 0.426993
7.62951e-05 0.96408 0.41474
0.00015259 0.96408 0.400122
0 0.965499 0.393286
4.57771e-05 0.971893 0.428214
0.533898 0.980896 0.496376
0.807904 0.992859 0.498589
0.959686 0.999695 0.379858
0.958007 0.999542 0.359808
0.00201419 0.0274052 0.189624
0.00560006 0.0270237 0.186099
0.15111 0.0175784 0.209522
0.313893 0.0103609 0.240925
0.638376 0.0151522 0.286534
0.990219 0.0234379 0.187976
0.998215 0.0236973 0.155306
0.998215 0.0236973 0.155306
0.998215 0.0236973 0.155306
0.00114443 0.0445716 0.214908
0.00170901 0.0472725 0.215457
0.162234 0.0438697 0.255192
0.371786 0.0140078 0.3028
0.747204 0.0155337 0.339269
0.998535 0.0233921 0.198459
0.998215 0.0236973 0.155306
0.998215 0.0236973 0.155306
0.998215 0.0236973 0.155306
0 0.177829 0.299641
0.000518807 0.182406 0.309834
0.138643 0.181247 0.331487
0.404227 0.166064 0.34136
0.746838 0.110414 0.355581
0.998306 0.0231785 0.22884
0.998215 0.0236973 0.155306
0.998215 0.0236973 0.155306
0.998215 0.0236973 0.155306
9.15541e-05 0.433082 0.449073
0.000122072 0.413977 0.413611
0.00367742 0.390143 0.381765
0.367803 0.371923 0.370352
0.732708 0.353079 0.359899
0.998611 0.285039 0.248631
0.999496 0.190478 0.121569
0.999405 0.0985885 0.140795
0.999496 0.0812695 0.144503
0.000167849 0.744717 0.533211
0.000122072 0.730144 0.493828
0.00015259 0.706157 0.442252
0.150301 0.685466 0.416754
0.669795 0.666896 0.384482
0.971801 0.628031 0.274144
0.998978 0.496529 0.0999161
0.999466 0.42678 0.0251011
0.999313 0.414679 0.0292668
0.000259403 0.946029 0.576654
0.000274662 0.944076 0.545281
0.000289921 0.938445 0.504662
0.000183108 0.929274 0.48333
0.53669 0.91545 0.465156
0.872023 0.887907 0.385718
0.986007 0.80174 0.273457
0.99295 0.720867 0.145205
0.992691 0.712963 0.115297
0.000106813 0.959854 0.535088
0.000167849 0.960876 0.513054
0.000183108 0.962081 0.488441
0.000137331 0.965408 0.483467
0.239551 0.974762 0.503258
0.701579 0.987518 0.50367
0.946471 0.988083 0.384375
0.96994 0.926131 0.324041
0.970352 0.92079 0.312337
4.57771e-05 0.96083 0.526268
0.000259403 0.960952 0.506371
7.62951e-05 0.961608 0.483879
0.000244144 0.964157 0.46978
0.00143435 0.971084 0.491875
0.558526 0.981872 0.543832
0.830213 0.993805 0.534661
0.961395 0.999817 0.406043
0.96144 0.99971 0.38967
3.0518e-05 0.96083 0.524651
0.00015259 0.960922 0.504387
0.000137331 0.961868 0.482338
7.62951e-05 0.96379 0.466529
7.62951e-05 0.970489 0.487358
0.530083 0.980957 0.536919
0.811048 0.992721 0.537545
0.961669 0.999664 0.410147
0.961364 0.999786 0.388602
4.57771e-05 0.0638285 0.342824
0.000534066 0.0636149 0.333974
0.158373 0.0599832 0.355962
0.376715 0.0415198 0.439094
0.735256 0.0135653 0.556329
0.99939 0.0197452 0.537835
0.99971 0.021622 0.4094
0.999527 0.0216068 0.360708
0.999649 0.0222171 0.345068
0.00015259 0.0850996 0.391394
0.000534066 0.0929885 0.417868
0.162249 0.0986038 0.489906
0.451377 0.0829633 0.588006
0.827771 0.0151827 0.682582
0.999847 0.0197299 0.570336
0.999588 0.0208743 0.419699
0.999771 0.0223087 0.361776
0.999908 0.0232395 0.344823
0.000503548 0.242573 0.587167
0.000381476 0.252598 0.622293
0.0495003 0.248508 0.646113
0.451637 0.22742 0.669444
0.81236 0.169696 0.695308
0.999863 0.0445563 0.613809
0.999619 0.0555123 0.434577
0.999649 0.0214694 0.366674
0.999771 0.0217899 0.344732
0.000396735 0.52253 0.744579
0.000427253 0.501091 0.715785
0.000381476 0.469841 0.67776
0.35671 0.442222 0.688212
0.77084 0.401114 0.691417
0.999344 0.320104 0.626383
0.999634 0.292622 0.454368
0.999496 0.2421 0.379995
0.999374 0.228611 0.359106
0.000976577 0.762066 0.754955
0.000427253 0.749554 0.729335
0.000259403 0.727749 0.68867
0.0699168 0.706325 0.683833
0.676127 0.68101 0.67866
0.979889 0.630106 0.622736
0.999664 0.528206 0.487419
0.999573 0.464393 0.391699
0.99971 0.451545 0.371328
0.000213626 0.928573 0.737987
0.00015259 0.92517 0.71545
0.000167849 0.918517 0.683391
0.000122072 0.909499 0.666087
0.499748 0.897551 0.667185
0.871839 0.870039 0.626947
0.997742 0.787076 0.536675
0.999664 0.714046 0.434562
0.999741 0.706325 0.416129
0 0.958007 0.675731
0.000244144 0.958389 0.650706
0.000183108 0.959121 0.624613
9.15541e-05 0.961456 0.608606
0.160723 0.971893 0.625208
0.697856 0.985931 0.629129
0.956527 0.977951 0.550225
0.980102 0.911727 0.492073
0.980407 0.9066 0.479118
0.000137331 0.95816 0.664744
3.0518e-05 0.958724 0.637095
1.5259e-05 0.959487 0.606683
0.000167849 0.960616 0.581018
0.000244144 0.968399 0.589487
0.539147 0.979904 0.620569
0.831571 0.99292 0.626368
0.966522 0.999802 0.518013
0.965682 0.99971 0.500664
0.000198367 0.958236 0.66186
4.57771e-05 0.958953 0.634653
1.5259e-05 0.95935 0.605035
0.000167849 0.960342 0.577249
0.000350958 0.967514 0.58468
0.508568 0.978927 0.614649
0.812543 0.991806 0.626902
0.966812 0.999725 0.520241
0.965606 0.999695 0.498817
9.15541e-05 0.121675 0.590677
0.000518807 0.120211 0.577401
0.137606 0.126619 0.618952
0.448325 0.140642 0.74995
0.83183 0.098024 0.888243
0.999863 0.0499886 0.854566
0.999954 0.0749065 0.714199
0.999664 0.0494698 0.676738
0.999725 0.0441749 0.665797
0.000198367 0.151965 0.665766
0.000366217 0.173541 0.726986
0.0421912 0.197467 0.801358
0.49453 0.212467 0.925261
0.880903 0.152789 0.979385
0.999908 0.0668345 0.890898
0.999878 0.0939193 0.735912
0.999756 0.0554665 0.690288
0.999725 0.0498665 0.675669
0.000213626 0.361685 0.878325
0.000411994 0.383856 0.916136
0.000350958 0.375357 0.922499
0.393301 0.343267 0.959365
0.841596 0.275883 0.983688
0.999924 0.18175 0.920638
0.999695 0.166003 0.741558
0.999832 0.10222 0.687037
0.999863 0.0831464 0.671336
0.00015259 0.586954 0.916838
0.000198367 0.575967 0.919783
0.00030518 0.558541 0.913222
0.126131 0.532387 0.9364
0.755962 0.48365 0.96434
0.999207 0.373846 0.929702
0.999817 0.334112 0.733333
0.999908 0.29279 0.673655
0.999802 0.282765 0.656382
0.000167849 0.746014 0.880232
0.000396735 0.741253 0.880735
0.000183108 0.731533 0.878614
0.000366217 0.718425 0.880385
0.605051 0.696803 0.915084
0.966918 0.633646 0.896544
0.99971 0.566308 0.743145
0.999817 0.525353 0.678065
0.999725 0.516411 0.6654
0.00030518 0.886259 0.846708
9.15541e-05 0.885222 0.844846
0.000289921 0.881361 0.835813
0.000228885 0.874372 0.819379
0.31986 0.869368 0.847166
0.841825 0.846403 0.843687
0.999512 0.782712 0.776394
0.999634 0.724743 0.700801
0.999695 0.717266 0.6878
0.000396735 0.95349 0.825971
0.000259403 0.954208 0.807019
0.00030518 0.954833 0.78497
0.000198367 0.955474 0.76347
0.0197604 0.965057 0.773953
0.65687 0.977279 0.784939
0.956588 0.959594 0.7476
0.992126 0.897597 0.696773
0.992401 0.892424 0.685832
0 0.953872 0.814252
0.000442512 0.95465 0.787488
0.000289921 0.955947 0.754803
0.000289921 0.956725 0.721874
0.000137331 0.962829 0.713832
0.476661 0.976654 0.732647
0.825574 0.991547 0.7505
0.975372 0.999771 0.673304
0.974319 0.999771 0.657694
1.5259e-05 0.953811 0.812222
0.000259403 0.954955 0.785977
0.000106813 0.955917 0.75259
0.000259403 0.957092 0.71986
6.10361e-05 0.962356 0.70837
0.438224 0.975784 0.726223
0.806973 0.990402 0.747585
0.975357 0.999908 0.674388
0.974365 0.999847 0.655497
0.000671397 0.209598 0.8374
0.000564584 0.206287 0.827482
0.00114443 0.235157 0.881437
0.42414 0.271687 0.989776
0.845197 0.266331 0.999496
0.999786 0.226337 0.999313
0.999664 0.233112 0.95671
0.999802 0.219242 0.932631
0.999847 0.215656 0.926558
0.000427253 0.267399 0.922591
0.000411994 0.305135 0.956649
0.000457771 0.343206 0.962097
0.25005 0.376043 0.993103
0.796368 0.34342 0.999573
0.999695 0.238193 0.999054
0.999786 0.247044 0.975448
0.999878 0.228565 0.949065
0.999863 0.222675 0.940658
0.00047303 0.455756 0.942306
0.00030518 0.459876 0.941787
0.000793469 0.4533 0.943191
0.0364843 0.446403 0.958801
0.696269 0.433356 0.999298
0.996658 0.297734 0.999664
0.999924 0.279469 0.98027
0.999756 0.243046 0.955139
0.999802 0.234516 0.945373
0.000381476 0.578241 0.92047
0.000534066 0.570611 0.920867
0.000457771 0.561502 0.922896
0.000244144 0.550774 0.924697
0.55346 0.549096 0.994781
0.963867 0.456016 0.999466
0.999695 0.398459 0.969573
0.999786 0.360601 0.926604
0.999832 0.351492 0.914794
0.000137331 0.713573 0.887404
0.000213626 0.705486 0.88922
0.000259403 0.693187 0.892958
9.15541e-05 0.681758 0.895384
0.266468 0.673213 0.952316
0.873243 0.642618 0.999557
0.999802 0.572808 0.950271
0.999817 0.541146 0.892195
0.999802 0.53286 0.880888
0.000198367 0.856016 0.852735
0.00030518 0.84741 0.855268
0.000244144 0.834592 0.858106
0.000427253 0.822126 0.860029
0.00978103 0.816953 0.899016
0.733623 0.810559 0.977356
0.999161 0.761975 0.956588
0.999664 0.730358 0.874266
0.999863 0.725017 0.8645
0.000381476 0.951171 0.844129
0.000488289 0.951431 0.84416
0.000183108 0.949248 0.841031
0.000381476 0.944091 0.841031
0.000289921 0.943481 0.857816
0.512734 0.950515 0.921736
0.926162 0.930938 0.928679
0.999695 0.888731 0.878157
0.999481 0.884184 0.868986
0.000823987 0.951659 0.845624
0.000823987 0.951659 0.845624
0.000808728 0.951675 0.845609
0.000534066 0.952178 0.844907
0.000137331 0.954269 0.836149
0.236622 0.969879 0.862638
0.788632 0.988113 0.877745
0.986389 0.999481 0.846342
0.985641 0.999329 0.834577
0.000823987 0.951659 0.845624
0.000823987 0.951659 0.845624
0.000808728 0.951675 0.845579
0.000701915 0.952224 0.845014
3.0518e-05 0.953704 0.833173
0.178607 0.968643 0.857038
0.765286 0.986893 0.873014
0.985321 0.999664 0.845396
0.985107 0.999695 0.830152
0.000808728 0.320653 0.965423
0.000289921 0.324147 0.965957
0.000534066 0.363867 0.958907
0.098085 0.404395 0.975265
0.721935 0.435157 0.999771
0.998932 0.333806 0.999237
1 0.319142 0.999985
1 0.31902 0.999985
1 0.318959 0.999985
0.000244144 0.380087 0.955673
0.000396735 0.397299 0.952087
0.000656138 0.403693 0.9514
0.0986801 0.414481 0.971176
0.705837 0.436179 0.999649
0.996674 0.341451 0.999512
1 0.31931 1
1 0.319142 0.999985
1 0.319097 0.999985
0.00062562 0.466041 0.941176
0.000671397 0.46006 0.941253
0.000503548 0.454383 0.943511
0.000671397 0.451347 0.953414
0.636347 0.469764 0.999512
0.97435 0.396078 0.999191
0.999893 0.330251 0.999466
1 0.322942 0.999863
1 0.321569 0.999893
0.000427253 0.572427 0.920668
0.000228885 0.564355 0.922713
9.15541e-05 0.553948 0.92398
0.000274662 0.543618 0.926452
0.509789 0.549905 0.992966
0.916701 0.514916 0.999603
0.999847 0.424048 0.999741
0.999878 0.409522 0.999802
0.999969 0.405783 0.999832
0.000335698 0.707546 0.889784
0.00030518 0.697765 0.891005
0.000366217 0.684627 0.894499
0.000381476 0.670359 0.898894
0.205158 0.659251 0.949432
0.806409 0.654017 0.99939
0.999619 0.566094 0.999771
0.999725 0.550134 0.999512
0.999741 0.545602 0.999527
0.000366217 0.849622 0.854887
0.000350958 0.839963 0.857404
0.00047303 0.82533 0.859693
0.00047303 0.810101 0.863493
0.000183108 0.796094 0.893614
0.670771 0.785061 0.97351
0.976577 0.74963 0.999634
0.999863 0.713329 0.99968
0.999863 0.708812 0.99939
0.000381476 0.951934 0.844663
0.000427253 0.951202 0.84268
0.000167849 0.944991 0.841764
0.000106813 0.936873 0.839734
0.000244144 0.926467 0.84918
0.416526 0.9196 0.927581
0.873274 0.903075 0.987106
0.999756 0.871626 0.998795
0.999588 0.867918 0.996704
0.000823987 0.951659 0.845624
0.000823987 0.951659 0.845624
0.000823987 0.951659 0.845624
0.000823987 0.951659 0.845624
0.000823987 0.951659 0.845624
0.0392157 0.964279 0.893889
0.712032 0.984161 0.953872
0.989578 0.995483 0.991775
0.997421 0.994049 0.988571
0.000823987 0.951659 0.845624
0.000823987 0.951659 0.845624
0.000823987 0.951659 0.845624
0.000823987 0.951659 0.845624
0.000823987 0.951659 0.845624
0.000106813 0.962478 0.889189
0.681132 0.982269 0.949371
0.978607 0.998581 0.988159
0.99762 0.999725 0.986526
0.000747692 0.34316 0.962249
0.000335698 0.350149 0.962158
0.000320439 0.386404 0.954971
0.0836194 0.412375 0.966781
0.733913 0.43447 0.999771
0.998978 0.333013 0.999237
1 0.31931 1
1 0.31931 1
1 0.31931 1
0 0.396704 0.9523
0.00030518 0.401923 0.95137
0.000656138 0.403815 0.951385
0.104143 0.414893 0.972564
0.710811 0.436011 0.999786
0.997772 0.338354 0.999771
1 0.31931 1
1 0.31931 1
1 0.31931 1
0.000503548 0.465293 0.941131
0.000656138 0.458427 0.941833
0.000289921 0.452674 0.943267
0.00120546 0.449653 0.953887
0.639887 0.468437 0.99968
0.975982 0.392538 0.999344
0.999969 0.328847 0.999527
1 0.322286 0.999832
1 0.320958 0.999847
0.000396735 0.570733 0.920531
0.000411994 0.5626 0.922393
0.000244144 0.551781 0.924407
0.000228885 0.541756 0.926406
0.514199 0.54844 0.993912
0.918761 0.511604 0.999573
0.999878 0.42208 0.999481
0.999985 0.407111 0.999832
1 0.403586 0.999954
0.000259403 0.705486 0.889921
0.00015259 0.695857 0.891875
0.000366217 0.68191 0.895262
0.000427253 0.668055 0.899474
0.211902 0.656687 0.94995
0.808698 0.651362 0.999557
0.999588 0.563165 0.99942
0.999619 0.547112 0.999222
0.999741 0.542367 0.999191
0.000335698 0.847822 0.855222
0.000335698 0.837583 0.857588
0.000534066 0.822812 0.860563
0.000579843 0.807553 0.864088
0.000396735 0.793957 0.894423
0.67393 0.782849 0.974395
0.977249 0.746593 0.999588
0.999741 0.71017 0.999649
0.999878 0.705516 0.99968
0.000381476 0.951598 0.843915
0.00015259 0.950912 0.842115
0.000137331 0.944167 0.841566
0.000259403 0.9355 0.839475
1.5259e-05 0.924193 0.849592
0.422415 0.917388 0.928695
0.875471 0.900542 0.988479
0.999619 0.868666 0.999557
0.999466 0.863661 0.999344
0.000823987 0.951659 0.845624
0.000823987 0.951659 0.845624
0.000823987 0.951659 0.845624
0.000823987 0.951659 0.845624
0.000823987 0.951659 0.845624
0.0398108 0.964645 0.894545
0.713771 0.984009 0.953933
0.9897 0.994263 0.996048
0.999405 0.992584 0.998596
0.000823987 0.951659 0.845624
0.000823987 0.951659 0.845624
0.000823987 0.951659 0.845624
0.000823987 0.951659 0.845624
0.000823987 0.951659 0.845624
0.000106813 0.962814 0.889525
0.682445 0.982498 0.949752
0.979232 0.998672 0.994659
1 1 1
