luts/lumix_color_lab_B/Realistic_Cinetone_33.cube
TITLE "Generated by Resolve"
LUT_3D_SIZE 33
0.00683604 0.00683604 0.00683604
0.00683604 0.00683604 0.00683604
0.00683604 0.00683604 0.00683604
0.00683604 0.00683604 0.00683604
0.0159304 0.00679026 0.00714122
0.040177 0.00703441 0.00881971
0.0659342 0.00715648 0.00981155
0.0902724 0.0069276 0.0109865
0.118135 0.00712596 0.0136873
0.145251 0.00889601 0.014435
0.174029 0.0106355 0.0154726
0.206256 0.0103456 0.0182498
0.24036 0.00988785 0.020737
0.277256 0.0103304 0.0237583
0.324559 0.0104524 0.030045
0.388998 0.0116884 0.0401007
0.467414 0.0134432 0.0549325
0.555184 0.0150454 0.0721141
0.650202 0.0170901 0.0899062
0.750301 0.0187686 0.109239
0.853193 0.0200046 0.129061
0.949783 0.021561 0.147127
0.996796 0.0236362 0.155062
0.998215 0.0236973 0.155306
0.998215 0.0236973 0.155306
0.998215 0.0236973 0.155306
0.998215 0.0236973 0.155306
0.998215 0.0236973 0.155306
0.998215 0.0236973 0.155306
0.998215 0.0236973 0.155306
0.998215 0.0236973 0.155306
0.998215 0.0236973 0.155306
0.998215 0.0236973 0.155306
0.00683604 0.00683604 0.00683604
0.00683604 0.00683604 0.00683604
0.00683604 0.00683604 0.00683604
0.00683604 0.00683604 0.00683604
0.0159304 0.00679026 0.00714122
0.0391699 0.00683604 0.00877394
0.0648051 0.0069276 0.00975052
0.0902419 0.0069276 0.0109712
0.117739 0.00770581 0.0135195
0.144823 0.00955215 0.0142519
0.174014 0.0106661 0.0154574
0.206256 0.0103456 0.0182498
0.240879 0.00994888 0.0209506
0.280735 0.0102541 0.0244602
0.333089 0.0104067 0.0311437
0.401221 0.0118715 0.0424964
0.481956 0.0134432 0.0584726
0.571984 0.0150454 0.0755627
0.668772 0.0169833 0.0934005
0.770581 0.0185245 0.112795
0.874449 0.020798 0.132708
0.961028 0.022446 0.149111
0.997131 0.0236667 0.155123
0.998215 0.0236973 0.155306
0.998215 0.0236973 0.155306
0.998215 0.0236973 0.155306
0.998215 0.0236973 0.155306
0.998215 0.0236973 0.155306
0.998215 0.0236973 0.155306
0.998215 0.0236973 0.155306
0.998215 0.0236973 0.155306
0.998215 0.0236973 0.155306
0.998215 0.0236973 0.155306
0.00683604 0.00683604 0.00683604
0.00683604 0.00683604 0.00683604
0.00683604 0.00683604 0.00683604
0.00683604 0.00683604 0.00683604
0.0159304 0.00679026 0.00714122
0.0380255 0.00663767 0.00872816
0.0635386 0.00668345 0.00968948
0.0901961 0.0069276 0.0109712
0.117311 0.00836194 0.0133364
0.144366 0.0102846 0.0140383
0.174304 0.010544 0.0154574
0.207889 0.0102083 0.0182956
0.245548 0.0101472 0.0213474
0.292042 0.0103151 0.0264591
0.352697 0.0111543 0.0349584
0.42649 0.0127718 0.0469062
0.51191 0.0135042 0.0634928
0.606958 0.0150607 0.0821088
0.70782 0.0174868 0.101183
0.813107 0.0197452 0.120394
0.918349 0.022385 0.139971
0.984085 0.0235294 0.152972
0.997833 0.0236973 0.155245
0.998215 0.0236973 0.155306
0.998215 0.0236973 0.155306
0.998215 0.0236973 0.155306
0.998215 0.0236973 0.155306
0.998215 0.0236973 0.155306
0.998215 0.0236973 0.155306
0.998215 0.0236973 0.155306
0.998215 0.0236973 0.155306
0.998215 0.0236973 0.155306
0.998215 0.0236973 0.155306
0.00683604 0.00683604 0.00683604
0.00683604 0.00683604 0.00683604
0.00683604 0.00683604 0.00683604
0.00683604 0.00683604 0.00683604
0.0159304 0.00679026 0.00714122
0.037995 0.00662242 0.00872816
0.063508 0.00668345 0.00968948
0.0901961 0.0068513 0.0113527
0.117693 0.00772107 0.0139162
0.145876 0.00947585 0.0140841
0.177188 0.0102083 0.0153353
0.21355 0.010193 0.0192569
0.255375 0.0103151 0.0233158
0.306661 0.0102541 0.0285344
0.372686 0.0119173 0.0379644
0.45156 0.0135958 0.0514534
0.542077 0.0142977 0.0688334
0.642283 0.0158999 0.0891432
0.747204 0.0182345 0.109178
0.855695 0.0213779 0.128496
0.952667 0.0232547 0.14641
0.996536 0.023682 0.154986
0.998199 0.0236973 0.155306
0.998215 0.0236973 0.155306
0.998215 0.0236973 0.155306
0.998215 0.0236973 0.155306
0.998215 0.0236973 0.155306
0.998215 0.0236973 0.155306
0.998215 0.0236973 0.155306
0.998215 0.0236973 0.155306
0.998215 0.0236973 0.155306
0.998215 0.0236973 0.155306
0.998215 0.0236973 0.155306
0.00381476 0.0129549 0.00714122
0.00381476 0.0129549 0.00714122
0.00378424 0.0144045 0.00724804
0.00373846 0.0160067 0.00735485
0.0135042 0.0153353 0.00746166
0.0374151 0.0144198 0.00787366
0.0656291 0.0149691 0.00866712
0.0946517 0.0151369 0.0106966
0.123522 0.0138399 0.0131685
0.154101 0.0138399 0.0138094
0.186801 0.0133211 0.0150301
0.224002 0.0113222 0.0197147
0.268681 0.0104677 0.0255131
0.322988 0.0103456 0.0312505
0.393011 0.0120394 0.0409552
0.47834 0.0135195 0.0573739
0.574578 0.0148775 0.0759442
0.678157 0.01738 0.0959945
0.786572 0.0190127 0.117128
0.89749 0.0213321 0.137087
0.975647 0.023209 0.151446
0.997589 0.023682 0.1552
0.998215 0.0236973 0.155306
0.998215 0.0236973 0.155306
0.998215 0.0236973 0.155306
0.998215 0.0236973 0.155306
0.998215 0.0236973 0.155306
0.998215 0.0236973 0.155306
0.998215 0.0236973 0.155306
0.998215 0.0236973 0.155306
0.998215 0.0236973 0.155306
0.998215 0.0236973 0.155306
0.998215 0.0236973 0.155306
0.000656138 0.0355993 0.00531014
0.000656138 0.0355993 0.00531014
0.000595102 0.0372015 0.00541695
0.000549325 0.0389868 0.00553903
0.00831617 0.0393225 0.00561532
0.0335546 0.0396277 0.00544747
0.0677653 0.0412604 0.00567636
0.100328 0.0415198 0.00740063
0.131197 0.0395056 0.00965896
0.163607 0.0379797 0.0113375
0.198444 0.0353857 0.012604
0.237766 0.0300755 0.0163119
0.285405 0.0234989 0.0238346
0.342947 0.018204 0.0327001
0.417243 0.0145418 0.0453346
0.508217 0.0135348 0.0636301
0.608835 0.0150759 0.0827802
0.715358 0.0181888 0.102785
0.822065 0.0199435 0.123766
0.924514 0.0215152 0.142702
0.986923 0.0233158 0.153658
0.997925 0.023682 0.155261
0.998215 0.0236973 0.155306
0.998215 0.0236973 0.155306
0.998215 0.0236973 0.155306
0.998215 0.0236973 0.155306
0.998215 0.0236973 0.155306
0.998215 0.0236973 0.155306
0.998215 0.0236973 0.155306
0.998215 0.0236973 0.155306
0.998215 0.0236973 0.155306
0.998215 0.0236973 0.155306
0.998215 0.0236973 0.155306
0.000534066 0.0647593 0.00488289
0.000534066 0.0647593 0.00488289
0.000457771 0.0661784 0.00401312
0.000411994 0.0678416 0.00401312
0.00299077 0.0698253 0.00563058
0.0260777 0.0714733 0.00657664
0.0647288 0.073518 0.00582895
0.0994888 0.0754253 0.0056611
0.133654 0.0747387 0.00703441
0.168215 0.0735943 0.00781262
0.206134 0.0727398 0.0090486
0.249943 0.0691234 0.0125734
0.301823 0.0608072 0.0185092
0.365408 0.0512703 0.0274052
0.445472 0.0398871 0.0435035
0.538598 0.02533 0.0665446
0.637613 0.0163577 0.0894026
0.739132 0.0182956 0.108278
0.837446 0.0200809 0.126329
0.92958 0.021622 0.143771
0.986511 0.0234226 0.153521
0.997909 0.0236973 0.155261
0.998215 0.0236973 0.155306
0.998215 0.0236973 0.155306
0.998215 0.0236973 0.155306
0.998215 0.0236973 0.155306
0.998215 0.0236973 0.155306
0.998215 0.0236973 0.155306
0.998215 0.0236973 0.155306
0.998215 0.0236973 0.155306
0.998215 0.0236973 0.155306
0.998215 0.0236973 0.155306
0.998215 0.0236973 0.155306
0.000183108 0.0917525 0.00508125
0.000320439 0.0925917 0.0053254
0.000411994 0.0950942 0.004654
0.000213626 0.0974899 0.00448615
0.00015259 0.10013 0.00753796
0.0180819 0.102724 0.00994888
0.0564126 0.105684 0.00920119
0.0963455 0.107759 0.00750744
0.134966 0.106996 0.0068513
0.172915 0.107149 0.0059205
0.213626 0.108217 0.00585946
0.259724 0.107164 0.00943008
0.316411 0.104311 0.0134737
0.387732 0.0985428 0.020264
0.470542 0.0872816 0.0356146
0.559976 0.0686198 0.0585184
0.653132 0.0490425 0.0831464
0.744686 0.0317082 0.105989
0.835538 0.0204013 0.12549
0.926299 0.0216068 0.142626
0.984604 0.0235599 0.153414
0.997848 0.0236973 0.155261
0.998215 0.0236973 0.155306
0.998215 0.0236973 0.155306
0.998215 0.0236973 0.155306
0.998215 0.0236973 0.155306
0.998215 0.0236973 0.155306
0.998215 0.0236973 0.155306
0.998215 0.0236973 0.155306
0.998215 0.0236973 0.155306
0.998215 0.0236973 0.155306
0.998215 0.0236973 0.155306
0.998215 0.0236973 0.155306
4.57771e-05 0.123659 0.00653086
0.000183108 0.125185 0.00590524
0.000350958 0.127962 0.00543221
0.000289921 0.130495 0.00556954
0.000244144 0.133043 0.00764477
0.00848402 0.13669 0.011017
0.0415808 0.140826 0.0112917
0.0909895 0.141527 0.00962844
0.13463 0.141207 0.00807202
0.175708 0.143038 0.00541695
0.219806 0.144717 0.00282292
0.269047 0.144549 0.00383001
0.328801 0.144137 0.00715648
0.401099 0.142 0.0130922
0.482612 0.135561 0.0259251
0.568643 0.127337 0.0439307
0.659144 0.11339 0.0665141
0.749233 0.086183 0.0934157
0.837079 0.0563211 0.117006
0.923613 0.0344854 0.138659
0.982376 0.0238346 0.153033
0.998398 0.0233616 0.155245
0.998856 0.0233616 0.155306
0.998856 0.0233616 0.155306
0.998856 0.0233616 0.155306
0.998856 0.0233616 0.155306
0.99855 0.0235142 0.155306
0.99823 0.0236973 0.155306
0.998215 0.0236973 0.155306
0.998215 0.0236973 0.155306
0.998215 0.0236973 0.155306
0.998215 0.0236973 0.155306
0.998215 0.0236973 0.155306
0.000320439 0.160082 0.0087892
0.000228885 0.16112 0.00799573
0.000244144 0.163973 0.00782788
0.000320439 0.167376 0.00773632
0.000244144 0.170047 0.0075227
0.00149538 0.173342 0.0101167
0.0220645 0.177584 0.0114443
0.0726635 0.179492 0.0114595
0.126665 0.180957 0.0104829
0.172732 0.183124 0.00704967
0.220615 0.184375 0.00343328
0.273182 0.185718 0.000991836
0.334539 0.186099 0.00132753
0.405768 0.185916 0.00434882
0.486305 0.184009 0.0133059
0.573083 0.179232 0.0295109
0.663188 0.172961 0.0505074
0.753429 0.160861 0.0741283
0.841413 0.134676 0.0996872
0.925841 0.0949416 0.126421
0.982818 0.052369 0.146532
0.999191 0.0274662 0.154269
0.999573 0.0231174 0.155276
0.999573 0.0230106 0.155306
0.999573 0.0230106 0.155306
0.999573 0.0230106 0.155306
0.999222 0.0231632 0.155306
0.998856 0.0233463 0.155306
0.998856 0.0233616 0.155306
0.998856 0.0233616 0.155306
0.998856 0.0233616 0.155306
0.998856 0.0233616 0.155306
0.998856 0.0233616 0.155306
0.000335698 0.201495 0.00891127
0.000228885 0.202991 0.00900282
0.000274662 0.206271 0.0102083
0.000228885 0.209247 0.00894179
4.57771e-05 0.212558 0.00749218
0.000289921 0.21709 0.010071
0.00637827 0.221622 0.0117647
0.0408942 0.224765 0.0122225
0.102266 0.226764 0.0117037
0.161715 0.228092 0.0106203
0.215869 0.22858 0.0091249
0.271458 0.229725 0.00479133
0.334859 0.231098 0.00106813
0.407828 0.231983 0.000503548
0.488807 0.232074 0.00292973
0.576211 0.230426 0.0124666
0.665888 0.228443 0.029984
0.755718 0.222766 0.0528572
0.844526 0.209445 0.0779889
0.929366 0.184634 0.103471
0.984497 0.137819 0.127108
0.999268 0.0946059 0.141634
0.99939 0.0753338 0.145602
0.999359 0.0532692 0.14966
0.999619 0.0306859 0.154162
0.999588 0.023209 0.155276
0.999573 0.0229953 0.155306
0.999573 0.0230106 0.155306
0.999573 0.0230106 0.155306
0.999573 0.0230106 0.155306
0.999573 0.0230106 0.155306
0.999573 0.0230106 0.155306
0.999573 0.0230106 0.155306
1.5259e-05 0.252735 0.0090486
0 0.25539 0.00903334
1.5259e-05 0.260502 0.00961318
0 0.264576 0.00772107
4.57771e-05 0.268849 0.00610361
7.62951e-05 0.273671 0.00872816
0.000350958 0.277317 0.0118868
0.012253 0.27985 0.0125429
0.0633707 0.280812 0.0127413
0.137667 0.281285 0.0153658
0.202686 0.281926 0.0167544
0.265492 0.282872 0.0131228
0.332509 0.284688 0.00495918
0.407828 0.286381 0.000457771
0.490318 0.287404 0.000244144
0.577707 0.287419 0.00177005
0.667735 0.287388 0.00946059
0.758022 0.284733 0.0263523
0.84683 0.27689 0.0501411
0.93048 0.262242 0.0762036
0.984924 0.236301 0.100877
0.998962 0.204929 0.117205
0.999191 0.175616 0.124193
0.999405 0.13724 0.132235
0.999756 0.098909 0.140841
0.999634 0.0821698 0.144457
0.999634 0.0762798 0.145388
0.999741 0.0702373 0.146395
0.999603 0.0638285 0.147982
0.999619 0.0535286 0.150088
0.999619 0.053193 0.150149
0.999619 0.053193 0.150149
0.999619 0.053193 0.150149
0.000228885 0.32314 0.0040589
0.000122072 0.326665 0.00408942
0.00015259 0.333577 0.0039826
0.000183108 0.340169 0.00309758
1.5259e-05 0.344823 0.00234989
9.15541e-05 0.345846 0.00329595
0.000106813 0.346532 0.00656138
0.000350958 0.347265 0.00926223
0.0222629 0.347295 0.0115816
0.0889143 0.348043 0.015671
0.173785 0.348318 0.017319
0.250034 0.349065 0.0158846
0.32546 0.350332 0.0115663
0.406516 0.352178 0.00573739
0.49192 0.354925 0.0018616
0.579797 0.356497 0.00047303
0.669718 0.35729 0.000488289
0.759304 0.356573 0.00550851
0.846296 0.351537 0.0188907
0.928832 0.340032 0.0410925
0.983932 0.320058 0.0692607
0.99884 0.292683 0.0890211
0.999329 0.26305 0.0988022
0.999481 0.231479 0.108537
0.999634 0.200855 0.118257
0.999573 0.182315 0.123217
0.999512 0.171923 0.124773
0.999802 0.161212 0.127825
0.999512 0.149279 0.131304
0.99942 0.13257 0.134752
0.999405 0.132036 0.134859
0.999405 0.132036 0.134859
0.999405 0.132036 0.134859
0.000244144 0.417441 0.000350958
0.000122072 0.422461 0.00030518
0.000167849 0.430045 0.000167849
0.000198367 0.433814 0.000396735
0.000183108 0.434195 0.000732433
0.000381476 0.430884 0.000885023
0.000213626 0.428794 0.00148013
0 0.428473 0.00263981
0.000854505 0.428351 0.00463874
0.0291142 0.428977 0.00691234
0.112032 0.428885 0.00907912
0.216144 0.42884 0.011017
0.310216 0.430045 0.0128481
0.400595 0.43183 0.011902
0.490791 0.434546 0.00527962
0.581231 0.437491 0.000656138
0.670832 0.438865 0.000534066
0.757961 0.43888 0.000442512
0.841199 0.435798 0.00146487
0.921874 0.426673 0.00996414
0.980056 0.409781 0.0269474
0.998672 0.382635 0.045594
0.999237 0.350515 0.0619669
0.999176 0.31603 0.0784009
0.999252 0.279545 0.0942855
0.999268 0.257038 0.102052
0.999496 0.247242 0.104753
0.999771 0.238071 0.108095
0.999496 0.227588 0.112093
0.999329 0.217212 0.114839
0.999329 0.216892 0.114916
0.999329 0.216892 0.114916
0.999329 0.216892 0.114916
0.000228885 0.529824 3.0518e-05
0.000122072 0.532174 0.00015259
1.5259e-05 0.534478 0.00015259
0 0.532921 1.5259e-05
0.000289921 0.53019 0.00015259
0.000457771 0.526589 0.000518807
0.000167849 0.522881 0.000442512
3.0518e-05 0.521279 9.15541e-05
3.0518e-05 0.520775 0.000198367
0.000854505 0.52047 0.00030518
0.0359808 0.520485 0.00230411
0.14522 0.520806 0.0055848
0.278035 0.521843 0.00791943
0.384588 0.522774 0.0113527
0.482368 0.524544 0.00737011
0.576989 0.526482 0.000366217
0.666651 0.527077 0.000457771
0.751064 0.527214 0.000366217
0.830839 0.524895 4.57771e-05
0.909621 0.518166 0.000274662
0.973632 0.504372 0.00146487
0.99826 0.478935 0.00880446
0.99913 0.445792 0.020264
0.999481 0.408042 0.0358434
0.999146 0.364279 0.0571145
0.99913 0.334783 0.0705425
0.999664 0.322972 0.0760357
0.999588 0.312566 0.080705
0.999512 0.302159 0.08542
0.999649 0.293141 0.0897993
0.999649 0.292866 0.0899214
0.999649 0.292866 0.0899214
0.999649 0.292866 0.0899214
0.000244144 0.63856 3.0518e-05
0.000137331 0.637339 0.000228885
0 0.634775 0.000274662
0 0.632212 0.000228885
0.000122072 0.629541 0.000381476
0.00015259 0.626154 0.00047303
1.5259e-05 0.621805 0.000518807
3.0518e-05 0.619181 0.000244144
7.62951e-05 0.61825 6.10361e-05
6.10361e-05 0.616754 0.000122072
0.00108339 0.616251 0.000396735
0.0666056 0.616327 0.00352483
0.214633 0.616022 0.0107424
0.355932 0.615473 0.0198062
0.466316 0.615869 0.0234073
0.565133 0.616007 0.0200046
0.656229 0.615396 0.0145724
0.740246 0.614725 0.00587472
0.818112 0.612329 0.000167849
0.89398 0.607172 0
0.963287 0.596277 0.000122072
0.996811 0.574609 0.000350958
0.999344 0.542504 0.000595102
0.999817 0.503395 0.00576791
0.999588 0.454994 0.0176699
0.999313 0.420645 0.0262303
0.999313 0.40795 0.0304723
0.999176 0.397192 0.0363012
0.999252 0.386862 0.0421149
0.999588 0.376654 0.0489052
0.999603 0.376349 0.0491188
0.999603 0.376349 0.0491188
0.999603 0.376349 0.0491188
0 0.731106 0.0111238
0 0.730098 0.0111543
0 0.727733 0.00959792
0 0.725505 0.00740063
0 0.722744 0.00828565
0 0.719249 0.00900282
0 0.715999 0.00666819
0 0.713237 0.00590524
6.10361e-05 0.711284 0.00866712
6.10361e-05 0.709056 0.0134127
0.000122072 0.707073 0.020737
0.0196078 0.705333 0.0314946
0.139696 0.703899 0.0438239
0.315785 0.702541 0.0556039
0.443534 0.700999 0.0662394
0.548394 0.700175 0.0693675
0.641428 0.699443 0.0601968
0.726223 0.697353 0.0401465
0.804486 0.693904 0.0142061
0.877577 0.689128 0.000442512
0.948028 0.680751 0.000183108
0.989013 0.662791 0.000167849
0.995789 0.632822 6.10361e-05
0.998154 0.595193 0.000320439
0.99971 0.548501 0.000640879
0.999603 0.512016 0.00077821
0.999191 0.496162 0.00157168
0.998901 0.485695 0.00399786
0.999069 0.47541 0.00762951
0.999374 0.464454 0.0118105
0.999374 0.464118 0.0119478
0.999374 0.464118 0.0119478
0.999374 0.464118 0.0119478
0.000106813 0.811643 0.0670329
6.10361e-05 0.810391 0.0661631
0 0.808682 0.0631266
1.5259e-05 0.807401 0.0606546
1.5259e-05 0.804639 0.0616464
0 0.801129 0.0610666
0 0.79881 0.0563211
0.000106813 0.796246 0.053666
0.000122072 0.79324 0.0577554
0 0.790753 0.0665293
0.000137331 0.788037 0.0782483
0.000885023 0.785351 0.0913405
0.0864424 0.783307 0.101289
0.262379 0.781277 0.109483
0.412619 0.779156 0.118181
0.525689 0.777661 0.123812
0.621363 0.775586 0.1196
0.707134 0.77232 0.103792
0.786725 0.768719 0.0731518
0.860853 0.76405 0.0318303
0.930251 0.75671 0.00572213
0.974685 0.741238 0.000198367
0.987564 0.713848 7.62951e-05
0.991989 0.679393 7.62951e-05
0.995819 0.639109 0.000122072
0.998642 0.601175 0.000122072
0.999619 0.579675 3.0518e-05
0.999054 0.569604 0.000183108
0.999039 0.559625 0.000381476
0.999359 0.549493 0.000427253
0.999374 0.549172 0.000427253
0.999374 0.549172 0.000427253
0.999374 0.549172 0.000427253
0.000137331 0.880552 0.151751
6.10361e-05 0.879606 0.150637
0 0.878569 0.147982
0.000167849 0.877516 0.146349
0.000213626 0.875288 0.145418
0 0.872389 0.142535
9.15541e-05 0.869474 0.139162
0.000244144 0.866773 0.13518
0.000228885 0.864286 0.134905
4.57771e-05 0.861646 0.140795
0 0.85864 0.147158
6.10361e-05 0.85626 0.153277
0.0349279 0.853819 0.160418
0.184268 0.851041 0.168368
0.370733 0.848859 0.173144
0.494636 0.846906 0.176486
0.596506 0.843793 0.176013
0.684535 0.840192 0.168444
0.765255 0.836957 0.151583
0.840238 0.831891 0.11014
0.908782 0.823392 0.0605783
0.959152 0.809354 0.0214084
0.979889 0.785367 0.000640879
0.983948 0.754513 0
0.987655 0.719326 0.000122072
0.992798 0.680354 0.000137331
0.994965 0.655222 0
0.995407 0.646372 0.000106813
0.996109 0.637278 0.000106813
0.996857 0.627726 0.000122072
0.996872 0.62742 0.000122072
0.996872 0.62742 0.000122072
0.996872 0.62742 0.000122072
6.10361e-05 0.937438 0.222889
0.00015259 0.93666 0.222416
0.000228885 0.935714 0.220813
0.000320439 0.934539 0.21854
0.000289921 0.93254 0.216236
0.000244144 0.93051 0.21387
0.000274662 0.927626 0.211475
0.000274662 0.924834 0.208225
0.000228885 0.922927 0.206455
4.57771e-05 0.920775 0.208316
0 0.918166 0.212284
0 0.915892 0.217502
0.00103761 0.913771 0.223529
0.112474 0.911574 0.229862
0.310338 0.909422 0.232547
0.452979 0.906996 0.233188
0.563104 0.903975 0.232578
0.655512 0.900114 0.22649
0.73724 0.895491 0.213413
0.81178 0.888991 0.190326
0.880751 0.879561 0.15169
0.939376 0.866804 0.0920882
0.970321 0.847028 0.0451972
0.977325 0.820142 0.0355993
0.980545 0.788724 0.0316014
0.984955 0.751476 0.0136568
0.98732 0.723995 0.000411994
0.988144 0.713863 0
0.989166 0.706233 0
0.989914 0.698207 0.000183108
0.989929 0.697963 0.000198367
0.989929 0.697963 0.000198367
0.989929 0.697963 0.000198367
0.000122072 0.96408 0.283879
0.000213626 0.963806 0.282887
0.000289921 0.963287 0.281514
0.00015259 0.962463 0.280339
9.15541e-05 0.961486 0.278706
0.000274662 0.9608 0.276921
0.000198367 0.959304 0.274434
0.000137331 0.957855 0.27248
0.000137331 0.957244 0.270375
0 0.956741 0.269413
0 0.95642 0.272511
0 0.956024 0.277745
0 0.955734 0.281315
0.0468452 0.956146 0.283925
0.208103 0.956161 0.286809
0.393057 0.95433 0.287892
0.515007 0.951156 0.285924
0.613794 0.9467 0.27921
0.699443 0.941207 0.268299
0.776379 0.934539 0.251682
0.846326 0.926055 0.224567
0.909804 0.914992 0.181949
0.953811 0.899763 0.131624
0.970153 0.877348 0.11104
0.974319 0.849302 0.110201
0.9785 0.816846 0.0854047
0.982071 0.788006 0.0563363
0.983124 0.773816 0.0428931
0.983627 0.767224 0.034226
0.984207 0.760678 0.0239414
0.984237 0.760464 0.023621
0.984237 0.760464 0.023621
0.984237 0.760464 0.023621
6.10361e-05 0.965484 0.321752
6.10361e-05 0.965637 0.320897
4.57771e-05 0.96556 0.319738
0 0.965362 0.319005
0 0.965408 0.318502
1.5259e-05 0.96556 0.317632
0 0.965377 0.316045
0 0.965057 0.314885
0 0.965133 0.312184
0 0.965606 0.311681
0 0.967071 0.315923
0 0.96875 0.319646
3.0518e-05 0.970123 0.323339
0.00154116 0.972198 0.328496
0.122225 0.974716 0.332906
0.327413 0.975769 0.334539
0.463615 0.975311 0.332723
0.566567 0.974777 0.326528
0.65536 0.973785 0.317281
0.734981 0.971115 0.304387
0.807095 0.965179 0.284153
0.873014 0.956237 0.253971
0.928847 0.944778 0.211627
0.959182 0.927321 0.182925
0.9673 0.903471 0.180713
0.972015 0.87509 0.175235
0.976699 0.845701 0.151934
0.978882 0.827985 0.129274
0.978698 0.821424 0.116838
0.979538 0.81532 0.10277
0.979568 0.815137 0.102327
0.979568 0.815137 0.102327
0.979568 0.815137 0.102327
0 0.965652 0.339025
0 0.965652 0.338994
0 0.965454 0.33875
0 0.965209 0.338476
0 0.965209 0.338445
0 0.965347 0.337682
0 0.965591 0.336385
0 0.965743 0.3355
0 0.965606 0.333944
0 0.965728 0.334417
0 0.966781 0.338964
3.0518e-05 0.968048 0.344976
4.57771e-05 0.96907 0.352224
3.0518e-05 0.970779 0.36054
0.059266 0.973678 0.367956
0.229404 0.97641 0.372732
0.40415 0.979034 0.376226
0.516228 0.982483 0.377005
0.608545 0.98584 0.371328
0.690623 0.987549 0.358099
0.765576 0.986954 0.338354
0.833524 0.984619 0.314488
0.894881 0.979736 0.28275
0.940963 0.96907 0.24538
0.960388 0.950683 0.226703
0.965347 0.926223 0.226902
0.970123 0.898344 0.216892
0.972366 0.879118 0.201953
0.972366 0.871489 0.194247
0.973816 0.865095 0.188296
0.973861 0.864897 0.188113
0.973861 0.864897 0.188113
0.973861 0.864897 0.188113
0 0.965148 0.358938
0 0.965148 0.358938
0 0.96492 0.358709
0 0.96466 0.35845
0 0.964645 0.358434
0 0.964813 0.357595
0 0.964996 0.356664
0.000122072 0.965011 0.355825
0.000122072 0.965225 0.354528
0.000122072 0.96556 0.35433
0.00015259 0.966201 0.356374
4.57771e-05 0.967193 0.362219
3.0518e-05 0.968246 0.370169
0 0.969863 0.378943
0.00639353 0.972229 0.389395
0.126711 0.97467 0.399252
0.322621 0.977234 0.4094
0.454994 0.980514 0.42005
0.557366 0.983291 0.424247
0.643336 0.985794 0.416785
0.71812 0.989303 0.400351
0.787701 0.992782 0.37937
0.853681 0.994583 0.352361
0.912612 0.992752 0.313329
0.948165 0.985519 0.278431
0.959106 0.96994 0.268589
0.963424 0.94667 0.266346
0.965637 0.927825 0.257282
0.967468 0.918547 0.248966
0.968795 0.912413 0.242481
0.968841 0.912215 0.242283
0.968841 0.912215 0.242283
0.968841 0.912215 0.242283
0 0.964797 0.370962
0 0.964797 0.370962
0 0.964782 0.370947
0 0.964782 0.370947
0 0.964782 0.370947
0 0.964782 0.370916
0 0.964782 0.370886
0.000122072 0.964706 0.370459
0.000137331 0.964858 0.369558
0.000122072 0.964965 0.369085
0.000167849 0.965652 0.37055
3.0518e-05 0.966888 0.375082
0 0.967819 0.382223
0.000122072 0.968978 0.392538
0.000411994 0.970748 0.405005
0.0504616 0.972885 0.41767
0.21033 0.97496 0.430762
0.384833 0.977951 0.44535
0.498802 0.98085 0.459434
0.590433 0.983444 0.466575
0.666072 0.986786 0.462745
0.736843 0.990356 0.449424
0.806592 0.993729 0.428794
0.871489 0.996765 0.396796
0.924147 0.998779 0.355947
0.951995 0.994492 0.32137
0.958144 0.983886 0.307424
0.960266 0.970718 0.30222
0.962982 0.960159 0.294743
0.963211 0.955154 0.289067
0.963226 0.955001 0.288899
0.963226 0.955001 0.288899
0.963226 0.955001 0.288899
0 0.964782 0.371328
0 0.964782 0.371328
0 0.964782 0.371328
0 0.964782 0.371328
0 0.964782 0.371328
0 0.964782 0.371328
0 0.964782 0.371328
0 0.964782 0.371313
0 0.964782 0.371283
0 0.964782 0.371267
0 0.965194 0.372946
0.00015259 0.966323 0.3785
0.000228885 0.967086 0.387106
0.000198367 0.96788 0.397848
0.00030518 0.969787 0.410452
0.00189212 0.971923 0.424506
0.122118 0.973953 0.439841
0.320592 0.976532 0.456321
0.448234 0.979248 0.473808
0.546044 0.981857 0.490806
0.625696 0.984543 0.499611
0.694438 0.987671 0.497261
0.761303 0.991043 0.487175
0.826291 0.994263 0.469291
0.887968 0.997253 0.443366
0.935943 0.998688 0.403967
0.955901 0.999069 0.367086
0.958587 0.995178 0.343267
0.959289 0.989303 0.32932
0.959335 0.986847 0.325109
0.959335 0.986786 0.324987
0.959335 0.986786 0.324987
0.959335 0.986786 0.324987
