luts/lumix_color_lab_B/Selen_Chrome_33.cube
TITLE "Generated by Resolve"
LUT_3D_SIZE 9
0.0487831 0.00332647 0.106035
0.0491035 0.00366217 0.10634
0.0494545 0.00402838 0.106661
0.057145 0.0120851 0.113893
0.0664683 0.0218509 0.122652
0.0796368 0.0356603 0.135027
0.0957961 0.0525826 0.150225
0.114092 0.0717632 0.167422
0.117418 0.0752575 0.17055
0.0586557 0.0136721 0.115312
0.0625772 0.0177768 0.119005
0.0657359 0.021088 0.121965
0.0735943 0.0293278 0.129351
0.0849775 0.0412451 0.140047
0.102724 0.0598459 0.156741
0.128817 0.0871901 0.181262
0.161746 0.121675 0.212192
0.167773 0.128008 0.217868
0.0631113 0.0183413 0.119509
0.071397 0.0270085 0.127275
0.0811475 0.037232 0.136446
0.0965133 0.0533455 0.150896
0.121538 0.0795605 0.174411
0.155795 0.11545 0.206592
0.196811 0.158419 0.245151
0.243931 0.207797 0.289433
0.249393 0.213519 0.29456
0.0838026 0.0400244 0.138949
0.0933242 0.0499886 0.14789
0.114473 0.0721599 0.167773
0.139361 0.0982376 0.191165
0.179431 0.140215 0.228824
0.239185 0.202838 0.284993
0.310384 0.277424 0.351888
0.397681 0.368902 0.433936
0.40531 0.376898 0.441108
0.120073 0.0780194 0.173037
0.132372 0.0909133 0.184588
0.170871 0.131243 0.220783
0.218753 0.181415 0.265782
0.270008 0.235111 0.313939
0.346929 0.315724 0.386236
0.46186 0.436149 0.49424
0.598062 0.578866 0.622263
0.608209 0.589487 0.631785
0.176318 0.13695 0.225895
0.193622 0.155077 0.242145
0.231846 0.195132 0.27808
0.33402 0.302205 0.374105
0.419089 0.391333 0.454047
0.548913 0.527352 0.576059
0.665034 0.649027 0.685191
0.75642 0.744778 0.771084
0.763394 0.752102 0.777646
0.251011 0.215213 0.296101
0.279942 0.245533 0.323278
0.328664 0.296574 0.36907
0.51046 0.487068 0.539925
0.638849 0.621592 0.660578
0.740627 0.728222 0.756237
0.81265 0.803708 0.823926
0.850706 0.843565 0.859693
0.852857 0.845823 0.861723
0.335195 0.303426 0.375204
0.374884 0.345006 0.412497
0.438849 0.412024 0.472618
0.647257 0.630396 0.668482
0.772335 0.761456 0.786038
0.832364 0.824353 0.842451
0.876371 0.870466 0.883818
0.899321 0.894514 0.905394
0.900053 0.895277 0.906065
0.337362 0.305715 0.377264
0.377142 0.347372 0.414633
0.441444 0.41474 0.475059
0.649516 0.632761 0.670604
0.772992 0.762142 0.786664
0.832944 0.824964 0.843
0.878218 0.872389 0.885542
0.900816 0.896086 0.906798
0.901579 0.89688 0.907515
0.0487678 0.00331121 0.10602
0.0493172 0.00387579 0.106523
0.0534981 0.00827039 0.110475
0.0607767 0.0158846 0.117311
0.0693523 0.0248722 0.125368
0.0827192 0.0388952 0.137942
0.10016 0.0571603 0.154314
0.12108 0.0790723 0.173968
0.124956 0.0831464 0.17763
0.0581979 0.0131838 0.114885
0.0633555 0.0186007 0.119722
0.0695354 0.0250706 0.125536
0.0783246 0.0342718 0.133791
0.0915694 0.0481575 0.146242
0.111543 0.0690776 0.165011
0.140963 0.0999008 0.19266
0.18056 0.14139 0.229877
0.187945 0.149126 0.23682
0.0660716 0.0214389 0.122286
0.0759747 0.0318151 0.131594
0.0895094 0.0460059 0.14432
0.104875 0.0621042 0.158755
0.13077 0.0892195 0.183078
0.166903 0.127092 0.217044
0.218784 0.181445 0.265812
0.286427 0.252323 0.329366
0.292836 0.259052 0.335409
0.0858167 0.0421302 0.140856
0.0953384 0.0521096 0.149783
0.12076 0.0787366 0.173678
0.151522 0.110979 0.202594
0.196643 0.158251 0.244999
0.253529 0.217853 0.298451
0.318883 0.286336 0.359884
0.403662 0.375158 0.439551
0.408881 0.380621 0.44445
0.122255 0.0803082 0.175082
0.135439 0.0941176 0.187472
0.171984 0.132418 0.221836
0.232227 0.195529 0.278431
0.285832 0.251713 0.328817
0.37293 0.342962 0.410666
0.492317 0.468055 0.522866
0.620722 0.602594 0.643549
0.627405 0.609598 0.649836
0.179858 0.140658 0.229221
0.19884 0.160571 0.247059
0.231785 0.195087 0.278019
0.337606 0.305943 0.377462
0.443259 0.416648 0.476768
0.562676 0.541772 0.588998
0.682109 0.666911 0.701244
0.771939 0.761044 0.785672
0.777173 0.766522 0.790585
0.258549 0.223117 0.303181
0.291905 0.258076 0.334524
0.339483 0.307912 0.379232
0.478767 0.453849 0.51014
0.662516 0.646387 0.682841
0.744732 0.73254 0.760098
0.810422 0.801373 0.821836
0.853407 0.846403 0.862226
0.855634 0.848722 0.864317
0.348821 0.317693 0.388006
0.39382 0.364843 0.430304
0.458778 0.432929 0.491356
0.602045 0.583047 0.626001
0.782696 0.772305 0.795773
0.836957 0.82916 0.846769
0.872343 0.866239 0.880018
0.898085 0.893217 0.904234
0.899046 0.894209 0.905119
0.351171 0.320165 0.390219
0.396292 0.367437 0.432624
0.461128 0.435386 0.493568
0.604242 0.585336 0.628061
0.783246 0.772885 0.796292
0.83743 0.829648 0.847211
0.87425 0.868254 0.881819
0.899596 0.894804 0.905653
0.900618 0.895872 0.9066
0.0489052 0.00344854 0.106142
0.0529793 0.00772107 0.109987
0.066041 0.0213931 0.12224
0.0740978 0.0298466 0.129824
0.0840772 0.0402991 0.139208
0.0955825 0.052369 0.150011
0.116106 0.0738537 0.169299
0.140642 0.0995651 0.192355
0.14522 0.104372 0.196674
0.0606394 0.0157473 0.117174
0.0685893 0.0240787 0.124651
0.0796674 0.0356909 0.135073
0.0944991 0.0512245 0.149004
0.112566 0.070161 0.165972
0.132876 0.0914473 0.185077
0.166827 0.127016 0.216983
0.212543 0.174914 0.259937
0.220691 0.183444 0.267597
0.0704509 0.0260166 0.12639
0.0837415 0.0399481 0.138888
0.10309 0.0602274 0.157076
0.119005 0.0769055 0.17203
0.150469 0.109865 0.201602
0.195499 0.157061 0.243931
0.256855 0.221347 0.301595
0.333776 0.30193 0.373877
0.33962 0.308064 0.37937
0.0918288 0.0484321 0.146487
0.103532 0.0606851 0.157488
0.13843 0.097261 0.190295
0.185199 0.146273 0.234241
0.227939 0.191043 0.274403
0.282155 0.247837 0.325353
0.348684 0.317556 0.387869
0.438987 0.412177 0.472755
0.44361 0.417014 0.477104
0.133562 0.0921645 0.185718
0.147051 0.106294 0.198383
0.176501 0.137133 0.226062
0.255406 0.219806 0.300221
0.318669 0.286122 0.359686
0.418585 0.390799 0.453574
0.542412 0.520531 0.569955
0.655207 0.638743 0.675959
0.660105 0.64387 0.680568
0.193545 0.155001 0.242084
0.212039 0.17438 0.259449
0.245777 0.209735 0.291173
0.346288 0.315038 0.385626
0.484932 0.460319 0.515938
0.601083 0.582025 0.625101
0.72343 0.710216 0.740078
0.800076 0.790524 0.8121
0.803967 0.794598 0.815778
0.278676 0.244205 0.322087
0.312154 0.279286 0.353552
0.369497 0.339376 0.407446
0.481239 0.456458 0.512474
0.684611 0.669535 0.703578
0.764721 0.753475 0.778866
0.825177 0.816815 0.835691
0.865904 0.859495 0.873976
0.868254 0.861952 0.876188
0.382467 0.352956 0.419638
0.425208 0.397742 0.4598
0.50164 0.477821 0.53164
0.614435 0.596017 0.637644
0.782849 0.772457 0.795911
0.847974 0.840696 0.857114
0.880186 0.874464 0.887404
0.903975 0.899397 0.909758
0.905196 0.900679 0.910903
0.385748 0.35639 0.422721
0.428122 0.400778 0.462531
0.504234 0.480552 0.534081
0.616449 0.598123 0.639536
0.783429 0.773083 0.796475
0.849104 0.841886 0.858183
0.882582 0.876966 0.889662
0.905791 0.901289 0.911467
0.907057 0.902617 0.912642
0.0496529 0.00424201 0.106859
0.0579385 0.0129091 0.114626
0.0849012 0.0411688 0.139971
0.108186 0.065568 0.161868
0.118624 0.0765087 0.171679
0.142885 0.101915 0.194461
0.15523 0.114839 0.206058
0.174304 0.134844 0.224002
0.178088 0.138811 0.227558
0.069276 0.0247959 0.125292
0.0807355 0.0368048 0.136065
0.105409 0.0626535 0.159258
0.136416 0.0951553 0.188403
0.156847 0.116548 0.207599
0.192859 0.154284 0.241443
0.218204 0.180835 0.265263
0.254994 0.219394 0.29984
0.261891 0.226612 0.30631
0.082826 0.0390021 0.138033
0.103136 0.0602731 0.157122
0.131594 0.0900893 0.183856
0.160632 0.120516 0.211154
0.200763 0.16257 0.248859
0.253086 0.217395 0.298039
0.310964 0.27805 0.352438
0.385504 0.35613 0.422492
0.391821 0.362753 0.428428
0.102739 0.0598611 0.156741
0.124804 0.0829786 0.177478
0.172564 0.133028 0.22237
0.229831 0.193027 0.276188
0.270848 0.236011 0.314733
0.329168 0.297108 0.369543
0.420554 0.392859 0.455436
0.539284 0.517266 0.56701
0.544045 0.522255 0.571481
0.144259 0.103365 0.195758
0.167773 0.128008 0.217868
0.212711 0.175082 0.26009
0.311772 0.278874 0.353201
0.411505 0.383383 0.446921
0.49073 0.466392 0.52137
0.606485 0.587686 0.630182
0.705211 0.691127 0.722957
0.709514 0.695628 0.727001
0.220157 0.182879 0.267094
0.245289 0.209216 0.290715
0.283833 0.249607 0.32694
0.364965 0.334615 0.403189
0.557137 0.535973 0.583795
0.671962 0.656291 0.691707
0.772259 0.761379 0.785962
0.835569 0.82771 0.845457
0.839063 0.831357 0.848753
0.327184 0.295033 0.367681
0.369024 0.338872 0.407004
0.425467 0.398016 0.46006
0.521691 0.498848 0.550484
0.706294 0.692256 0.72398
0.794202 0.784375 0.806607
0.842527 0.835004 0.852003
0.881178 0.875502 0.888334
0.884153 0.878614 0.891127
0.457206 0.431266 0.489876
0.503609 0.479881 0.533486
0.569604 0.549035 0.595514
0.671809 0.656123 0.691554
0.797009 0.787305 0.809232
0.865232 0.858793 0.87335
0.889799 0.884535 0.896437
0.911772 0.907561 0.917082
0.913542 0.909422 0.918746
0.460258 0.43447 0.492744
0.506661 0.483085 0.536355
0.571969 0.551507 0.597726
0.67306 0.657435 0.692729
0.797421 0.787747 0.809628
0.867643 0.861326 0.875624
0.893172 0.88806 0.899596
0.914275 0.91017 0.919432
0.91606 0.912032 0.921111
0.0561837 0.0110781 0.112993
0.0647135 0.0200198 0.121019
0.0991989 0.0561379 0.153414
0.163256 0.123262 0.213611
0.194781 0.156298 0.243244
0.189853 0.151141 0.238621
0.214603 0.177081 0.261875
0.238804 0.202426 0.284627
0.242222 0.206012 0.287831
0.0822309 0.0383764 0.137484
0.0960708 0.0528725 0.150469
0.128511 0.0868544 0.180957
0.202884 0.164797 0.250858
0.241947 0.205722 0.287572
0.242267 0.206058 0.287877
0.285023 0.250843 0.328054
0.335836 0.304082 0.375814
0.343923 0.312566 0.383398
0.107073 0.0644083 0.160815
0.135836 0.0945449 0.187854
0.181888 0.142794 0.231128
0.231327 0.194583 0.277592
0.291737 0.257893 0.334371
0.343099 0.311696 0.382635
0.428672 0.401373 0.463066
0.522026 0.499184 0.550805
0.529122 0.50663 0.557473
0.129809 0.0882277 0.182193
0.165591 0.125704 0.215808
0.234653 0.198077 0.28072
0.292897 0.259113 0.335454
0.356435 0.325689 0.395178
0.428824 0.401541 0.463218
0.523552 0.500771 0.552224
0.628855 0.611124 0.651194
0.633249 0.615717 0.655314
0.167819 0.128054 0.217914
0.204776 0.166766 0.252644
0.275959 0.241367 0.319539
0.388464 0.359243 0.425284
0.50251 0.478737 0.532448
0.583688 0.563806 0.608759
0.668284 0.652415 0.688243
0.755261 0.743572 0.770001
0.758694 0.747158 0.77322
0.240146 0.20383 0.285878
0.271626 0.23682 0.315465
0.339574 0.308003 0.379324
0.472282 0.447059 0.504036
0.676951 0.661509 0.696391
0.767376 0.756268 0.781384
0.81561 0.806806 0.826719
0.853254 0.846235 0.862089
0.856245 0.849378 0.864912
0.356451 0.325704 0.395178
0.416358 0.388464 0.451484
0.510506 0.487114 0.539971
0.623117 0.605112 0.645808
0.745098 0.732921 0.760449
0.844923 0.837507 0.854261
0.879454 0.873701 0.886717
0.903944 0.899351 0.909728
0.906325 0.901854 0.911955
0.503624 0.479896 0.533501
0.570642 0.550134 0.59649
0.658106 0.641764 0.678676
0.741238 0.728862 0.756802
0.809277 0.800168 0.820752
0.884565 0.879057 0.891524
0.910002 0.905699 0.915419
0.926009 0.922469 0.930465
0.928054 0.92462 0.932387
0.506996 0.483436 0.53666
0.573419 0.553033 0.5991
0.660166 0.643931 0.680629
0.742199 0.72987 0.757702
0.809598 0.800504 0.821057
0.887083 0.881682 0.893889
0.913115 0.908965 0.918334
0.928405 0.924987 0.932723
0.93048 0.927153 0.934661
0.0670787 0.0224918 0.123232
0.0763409 0.0322118 0.131945
0.103685 0.060853 0.157626
0.197681 0.159335 0.24596
0.257542 0.222049 0.30222
0.292653 0.258854 0.335225
0.279515 0.245075 0.322881
0.287221 0.253147 0.330114
0.291066 0.257176 0.33373
0.0996414 0.0566262 0.153841
0.116442 0.0742046 0.169619
0.148653 0.107973 0.199908
0.2477 0.211749 0.292973
0.33225 0.300343 0.372442
0.378012 0.348287 0.415457
0.373205 0.343236 0.410925
0.41442 0.38645 0.449668
0.424796 0.397314 0.459419
0.148257 0.107561 0.199527
0.182956 0.143908 0.232136
0.239948 0.203632 0.285695
0.288594 0.254597 0.331411
0.404623 0.376165 0.440452
0.509209 0.485756 0.53875
0.543389 0.521569 0.570871
0.62417 0.60621 0.646799
0.630777 0.613138 0.652995
0.175036 0.135607 0.224674
0.222812 0.185672 0.269596
0.307668 0.274586 0.34934
0.399756 0.371069 0.435874
0.490974 0.466651 0.521614
0.603311 0.584344 0.627176
0.690379 0.675578 0.70901
0.769223 0.75819 0.783108
0.772641 0.761776 0.786328
0.215183 0.177676 0.262425
0.265232 0.230121 0.309468
0.376898 0.347127 0.414405
0.51519 0.492027 0.544381
0.609232 0.59057 0.632761
0.69868 0.684276 0.716823
0.770428 0.759457 0.784237
0.819501 0.810864 0.83035
0.821714 0.813199 0.832441
0.279057 0.244602 0.322454
0.325505 0.293278 0.366094
0.45301 0.426871 0.485939
0.607614 0.588861 0.631235
0.74902 0.737026 0.764126
0.811399 0.80238 0.822751
0.845838 0.838468 0.855116
0.871656 0.865522 0.879377
0.874006 0.867979 0.88159
0.421927 0.394293 0.456718
0.488853 0.464424 0.519615
0.596399 0.577111 0.620691
0.718242 0.704784 0.73521
0.814374 0.805493 0.825544
0.877623 0.871778 0.884993
0.899672 0.894881 0.905699
0.914153 0.910048 0.919326
0.915999 0.911986 0.92105
0.58706 0.56733 0.611917
0.644907 0.627939 0.666285
0.720211 0.706844 0.737057
0.805875 0.796597 0.817563
0.855726 0.848814 0.864408
0.903502 0.898878 0.9093
0.926986 0.923506 0.931395
0.9393 0.9364 0.942946
0.941329 0.938506 0.944839
0.590784 0.571237 0.615427
0.647761 0.630945 0.668971
0.721843 0.708553 0.738582
0.806394 0.797131 0.818051
0.856519 0.849653 0.865156
0.905272 0.90074 0.910979
0.930159 0.926833 0.934371
0.942824 0.940078 0.946258
0.944915 0.94229 0.948226
0.0785382 0.0345006 0.133989
0.0896315 0.046128 0.144427
0.113771 0.0714122 0.167117
0.209934 0.172183 0.257481
0.285542 0.251392 0.328542
0.345434 0.314168 0.384848
0.382925 0.353429 0.420066
0.376684 0.346883 0.414191
0.374304 0.344411 0.411963
0.117327 0.0751507 0.170459
0.137804 0.0966049 0.1897
0.171221 0.131609 0.221103
0.267933 0.232944 0.312001
0.37937 0.349706 0.416709
0.464576 0.438987 0.496803
0.526284 0.503639 0.554788
0.547982 0.526375 0.575189
0.550042 0.528542 0.577127
0.191684 0.153048 0.24033
0.230991 0.194247 0.277287
0.288701 0.254704 0.331518
0.334264 0.302449 0.374334
0.494484 0.470329 0.52491
0.653895 0.637354 0.674739
0.722469 0.709194 0.739162
0.751766 0.73991 0.766705
0.75552 0.743832 0.77023
0.22977 0.192966 0.276143
0.283879 0.249653 0.326986
0.411429 0.383307 0.44686
0.507988 0.484474 0.537591
0.580789 0.560754 0.606027
0.698344 0.68394 0.716503
0.788388 0.778271 0.801129
0.831662 0.823621 0.841794
0.833524 0.825559 0.843549
0.257053 0.221546 0.301778
0.331762 0.299825 0.371984
0.487068 0.462547 0.517937
0.614633 0.596216 0.637827
0.720913 0.707576 0.737713
0.786267 0.776059 0.79913
0.837201 0.829419 0.846998
0.869139 0.862882 0.877012
0.870176 0.863966 0.877989
0.335683 0.303944 0.375677
0.409003 0.380758 0.444572
0.581003 0.560983 0.606226
0.728496 0.715526 0.744839
0.809277 0.800153 0.820752
0.841871 0.834318 0.851392
0.86923 0.862974 0.877089
0.893828 0.888747 0.900206
0.895903 0.890929 0.902174
0.479988 0.455146 0.511299
0.572717 0.5523 0.598444
0.697292 0.682826 0.715511
0.797498 0.787823 0.809689
0.857023 0.850202 0.865629
0.892973 0.887861 0.899413
0.909056 0.904707 0.914534
0.921019 0.91725 0.925765
0.922774 0.919081 0.927428
0.647288 0.630426 0.668513
0.71519 0.701579 0.732326
0.784985 0.774716 0.79794
0.844999 0.837598 0.854322
0.886427 0.88101 0.893263
0.917372 0.91342 0.922347
0.936126 0.933074 0.939986
0.946822 0.944274 0.950027
0.948501 0.946029 0.951598
0.650294 0.633585 0.671351
0.717388 0.703868 0.734386
0.786099 0.775876 0.798978
0.845319 0.837949 0.854627
0.887282 0.88188 0.894057
0.919295 0.915434 0.924163
0.939941 0.937072 0.943557
0.951186 0.948852 0.954131
0.952895 0.950637 0.955734
0.0899977 0.0464942 0.144762
0.10312 0.0602579 0.157107
0.129305 0.0876936 0.181704
0.212467 0.174823 0.259861
0.306905 0.273793 0.348638
0.370764 0.340703 0.408637
0.433173 0.406073 0.467277
0.471046 0.445762 0.502876
0.473915 0.448768 0.505577
0.135149 0.0938125 0.187198
0.158968 0.118776 0.209583
0.196185 0.157778 0.244572
0.280827 0.246464 0.324117
0.415412 0.387472 0.450599
0.505455 0.481819 0.53521
0.594797 0.575418 0.619181
0.661936 0.645777 0.682277
0.669642 0.653849 0.689525
0.228 0.191104 0.274464
0.271626 0.23682 0.315465
0.339254 0.307683 0.379019
0.396368 0.367514 0.432685
0.552071 0.530663 0.579019
0.724163 0.710979 0.740764
0.800046 0.790494 0.812085
0.833082 0.825101 0.843122
0.83418 0.826261 0.84416
0.280156 0.245747 0.323476
0.355505 0.324697 0.394293
0.52079 0.497887 0.54963
0.599557 0.580407 0.623652
0.629023 0.611292 0.651347
0.747021 0.734936 0.762249
0.829496 0.821363 0.839765
0.86244 0.855863 0.870726
0.862974 0.856413 0.871214
0.298039 0.264485 0.340291
0.40621 0.377829 0.441947
0.595071 0.575723 0.61944
0.723903 0.710704 0.74052
0.781628 0.771191 0.794766
0.8309 0.822828 0.841077
0.869429 0.863188 0.877287
0.895323 0.890318 0.901625
0.895521 0.890532 0.901808
0.395651 0.366781 0.432029
0.49221 0.467948 0.522774
0.678157 0.662776 0.697536
0.789151 0.77908 0.801846
0.846326 0.838987 0.855589
0.874281 0.868284 0.881849
0.891676 0.886503 0.898192
0.909148 0.904799 0.914611
0.910506 0.906233 0.915892
0.555093 0.533822 0.581857
0.656291 0.639857 0.676982
0.760678 0.749233 0.775082
0.841703 0.834134 0.851225
0.886152 0.880705 0.893004
0.906203 0.901717 0.911849
0.915419 0.911376 0.920516
0.925399 0.921843 0.9299
0.927169 0.923674 0.931533
0.678645 0.663294 0.697993
0.74696 0.734859 0.762188
0.812711 0.803754 0.823987
0.870787 0.864622 0.878569
0.904662 0.900099 0.910384
0.925109 0.921523 0.92961
0.940475 0.937636 0.94406
0.950683 0.948333 0.953658
0.9523 0.950027 0.955184
0.680369 0.665095 0.699611
0.747997 0.735958 0.763165
0.813107 0.804181 0.824353
0.870878 0.864713 0.878645
0.905196 0.900664 0.910903
0.927092 0.923613 0.931487
0.944686 0.942031 0.948013
0.95552 0.953399 0.958206
0.957183 0.955139 0.959762
0.0919814 0.0485847 0.146639
0.105455 0.0627146 0.159289
0.132143 0.0906844 0.18439
0.21268 0.175051 0.26006
0.310155 0.277195 0.35169
0.374655 0.344778 0.412299
0.438422 0.411582 0.472221
0.482475 0.45774 0.513634
0.486854 0.462333 0.517739
0.138155 0.0969711 0.190021
0.162524 0.122499 0.21294
0.200443 0.162234 0.248569
0.28278 0.248508 0.325963
0.420874 0.393194 0.455726
0.511635 0.488289 0.541024
0.601877 0.582849 0.625849
0.672892 0.657252 0.692576
0.681254 0.66601 0.700435
0.233616 0.196994 0.279744
0.277974 0.243473 0.321431
0.346624 0.315404 0.385946
0.406943 0.378592 0.442634
0.559579 0.538537 0.586084
0.731762 0.718959 0.747906
0.803922 0.794553 0.815717
0.8336 0.82565 0.84361
0.834485 0.826581 0.84445
0.289235 0.255268 0.332006
0.369696 0.33959 0.407645
0.535271 0.513054 0.563241
0.608865 0.590173 0.63241
0.633982 0.616495 0.656016
0.751339 0.739467 0.766323
0.83154 0.823499 0.841688
0.862608 0.856046 0.870878
0.863157 0.856611 0.871397
0.305928 0.272755 0.347707
0.418982 0.391211 0.453956
0.606561 0.587762 0.630243
0.736217 0.723598 0.752087
0.787732 0.7776 0.800504
0.834424 0.82652 0.844388
0.871092 0.864942 0.878859
0.895384 0.890394 0.901686
0.895582 0.890593 0.901869
0.40412 0.375631 0.439979
0.502876 0.479118 0.532799
0.686992 0.672038 0.705837
0.793912 0.784054 0.806302
0.849104 0.841886 0.858183
0.878141 0.872312 0.885466
0.894453 0.889418 0.900816
0.910353 0.906081 0.915755
0.911574 0.907347 0.916899
0.561807 0.540871 0.588174
0.658076 0.641733 0.67866
0.761166 0.749752 0.77554
0.84239 0.834867 0.851881
0.887938 0.882582 0.894682
0.908125 0.903746 0.913664
0.91664 0.912673 0.921675
0.926177 0.922652 0.930632
0.927916 0.924483 0.93225
0.678828 0.663478 0.698161
0.747082 0.734981 0.762295
0.812757 0.8038 0.824018
0.870802 0.864637 0.878584
0.905196 0.900649 0.910887
0.925856 0.922316 0.930327
0.940932 0.938109 0.944488
0.951019 0.948669 0.953964
0.952651 0.950378 0.955505
0.680522 0.665248 0.699748
0.748089 0.736049 0.763241
0.813123 0.804196 0.824369
0.870878 0.864713 0.878645
0.90573 0.901213 0.911391
0.927855 0.924392 0.932189
0.945159 0.942519 0.948455
0.955901 0.953796 0.958572
0.957626 0.955596 0.960174
