luts/lumix_color_lab_B/Selen_Chrome_33.cube
TITLE "Generated by Resolve"
LUT_3D_SIZE 33
0.0487831 0.00332647 0.106035
0.0488136 0.00335698 0.106065
0.0488899 0.00344854 0.106142
0.049012 0.00357061 0.106249
0.0491035 0.00366217 0.10634
0.0491798 0.00373846 0.106401
0.0492256 0.0037995 0.106462
0.0492866 0.00384527 0.106508
0.0494545 0.00402838 0.106661
0.050248 0.00486763 0.107408
0.0521096 0.00680552 0.109163
0.0545968 0.00941482 0.111498
0.057145 0.0120851 0.113893
0.0595254 0.0145876 0.116136
0.061738 0.0168917 0.118196
0.0639658 0.0192264 0.120302
0.0664683 0.0218509 0.122652
0.069337 0.0248569 0.125353
0.0725261 0.0281987 0.128359
0.0759747 0.0318151 0.131594
0.0796368 0.0356603 0.135027
0.0834669 0.0396735 0.138628
0.08748 0.0438697 0.142397
0.0915999 0.048188 0.146273
0.0957961 0.0525826 0.150225
0.100069 0.0570687 0.154238
0.104509 0.0617075 0.158404
0.109133 0.0665599 0.162753
0.114092 0.0717632 0.167422
0.117418 0.0752575 0.17055
0.117418 0.0752575 0.17055
0.117418 0.0752575 0.17055
0.117418 0.0752575 0.17055
0.0493629 0.00392157 0.106569
0.0495003 0.00407416 0.106706
0.049836 0.00442512 0.107012
0.0502327 0.00483711 0.107393
0.0505379 0.00515755 0.107683
0.050782 0.00541695 0.107912
0.0510262 0.00567636 0.108141
0.0513313 0.00598154 0.108431
0.0518044 0.00650034 0.108873
0.0527962 0.0075227 0.109804
0.0545357 0.00935378 0.111437
0.0567483 0.0116732 0.113512
0.0590524 0.0140841 0.115679
0.0612192 0.0163424 0.117708
0.0632334 0.0184634 0.1196
0.0653086 0.0206302 0.121553
0.0676738 0.0231327 0.123796
0.0704356 0.0260166 0.12639
0.073579 0.0292973 0.129335
0.0769818 0.0328679 0.13254
0.0806439 0.0366979 0.135973
0.0845197 0.0407721 0.13962
0.0886397 0.0450904 0.143481
0.0929274 0.0495766 0.147509
0.0973526 0.0542153 0.151675
0.101915 0.0589914 0.155978
0.106676 0.0639811 0.160433
0.111681 0.0692302 0.165148
0.117052 0.0748608 0.170199
0.120653 0.0786297 0.173571
0.120653 0.0786297 0.173571
0.120653 0.0786297 0.173571
0.120653 0.0786297 0.173571
0.0517128 0.00639353 0.108782
0.0521859 0.00689708 0.109239
0.0529183 0.00764477 0.109911
0.0535744 0.00833143 0.110536
0.0540169 0.00880446 0.110948
0.0543832 0.00918593 0.111299
0.0547646 0.00959792 0.111666
0.0552987 0.0101625 0.112154
0.0561379 0.0110323 0.112947
0.0574655 0.0124208 0.114199
0.0593118 0.0143587 0.115923
0.0614481 0.0166018 0.117937
0.0636149 0.0188602 0.119982
0.0656138 0.0209659 0.121859
0.0675364 0.0229648 0.123644
0.0695354 0.0250706 0.125536
0.07187 0.027512 0.127718
0.0745556 0.0303349 0.130251
0.0776226 0.0335393 0.133135
0.0810407 0.0371252 0.136339
0.0847791 0.0410468 0.139864
0.0888685 0.0453193 0.143709
0.0933242 0.0500038 0.14789
0.0981003 0.0549935 0.152377
0.103151 0.0602884 0.157137
0.108476 0.0658579 0.162127
0.114076 0.0717479 0.167407
0.120058 0.0780194 0.173022
0.126482 0.0847486 0.179065
0.13077 0.0892195 0.183078
0.13077 0.0892195 0.183078
0.13077 0.0892195 0.183078
0.13077 0.0892195 0.183078
0.0554971 0.0103609 0.112337
0.0563363 0.0112306 0.11313
0.0573892 0.0123445 0.114122
0.0581826 0.0131685 0.11487
0.0587015 0.0137179 0.115358
0.059144 0.0141756 0.11577
0.0596017 0.0146639 0.116213
0.0602121 0.0152895 0.116762
0.0610971 0.0162356 0.117617
0.0624857 0.0176852 0.118914
0.0643473 0.0196231 0.120653
0.0665446 0.0219425 0.122728
0.0688945 0.0243839 0.124926
0.0711528 0.0267643 0.127062
0.0733959 0.0291142 0.129168
0.0757458 0.0315709 0.131365
0.0783703 0.0343328 0.133837
0.0814069 0.0375067 0.13669
0.0848859 0.0411536 0.139971
0.0888228 0.0452735 0.143648
0.0931716 0.049836 0.147753
0.0979782 0.0548714 0.15227
0.103258 0.0603952 0.157229
0.108919 0.0663462 0.16257
0.114961 0.0726635 0.168231
0.121355 0.0793622 0.174228
0.128099 0.0864424 0.180591
0.135286 0.0939651 0.187335
0.143008 0.102052 0.194598
0.14815 0.107439 0.19942
0.14815 0.107439 0.19942
0.14815 0.107439 0.19942
0.14815 0.107439 0.19942
0.0586557 0.0136721 0.115312
0.059617 0.0146639 0.116213
0.060853 0.0159762 0.117388
0.0618448 0.0169985 0.118303
0.0625772 0.0177768 0.119005
0.0632486 0.0184939 0.119631
0.0639506 0.0192264 0.120302
0.064744 0.0200351 0.121035
0.0657359 0.021088 0.121965
0.0670939 0.0225071 0.123247
0.0688792 0.0243839 0.124926
0.071107 0.0267033 0.127016
0.0735943 0.0293278 0.129351
0.0762036 0.0320439 0.131792
0.0789044 0.0348974 0.13434
0.0817731 0.0378882 0.137041
0.0849775 0.0412451 0.140047
0.0886244 0.0450752 0.143481
0.0927749 0.049424 0.147372
0.0974594 0.0543374 0.151797
0.102724 0.0598459 0.156741
0.108568 0.0659648 0.162219
0.114916 0.0726177 0.168185
0.121691 0.0797284 0.174563
0.128817 0.0871901 0.181262
0.136339 0.0950637 0.188327
0.144259 0.103365 0.195773
0.152682 0.112184 0.203677
0.161746 0.121675 0.212192
0.167773 0.128008 0.217868
0.167773 0.128008 0.217868
0.167773 0.128008 0.217868
0.167773 0.128008 0.217868
0.0605325 0.0156405 0.117082
0.0615244 0.0166781 0.118013
0.062974 0.018204 0.119371
0.0643015 0.0195926 0.120623
0.0654459 0.0207828 0.121691
0.0665446 0.0219272 0.122728
0.0676432 0.0230869 0.123766
0.0687572 0.0242618 0.124804
0.0699779 0.0255283 0.125963
0.0714122 0.027039 0.127306
0.0732128 0.0289158 0.128985
0.0754559 0.0312657 0.131106
0.0781109 0.0340581 0.133608
0.081117 0.0372015 0.136416
0.0843824 0.0406195 0.139483
0.0878767 0.0442817 0.142779
0.0917525 0.0483558 0.146426
0.0960708 0.0528725 0.150484
0.100908 0.0579538 0.155032
0.106371 0.0636606 0.160159
0.112535 0.0701152 0.165942
0.119326 0.0772412 0.172335
0.12668 0.084947 0.179248
0.134493 0.0931411 0.186587
0.142687 0.101701 0.194278
0.151263 0.110704 0.20235
0.160357 0.120241 0.210895
0.170047 0.130388 0.220005
0.180407 0.141222 0.229725
0.187213 0.148363 0.236133
0.187213 0.148363 0.236133
0.187213 0.148363 0.236133
0.187213 0.148363 0.236133
0.0612802 0.0164187 0.117784
0.0623026 0.0174868 0.118746
0.0639963 0.0192721 0.120333
0.0657969 0.021149 0.122026
0.0674754 0.0229038 0.123598
0.0691081 0.0246281 0.125139
0.0707103 0.0263066 0.12665
0.0722667 0.0279393 0.128115
0.0738537 0.0295872 0.129595
0.0755932 0.0314031 0.131228
0.0776684 0.0336004 0.133181
0.0802625 0.0363012 0.135622
0.0833448 0.0395361 0.138506
0.0869154 0.0432898 0.141878
0.0908675 0.047425 0.145586
0.0951705 0.0519265 0.14963
0.0998856 0.0568704 0.15407
0.105074 0.0623026 0.158938
0.110765 0.0682689 0.164294
0.117067 0.074876 0.170214
0.124025 0.0821698 0.176745
0.131609 0.0901045 0.183871
0.139742 0.0986343 0.191516
0.148409 0.107713 0.199664
0.157519 0.11725 0.208225
0.167086 0.127275 0.217212
0.177249 0.137926 0.226764
0.188083 0.149279 0.236942
0.199191 0.160922 0.247395
0.206058 0.168109 0.253834
0.206058 0.168109 0.253834
0.206058 0.168109 0.253834
0.206058 0.168109 0.253834
0.0617075 0.0168612 0.118181
0.0627604 0.0179751 0.119173
0.064683 0.0199893 0.120974
0.0669261 0.0223392 0.123095
0.0691691 0.0246891 0.1252
0.0713512 0.0269627 0.12723
0.0734112 0.0291295 0.129183
0.0753948 0.0312047 0.131044
0.0773785 0.0332799 0.132906
0.0795911 0.0355993 0.134981
0.0822919 0.0384375 0.13753
0.0856184 0.0419165 0.140658
0.0895094 0.0459907 0.144305
0.0939345 0.0506447 0.14847
0.0988174 0.0557565 0.153063
0.104128 0.0613107 0.158053
0.109926 0.0673991 0.163516
0.116274 0.074052 0.169467
0.123171 0.0812695 0.175937
0.130541 0.0889906 0.182879
0.13843 0.097261 0.19028
0.146838 0.10605 0.198184
0.155734 0.115389 0.206546
0.165164 0.125261 0.215396
0.175082 0.135668 0.224735
0.185565 0.146639 0.234592
0.196643 0.158251 0.244999
0.208362 0.170535 0.256016
0.219608 0.182315 0.266575
0.225681 0.188678 0.272282
0.225681 0.188678 0.272282
0.225681 0.188678 0.272282
0.225681 0.188678 0.272282
0.0631113 0.0183413 0.119509
0.0641794 0.0194553 0.1205
0.0662394 0.021622 0.122454
0.0687724 0.0242771 0.124834
0.071397 0.0270085 0.127275
0.0739757 0.0297246 0.129702
0.0764324 0.0323033 0.132036
0.0787671 0.0347448 0.134218
0.0811475 0.037232 0.136446
0.0839094 0.0401312 0.139055
0.0873579 0.0437476 0.14229
0.0915847 0.0481727 0.146258
0.0965133 0.0533455 0.150896
0.102037 0.0591287 0.156085
0.108019 0.0654002 0.161715
0.114504 0.0721904 0.167803
0.121538 0.0795605 0.174411
0.129259 0.0876478 0.181674
0.137621 0.0964065 0.189517
0.146487 0.105699 0.197848
0.155795 0.11545 0.206592
0.165454 0.125582 0.215686
0.175494 0.136095 0.225116
0.185916 0.147005 0.234913
0.196811 0.158419 0.245151
0.208194 0.170352 0.255863
0.220096 0.182818 0.267033
0.232578 0.195911 0.278767
0.243931 0.207797 0.289433
0.249393 0.213519 0.29456
0.249393 0.213519 0.29456
0.249393 0.213519 0.29456
0.249393 0.213519 0.29456
0.0663005 0.0216678 0.122499
0.0673533 0.0227817 0.123491
0.0694896 0.0250248 0.125505
0.0720989 0.0277562 0.127947
0.074876 0.0306706 0.130556
0.0777447 0.0336614 0.133242
0.0805829 0.0366522 0.135927
0.08336 0.0395514 0.138521
0.0861677 0.0424811 0.141161
0.0894026 0.0458839 0.144213
0.093492 0.0501717 0.148058
0.098558 0.0554665 0.152804
0.104479 0.061677 0.158373
0.111055 0.068574 0.164569
0.118151 0.0760052 0.171237
0.12578 0.0840009 0.178393
0.134081 0.0926986 0.186206
0.143252 0.102312 0.194812
0.153262 0.112795 0.204227
0.163973 0.12401 0.214282
0.175204 0.13579 0.224842
0.18674 0.147875 0.235691
0.198489 0.160189 0.246723
0.210391 0.172656 0.257908
0.222507 0.185351 0.269306
0.234943 0.198367 0.280995
0.247852 0.211902 0.293126
0.261448 0.226154 0.305898
0.273426 0.238712 0.317159
0.278691 0.244221 0.322103
0.278691 0.244221 0.322103
0.278691 0.244221 0.322103
0.278691 0.244221 0.322103
0.0711376 0.0267338 0.127047
0.0721904 0.0278477 0.128038
0.0743267 0.0300755 0.130037
0.0769513 0.0328374 0.132509
0.0798352 0.035874 0.135225
0.0830091 0.0391852 0.138201
0.0863813 0.0427253 0.141375
0.0897993 0.0462959 0.144579
0.0932174 0.0498817 0.147799
0.0969863 0.0538186 0.151324
0.101564 0.0586099 0.155627
0.107225 0.0645609 0.160952
0.113878 0.0715343 0.167224
0.121309 0.0793164 0.174197
0.129335 0.0877241 0.181735
0.137972 0.0967727 0.189853
0.147478 0.106737 0.198795
0.158129 0.117891 0.208804
0.169848 0.130175 0.219821
0.182483 0.14342 0.231693
0.195758 0.157336 0.24416
0.209369 0.171588 0.256962
0.223087 0.185946 0.269841
0.236774 0.20029 0.282704
0.250553 0.21474 0.295659
0.264668 0.229526 0.308934
0.279438 0.244999 0.32282
0.295201 0.261509 0.337621
0.308904 0.275883 0.3505
0.314549 0.281788 0.35581
0.314549 0.281788 0.35581
0.314549 0.281788 0.35581
0.314549 0.281788 0.35581
0.0771344 0.0330205 0.132677
0.078172 0.0341039 0.133654
0.0802472 0.0363012 0.135607
0.0829786 0.0391546 0.13817
0.0860761 0.0424048 0.141085
0.0897231 0.0462196 0.144503
0.0938888 0.0505989 0.148425
0.0983139 0.0552377 0.15259
0.102708 0.0598306 0.15671
0.107149 0.0644846 0.160891
0.112184 0.069749 0.165621
0.118242 0.0760967 0.171313
0.125414 0.0836194 0.178058
0.133486 0.0920729 0.185641
0.142245 0.101259 0.193881
0.151766 0.111223 0.202823
0.162356 0.122332 0.212772
0.17438 0.13492 0.224063
0.187686 0.148867 0.236576
0.202075 0.163943 0.250095
0.217121 0.179706 0.26424
0.232486 0.195804 0.278676
0.247959 0.212024 0.293217
0.263615 0.228412 0.307927
0.279728 0.245319 0.323095
0.296651 0.263035 0.338994
0.314687 0.281926 0.355932
0.334081 0.302251 0.374151
0.350637 0.319615 0.389731
0.357092 0.32636 0.395789
0.357092 0.32636 0.395789
0.357092 0.32636 0.395789
0.357092 0.32636 0.395789
0.0838026 0.0400244 0.138949
0.0848554 0.0411231 0.13994
0.0869917 0.0433661 0.141955
0.0899062 0.0464179 0.144686
0.0933242 0.0499886 0.14789
0.0975357 0.0544137 0.151858
0.10277 0.0598764 0.156771
0.108629 0.0660258 0.16228
0.114473 0.0721599 0.167773
0.119951 0.0778973 0.17293
0.125521 0.0837262 0.178149
0.131868 0.0903792 0.184115
0.139361 0.0982376 0.191165
0.147982 0.107256 0.199268
0.157488 0.11722 0.208194
0.16788 0.128115 0.21796
0.179431 0.140215 0.228824
0.192523 0.153948 0.241123
0.207111 0.169223 0.254841
0.222827 0.185687 0.269612
0.239185 0.202838 0.284993
0.25594 0.220371 0.300725
0.273136 0.238392 0.316884
0.291142 0.257267 0.333806
0.310384 0.277424 0.351888
0.331075 0.299092 0.371328
0.353429 0.322515 0.39234
0.377478 0.347723 0.414939
0.397681 0.368902 0.433936
0.40531 0.376898 0.441108
0.40531 0.376898 0.441108
0.40531 0.376898 0.441108
0.40531 0.376898 0.441108
0.0912337 0.0478065 0.145937
0.0923781 0.0489967 0.147005
0.094667 0.0513924 0.149157
0.0977951 0.0546883 0.152102
0.101457 0.0585184 0.155535
0.106218 0.063508 0.160021
0.112535 0.0701305 0.165957
0.120119 0.0780652 0.173083
0.127886 0.0862135 0.180377
0.134874 0.0935378 0.186954
0.141268 0.100221 0.19295
0.147951 0.107225 0.199222
0.155718 0.115358 0.206531
0.164828 0.124926 0.215106
0.175189 0.13576 0.224826
0.186572 0.147692 0.235523
0.199054 0.160784 0.247257
0.212894 0.17528 0.260258
0.228122 0.191241 0.274586
0.244587 0.208484 0.290059
0.261997 0.226734 0.306416
0.280324 0.24593 0.323644
0.299733 0.26627 0.341894
0.320592 0.288121 0.361486
0.343297 0.31191 0.382818
0.368093 0.337896 0.406134
0.395087 0.366171 0.431495
0.423926 0.396384 0.458595
0.447974 0.421576 0.481193
0.456992 0.431037 0.489677
0.456992 0.431037 0.489677
0.456992 0.431037 0.489677
0.456992 0.431037 0.489677
0.0996872 0.056672 0.153887
0.100954 0.0579843 0.155062
0.10341 0.0605631 0.157382
0.106752 0.0640726 0.160525
0.110582 0.0680705 0.164111
0.115679 0.0734112 0.168902
0.122881 0.0809644 0.175677
0.132143 0.0906691 0.184375
0.142138 0.101152 0.193774
0.151217 0.110658 0.202304
0.158953 0.118761 0.209567
0.166247 0.126406 0.216434
0.17438 0.13492 0.224079
0.184009 0.145006 0.233112
0.195163 0.156695 0.243595
0.207584 0.169726 0.255283
0.221042 0.18381 0.267918
0.235447 0.198901 0.281468
0.250935 0.215137 0.296025
0.267796 0.232807 0.311879
0.28632 0.252216 0.329274
0.30663 0.273503 0.348363
0.32874 0.296651 0.369131
0.35285 0.321935 0.391806
0.379263 0.349599 0.416632
0.408026 0.379736 0.443656
0.439033 0.412222 0.472786
0.471962 0.446723 0.503746
0.499397 0.475471 0.529519
0.509667 0.486229 0.539162
0.509667 0.486229 0.539162
0.509667 0.486229 0.539162
0.509667 0.486229 0.539162
0.10927 0.0666972 0.162875
0.110674 0.0681773 0.164202
0.113375 0.0710002 0.166735
0.11693 0.0747234 0.170077
0.120836 0.0788128 0.173754
0.126009 0.0842451 0.178622
0.133715 0.0923171 0.185855
0.14432 0.10341 0.195819
0.156588 0.116289 0.207355
0.168322 0.128573 0.218387
0.178195 0.138933 0.227665
0.186725 0.14786 0.235676
0.195422 0.15697 0.243854
0.205493 0.167529 0.253315
0.217227 0.179812 0.264332
0.230411 0.193622 0.276722
0.244724 0.208637 0.290181
0.259983 0.224613 0.304509
0.276219 0.241611 0.319768
0.293935 0.260197 0.336431
0.313832 0.281041 0.355123
0.336309 0.304585 0.376257
0.361395 0.330861 0.399817
0.388937 0.359731 0.425711
0.418784 0.391012 0.453758
0.450813 0.424567 0.483864
0.484916 0.460304 0.515908
0.52079 0.497902 0.549645
0.550149 0.528664 0.577234
0.560723 0.539727 0.587167
0.560723 0.539727 0.587167
0.560723 0.539727 0.587167
0.560723 0.539727 0.587167
0.120073 0.0780194 0.173037
0.12166 0.0796826 0.174533
0.12459 0.0827649 0.177279
0.128405 0.0867475 0.18085
0.132372 0.0909133 0.184588
0.137453 0.0962387 0.18938
0.14522 0.104372 0.196658
0.156588 0.116274 0.207355
0.170871 0.131243 0.220783
0.185641 0.146731 0.234653
0.198535 0.160235 0.246769
0.209094 0.171298 0.256703
0.218753 0.181415 0.265782
0.229175 0.19234 0.275578
0.241138 0.204868 0.286809
0.254719 0.219104 0.29958
0.270008 0.235111 0.313939
0.286931 0.252842 0.329839
0.305196 0.271992 0.347021
0.324987 0.292729 0.365606
0.346929 0.315724 0.386236
0.371725 0.341711 0.409537
0.399405 0.370703 0.435554
0.429587 0.402319 0.46392
0.46186 0.436149 0.49424
0.495995 0.471901 0.526329
0.531777 0.509407 0.55996
0.568673 0.548058 0.594629
0.598062 0.578866 0.622263
0.608209 0.589487 0.631785
0.608209 0.589487 0.631785
0.608209 0.589487 0.631785
0.608209 0.589487 0.631785
0.132219 0.0907607 0.184451
0.133959 0.0925765 0.186099
0.137133 0.0959029 0.189075
0.141238 0.100206 0.192935
0.145373 0.10454 0.196811
0.150332 0.109728 0.20148
0.157794 0.117556 0.208499
0.169284 0.12958 0.219287
0.184985 0.146044 0.234043
0.202762 0.16466 0.250751
0.219242 0.181933 0.266239
0.23267 0.196002 0.278859
0.243839 0.207706 0.289357
0.254826 0.219211 0.299687
0.267079 0.232059 0.311192
0.281331 0.246983 0.32459
0.298161 0.264622 0.340398
0.317708 0.2851 0.35877
0.339467 0.307912 0.379232
0.362997 0.332555 0.401328
0.388052 0.358816 0.424887
0.415 0.38703 0.450202
0.444099 0.417533 0.477562
0.475288 0.450217 0.506874
0.50837 0.484886 0.537957
0.543008 0.521172 0.57052
0.578637 0.558511 0.603998
0.614404 0.595972 0.637598
0.64242 0.62533 0.663935
0.652125 0.635493 0.67306
0.652125 0.635493 0.67306
0.652125 0.635493 0.67306
0.652125 0.635493 0.67306
0.145647 0.104814 0.19707
0.147555 0.106813 0.198871
0.151034 0.11046 0.202136
0.155505 0.115145 0.206332
0.159945 0.119799 0.210513
0.16492 0.125017 0.215183
0.171969 0.132403 0.22182
0.183047 0.143999 0.232212
0.199374 0.161105 0.247562
0.219547 0.182239 0.266529
0.239734 0.203403 0.285496
0.256825 0.221302 0.301549
0.270588 0.235721 0.314488
0.283131 0.248875 0.326284
0.296605 0.262989 0.338949
0.312398 0.27953 0.353796
0.331441 0.299489 0.371679
0.354238 0.323384 0.393103
0.38027 0.350652 0.417578
0.408286 0.380011 0.4439
0.436927 0.410025 0.470832
0.46595 0.440421 0.498085
0.49575 0.471656 0.526101
0.526726 0.504112 0.555215
0.558938 0.53785 0.585473
0.591974 0.572488 0.616541
0.625299 0.607385 0.647852
0.658091 0.641749 0.67866
0.683696 0.668589 0.702739
0.692836 0.678157 0.71133
0.692836 0.678157 0.71133
0.692836 0.678157 0.71133
0.692836 0.678157 0.71133
0.160342 0.120211 0.21088
0.162493 0.122454 0.212894
0.166308 0.126467 0.216495
0.171176 0.131579 0.221073
0.176013 0.136645 0.22562
0.18117 0.142046 0.230457
0.18793 0.149111 0.236805
0.198398 0.160098 0.246647
0.214679 0.177142 0.261952
0.236469 0.199969 0.282429
0.260273 0.224933 0.304814
0.282109 0.247807 0.325338
0.300206 0.266773 0.342336
0.315862 0.283177 0.357046
0.331746 0.299809 0.371969
0.349889 0.318822 0.389029
0.371633 0.341604 0.409445
0.397696 0.368917 0.433951
0.427527 0.400168 0.461982
0.45948 0.433646 0.492012
0.491569 0.467262 0.522179
0.522683 0.49987 0.551415
0.55288 0.531518 0.579797
0.582635 0.562676 0.607752
0.612329 0.59379 0.63566
0.641947 0.624826 0.663493
0.671199 0.655482 0.690974
0.699626 0.685267 0.717708
0.72195 0.708659 0.738689
0.73022 0.717327 0.746471
0.73022 0.717327 0.746471
0.73022 0.717327 0.746471
0.73022 0.717327 0.746471
0.176318 0.13695 0.225895
0.178729 0.139483 0.228168
0.182986 0.143938 0.232166
0.188296 0.149508 0.237156
0.193622 0.155077 0.242145
0.19913 0.160861 0.247333
0.205875 0.167926 0.253666
0.2159 0.178439 0.263096
0.231846 0.195132 0.27808
0.254643 0.219028 0.299504
0.282078 0.247776 0.325292
0.309834 0.276844 0.35137
0.33402 0.302205 0.374105
0.354437 0.323583 0.393286
0.373846 0.343923 0.411536
0.394858 0.365942 0.431266
0.419089 0.391333 0.454047
0.447517 0.421118 0.480766
0.47982 0.454963 0.511131
0.514412 0.491203 0.543648
0.548913 0.527352 0.576059
0.581308 0.561288 0.6065
0.611124 0.592538 0.634531
0.638819 0.621561 0.660548
0.665034 0.649027 0.685191
0.690257 0.675456 0.708904
0.714641 0.701015 0.731823
0.738033 0.725521 0.753796
0.75642 0.744778 0.771084
0.763394 0.752102 0.777646
0.763394 0.752102 0.777646
0.763394 0.752102 0.777646
0.763394 0.752102 0.777646
0.193393 0.154833 0.241932
0.196231 0.157809 0.244602
0.201129 0.162951 0.24921
0.206958 0.169055 0.254688
0.212818 0.175189 0.260197
0.218875 0.181537 0.265888
0.225956 0.188968 0.272541
0.235859 0.199344 0.281849
0.251438 0.215656 0.296483
0.275029 0.240391 0.318669
0.30631 0.273152 0.348058
0.340932 0.309438 0.380606
0.372854 0.342885 0.410605
0.39939 0.370687 0.435538
0.422797 0.395209 0.457527
0.446403 0.419944 0.479728
0.472404 0.447196 0.504158
0.502007 0.478202 0.531975
0.535271 0.513054 0.563241
0.570581 0.550042 0.596414
0.60528 0.586419 0.629038
0.63714 0.619791 0.658976
0.665324 0.649332 0.685466
0.690272 0.675471 0.708919
0.712886 0.699168 0.730159
0.733822 0.721096 0.749828
0.753475 0.741695 0.768307
0.771923 0.761028 0.785657
0.786313 0.776104 0.799176
0.791806 0.781857 0.804334
0.791806 0.781857 0.804334
0.791806 0.781857 0.804334
0.791806 0.781857 0.804334
0.211551 0.173861 0.259007
0.215045 0.177539 0.262287
0.220752 0.183505 0.267659
0.227146 0.190204 0.273655
0.23357 0.196948 0.279698
0.240253 0.203952 0.285985
0.247837 0.211887 0.293111
0.257877 0.222416 0.302556
0.273533 0.238819 0.317266
0.298482 0.264958 0.340703
0.333989 0.302159 0.374075
0.375982 0.346166 0.413535
0.416159 0.388266 0.451301
0.449104 0.422782 0.482261
0.476295 0.45127 0.50782
0.501915 0.478111 0.531899
0.528817 0.506294 0.557168
0.558373 0.53727 0.584955
0.590707 0.571145 0.615335
0.62443 0.606485 0.647028
0.657176 0.640787 0.677806
0.686778 0.671809 0.705623
0.712352 0.698619 0.729671
0.734264 0.721569 0.750271
0.753414 0.741619 0.768261
0.770535 0.759564 0.784344
0.786145 0.775921 0.799023
0.800534 0.790997 0.812543
0.811582 0.802579 0.822919
0.815686 0.806882 0.82678
0.815686 0.806882 0.82678
0.815686 0.806882 0.82678
0.815686 0.806882 0.82678
0.230762 0.194003 0.277073
0.235233 0.198672 0.281254
0.241672 0.205432 0.287312
0.248615 0.212711 0.293843
0.255711 0.220127 0.300496
0.263218 0.228016 0.307576
0.271687 0.236881 0.315526
0.28249 0.248203 0.325689
0.298985 0.265476 0.341176
0.325826 0.293599 0.3664
0.365713 0.335409 0.403891
0.414771 0.386801 0.449989
0.462547 0.436866 0.494896
0.501488 0.477668 0.531487
0.532128 0.509773 0.560281
0.558938 0.53785 0.585473
0.585428 0.565621 0.610376
0.613245 0.594766 0.636515
0.642725 0.62565 0.66424
0.673075 0.65745 0.69276
0.702388 0.688151 0.720287
0.72874 0.71577 0.745068
0.751293 0.739406 0.766262
0.77023 0.759258 0.784054
0.786328 0.77612 0.799191
0.800305 0.790768 0.812329
0.812802 0.803861 0.824079
0.824201 0.815808 0.834791
0.832761 0.824765 0.842832
0.835752 0.827909 0.84564
0.835752 0.827909 0.84564
0.835752 0.827909 0.84564
0.835752 0.827909 0.84564
0.251011 0.215213 0.296101
0.256718 0.221195 0.301442
0.264042 0.22887 0.308339
0.271809 0.237018 0.315648
0.279942 0.245533 0.323278
0.288777 0.25478 0.331594
0.298711 0.265202 0.340932
0.310887 0.277958 0.352361
0.328664 0.296574 0.36907
0.357534 0.326833 0.396201
0.401389 0.372778 0.437415
0.456214 0.430228 0.488945
0.51046 0.487068 0.539925
0.554513 0.533227 0.581323
0.587503 0.567788 0.612329
0.614206 0.595773 0.63743
0.638849 0.621592 0.660578
0.663569 0.647501 0.683818
0.689174 0.674311 0.707881
0.715312 0.701717 0.732448
0.740627 0.728222 0.756237
0.763409 0.752102 0.777646
0.782834 0.772457 0.795911
0.799054 0.789441 0.811139
0.81265 0.803708 0.823926
0.824338 0.81593 0.834897
0.834623 0.826719 0.844572
0.843931 0.836469 0.85333
0.850706 0.843565 0.859693
0.852857 0.845823 0.861723
0.852857 0.845823 0.861723
0.852857 0.845823 0.861723
0.852857 0.845823 0.861723
0.273136 0.238407 0.316884
0.280415 0.246036 0.32372
0.288991 0.255009 0.331777
0.298085 0.264546 0.340337
0.307744 0.274662 0.349416
0.318227 0.285649 0.359274
0.329839 0.29781 0.370169
0.343572 0.3122 0.383093
0.362829 0.332372 0.401175
0.393515 0.364523 0.430014
0.440024 0.41326 0.473732
0.498863 0.474907 0.529015
0.557931 0.536797 0.584527
0.605402 0.586542 0.629145
0.639292 0.622065 0.661006
0.664714 0.648692 0.684886
0.686671 0.671687 0.705531
0.707835 0.693874 0.725429
0.72929 0.71635 0.745586
0.751125 0.739223 0.76611
0.772427 0.761547 0.78613
0.79176 0.781811 0.804303
0.808362 0.799207 0.819898
0.822263 0.813779 0.832959
0.833967 0.826032 0.843961
0.843992 0.83653 0.853376
0.852766 0.845716 0.861616
0.860624 0.853956 0.869001
0.866148 0.859754 0.874205
0.867689 0.861372 0.875654
0.867689 0.861372 0.875654
0.867689 0.861372 0.875654
0.867689 0.861372 0.875654
0.298558 0.265034 0.34078
0.307546 0.274449 0.349218
0.317693 0.285084 0.358755
0.328389 0.2963 0.368811
0.339788 0.308248 0.379538
0.352163 0.321202 0.39115
0.365621 0.335302 0.4038
0.380941 0.351354 0.418204
0.401282 0.372671 0.437324
0.432654 0.405539 0.466789
0.480201 0.45536 0.511482
0.541161 0.519234 0.568765
0.602853 0.583871 0.626749
0.651835 0.635203 0.672786
0.68542 0.67039 0.704356
0.708949 0.695033 0.726467
0.727947 0.714946 0.744335
0.745541 0.733394 0.760861
