luts/lumix_color_lab_B/Selen_Chrome_33.cube
TITLE "Generated by Resolve"
LUT_3D_SIZE 5
0.0487831 0.00332647 0.106035
0.0494545 0.00402838 0.106661
0.0664683 0.0218509 0.122652
0.0957961 0.0525826 0.150225
0.117418 0.0752575 0.17055
0.0631113 0.0183413 0.119509
0.0811475 0.037232 0.136446
0.121538 0.0795605 0.174411
0.196811 0.158419 0.245151
0.249393 0.213519 0.29456
0.120073 0.0780194 0.173037
0.170871 0.131243 0.220783
0.270008 0.235111 0.313939
0.46186 0.436149 0.49424
0.608209 0.589487 0.631785
0.251011 0.215213 0.296101
0.328664 0.296574 0.36907
0.638849 0.621592 0.660578
0.81265 0.803708 0.823926
0.852857 0.845823 0.861723
0.337362 0.305715 0.377264
0.441444 0.41474 0.475059
0.772992 0.762142 0.786664
0.878218 0.872389 0.885542
0.901579 0.89688 0.907515
0.0489052 0.00344854 0.106142
0.066041 0.0213931 0.12224
0.0840772 0.0402991 0.139208
0.116106 0.0738537 0.169299
0.14522 0.104372 0.196674
0.0704509 0.0260166 0.12639
0.10309 0.0602274 0.157076
0.150469 0.109865 0.201602
0.256855 0.221347 0.301595
0.33962 0.308064 0.37937
0.133562 0.0921645 0.185718
0.176501 0.137133 0.226062
0.318669 0.286122 0.359686
0.542412 0.520531 0.569955
0.660105 0.64387 0.680568
0.278676 0.244205 0.322087
0.369497 0.339376 0.407446
0.684611 0.669535 0.703578
0.825177 0.816815 0.835691
0.868254 0.861952 0.876188
0.385748 0.35639 0.422721
0.504234 0.480552 0.534081
0.783429 0.773083 0.796475
0.882582 0.876966 0.889662
0.907057 0.902617 0.912642
0.0561837 0.0110781 0.112993
0.0991989 0.0561379 0.153414
0.194781 0.156298 0.243244
0.214603 0.177081 0.261875
0.242222 0.206012 0.287831
0.107073 0.0644083 0.160815
0.181888 0.142794 0.231128
0.291737 0.257893 0.334371
0.428672 0.401373 0.463066
0.529122 0.50663 0.557473
0.167819 0.128054 0.217914
0.275959 0.241367 0.319539
0.50251 0.478737 0.532448
0.668284 0.652415 0.688243
0.758694 0.747158 0.77322
0.356451 0.325704 0.395178
0.510506 0.487114 0.539971
0.745098 0.732921 0.760449
0.879454 0.873701 0.886717
0.906325 0.901854 0.911955
0.506996 0.483436 0.53666
0.660166 0.643931 0.680629
0.809598 0.800504 0.821057
0.913115 0.908965 0.918334
0.93048 0.927153 0.934661
0.0785382 0.0345006 0.133989
0.113771 0.0714122 0.167117
0.285542 0.251392 0.328542
0.382925 0.353429 0.420066
0.374304 0.344411 0.411963
0.191684 0.153048 0.24033
0.288701 0.254704 0.331518
0.494484 0.470329 0.52491
0.722469 0.709194 0.739162
0.75552 0.743832 0.77023
0.257053 0.221546 0.301778
0.487068 0.462547 0.517937
0.720913 0.707576 0.737713
0.837201 0.829419 0.846998
0.870176 0.863966 0.877989
0.479988 0.455146 0.511299
0.697292 0.682826 0.715511
0.857023 0.850202 0.865629
0.909056 0.904707 0.914534
0.922774 0.919081 0.927428
0.650294 0.633585 0.671351
0.786099 0.775876 0.798978
0.887282 0.88188 0.894057
0.939941 0.937072 0.943557
0.952895 0.950637 0.955734
0.0919814 0.0485847 0.146639
0.132143 0.0906844 0.18439
0.310155 0.277195 0.35169
0.438422 0.411582 0.472221
0.486854 0.462333 0.517739
0.233616 0.196994 0.279744
0.346624 0.315404 0.385946
0.559579 0.538537 0.586084
0.803922 0.794553 0.815717
0.834485 0.826581 0.84445
0.305928 0.272755 0.347707
0.606561 0.587762 0.630243
0.787732 0.7776 0.800504
0.871092 0.864942 0.878859
0.895582 0.890593 0.901869
0.561807 0.540871 0.588174
0.761166 0.749752 0.77554
0.887938 0.882582 0.894682
0.91664 0.912673 0.921675
0.927916 0.924483 0.93225
0.680522 0.665248 0.699748
0.813123 0.804196 0.824369
0.90573 0.901213 0.911391
0.945159 0.942519 0.948455
0.957626 0.955596 0.960174
