luts/lumix_color_lab_B/Silky_Chrome_33.cube
TITLE "Generated by Resolve"
LUT_3D_SIZE 5
0.0204318 0.0204318 0.0204318
0.024445 0.024445 0.024445
0.0420844 0.0420844 0.0420844
0.0718242 0.0718242 0.0718242
0.10547 0.10547 0.10547
0.0413825 0.0413825 0.0413825
0.0638132 0.0638132 0.0638132
0.10753 0.10753 0.10753
0.181567 0.181567 0.181567
0.243366 0.243366 0.243366
0.0962234 0.0962234 0.0962234
0.156344 0.156344 0.156344
0.228809 0.228809 0.228809
0.365148 0.365148 0.365148
0.542977 0.542977 0.542977
0.200336 0.200336 0.200336
0.27126 0.27126 0.27126
0.492149 0.492149 0.492149
0.70486 0.70486 0.70486
0.80238 0.80238 0.80238
0.303685 0.303685 0.303685
0.404852 0.404852 0.404852
0.731807 0.731807 0.731807
0.847959 0.847959 0.847959
0.898573 0.898573 0.898573
0.0213779 0.0213779 0.0213779
0.0510262 0.0510262 0.0510262
0.0788586 0.0788586 0.0788586
0.109087 0.109087 0.109087
0.149447 0.149447 0.149447
0.0512856 0.0512856 0.0512856
0.0975509 0.0975509 0.0975509
0.142962 0.142962 0.142962
0.23032 0.23032 0.23032
0.336904 0.336904 0.336904
0.113252 0.113252 0.113252
0.165591 0.165591 0.165591
0.286046 0.286046 0.286046
0.44062 0.44062 0.44062
0.580804 0.580804 0.580804
0.230274 0.230274 0.230274
0.286122 0.286122 0.286122
0.549157 0.549157 0.549157
0.733516 0.733516 0.733516
0.834638 0.834638 0.834638
0.349035 0.349035 0.349035
0.467872 0.467872 0.467872
0.712123 0.712123 0.712123
0.860533 0.860533 0.860533
0.905852 0.905852 0.905852
0.0303655 0.0303655 0.0303655
0.10341 0.10341 0.10341
0.185885 0.185885 0.185885
0.20174 0.20174 0.20174
0.238911 0.238911 0.238911
0.0867628 0.0867628 0.0867628
0.175235 0.175235 0.175235
0.260182 0.260182 0.260182
0.371023 0.371023 0.371023
0.486076 0.486076 0.486076
0.142519 0.142519 0.142519
0.256184 0.256184 0.256184
0.428412 0.428412 0.428412
0.554681 0.554681 0.554681
0.685237 0.685237 0.685237
0.275715 0.275715 0.275715
0.388998 0.388998 0.388998
0.637232 0.637232 0.637232
0.824857 0.824857 0.824857
0.878325 0.878325 0.878325
0.451652 0.451652 0.451652
0.59823 0.59823 0.59823
0.759411 0.759411 0.759411
0.895171 0.895171 0.895171
0.924773 0.924773 0.924773
0.0518044 0.0518044 0.0518044
0.119371 0.119371 0.119371
0.276905 0.276905 0.276905
0.373831 0.373831 0.373831
0.348043 0.348043 0.348043
0.170748 0.170748 0.170748
0.289754 0.289754 0.289754
0.419455 0.419455 0.419455
0.637781 0.637781 0.637781
0.669154 0.669154 0.669154
0.224216 0.224216 0.224216
0.429618 0.429618 0.429618
0.633997 0.633997 0.633997
0.764141 0.764141 0.764141
0.822782 0.822782 0.822782
0.361105 0.361105 0.361105
0.581918 0.581918 0.581918
0.789609 0.789609 0.789609
0.873152 0.873152 0.873152
0.900908 0.900908 0.900908
0.578714 0.578714 0.578714
0.720775 0.720775 0.720775
0.852277 0.852277 0.852277
0.925231 0.925231 0.925231
0.947845 0.947845 0.947845
0.0728923 0.0728923 0.0728923
0.134813 0.134813 0.134813
0.314076 0.314076 0.314076
0.444923 0.444923 0.444923
0.519539 0.519539 0.519539
0.248234 0.248234 0.248234
0.389883 0.389883 0.389883
0.496086 0.496086 0.496086
0.77908 0.77908 0.77908
0.833356 0.833356 0.833356
0.296223 0.296223 0.296223
0.60795 0.60795 0.60795
0.754665 0.754665 0.754665
0.832517 0.832517 0.832517
0.88481 0.88481 0.88481
0.481102 0.481102 0.481102
0.729168 0.729168 0.729168
0.857969 0.857969 0.857969
0.897429 0.897429 0.897429
0.916518 0.916518 0.916518
0.651408 0.651408 0.651408
0.803479 0.803479 0.803479
0.894697 0.894697 0.894697
0.93611 0.93611 0.93611
0.956359 0.956359 0.956359
