luts/lumix_color_lab_B/Silky_Chrome_33.cube
TITLE "Generated by Resolve"
LUT_3D_SIZE 33
0.0204318 0.0204318 0.0204318
0.0205844 0.0205844 0.0205844
0.0209201 0.0209201 0.0209201
0.0211948 0.0211948 0.0211948
0.0214542 0.0214542 0.0214542
0.0217594 0.0217594 0.0217594
0.0221714 0.0221714 0.0221714
0.0229191 0.0229191 0.0229191
0.024445 0.024445 0.024445
0.026627 0.026627 0.026627
0.0290074 0.0290074 0.0290074
0.031342 0.031342 0.031342
0.0335241 0.0335241 0.0335241
0.0355688 0.0355688 0.0355688
0.0375982 0.0375982 0.0375982
0.0397345 0.0397345 0.0397345
0.0420844 0.0420844 0.0420844
0.0446937 0.0446937 0.0446937
0.0475471 0.0475471 0.0475471
0.0506905 0.0506905 0.0506905
0.0541085 0.0541085 0.0541085
0.0578775 0.0578775 0.0578775
0.0620584 0.0620584 0.0620584
0.0667124 0.0667124 0.0667124
0.0718242 0.0718242 0.0718242
0.0773785 0.0773785 0.0773785
0.0833448 0.0833448 0.0833448
0.0897536 0.0897536 0.0897536
0.0966354 0.0966354 0.0966354
0.104005 0.104005 0.104005
0.10547 0.10547 0.10547
0.10547 0.10547 0.10547
0.10547 0.10547 0.10547
0.0226749 0.0226749 0.0226749
0.0233921 0.0233921 0.0233921
0.0242161 0.0242161 0.0242161
0.0248569 0.0248569 0.0248569
0.0254368 0.0254368 0.0254368
0.0261387 0.0261387 0.0261387
0.0270695 0.0270695 0.0270695
0.028397 0.028397 0.028397
0.0302129 0.0302129 0.0302129
0.0324102 0.0324102 0.0324102
0.0347906 0.0347906 0.0347906
0.0371862 0.0371862 0.0371862
0.0394751 0.0394751 0.0394751
0.0416724 0.0416724 0.0416724
0.0438697 0.0438697 0.0438697
0.0462043 0.0462043 0.0462043
0.0487678 0.0487678 0.0487678
0.0515908 0.0515908 0.0515908
0.0547341 0.0547341 0.0547341
0.0582284 0.0582284 0.0582284
0.0620584 0.0620584 0.0620584
0.0663005 0.0663005 0.0663005
0.071046 0.071046 0.071046
0.0763409 0.0763409 0.0763409
0.0821241 0.0821241 0.0821241
0.0884108 0.0884108 0.0884108
0.0951247 0.0951247 0.0951247
0.102251 0.102251 0.102251
0.10985 0.10985 0.10985
0.117906 0.117906 0.117906
0.119509 0.119509 0.119509
0.119509 0.119509 0.119509
0.119509 0.119509 0.119509
0.0276799 0.0276799 0.0276799
0.0289921 0.0289921 0.0289921
0.030045 0.030045 0.030045
0.0307469 0.0307469 0.0307469
0.0313878 0.0313878 0.0313878
0.0321355 0.0321355 0.0321355
0.0330968 0.0330968 0.0330968
0.0344091 0.0344091 0.0344091
0.0361334 0.0361334 0.0361334
0.0381933 0.0381933 0.0381933
0.0404669 0.0404669 0.0404669
0.0428931 0.0428931 0.0428931
0.045304 0.045304 0.045304
0.0477455 0.0477455 0.0477455
0.0502327 0.0502327 0.0502327
0.0528878 0.0528878 0.0528878
0.055787 0.055787 0.055787
0.0590066 0.0590066 0.0590066
0.062562 0.062562 0.062562
0.0665141 0.0665141 0.0665141
0.0708782 0.0708782 0.0708782
0.0758068 0.0758068 0.0758068
0.0813306 0.0813306 0.0813306
0.0874647 0.0874647 0.0874647
0.0941787 0.0941787 0.0941787
0.101442 0.101442 0.101442
0.109194 0.109194 0.109194
0.117388 0.117388 0.117388
0.12607 0.12607 0.12607
0.135256 0.135256 0.135256
0.137057 0.137057 0.137057
0.137057 0.137057 0.137057
0.137057 0.137057 0.137057
0.0316472 0.0316472 0.0316472
0.0332036 0.0332036 0.0332036
0.0345159 0.0345159 0.0345159
0.0354772 0.0354772 0.0354772
0.0363775 0.0363775 0.0363775
0.0373236 0.0373236 0.0373236
0.0383612 0.0383612 0.0383612
0.0396277 0.0396277 0.0396277
0.0411841 0.0411841 0.0411841
0.0430304 0.0430304 0.0430304
0.045182 0.045182 0.045182
0.0475929 0.0475929 0.0475929
0.0501564 0.0501564 0.0501564
0.0529183 0.0529183 0.0529183
0.0558022 0.0558022 0.0558022
0.0588846 0.0588846 0.0588846
0.0622416 0.0622416 0.0622416
0.065919 0.065919 0.065919
0.0699168 0.0699168 0.0699168
0.0743572 0.0743572 0.0743572
0.0792706 0.0792706 0.0792706
0.0848096 0.0848096 0.0848096
0.0909895 0.0909895 0.0909895
0.0978561 0.0978561 0.0978561
0.105409 0.105409 0.105409
0.113558 0.113558 0.113558
0.122271 0.122271 0.122271
0.131579 0.131579 0.131579
0.141466 0.141466 0.141466
0.151965 0.151965 0.151965
0.15404 0.15404 0.15404
0.15404 0.15404 0.15404
0.15404 0.15404 0.15404
0.0335241 0.0335241 0.0335241
0.0353552 0.0353552 0.0353552
0.037171 0.037171 0.037171
0.0386816 0.0386816 0.0386816
0.0401007 0.0401007 0.0401007
0.0414588 0.0414588 0.0414588
0.0428016 0.0428016 0.0428016
0.0442359 0.0442359 0.0442359
0.0458381 0.0458381 0.0458381
0.0476844 0.0476844 0.0476844
0.049897 0.049897 0.049897
0.0523995 0.0523995 0.0523995
0.0552529 0.0552529 0.0552529
0.0583963 0.0583963 0.0583963
0.0617685 0.0617685 0.0617685
0.0654002 0.0654002 0.0654002
0.069337 0.069337 0.069337
0.0735637 0.0735637 0.0735637
0.0781262 0.0781262 0.0781262
0.0830854 0.0830854 0.0830854
0.0885328 0.0885328 0.0885328
0.0945754 0.0945754 0.0945754
0.101228 0.101228 0.101228
0.108568 0.108568 0.108568
0.11664 0.11664 0.11664
0.125399 0.125399 0.125399
0.134844 0.134844 0.134844
0.145022 0.145022 0.145022
0.155962 0.155962 0.155962
0.167559 0.167559 0.167559
0.169863 0.169863 0.169863
0.169863 0.169863 0.169863
0.169863 0.169863 0.169863
0.034165 0.034165 0.034165
0.036286 0.036286 0.036286
0.0386969 0.0386969 0.0386969
0.0408942 0.0408942 0.0408942
0.0429084 0.0429084 0.0429084
0.0447547 0.0447547 0.0447547
0.0465095 0.0465095 0.0465095
0.0482338 0.0482338 0.0482338
0.0500954 0.0500954 0.0500954
0.0522774 0.0522774 0.0522774
0.0548714 0.0548714 0.0548714
0.0578012 0.0578012 0.0578012
0.0611276 0.0611276 0.0611276
0.0648051 0.0648051 0.0648051
0.0688029 0.0688029 0.0688029
0.0730755 0.0730755 0.0730755
0.0776989 0.0776989 0.0776989
0.0826429 0.0826429 0.0826429
0.0879377 0.0879377 0.0879377
0.0935836 0.0935836 0.0935836
0.0996414 0.0996414 0.0996414
0.106172 0.106172 0.106172
0.113252 0.113252 0.113252
0.120943 0.120943 0.120943
0.129335 0.129335 0.129335
0.13846 0.13846 0.13846
0.148348 0.148348 0.148348
0.15906 0.15906 0.15906
0.170626 0.170626 0.170626
0.182925 0.182925 0.182925
0.185351 0.185351 0.185351
0.185351 0.185351 0.185351
0.185351 0.185351 0.185351
0.0350652 0.0350652 0.0350652
0.0373846 0.0373846 0.0373846
0.0402228 0.0402228 0.0402228
0.0429389 0.0429389 0.0429389
0.0454414 0.0454414 0.0454414
0.0476844 0.0476844 0.0476844
0.0497292 0.0497292 0.0497292
0.0518044 0.0518044 0.0518044
0.0541238 0.0541238 0.0541238
0.0568551 0.0568551 0.0568551
0.0600748 0.0600748 0.0600748
0.0636912 0.0636912 0.0636912
0.0677195 0.0677195 0.0677195
0.0720989 0.0720989 0.0720989
0.0767834 0.0767834 0.0767834
0.0818036 0.0818036 0.0818036
0.0871748 0.0871748 0.0871748
0.0929122 0.0929122 0.0929122
0.0990616 0.0990616 0.0990616
0.105562 0.105562 0.105562
0.112459 0.112459 0.112459
0.119722 0.119722 0.119722
0.127443 0.127443 0.127443
0.135653 0.135653 0.135653
0.144457 0.144457 0.144457
0.153903 0.153903 0.153903
0.164111 0.164111 0.164111
0.175097 0.175097 0.175097
0.186892 0.186892 0.186892
0.199374 0.199374 0.199374
0.201846 0.201846 0.201846
0.201846 0.201846 0.201846
0.201846 0.201846 0.201846
0.0374456 0.0374456 0.0374456
0.0398108 0.0398108 0.0398108
0.0427558 0.0427558 0.0427558
0.0457008 0.0457008 0.0457008
0.0484779 0.0484779 0.0484779
0.0510262 0.0510262 0.0510262
0.0533303 0.0533303 0.0533303
0.0556954 0.0556954 0.0556954
0.0584573 0.0584573 0.0584573
0.0617685 0.0617685 0.0617685
0.0656138 0.0656138 0.0656138
0.0699779 0.0699779 0.0699779
0.0747692 0.0747692 0.0747692
0.079881 0.079881 0.079881
0.0853285 0.0853285 0.0853285
0.0910811 0.0910811 0.0910811
0.0972305 0.0972305 0.0972305
0.103777 0.103777 0.103777
0.110811 0.110811 0.110811
0.118288 0.118288 0.118288
0.126238 0.126238 0.126238
0.1346 0.1346 0.1346
0.143374 0.143374 0.143374
0.152544 0.152544 0.152544
0.162112 0.162112 0.162112
0.172168 0.172168 0.172168
0.182803 0.182803 0.182803
0.194049 0.194049 0.194049
0.205966 0.205966 0.205966
0.218433 0.218433 0.218433
0.22089 0.22089 0.22089
0.22089 0.22089 0.22089
0.22089 0.22089 0.22089
0.0413825 0.0413825 0.0413825
0.0437018 0.0437018 0.0437018
0.0465553 0.0465553 0.0465553
0.0495613 0.0495613 0.0495613
0.0525521 0.0525521 0.0525521
0.0553902 0.0553902 0.0553902
0.0580453 0.0580453 0.0580453
0.0607309 0.0607309 0.0607309
0.0638132 0.0638132 0.0638132
0.0675059 0.0675059 0.0675059
0.0718853 0.0718853 0.0718853
0.0768749 0.0768749 0.0768749
0.0823224 0.0823224 0.0823224
0.0881056 0.0881056 0.0881056
0.0942245 0.0942245 0.0942245
0.100649 0.100649 0.100649
0.10753 0.10753 0.10753
0.1149 0.1149 0.1149
0.122866 0.122866 0.122866
0.13138 0.13138 0.13138
0.140475 0.140475 0.140475
0.150164 0.150164 0.150164
0.160281 0.160281 0.160281
0.170794 0.170794 0.170794
0.181567 0.181567 0.181567
0.192645 0.192645 0.192645
0.204028 0.204028 0.204028
0.215808 0.215808 0.215808
0.228077 0.228077 0.228077
0.240848 0.240848 0.240848
0.243366 0.243366 0.243366
0.243366 0.243366 0.243366
0.243366 0.243366 0.243366
0.0463874 0.0463874 0.0463874
0.0486763 0.0486763 0.0486763
0.0514687 0.0514687 0.0514687
0.0545205 0.0545205 0.0545205
0.0578164 0.0578164 0.0578164
0.0610971 0.0610971 0.0610971
0.0641947 0.0641947 0.0641947
0.067277 0.067277 0.067277
0.0706645 0.0706645 0.0706645
0.0746624 0.0746624 0.0746624
0.079408 0.079408 0.079408
0.0847944 0.0847944 0.0847944
0.0907149 0.0907149 0.0907149
0.0970321 0.0970321 0.0970321
0.1037 0.1037 0.1037
0.110719 0.110719 0.110719
0.118257 0.118257 0.118257
0.126467 0.126467 0.126467
0.135348 0.135348 0.135348
0.14493 0.14493 0.14493
0.1552 0.1552 0.1552
0.16614 0.16614 0.16614
0.177646 0.177646 0.177646
0.189609 0.189609 0.189609
0.201816 0.201816 0.201816
0.214206 0.214206 0.214206
0.22678 0.22678 0.22678
0.239643 0.239643 0.239643
0.253086 0.253086 0.253086
0.267216 0.267216 0.267216
0.269993 0.269993 0.269993
0.269993 0.269993 0.269993
0.269993 0.269993 0.269993
0.0519722 0.0519722 0.0519722
0.0542458 0.0542458 0.0542458
0.0570687 0.0570687 0.0570687
0.0603342 0.0603342 0.0603342
0.0641031 0.0641031 0.0641031
0.0680552 0.0680552 0.0680552
0.0718547 0.0718547 0.0718547
0.0754864 0.0754864 0.0754864
0.0792401 0.0792401 0.0792401
0.0834821 0.0834821 0.0834821
0.088426 0.088426 0.088426
0.0940871 0.0940871 0.0940871
0.100374 0.100374 0.100374
0.107073 0.107073 0.107073
0.114199 0.114199 0.114199
0.121736 0.121736 0.121736
0.12987 0.12987 0.12987
0.138811 0.138811 0.138811
0.148592 0.148592 0.148592
0.159197 0.159197 0.159197
0.170565 0.170565 0.170565
0.182635 0.182635 0.182635
0.195331 0.195331 0.195331
0.208515 0.208515 0.208515
0.222049 0.222049 0.222049
0.235904 0.235904 0.235904
0.250294 0.250294 0.250294
0.265339 0.265339 0.265339
0.281086 0.281086 0.281086
0.297627 0.297627 0.297627
0.300877 0.300877 0.300877
0.300877 0.300877 0.300877
0.300877 0.300877 0.300877
0.0578927 0.0578927 0.0578927
0.0602426 0.0602426 0.0602426
0.0631876 0.0631876 0.0631876
0.0667735 0.0667735 0.0667735
0.0711681 0.0711681 0.0711681
0.076051 0.076051 0.076051
0.0808728 0.0808728 0.0808728
0.0852979 0.0852979 0.0852979
0.0895247 0.0895247 0.0895247
0.0939956 0.0939956 0.0939956
0.0990768 0.0990768 0.0990768
0.104906 0.104906 0.104906
0.111437 0.111437 0.111437
0.118502 0.118502 0.118502
0.126024 0.126024 0.126024
0.134081 0.134081 0.134081
0.142779 0.142779 0.142779
0.152346 0.152346 0.152346
0.162905 0.162905 0.162905
0.17438 0.17438 0.17438
0.186694 0.186694 0.186694
0.199725 0.199725 0.199725
0.213321 0.213321 0.213321
0.227405 0.227405 0.227405
0.242161 0.242161 0.242161
0.257908 0.257908 0.257908
0.274815 0.274815 0.274815
0.292866 0.292866 0.292866
0.312047 0.312047 0.312047
0.332128 0.332128 0.332128
0.33608 0.33608 0.33608
0.33608 0.33608 0.33608
0.33608 0.33608 0.33608
0.0642863 0.0642863 0.0642863
0.0667582 0.0667582 0.0667582
0.06981 0.06981 0.06981
0.0737011 0.0737011 0.0737011
0.0787671 0.0787671 0.0787671
0.0847639 0.0847639 0.0847639
0.0908827 0.0908827 0.0908827
0.096376 0.096376 0.096376
0.101305 0.101305 0.101305
0.106081 0.106081 0.106081
0.111299 0.111299 0.111299
0.117205 0.117205 0.117205
0.123903 0.123903 0.123903
0.131334 0.131334 0.131334
0.139361 0.139361 0.139361
0.147967 0.147967 0.147967
0.157259 0.157259 0.157259
0.167361 0.167361 0.167361
0.178485 0.178485 0.178485
0.190555 0.190555 0.190555
0.203571 0.203571 0.203571
0.217288 0.217288 0.217288
0.231617 0.231617 0.231617
0.246738 0.246738 0.246738
0.263035 0.263035 0.263035
0.280903 0.280903 0.280903
0.300649 0.300649 0.300649
0.322393 0.322393 0.322393
0.345876 0.345876 0.345876
0.370336 0.370336 0.370336
0.375143 0.375143 0.375143
0.375143 0.375143 0.375143
0.375143 0.375143 0.375143
0.0712444 0.0712444 0.0712444
0.0738231 0.0738231 0.0738231
0.0769665 0.0769665 0.0769665
0.0810407 0.0810407 0.0810407
0.086717 0.086717 0.086717
0.093843 0.093843 0.093843
0.101427 0.101427 0.101427
0.108309 0.108309 0.108309
0.114199 0.114199 0.114199
0.119448 0.119448 0.119448
0.124849 0.124849 0.124849
0.130877 0.130877 0.130877
0.137774 0.137774 0.137774
0.145541 0.145541 0.145541
0.154101 0.154101 0.154101
0.163394 0.163394 0.163394
0.173327 0.173327 0.173327
0.183948 0.183948 0.183948
0.195407 0.195407 0.195407
0.207767 0.207767 0.207767
0.221042 0.221042 0.221042
0.235264 0.235264 0.235264
0.250553 0.250553 0.250553
0.26714 0.26714 0.26714
0.285267 0.285267 0.285267
0.305531 0.305531 0.305531
0.328466 0.328466 0.328466
0.354192 0.354192 0.354192
0.382132 0.382132 0.382132
0.411048 0.411048 0.411048
0.416724 0.416724 0.416724
0.416724 0.416724 0.416724
0.416724 0.416724 0.416724
0.0788586 0.0788586 0.0788586
0.0815442 0.0815442 0.0815442
0.0847181 0.0847181 0.0847181
0.088838 0.088838 0.088838
0.0948959 0.0948959 0.0948959
0.103014 0.103014 0.103014
0.112123 0.112123 0.112123
0.120638 0.120638 0.120638
0.127855 0.127855 0.127855
0.133928 0.133928 0.133928
0.139696 0.139696 0.139696
0.145907 0.145907 0.145907
0.153002 0.153002 0.153002
0.16112 0.16112 0.16112
0.170199 0.170199 0.170199
0.180163 0.180163 0.180163
0.190799 0.190799 0.190799
0.201968 0.201968 0.201968
0.213703 0.213703 0.213703
0.226123 0.226123 0.226123
0.239521 0.239521 0.239521
0.254322 0.254322 0.254322
0.270756 0.270756 0.270756
0.289036 0.289036 0.289036
0.309392 0.309392 0.309392
0.332418 0.332418 0.332418
0.358648 0.358648 0.358648
0.388022 0.388022 0.388022
0.419867 0.419867 0.419867
0.452888 0.452888 0.452888
0.459373 0.459373 0.459373
0.459373 0.459373 0.459373
0.459373 0.459373 0.459373
0.0871595 0.0871595 0.0871595
0.0899672 0.0899672 0.0899672
0.0931411 0.0931411 0.0931411
0.0971695 0.0971695 0.0971695
0.103365 0.103365 0.103365
0.112139 0.112139 0.112139
0.122652 0.122652 0.122652
0.133028 0.133028 0.133028
0.141985 0.141985 0.141985
0.149355 0.149355 0.149355
0.155856 0.155856 0.155856
0.162387 0.162387 0.162387
0.169757 0.169757 0.169757
0.178149 0.178149 0.178149
0.187655 0.187655 0.187655
0.198123 0.198123 0.198123
0.209369 0.209369 0.209369
0.221057 0.221057 0.221057
0.233234 0.233234 0.233234
0.246036 0.246036 0.246036
0.259937 0.259937 0.259937
0.275425 0.275425 0.275425
0.293004 0.293004 0.293004
0.313085 0.313085 0.313085
0.335897 0.335897 0.335897
0.361761 0.361761 0.361761
0.390921 0.390921 0.390921
0.423209 0.423209 0.423209
0.458198 0.458198 0.458198
0.494759 0.494759 0.494759
0.501945 0.501945 0.501945
0.501945 0.501945 0.501945
0.501945 0.501945 0.501945
0.0962234 0.0962234 0.0962234
0.0991684 0.0991684 0.0991684
0.102373 0.102373 0.102373
0.106233 0.106233 0.106233
0.112276 0.112276 0.112276
0.12137 0.12137 0.12137
0.132982 0.132982 0.132982
0.145235 0.145235 0.145235
0.156344 0.156344 0.156344
0.165545 0.165545 0.165545
0.173205 0.173205 0.173205
0.180407 0.180407 0.180407
0.188083 0.188083 0.188083
0.196719 0.196719 0.196719
0.206439 0.206439 0.206439
0.217151 0.217151 0.217151
0.228809 0.228809 0.228809
0.24123 0.24123 0.24123
0.254368 0.254368 0.254368
0.268254 0.268254 0.268254
0.283116 0.283116 0.283116
0.299611 0.299611 0.299611
0.318441 0.318441 0.318441
0.3402 0.3402 0.3402
0.365148 0.365148 0.365148
0.393378 0.393378 0.393378
0.424796 0.424796 0.424796
0.459297 0.459297 0.459297
0.496574 0.496574 0.496574
0.535363 0.535363 0.535363
0.542977 0.542977 0.542977
0.542977 0.542977 0.542977
0.542977 0.542977 0.542977
0.10605 0.10605 0.10605
0.109148 0.109148 0.109148
0.112444 0.112444 0.112444
0.116167 0.116167 0.116167
0.12192 0.12192 0.12192
0.130938 0.130938 0.130938
0.143252 0.143252 0.143252
0.157244 0.157244 0.157244
0.170703 0.170703 0.170703
0.182193 0.182193 0.182193
0.191592 0.191592 0.191592
0.199786 0.199786 0.199786
0.207904 0.207904 0.207904
0.216693 0.216693 0.216693
0.226429 0.226429 0.226429
0.237293 0.237293 0.237293
0.249516 0.249516 0.249516
0.263035 0.263035 0.263035
0.277638 0.277638 0.277638
0.293248 0.293248 0.293248
0.309895 0.309895 0.309895
0.328054 0.328054 0.328054
0.348348 0.348348 0.348348
0.371466 0.371466 0.371466
0.397772 0.397772 0.397772
0.427359 0.427359 0.427359
0.460197 0.460197 0.460197
0.496178 0.496178 0.496178
0.534676 0.534676 0.534676
0.57406 0.57406 0.57406
0.581781 0.581781 0.581781
0.581781 0.581781 0.581781
0.581781 0.581781 0.581781
0.116686 0.116686 0.116686
0.119966 0.119966 0.119966
0.12343 0.12343 0.12343
0.127123 0.127123 0.127123
0.13254 0.13254 0.13254
0.141207 0.141207 0.141207
0.15378 0.15378 0.15378
0.169192 0.169192 0.169192
0.184939 0.184939 0.184939
0.199039 0.199039 0.199039
0.210605 0.210605 0.210605
0.220127 0.220127 0.220127
0.228855 0.228855 0.228855
0.237903 0.237903 0.237903
0.247959 0.247959 0.247959
0.259297 0.259297 0.259297
0.272297 0.272297 0.272297
0.287098 0.287098 0.287098
0.303609 0.303609 0.303609
0.321614 0.321614 0.321614
0.340948 0.340948 0.340948
0.361501 0.361501 0.361501
0.383474 0.383474 0.383474
0.407553 0.407553 0.407553
0.434318 0.434318 0.434318
0.464286 0.464286 0.464286
0.497597 0.497597 0.497597
0.533974 0.533974 0.533974
0.57232 0.57232 0.57232
0.610773 0.610773 0.610773
0.618265 0.618265 0.618265
0.618265 0.618265 0.618265
0.618265 0.618265 0.618265
0.128176 0.128176 0.128176
0.13167 0.13167 0.13167
0.135393 0.135393 0.135393
0.139178 0.139178 0.139178
0.14432 0.14432 0.14432
0.152483 0.152483 0.152483
0.16492 0.16492 0.16492
0.181201 0.181201 0.181201
0.199023 0.199023 0.199023
0.215732 0.215732 0.215732
0.22974 0.22974 0.22974
0.241154 0.241154 0.241154
0.251179 0.251179 0.251179
0.261097 0.261097 0.261097
0.271855 0.271855 0.271855
0.284016 0.284016 0.284016
0.298131 0.298131 0.298131
0.314488 0.314488 0.314488
0.333227 0.333227 0.333227
0.354009 0.354009 0.354009
0.376287 0.376287 0.376287
0.399558 0.399558 0.399558
0.423453 0.423453 0.423453
0.448463 0.448463 0.448463
0.475364 0.475364 0.475364
0.504982 0.504982 0.504982
0.537636 0.537636 0.537636
0.572931 0.572931 0.572931
0.609659 0.609659 0.609659
0.645975 0.645975 0.645975
0.65304 0.65304 0.65304
0.65304 0.65304 0.65304
0.65304 0.65304 0.65304
0.140612 0.140612 0.140612
0.14435 0.14435 0.14435
0.148394 0.148394 0.148394
0.152377 0.152377 0.152377
0.157336 0.157336 0.157336
0.164935 0.164935 0.164935
0.176898 0.176898 0.176898
0.193484 0.193484 0.193484
0.212818 0.212818 0.212818
0.232059 0.232059 0.232059
0.249134 0.249134 0.249134
0.263371 0.263371 0.263371
0.275486 0.275486 0.275486
0.28687 0.28687 0.28687
0.298909 0.298909 0.298909
0.312367 0.312367 0.312367
0.327947 0.327947 0.327947
0.34612 0.34612 0.34612
0.367071 0.367071 0.367071
0.390463 0.390463 0.390463
0.415488 0.415488 0.415488
0.441291 0.441291 0.441291
0.467384 0.467384 0.467384
0.49369 0.49369 0.49369
0.520729 0.520729 0.520729
0.549416 0.549416 0.549416
0.580255 0.580255 0.580255
0.613016 0.613016 0.613016
0.64683 0.64683 0.64683
0.680095 0.680095 0.680095
0.686564 0.686564 0.686564
0.686564 0.686564 0.686564
0.686564 0.686564 0.686564
0.154101 0.154101 0.154101
0.158083 0.158083 0.158083
0.162478 0.162478 0.162478
0.166751 0.166751 0.166751
0.171664 0.171664 0.171664
0.178729 0.178729 0.178729
0.189944 0.189944 0.189944
0.206271 0.206271 0.206271
0.226505 0.226505 0.226505
0.248219 0.248219 0.248219
0.269017 0.269017 0.269017
0.287053 0.287053 0.287053
0.302327 0.302327 0.302327
0.316152 0.316152 0.316152
0.330129 0.330129 0.330129
0.345388 0.345388 0.345388
0.362676 0.362676 0.362676
0.382528 0.382528 0.382528
0.405249 0.405249 0.405249
0.430533 0.430533 0.430533
0.457725 0.457725 0.457725
0.485985 0.485985 0.485985
0.51426 0.51426 0.51426
0.541894 0.541894 0.541894
0.569024 0.569024 0.569024
0.596277 0.596277 0.596277
0.624369 0.624369 0.624369
0.653635 0.653635 0.653635
0.683604 0.683604 0.683604
0.7131 0.7131 0.7131
0.718822 0.718822 0.718822
0.718822 0.718822 0.718822
0.718822 0.718822 0.718822
0.168597 0.168597 0.168597
0.172854 0.172854 0.172854
0.17763 0.17763 0.17763
0.182239 0.182239 0.182239
0.187274 0.187274 0.187274
0.193973 0.193973 0.193973
0.204273 0.204273 0.204273
0.219852 0.219852 0.219852
0.240436 0.240436 0.240436
0.264591 0.264591 0.264591
0.289525 0.289525 0.289525
0.312444 0.312444 0.312444
0.332204 0.332204 0.332204
0.349493 0.349493 0.349493
0.366064 0.366064 0.366064
0.383291 0.383291 0.383291
0.402182 0.402182 0.402182
0.423316 0.423316 0.423316
0.447166 0.447166 0.447166
0.473716 0.473716 0.473716
0.50248 0.50248 0.50248
0.532433 0.532433 0.532433
0.562158 0.562158 0.562158
0.590539 0.590539 0.590539
0.61735 0.61735 0.61735
0.642969 0.642969 0.642969
0.668193 0.668193 0.668193
0.693629 0.693629 0.693629
0.719265 0.719265 0.719265
0.74432 0.74432 0.74432
0.749187 0.749187 0.749187
0.749187 0.749187 0.749187
0.749187 0.749187 0.749187
0.18407 0.18407 0.18407
0.188586 0.188586 0.188586
0.193713 0.193713 0.193713
0.198688 0.198688 0.198688
0.203998 0.203998 0.203998
0.210529 0.210529 0.210529
0.219974 0.219974 0.219974
0.234501 0.234501 0.234501
0.255161 0.255161 0.255161
0.281437 0.281437 0.281437
0.310826 0.310826 0.310826
0.339666 0.339666 0.339666
0.365087 0.365087 0.365087
0.386709 0.386709 0.386709
0.406195 0.406195 0.406195
0.425361 0.425361 0.425361
0.445594 0.445594 0.445594
0.467689 0.467689 0.467689
0.492302 0.492302 0.492302
0.519493 0.519493 0.519493
0.548836 0.548836 0.548836
0.579202 0.579202 0.579202
0.609125 0.609125 0.609125
0.637308 0.637308 0.637308
0.663188 0.663188 0.663188
0.687068 0.687068 0.687068
0.70956 0.70956 0.70956
0.731365 0.731365 0.731365
0.752697 0.752697 0.752697
0.773175 0.773175 0.773175
0.777127 0.777127 0.777127
0.777127 0.777127 0.777127
0.777127 0.777127 0.777127
0.200336 0.200336 0.200336
0.205097 0.205097 0.205097
0.21059 0.21059 0.21059
0.216007 0.216007 0.216007
0.221622 0.221622 0.221622
0.228138 0.228138 0.228138
0.237034 0.237034 0.237034
0.250706 0.250706 0.250706
0.27126 0.27126 0.27126
0.29929 0.29929 0.29929
0.333059 0.333059 0.333059
0.36817 0.36817 0.36817
0.400015 0.400015 0.400015
0.426612 0.426612 0.426612
0.449378 0.449378 0.449378
0.470619 0.470619 0.470619
0.492149 0.492149 0.492149
0.514946 0.514946 0.514946
0.539651 0.539651 0.539651
0.566461 0.566461 0.566461
0.59501 0.59501 0.59501
0.624384 0.624384 0.624384
0.653269 0.653269 0.653269
0.680354 0.680354 0.680354
0.70486 0.70486 0.70486
0.726864 0.726864 0.726864
0.746838 0.746838 0.746838
0.765362 0.765362 0.765362
0.782818 0.782818 0.782818
0.799222 0.799222 0.799222
0.80238 0.80238 0.80238
0.80238 0.80238 0.80238
0.80238 0.80238 0.80238
0.217243 0.217243 0.217243
0.222217 0.222217 0.222217
0.228077 0.228077 0.228077
0.233967 0.233967 0.233967
0.240162 0.240162 0.240162
0.247181 0.247181 0.247181
0.256046 0.256046 0.256046
0.269154 0.269154 0.269154
0.289357 0.289357 0.289357
0.318669 0.318669 0.318669
0.356268 0.356268 0.356268
0.397421 0.397421 0.397421
0.435798 0.435798 0.435798
0.468025 0.468025 0.468025
0.494697 0.494697 0.494697
0.518196 0.518196 0.518196
0.540764 0.540764 0.540764
0.563653 0.563653 0.563653
0.587655 0.587655 0.587655
0.612955 0.612955 0.612955
0.639536 0.639536 0.639536
0.666804 0.666804 0.666804
0.693645 0.693645 0.693645
0.718853 0.718853 0.718853
0.741573 0.741573 0.741573
0.761563 0.761563 0.761563
0.779126 0.779126 0.779126
0.794827 0.794827 0.794827
0.809186 0.809186 0.809186
0.822416 0.822416 0.822416
0.824964 0.824964 0.824964
0.824964 0.824964 0.824964
0.824964 0.824964 0.824964
0.234745 0.234745 0.234745
0.240146 0.240146 0.240146
0.246677 0.246677 0.246677
0.25333 0.25333 0.25333
0.26041 0.26041 0.26041
0.268269 0.268269 0.268269
0.277562 0.277562 0.277562
0.290425 0.290425 0.290425
0.310277 0.310277 0.310277
0.340307 0.340307 0.340307
0.380819 0.380819 0.380819
