luts/lumix_color_lab_B/Silky_Chrome_33.cube
TITLE "Generated by Resolve"
LUT_3D_SIZE 9
0.0204318 0.0204318 0.0204318
0.0214542 0.0214542 0.0214542
0.024445 0.024445 0.024445
0.0335241 0.0335241 0.0335241
0.0420844 0.0420844 0.0420844
0.0541085 0.0541085 0.0541085
0.0718242 0.0718242 0.0718242
0.0966354 0.0966354 0.0966354
0.10547 0.10547 0.10547
0.0335241 0.0335241 0.0335241
0.0401007 0.0401007 0.0401007
0.0458381 0.0458381 0.0458381
0.0552529 0.0552529 0.0552529
0.069337 0.069337 0.069337
0.0885328 0.0885328 0.0885328
0.11664 0.11664 0.11664
0.155962 0.155962 0.155962
0.169863 0.169863 0.169863
0.0413825 0.0413825 0.0413825
0.0525521 0.0525521 0.0525521
0.0638132 0.0638132 0.0638132
0.0823224 0.0823224 0.0823224
0.10753 0.10753 0.10753
0.140475 0.140475 0.140475
0.181567 0.181567 0.181567
0.228077 0.228077 0.228077
0.243366 0.243366 0.243366
0.0642863 0.0642863 0.0642863
0.0787671 0.0787671 0.0787671
0.101305 0.101305 0.101305
0.123903 0.123903 0.123903
0.157259 0.157259 0.157259
0.203571 0.203571 0.203571
0.263035 0.263035 0.263035
0.345876 0.345876 0.345876
0.375143 0.375143 0.375143
0.0962234 0.0962234 0.0962234
0.112276 0.112276 0.112276
0.156344 0.156344 0.156344
0.188083 0.188083 0.188083
0.228809 0.228809 0.228809
0.283116 0.283116 0.283116
0.365148 0.365148 0.365148
0.496574 0.496574 0.496574
0.542977 0.542977 0.542977
0.140612 0.140612 0.140612
0.157336 0.157336 0.157336
0.212818 0.212818 0.212818
0.275486 0.275486 0.275486
0.327947 0.327947 0.327947
0.415488 0.415488 0.415488
0.520729 0.520729 0.520729
0.64683 0.64683 0.64683
0.686564 0.686564 0.686564
0.200336 0.200336 0.200336
0.221622 0.221622 0.221622
0.27126 0.27126 0.27126
0.400015 0.400015 0.400015
0.492149 0.492149 0.492149
0.59501 0.59501 0.59501
0.70486 0.70486 0.70486
0.782818 0.782818 0.782818
0.80238 0.80238 0.80238
0.274968 0.274968 0.274968
0.30901 0.30901 0.30901
0.364218 0.364218 0.364218
0.544228 0.544228 0.544228
0.682979 0.682979 0.682979
0.755322 0.755322 0.755322
0.823758 0.823758 0.823758
0.870939 0.870939 0.870939
0.88069 0.88069 0.88069
0.303685 0.303685 0.303685
0.344701 0.344701 0.344701
0.404852 0.404852 0.404852
0.586145 0.586145 0.586145
0.731807 0.731807 0.731807
0.792065 0.792065 0.792065
0.847959 0.847959 0.847959
0.890272 0.890272 0.890272
0.898573 0.898573 0.898573
0.0204166 0.0204166 0.0204166
0.0240177 0.0240177 0.0240177
0.0340734 0.0340734 0.0340734
0.0420844 0.0420844 0.0420844
0.0500954 0.0500954 0.0500954
0.0635538 0.0635538 0.0635538
0.0846418 0.0846418 0.0846418
0.114656 0.114656 0.114656
0.125628 0.125628 0.125628
0.0344244 0.0344244 0.0344244
0.0433204 0.0433204 0.0433204
0.0518654 0.0518654 0.0518654
0.0628519 0.0628519 0.0628519
0.0809644 0.0809644 0.0809644
0.107073 0.107073 0.107073
0.141085 0.141085 0.141085
0.188663 0.188663 0.188663
0.204883 0.204883 0.204883
0.0452277 0.0452277 0.0452277
0.0605631 0.0605631 0.0605631
0.0787213 0.0787213 0.0787213
0.0968032 0.0968032 0.0968032
0.122576 0.122576 0.122576
0.152834 0.152834 0.152834
0.194736 0.194736 0.194736
0.265995 0.265995 0.265995
0.29337 0.29337 0.29337
0.0678874 0.0678874 0.0678874
0.0797894 0.0797894 0.0797894
0.111177 0.111177 0.111177
0.140307 0.140307 0.140307
0.178866 0.178866 0.178866
0.223667 0.223667 0.223667
0.273228 0.273228 0.273228
0.345098 0.345098 0.345098
0.37557 0.37557 0.37557
0.0995651 0.0995651 0.0995651
0.112902 0.112902 0.112902
0.15787 0.15787 0.15787
0.203815 0.203815 0.203815
0.246052 0.246052 0.246052
0.308751 0.308751 0.308751
0.395727 0.395727 0.395727
0.512673 0.512673 0.512673
0.552804 0.552804 0.552804
0.143679 0.143679 0.143679
0.161151 0.161151 0.161151
0.202304 0.202304 0.202304
0.28632 0.28632 0.28632
0.349859 0.349859 0.349859
0.434974 0.434974 0.434974
0.549386 0.549386 0.549386
0.671595 0.671595 0.671595
0.707576 0.707576 0.707576
0.204685 0.204685 0.204685
0.228748 0.228748 0.228748
0.263996 0.263996 0.263996
0.373724 0.373724 0.373724
0.517342 0.517342 0.517342
0.609857 0.609857 0.609857
0.704982 0.704982 0.704982
0.790677 0.790677 0.790677
0.811185 0.811185 0.811185
0.285359 0.285359 0.285359
0.324483 0.324483 0.324483
0.379049 0.379049 0.379049
0.488991 0.488991 0.488991
0.685756 0.685756 0.685756
0.770779 0.770779 0.770779
0.822446 0.822446 0.822446
0.869123 0.869123 0.869123
0.881224 0.881224 0.881224
0.317128 0.317128 0.317128
0.363897 0.363897 0.363897
0.427298 0.427298 0.427298
0.535546 0.535546 0.535546
0.726726 0.726726 0.726726
0.806394 0.806394 0.806394
0.848569 0.848569 0.848569
0.887572 0.887572 0.887572
0.897719 0.897719 0.897719
0.0213779 0.0213779 0.0213779
0.0340581 0.0340581 0.0340581
0.0510262 0.0510262 0.0510262
0.0604257 0.0604257 0.0604257
0.0788586 0.0788586 0.0788586
0.0910964 0.0910964 0.0910964
0.109087 0.109087 0.109087
0.138827 0.138827 0.138827
0.149447 0.149447 0.149447
0.0399176 0.0399176 0.0399176
0.052903 0.052903 0.052903
0.0660105 0.0660105 0.0660105
0.0846571 0.0846571 0.0846571
0.111467 0.111467 0.111467
0.138643 0.138643 0.138643
0.17116 0.17116 0.17116
0.220325 0.220325 0.220325
0.237446 0.237446 0.237446
0.0512856 0.0512856 0.0512856
0.0723583 0.0723583 0.0723583
0.0975509 0.0975509 0.0975509
0.115312 0.115312 0.115312
0.142962 0.142962 0.142962
0.180865 0.180865 0.180865
0.23032 0.23032 0.23032
0.306889 0.306889 0.306889
0.336904 0.336904 0.336904
0.0746777 0.0746777 0.0746777
0.0928054 0.0928054 0.0928054
0.138994 0.138994 0.138994
0.180179 0.180179 0.180179
0.211063 0.211063 0.211063
0.254292 0.254292 0.254292
0.306249 0.306249 0.306249
0.385214 0.385214 0.385214
0.418692 0.418692 0.418692
0.113252 0.113252 0.113252
0.128695 0.128695 0.128695
0.165591 0.165591 0.165591
0.236637 0.236637 0.236637
0.286046 0.286046 0.286046
0.347311 0.347311 0.347311
0.44062 0.44062 0.44062
0.547051 0.547051 0.547051
0.580804 0.580804 0.580804
0.166537 0.166537 0.166537
0.178546 0.178546 0.178546
0.211002 0.211002 0.211002
0.297978 0.297978 0.297978
0.389776 0.389776 0.389776
0.474678 0.474678 0.474678
0.59791 0.59791 0.59791
0.714961 0.714961 0.714961
0.741817 0.741817 0.741817
0.230274 0.230274 0.230274
0.24683 0.24683 0.24683
0.286122 0.286122 0.286122
0.380179 0.380179 0.380179
0.549157 0.549157 0.549157
0.644419 0.644419 0.644419
0.733516 0.733516 0.733516
0.816754 0.816754 0.816754
0.834638 0.834638 0.834638
0.314824 0.314824 0.314824
0.349248 0.349248 0.349248
0.415595 0.415595 0.415595
0.508949 0.508949 0.508949
0.680201 0.680201 0.680201
0.788312 0.788312 0.788312
0.836561 0.836561 0.836561
0.880522 0.880522 0.880522
0.891722 0.891722 0.891722
0.349035 0.349035 0.349035
0.392615 0.392615 0.392615
0.467872 0.467872 0.467872
0.562982 0.562982 0.562982
0.712123 0.712123 0.712123
0.818784 0.818784 0.818784
0.860533 0.860533 0.860533
0.896696 0.896696 0.896696
0.905852 0.905852 0.905852
0.0238651 0.0238651 0.0238651
0.0406958 0.0406958 0.0406958
0.0779431 0.0779431 0.0779431
0.102342 0.102342 0.102342
0.110369 0.110369 0.110369
0.138323 0.138323 0.138323
0.158511 0.158511 0.158511
0.174578 0.174578 0.174578
0.181888 0.181888 0.181888
0.0502785 0.0502785 0.0502785
0.0701915 0.0701915 0.0701915
0.0986343 0.0986343 0.0986343
0.129809 0.129809 0.129809
0.156115 0.156115 0.156115
0.197696 0.197696 0.197696
0.232746 0.232746 0.232746
0.263737 0.263737 0.263737
0.276585 0.276585 0.276585
0.0649271 0.0649271 0.0649271
0.0964981 0.0964981 0.0964981
0.125307 0.125307 0.125307
0.152193 0.152193 0.152193
0.186511 0.186511 0.186511
0.226688 0.226688 0.226688
0.277989 0.277989 0.277989
0.354635 0.354635 0.354635
0.381598 0.381598 0.381598
0.0868544 0.0868544 0.0868544
0.119188 0.119188 0.119188
0.16994 0.16994 0.16994
0.21735 0.21735 0.21735
0.251164 0.251164 0.251164
0.289006 0.289006 0.289006
0.356893 0.356893 0.356893
0.464347 0.464347 0.464347
0.50869 0.50869 0.50869
0.121447 0.121447 0.121447
0.151232 0.151232 0.151232
0.202533 0.202533 0.202533
0.292622 0.292622 0.292622
0.362982 0.362982 0.362982
0.413458 0.413458 0.413458
0.496986 0.496986 0.496986
0.600916 0.600916 0.600916
0.630579 0.630579 0.630579
0.178668 0.178668 0.178668
0.206195 0.206195 0.206195
0.246509 0.246509 0.246509
0.329458 0.329458 0.329458
0.475227 0.475227 0.475227
0.567147 0.567147 0.567147
0.660166 0.660166 0.660166
0.756085 0.756085 0.756085
0.778683 0.778683 0.778683
0.258717 0.258717 0.258717
0.284794 0.284794 0.284794
0.323781 0.323781 0.323781
0.397971 0.397971 0.397971
0.573205 0.573205 0.573205
0.693584 0.693584 0.693584
0.76965 0.76965 0.76965
0.842145 0.842145 0.842145
0.858549 0.858549 0.858549
0.371588 0.371588 0.371588
0.407889 0.407889 0.407889
0.46862 0.46862 0.46862
0.563622 0.563622 0.563622
0.700206 0.700206 0.700206
0.810788 0.810788 0.810788
0.852827 0.852827 0.852827
0.890303 0.890303 0.890303
0.900862 0.900862 0.900862
0.415839 0.415839 0.415839
0.45565 0.45565 0.45565
0.524529 0.524529 0.524529
0.622751 0.622751 0.622751
0.736736 0.736736 0.736736
0.836347 0.836347 0.836347
0.874678 0.874678 0.874678
0.904707 0.904707 0.904707
0.913344 0.913344 0.913344
0.0303655 0.0303655 0.0303655
0.046952 0.046952 0.046952
0.10341 0.10341 0.10341
0.157748 0.157748 0.157748
0.185885 0.185885 0.185885
0.180468 0.180468 0.180468
0.20174 0.20174 0.20174
0.231983 0.231983 0.231983
0.238911 0.238911 0.238911
0.0659342 0.0659342 0.0659342
0.0914473 0.0914473 0.0914473
0.129992 0.129992 0.129992
0.189395 0.189395 0.189395
0.229877 0.229877 0.229877
0.242695 0.242695 0.242695
0.287144 0.287144 0.287144
0.342824 0.342824 0.342824
0.355322 0.355322 0.355322
0.0867628 0.0867628 0.0867628
0.128344 0.128344 0.128344
0.175235 0.175235 0.175235
0.214191 0.214191 0.214191
0.260182 0.260182 0.260182
0.303563 0.303563 0.303563
0.371023 0.371023 0.371023
0.461204 0.461204 0.461204
0.486076 0.486076 0.486076
0.110857 0.110857 0.110857
0.160922 0.160922 0.160922
0.222797 0.222797 0.222797
0.262303 0.262303 0.262303
0.310018 0.310018 0.310018
0.364752 0.364752 0.364752
0.430579 0.430579 0.430579
0.535149 0.535149 0.535149
0.572641 0.572641 0.572641
0.142519 0.142519 0.142519
0.19057 0.19057 0.19057
0.256184 0.256184 0.256184
0.345678 0.345678 0.345678
0.428412 0.428412 0.428412
0.491264 0.491264 0.491264
0.554681 0.554681 0.554681
0.656092 0.656092 0.656092
0.685237 0.685237 0.685237
0.196872 0.196872 0.196872
0.232517 0.232517 0.232517
0.295369 0.295369 0.295369
0.413886 0.413886 0.413886
0.578454 0.578454 0.578454
0.663279 0.663279 0.663279
0.717983 0.717983 0.717983
0.780713 0.780713 0.780713
0.801007 0.801007 0.801007
0.275715 0.275715 0.275715
0.315022 0.315022 0.315022
0.388998 0.388998 0.388998
0.484581 0.484581 0.484581
0.637232 0.637232 0.637232
0.769604 0.769604 0.769604
0.824857 0.824857 0.824857
0.867735 0.867735 0.867735
0.878325 0.878325 0.878325
0.401724 0.401724 0.401724
0.464958 0.464958 0.464958
0.543252 0.543252 0.543252
0.628168 0.628168 0.628168
0.721874 0.721874 0.721874
0.827924 0.827924 0.827924
0.879026 0.879026 0.879026
0.907515 0.907515 0.907515
0.915679 0.915679 0.915679
0.451652 0.451652 0.451652
0.521019 0.521019 0.521019
0.59823 0.59823 0.59823
0.677211 0.677211 0.677211
0.759411 0.759411 0.759411
0.846418 0.846418 0.846418
0.895171 0.895171 0.895171
0.917632 0.917632 0.917632
0.924773 0.924773 0.924773
0.0397955 0.0397955 0.0397955
0.0560159 0.0560159 0.0560159
0.116838 0.116838 0.116838
0.194461 0.194461 0.194461
0.2448 0.2448 0.2448
0.275669 0.275669 0.275669
0.259831 0.259831 0.259831
0.272618 0.272618 0.272618
0.284581 0.284581 0.284581
0.0892195 0.0892195 0.0892195
0.117891 0.117891 0.117891
0.158175 0.158175 0.158175
0.240894 0.240894 0.240894
0.322606 0.322606 0.322606
0.367437 0.367437 0.367437
0.357641 0.357641 0.357641
0.414023 0.414023 0.414023
0.439277 0.439277 0.439277
0.121675 0.121675 0.121675
0.175631 0.175631 0.175631
0.231083 0.231083 0.231083
0.274357 0.274357 0.274357
0.339513 0.339513 0.339513
0.430228 0.430228 0.430228
0.47892 0.47892 0.47892
0.56112 0.56112 0.56112
0.593805 0.593805 0.593805
0.145678 0.145678 0.145678
0.208286 0.208286 0.208286
0.277272 0.277272 0.277272
0.35053 0.35053 0.35053
0.413962 0.413962 0.413962
0.498238 0.498238 0.498238
0.566079 0.566079 0.566079
0.658259 0.658259 0.658259
0.690333 0.690333 0.690333
0.180529 0.180529 0.180529
0.245579 0.245579 0.245579
0.339635 0.339635 0.339635
0.436393 0.436393 0.436393
0.50428 0.50428 0.50428
0.582559 0.582559 0.582559
0.659052 0.659052 0.659052
0.727062 0.727062 0.727062
0.749096 0.749096 0.749096
0.22739 0.22739 0.22739
0.284092 0.284092 0.284092
0.383612 0.383612 0.383612
0.514504 0.514504 0.514504
0.645167 0.645167 0.645167
0.718456 0.718456 0.718456
0.767071 0.767071 0.767071
0.808301 0.808301 0.808301
0.822721 0.822721 0.822721
0.314015 0.314015 0.314015
0.359976 0.359976 0.359976
0.457206 0.457206 0.457206
0.587106 0.587106 0.587106
0.72343 0.72343 0.72343
0.81825 0.81825 0.81825
0.855192 0.855192 0.855192
0.881361 0.881361 0.881361
0.888426 0.888426 0.888426
0.44918 0.44918 0.44918
0.511818 0.511818 0.511818
0.610132 0.610132 0.610132
0.715572 0.715572 0.715572
0.78143 0.78143 0.78143
0.851835 0.851835 0.851835
0.902602 0.902602 0.902602
0.923552 0.923552 0.923552
0.929961 0.929961 0.929961
0.498924 0.498924 0.498924
0.568582 0.568582 0.568582
0.662654 0.662654 0.662654
0.754376 0.754376 0.754376
0.806531 0.806531 0.806531
0.861494 0.861494 0.861494
0.91249 0.91249 0.91249
0.932464 0.932464 0.932464
0.938964 0.938964 0.938964
0.0518044 0.0518044 0.0518044
0.0711681 0.0711681 0.0711681
0.119371 0.119371 0.119371
0.220432 0.220432 0.220432
0.276905 0.276905 0.276905
0.333104 0.333104 0.333104
0.373831 0.373831 0.373831
0.353277 0.353277 0.353277
0.348043 0.348043 0.348043
0.11577 0.11577 0.11577
0.147173 0.147173 0.147173
0.187564 0.187564 0.187564
0.277317 0.277317 0.277317
0.402716 0.402716 0.402716
0.497444 0.497444 0.497444
0.547631 0.547631 0.547631
0.534203 0.534203 0.534203
0.533761 0.533761 0.533761
0.170748 0.170748 0.170748
0.228962 0.228962 0.228962
0.289754 0.289754 0.289754
0.324498 0.324498 0.324498
0.419455 0.419455 0.419455
0.556558 0.556558 0.556558
0.637781 0.637781 0.637781
0.656916 0.656916 0.656916
0.669154 0.669154 0.669154
0.198962 0.198962 0.198962
0.271 0.271 0.271
0.376059 0.376059 0.376059
0.449546 0.449546 0.449546
0.524178 0.524178 0.524178
0.605585 0.605585 0.605585
0.703975 0.703975 0.703975
0.767895 0.767895 0.767895
0.784024 0.784024 0.784024
0.224216 0.224216 0.224216
0.316167 0.316167 0.316167
0.429618 0.429618 0.429618
0.538811 0.538811 0.538811
0.633997 0.633997 0.633997
0.69781 0.69781 0.69781
0.764141 0.764141 0.764141
0.80975 0.80975 0.80975
0.822782 0.822782 0.822782
0.278706 0.278706 0.278706
0.362799 0.362799 0.362799
0.516655 0.516655 0.516655
0.64123 0.64123 0.64123
0.724819 0.724819 0.724819
0.769787 0.769787 0.769787
0.811337 0.811337 0.811337
0.850446 0.850446 0.850446
0.860243 0.860243 0.860243
0.361105 0.361105 0.361105
0.436713 0.436713 0.436713
0.581918 0.581918 0.581918
0.697185 0.697185 0.697185
0.789609 0.789609 0.789609
0.845228 0.845228 0.845228
0.873152 0.873152 0.873152
0.895109 0.895109 0.895109
0.900908 0.900908 0.900908
0.522774 0.522774 0.522774
0.591485 0.591485 0.591485
0.682231 0.682231 0.682231
0.770397 0.770397 0.770397
0.834989 0.834989 0.834989
0.882765 0.882765 0.882765
0.916854 0.916854 0.916854
0.932769 0.932769 0.932769
0.937255 0.937255 0.937255
0.578714 0.578714 0.578714
0.643915 0.643915 0.643915
0.720775 0.720775 0.720775
0.79762 0.79762 0.79762
0.852277 0.852277 0.852277
0.891356 0.891356 0.891356
0.925231 0.925231 0.925231
0.943236 0.943236 0.943236
0.947845 0.947845 0.947845
0.0675364 0.0675364 0.0675364
0.0915389 0.0915389 0.0915389
0.129168 0.129168 0.129168
0.23125 0.23125 0.23125
0.305791 0.305791 0.305791
0.365896 0.365896 0.365896
0.43415 0.43415 0.43415
0.483009 0.483009 0.483009
0.485115 0.485115 0.485115
0.142992 0.142992 0.142992
0.17847 0.17847 0.17847
0.222629 0.222629 0.222629
0.307301 0.307301 0.307301
0.456901 0.456901 0.456901
0.557733 0.557733 0.557733
0.639612 0.639612 0.639612
0.688334 0.688334 0.688334
0.692515 0.692515 0.692515
0.23003 0.23003 0.23003
0.29366 0.29366 0.29366
0.364172 0.364172 0.364172
0.393271 0.393271 0.393271
0.478691 0.478691 0.478691
0.654032 0.654032 0.654032
0.758389 0.758389 0.758389
0.802899 0.802899 0.802899
0.80676 0.80676 0.80676
0.262242 0.262242 0.262242
0.358312 0.358312 0.358312
0.510704 0.510704 0.510704
0.566751 0.566751 0.566751
0.592493 0.592493 0.592493
0.672602 0.672602 0.672602
0.773907 0.773907 0.773907
0.829633 0.829633 0.829633
0.837995 0.837995 0.837995
0.275364 0.275364 0.275364
0.4159 0.4159 0.4159
0.569162 0.569162 0.569162
0.672053 0.672053 0.672053
0.727321 0.727321 0.727321
0.777096 0.777096 0.777096
0.821317 0.821317 0.821317
0.864042 0.864042 0.864042
0.87483 0.87483 0.87483
0.334874 0.334874 0.334874
0.461707 0.461707 0.461707
0.646784 0.646784 0.646784
0.730694 0.730694 0.730694
0.792081 0.792081 0.792081
0.832319 0.832319 0.832319
0.85774 0.85774 0.85774
0.885176 0.885176 0.885176
0.892119 0.892119 0.892119
0.447486 0.447486 0.447486
0.552728 0.552728 0.552728
0.700191 0.700191 0.700191
0.793835 0.793835 0.793835
0.846799 0.846799 0.846799
0.876127 0.876127 0.876127
0.89012 0.89012 0.89012
0.906722 0.906722 0.906722
0.912703 0.912703 0.912703
0.582193 0.582193 0.582193
0.671046 0.671046 0.671046
0.763104 0.763104 0.763104
0.832486 0.832486 0.832486
0.8757 0.8757 0.8757
0.904189 0.904189 0.904189
0.925124 0.925124 0.925124
0.939193 0.939193 0.939193
0.943313 0.943313 0.943313
0.633799 0.633799 0.633799
0.71313 0.71313 0.71313
0.788678 0.788678 0.788678
0.846616 0.846616 0.846616
0.885573 0.885573 0.885573
0.911147 0.911147 0.911147
0.934401 0.934401 0.934401
0.951186 0.951186 0.951186
0.955398 0.955398 0.955398
0.0728923 0.0728923 0.0728923
0.0983291 0.0983291 0.0983291
0.134813 0.134813 0.134813
0.232105 0.232105 0.232105
0.314076 0.314076 0.314076
0.375463 0.375463 0.375463
0.444923 0.444923 0.444923
0.508034 0.508034 0.508034
0.519539 0.519539 0.519539
0.151415 0.151415 0.151415
0.18819 0.18819 0.18819
0.233677 0.233677 0.233677
0.31606 0.31606 0.31606
0.469688 0.469688 0.469688
0.571176 0.571176 0.571176
0.651484 0.651484 0.651484
0.710292 0.710292 0.710292
0.720943 0.720943 0.720943
0.248234 0.248234 0.248234
0.313527 0.313527 0.313527
0.389883 0.389883 0.389883
0.424308 0.424308 0.424308
0.496086 0.496086 0.496086
0.67747 0.67747 0.67747
0.77908 0.77908 0.77908
0.827054 0.827054 0.827054
0.833356 0.833356 0.833356
0.283833 0.283833 0.283833
0.395834 0.395834 0.395834
0.553307 0.553307 0.553307
0.597864 0.597864 0.597864
0.609751 0.609751 0.609751
0.685481 0.685481 0.685481
0.787869 0.787869 0.787869
0.844373 0.844373 0.844373
0.853346 0.853346 0.853346
0.296223 0.296223 0.296223
0.446204 0.446204 0.446204
0.60795 0.60795 0.60795
0.716884 0.716884 0.716884
0.754665 0.754665 0.754665
0.791165 0.791165 0.791165
0.832517 0.832517 0.832517
0.874342 0.874342 0.874342
0.88481 0.88481 0.88481
0.34728 0.34728 0.34728
0.489509 0.489509 0.489509
0.682872 0.682872 0.682872
0.75729 0.75729 0.75729
0.805325 0.805325 0.805325
0.845121 0.845121 0.845121
0.869978 0.869978 0.869978
0.894286 0.894286 0.894286
0.900252 0.900252 0.900252
0.481102 0.481102 0.481102
0.590173 0.590173 0.590173
0.729168 0.729168 0.729168
0.810773 0.810773 0.810773
0.857969 0.857969 0.857969
0.885817 0.885817 0.885817
0.897429 0.897429 0.897429
0.910994 0.910994 0.910994
0.916518 0.916518 0.916518
0.606775 0.606775 0.606775
0.697688 0.697688 0.697688
0.782391 0.782391 0.782391
0.845869 0.845869 0.845869
0.886305 0.886305 0.886305
0.90959 0.90959 0.90959
0.926955 0.926955 0.926955
0.940139 0.940139 0.940139
0.944167 0.944167 0.944167
0.651408 0.651408 0.651408
0.731746 0.731746 0.731746
0.803479 0.803479 0.803479
0.858381 0.858381 0.858381
0.894697 0.894697 0.894697
0.915587 0.915587 0.915587
0.93611 0.93611 0.93611
0.952255 0.952255 0.952255
0.956359 0.956359 0.956359
