luts/lumix_color_lab_A/cinebasemodeA_33.cube
TITLE "Generated by Resolve"
LUT_3D_SIZE 33
0.0385443 0.0385443 0.0385443
0.0445106 0.0376898 0.0408179
0.0509651 0.0366369 0.0394446
0.0570687 0.0360418 0.0394903
0.0670634 0.0349889 0.0373236
0.0834363 0.0354314 0.0360113
0.101122 0.0361486 0.0339818
0.122927 0.0370489 0.0330968
0.152117 0.0369726 0.0299382
0.190875 0.0364233 0.0266575
0.229953 0.0350042 0.024033
0.275914 0.0328222 0.0219272
0.326314 0.0298466 0.0197299
0.378927 0.0229801 0.0180362
0.427237 0.0164797 0.0164797
0.48014 0.0138247 0.0138247
0.528328 0.0116121 0.0116121
0.578347 0.00932326 0.00932326
0.619745 0.00740063 0.00740063
0.662333 0.00546273 0.00547799
0.695689 0.00393683 0.00393683
0.720974 0.00273136 0.00273136
0.738354 0.00204471 0.00205997
0.755245 0.00117494 0.00117494
0.764828 0.000808728 0.000808728
0.780545 0.000213626 0.000213626
0.788724 0 0
0.803143 0 0
0.810651 0 0
0.823056 0 0
0.828305 0 0
0.839933 0 0
0.845121 0 0
0.0380865 0.0432593 0.0415808
0.043183 0.0423743 0.0413672
0.0495918 0.0416419 0.04065
0.056199 0.0408484 0.0398108
0.0662547 0.0396582 0.038529
0.0834058 0.0381476 0.0367742
0.102586 0.0370184 0.0349737
0.1243 0.0378271 0.0333562
0.15407 0.0378576 0.0310369
0.192889 0.0368811 0.0267796
0.233631 0.0356298 0.023743
0.278004 0.0333257 0.0217441
0.328969 0.0301213 0.0194553
0.381659 0.0245365 0.01738
0.434669 0.0161746 0.0161746
0.48629 0.0135805 0.0135805
0.537133 0.0112459 0.0112459
0.585901 0.00901808 0.00901808
0.629999 0.00691234 0.00691234
0.669841 0.00517281 0.00517281
0.706294 0.00352483 0.00352483
0.728588 0.00242618 0.00242618
0.749584 0.00138857 0.00138857
0.763165 0.000869764 0.000869764
0.776059 0.000381476 0.000381476
0.788174 0 0
0.799756 0 0
0.810803 0 0
0.821622 0 0
0.830442 0 0
0.839139 0 0
0.847517 0 0
0.855619 0 0
0.0357671 0.0492103 0.0413519
0.0412757 0.0482948 0.0417029
0.0488441 0.0475776 0.0403906
0.0555276 0.0471504 0.0400854
0.0670481 0.0460059 0.0382086
0.0849622 0.0445563 0.0368658
0.105882 0.042649 0.0336614
0.128923 0.040528 0.0331884
0.159884 0.0396735 0.0301366
0.199985 0.0384527 0.0266728
0.241428 0.0367132 0.0230106
0.286641 0.0349126 0.0208133
0.336751 0.0331884 0.0184176
0.392889 0.0280613 0.0162661
0.44712 0.0227054 0.0141909
0.502388 0.0129091 0.0129091
0.554131 0.0105287 0.010544
0.60444 0.00802625 0.00802625
0.648615 0.00601205 0.00601205
0.690089 0.00415045 0.00415045
0.726024 0.002533 0.002533
0.749798 0.00138857 0.00138857
0.770474 0.000595102 0.000595102
0.784741 0 0
0.796429 0 0
0.809506 0 0
0.819974 0 0
0.831449 0 0
0.840955 0 0
0.850874 0 0
0.858442 0 0
0.867216 0 0
0.874128 0 0
0.0331731 0.0573739 0.0427405
0.0385595 0.0565347 0.0421759
0.0465705 0.0560006 0.0410163
0.0543221 0.055787 0.0402686
0.0670939 0.0551614 0.0391546
0.086717 0.0536202 0.0369116
0.10837 0.0518349 0.0343938
0.132479 0.0493935 0.0324865
0.164462 0.0454108 0.030396
0.206241 0.0421607 0.0262303
0.250141 0.040238 0.021973
0.296559 0.0382849 0.019791
0.348608 0.0355383 0.0171969
0.406012 0.031693 0.0147707
0.462882 0.0265507 0.012604
0.5178 0.0192721 0.0108797
0.572381 0.00956741 0.00956741
0.623301 0.00726329 0.00726329
0.669429 0.00518807 0.00518807
0.710246 0.00323491 0.00325017
0.7476 0.00157168 0.00157168
0.771191 0.000564584 0.000564584
0.793088 0 0
0.80647 0 0
0.818982 0 0
0.830732 0 0
0.841794 0 0
0.852308 0 0
0.86247 0 0
0.871275 0 0
0.879561 0 0
0.887434 0 0
0.895125 0 0
0.0305638 0.0675059 0.0420386
0.0345922 0.0668498 0.0422217
0.0440375 0.0661784 0.0404974
0.0523384 0.0665293 0.0404822
0.0674601 0.0659495 0.0384222
0.0873426 0.0647898 0.0368811
0.110475 0.0632029 0.0335088
0.135531 0.0609445 0.0311284
0.170382 0.0571298 0.0277562
0.211978 0.0517739 0.0249027
0.258015 0.0459602 0.0204166
0.305989 0.0429389 0.0183261
0.360479 0.0396429 0.0157778
0.419028 0.0351568 0.0133211
0.478187 0.030808 0.0109255
0.533272 0.0247807 0.00900282
0.588357 0.0164187 0.00746166
0.641398 0.00630198 0.00630198
0.688014 0.00422675 0.00424201
0.729992 0.00238041 0.00238041
0.767193 0.000717174 0.000717174
0.791989 0 0
0.814252 0 0
0.828 0 0
0.83978 0 0
0.852125 0 0
0.862409 0 0
0.873228 0 0
0.882689 0 0
0.892302 0 0
0.899611 0 0
0.907759 0 0
0.914549 0 0
0.0265354 0.0830701 0.0424201
0.0306554 0.0819104 0.0418708
0.0369573 0.0816968 0.0410925
0.047013 0.0816815 0.0403906
0.0622721 0.081239 0.0387274
0.0850385 0.0804303 0.0365759
0.109163 0.0790112 0.0336767
0.136828 0.0770886 0.0301671
0.172778 0.0740215 0.0263676
0.216861 0.06804 0.0219425
0.264012 0.0607767 0.0171969
0.315038 0.0533455 0.0156863
0.371099 0.0491035 0.0133822
0.43151 0.0431373 0.0111849
0.491188 0.0369116 0.00906386
0.549386 0.0309453 0.00689708
0.606409 0.0231632 0.00531014
0.65864 0.0124208 0.0043183
0.706416 0.00436408 0.00325017
0.748638 0.00148013 0.00148013
0.786725 0 0
0.812192 0 0
0.835691 0 0
0.849271 0 0
0.861692 0 0
0.873457 0 0
0.884672 0 0
0.894896 0 0
0.904402 0 0
0.913252 0 0
0.920913 0 0
0.928191 0 0
0.935012 0 0
0.0225376 0.102434 0.0420539
0.0256199 0.101671 0.0416876
0.0294652 0.101411 0.0399481
0.0349737 0.10219 0.0399786
0.0547036 0.101503 0.037171
0.0788891 0.101167 0.0356451
0.105135 0.099855 0.031754
0.135424 0.0983597 0.0286259
0.175494 0.0949721 0.0220188
0.220645 0.0899367 0.0174563
0.269978 0.0827344 0.0128176
0.322667 0.0768292 0.0109712
0.383841 0.0689097 0.00906386
0.443168 0.0591745 0.00753796
0.504051 0.0512703 0.00567636
0.564294 0.0428473 0.00396735
0.624353 0.0352636 0.00216678
0.673854 0.0299077 0.000518807
0.72047 0.0266728 0
0.764279 0.015259 0
0.804242 0.00401312 0
0.830915 0.00172427 0
0.854383 0.00187686 0
0.869001 0.0009308 0
0.880674 0.00241093 0
0.892485 0.00733959 0
0.902678 0.0189364 0
0.912764 0.0202487 0
0.921508 0.0248417 0
0.930602 0.0250095 0
0.937469 0.0261387 0
0.945113 0.0258946 0
0.951827 0.0282902 0
0.0184482 0.125261 0.0422522
0.0197604 0.124559 0.0415961
0.0234836 0.124941 0.0406348
0.0276188 0.125551 0.0395819
0.0398871 0.125521 0.0377203
0.0691386 0.12491 0.034638
0.0973983 0.124376 0.0314794
0.131258 0.122789 0.0271305
0.1729 0.11986 0.0213779
0.221515 0.115587 0.0130617
0.271931 0.109987 0.00758373
0.327276 0.104097 0.0056611
0.388083 0.0965591 0.0037995
0.450752 0.0862593 0.00228885
0.512657 0.074052 0.00109865
0.573449 0.0635691 0
0.632593 0.0546426 0
0.684871 0.0475166 0
0.73312 0.0423743 0
0.777066 0.0355383 0
0.816678 0.0284581 0
0.844862 0.028397 0
0.869551 0.0292973 0
0.885466 0.0297246 0
0.897978 0.0304265 0
0.910002 0.0331579 0
0.921355 0.0361791 0
0.931121 0.0375982 0
0.94052 0.0395666 0
0.949584 0.0415351 0
0.956924 0.0425269 0
0.963577 0.0450904 0
0.968551 0.0486 0
0.0133059 0.15317 0.0413519
0.0134737 0.152117 0.0407874
0.0162814 0.152285 0.0395819
0.0204471 0.15317 0.0386358
0.0256809 0.153109 0.036347
0.0555276 0.153079 0.0339513
0.0852674 0.152514 0.0294347
0.12256 0.151263 0.0255131
0.16936 0.148135 0.0183261
0.219455 0.145251 0.0101167
0.273457 0.140581 0.00205997
0.330266 0.135256 0
0.394873 0.128374 0
0.457557 0.119982 0
0.521584 0.109819 0
0.580987 0.0993515 0
0.641077 0.0868238 0
0.693614 0.0764477 0
0.743709 0.0688029 0
0.788602 0.0601816 0
0.828916 0.0544747 0
0.859358 0.0540017 0
0.885527 0.0555581 0
0.902983 0.0549935 0
0.916075 0.0565347 0
0.927947 0.057969 0
0.938552 0.0610056 0
0.948425 0.0635386 0
0.957641 0.0679484 0
0.966369 0.0712291 0
0.973159 0.0763256 0
0.976715 0.0814527 0
0.977874 0.0895552 0
0.00697337 0.188815 0.0394293
0.007187 0.187976 0.0388647
0.00743114 0.188693 0.0380407
0.011368 0.189242 0.0364691
0.0165408 0.190036 0.0350805
0.0343328 0.189548 0.0318456
0.0670329 0.188937 0.0275731
0.10692 0.188205 0.0223545
0.159762 0.185779 0.0146944
0.21619 0.184268 0.00238041
0.273487 0.18204 0
0.334768 0.176944 0
0.399725 0.17026 0
0.466209 0.164019 0
0.530037 0.156161 0
0.591394 0.146761 0
0.650782 0.136049 0
0.704952 0.126757 0
0.755718 0.117678 0
0.80174 0.104967 0
0.841962 0.098497 0
0.873884 0.0969558 0
0.900221 0.0973526 0
0.918959 0.0978256 0
0.932158 0.0999619 0
0.943771 0.103426 0
0.954437 0.108248 0
0.964126 0.114107 0
0.972747 0.120546 0
0.979187 0.126864 0
0.98175 0.132006 0
0.981628 0.137011 0
0.981231 0.141726 0
0.000274662 0.22829 0.037644
0.000381476 0.227634 0.0368811
0.000213626 0.228901 0.0359503
0.00164797 0.230396 0.0341344
0.00669871 0.231678 0.0319982
0.0133516 0.231891 0.0289769
0.0507668 0.231113 0.0225376
0.0868086 0.232074 0.0171359
0.145083 0.230732 0.00415045
0.208515 0.231586 0
0.272862 0.231937 0
0.337179 0.227604 0
0.406455 0.221653 0
0.473198 0.21709 0
0.54081 0.212467 0
0.601678 0.202548 0
0.663249 0.192493 0
0.716701 0.185397 0
0.768719 0.179446 0
0.813703 0.167681 0
0.855009 0.157519 0
0.88809 0.151415 0
0.914549 0.148501 0
0.934356 0.147189 0
0.947967 0.151034 0
0.959655 0.153964 0
0.970779 0.159625 0
0.979583 0.164279 0
0.985153 0.170779 0
0.986862 0.17467 0
0.986877 0.179232 0
0.986709 0.182452 0
0.986648 0.18735 0
0 0.271015 0.0343328
0 0.270451 0.0338598
0 0.272435 0.0329747
0 0.274815 0.0314946
0 0.277073 0.0294347
0.00335698 0.279057 0.025452
0.0156405 0.281682 0.019028
0.0643473 0.282277 0.00947585
0.118868 0.282063 0.00180056
0.190387 0.285176 0
0.262577 0.288182 0
0.332128 0.285985 0
0.403037 0.282155 0
0.477302 0.278096 0
0.546227 0.272328 0
0.608942 0.26537 0
0.669291 0.25774 0
0.725917 0.251255 0
0.77792 0.24477 0
0.824277 0.234546 0
0.865797 0.225391 0
0.901808 0.220844 0
0.928237 0.217395 0
0.950668 0.215061 0
0.964172 0.214054 0
0.976501 0.215366 0
0.986984 0.218524 0
0.992462 0.222354 0
0.994476 0.227176 0
0.996017 0.23267 0
0.996384 0.236774 0
0.996124 0.239841 0
0.996139 0.243351 0
0 0.319677 0.0310216
0 0.319005 0.0305638
0 0.321691 0.0298314
0 0.324773 0.0280766
0 0.328084 0.0255283
0 0.33228 0.020676
0.00151064 0.337285 0.00764477
0.0315862 0.337835 0.004654
0.0975967 0.337926 0.000549325
0.163912 0.34435 0
0.247547 0.350103 0
0.322881 0.350378 0
0.399191 0.349172 0
0.47863 0.344732 0
0.553628 0.33901 0
0.615 0.3337 0
0.677348 0.329549 0
0.733776 0.321416 0
0.787884 0.315221 0
0.834394 0.305074 0
0.877562 0.297505 0
0.914015 0.292042 0
0.942733 0.29041 0
0.965255 0.285328 0
0.980255 0.284672 0
0.991806 0.284764 0
0.999725 0.288685 0
1 0.291157 0
1 0.296941 0
1 0.302251 0
1 0.308202 0
1 0.309941 0
1 0.314397 0
0 0.372442 0.0271
0 0.371679 0.0267948
0 0.375189 0.0261997
0 0.378683 0.0249332
0 0.382574 0.0217441
0 0.387762 0.0139162
0 0.393668 0.00709544
0.00462348 0.396063 0.00457771
0.0775616 0.397406 0.000961318
0.141176 0.404868 0
0.22298 0.411612 0
0.312749 0.414282 0
0.3935 0.41529 0
0.476921 0.413321 0
0.552346 0.409277 0
0.618845 0.405158 0
0.681834 0.399924 0
0.741115 0.394568 0
0.794766 0.388678 0
0.842771 0.380774 0
0.885786 0.373434 0
0.92372 0.369192 0
0.954467 0.366964 0
0.978393 0.363745 0
0.995499 0.362356 0
1 0.363394 0
1 0.365423 0
1 0.368551 0
1 0.372107 0
1 0.377569 0
1 0.381353 0
1 0.383673 0
1 0.386618 0
0 0.426856 0.0231327
0 0.426078 0.0234531
0 0.430594 0.0230564
0 0.434577 0.0215305
0 0.439429 0.0141604
0 0.445548 0.0102846
0 0.453574 0.00817884
0 0.457084 0.00587472
0.0581826 0.460212 0.00265507
0.125261 0.468437 0
0.198901 0.47631 0
0.294041 0.481117 0
0.385992 0.484672 0
0.471641 0.484688 0
0.550835 0.484016 0
0.619165 0.478462 0
0.686519 0.474662 0
0.744732 0.468925 0
0.800229 0.46569 0
0.847288 0.457664 0
0.891814 0.452995 0
0.929763 0.447562 0
0.963607 0.446494 0
0.987884 0.442893 0
1 0.443503 0
1 0.442374 0
1 0.44564 0
1 0.446036 0
1 0.450828 0
1 0.452979 0
1 0.456718 0
1 0.457816 0
1 0.462623 0
0 0.479713 0.0177768
0 0.479286 0.0189364
0 0.484199 0.0183413
0 0.491127 0.0150607
0 0.499214 0.0137179
0 0.506401 0.0120851
0 0.515251 0.0104067
0 0.521233 0.00816358
0.0346685 0.526162 0.00521859
0.116991 0.536446 0.0016022
0.181857 0.546212 0
0.267704 0.551659 0
0.372885 0.555047 0
0.465583 0.555245 0
0.545403 0.553079 0
0.617304 0.548638 0
0.684016 0.542962 0
0.744396 0.53785 0
0.798779 0.532403 0
0.847181 0.525719 0
0.890852 0.519265 0
0.929839 0.514641 0
0.96492 0.511086 0
0.990173 0.508507 0
1 0.507225 0
1 0.507012 0
1 0.507881 0
1 0.509483 0
1 0.511666 0
1 0.514321 0
1 0.516579 0
1 0.519295 0
1 0.522194 0
0 0.532937 0.0203403
0 0.532921 0.0196536
0 0.539071 0.0186007
0 0.548241 0.0177005
0 0.559716 0.0163882
0 0.566705 0.0148623
0 0.577371 0.0129397
0 0.582986 0.0106355
0.0251011 0.589685 0.00790417
0.104845 0.600168 0.0040589
0.170108 0.612207 0
0.243336 0.617441 0
0.353033 0.622126 0
0.453178 0.619959 0
0.537469 0.618036 0
0.609949 0.612345 0
0.679362 0.607828 0
0.738399 0.600153 0
0.793515 0.594873 0
0.84126 0.586801 0
0.885939 0.581552 0
0.924086 0.574609 0
0.960082 0.571496 0
0.98555 0.566491 0
1 0.565194 0
1 0.562737 0
1 0.564034 0
1 0.56408 0
1 0.567269 0
1 0.568276 0
1 0.571527 0
1 0.573144 0
1 0.576989 0
0 0.588739 0.0230869
0 0.588678 0.0223087
0 0.595148 0.0215763
0 0.602564 0.0204013
0 0.611276 0.0190585
0 0.620188 0.0175326
0 0.630106 0.0156863
0 0.637964 0.0133516
0 0.64509 0.0105745
0.0681315 0.655665 0.00631724
0.148714 0.66714 0.00109865
0.215702 0.674144 0
0.312047 0.677653 0
0.429236 0.676234 0
0.517067 0.672572 0
0.594293 0.668818 0
0.663584 0.663233 0
0.725032 0.656931 0
0.77995 0.650217 0
0.828962 0.643397 0
0.87335 0.636881 0
0.91191 0.630762 0
0.944823 0.624949 0
0.972152 0.620432 0
0.990219 0.61735 0
0.994034 0.615854 0
0.994034 0.615839 0
0.993896 0.616388 0
0.993393 0.617578 0
0.99292 0.619608 0
0.992355 0.622019 0
0.991852 0.624155 0
0.991287 0.626535 0
0 0.640864 0.0256504
0 0.641032 0.0248722
0 0.647074 0.0238193
0 0.653468 0.0228428
0 0.661006 0.0214084
0 0.669627 0.0196689
0 0.679866 0.0176089
0 0.687953 0.0153201
0 0.697063 0.0120241
0.0192264 0.707851 0.00799573
0.126528 0.718517 0.00144961
0.189288 0.725246 0
0.278187 0.729427 0
0.399512 0.726955 0
0.495552 0.723857 0
0.575051 0.719966 0
0.648203 0.716304 0
0.709087 0.708843 0
0.765209 0.7028 0
0.814649 0.69601 0
0.858579 0.690333 0
0.89456 0.682383 0
0.927413 0.67689 0
0.957244 0.671443 0
0.974762 0.668818 0
0.980606 0.666392 0
0.980514 0.666804 0
0.980682 0.666087 0
0.980179 0.668269 0
0.979965 0.669169 0
0.979294 0.672068 0
0.979019 0.673228 0
0.978103 0.676173 0
0 0.687099 0.027512
0 0.687404 0.0267338
0 0.692805 0.0255894
0 0.699474 0.0243992
0 0.706783 0.0229496
0 0.715816 0.0210269
0 0.725307 0.0187228
0 0.734569 0.016083
0 0.74406 0.0126955
0.00421149 0.755306 0.00819409
0.102907 0.76408 0.000671397
0.172732 0.770794 0
0.25536 0.773983 0
0.368582 0.772671 0
0.47126 0.769329 0
0.55642 0.765698 0
0.631128 0.760555 0
0.694453 0.754589 0
0.751019 0.748348 0
0.801312 0.742168 0
0.842451 0.735241 0
0.878599 0.728328 0
0.911925 0.722316 0
0.942275 0.717571 0
0.96199 0.714107 0
0.967727 0.712108 0
0.96965 0.711254 0
0.969604 0.711482 0
0.969207 0.712718 0
0.968795 0.714244 0
0.968444 0.715953 0
0.968109 0.717647 0
0.967773 0.719249 0
0 0.712276 0.0294347
0 0.71313 0.0286259
0 0.719081 0.0276799
0 0.726238 0.0262455
0 0.734264 0.0245518
0 0.743923 0.0226444
0 0.754665 0.0201114
0 0.764996 0.0172274
0 0.777401 0.0131991
0 0.789883 0.00839246
0.0745556 0.799924 0
0.154894 0.807889 0
0.231022 0.812955 0
0.331945 0.811887 0
0.44918 0.809354 0
0.538598 0.805661 0
0.618082 0.801495 0
0.681514 0.795514 0
0.739391 0.790066 0
0.787945 0.78349 0
0.828397 0.777066 0
0.865003 0.770153 0
0.898924 0.765011 0
0.930007 0.759747 0
0.951324 0.756558 0
0.957153 0.75378 0
0.960647 0.753231 0
0.960693 0.752926 0
0.960418 0.754696 0
0.960327 0.755261 0
0.960037 0.757076 0
0.959945 0.757702 0
0.95967 0.759441 0
0 0.73611 0.0311437
0 0.737575 0.0302892
0 0.74313 0.0291142
0 0.7514 0.0276341
0 0.759899 0.025742
0 0.770031 0.0235142
0 0.780728 0.020737
0 0.792401 0.0174258
0 0.805631 0.0132753
0 0.818051 0.00790417
0.0487068 0.826978 0
0.137499 0.834775 0
0.203296 0.841474 0
0.300084 0.844327 0
0.428077 0.843381 0
0.523598 0.842329 0
0.604212 0.838712 0
0.6701 0.834089 0
0.728557 0.828946 0
0.776318 0.822812 0
0.817029 0.816159 0
0.854017 0.810071 0
0.888441 0.804669 0
0.919875 0.800259 0
0.942977 0.79675 0
0.949493 0.794202 0
0.954009 0.79263 0
0.954711 0.792538 0
0.954635 0.793027 0
0.954498 0.793454 0
0.95433 0.793957 0
0.954269 0.794461 0
0.954238 0.794903 0
0 0.755474 0.0323644
0 0.756863 0.0314946
0 0.762051 0.030457
0 0.770336 0.0287327
0 0.778866 0.0267338
0 0.788266 0.0242924
0 0.798947 0.0213626
0 0.809735 0.0180362
0 0.824048 0.0134279
0 0.837354 0.00749218
0.0296788 0.848753 0
0.119615 0.857832 0
0.187442 0.867033 0
0.282078 0.86952 0
0.413672 0.870192 0
0.511528 0.872053 0
0.595926 0.87332 0
0.660945 0.870054 0
0.72076 0.8663 0
0.767254 0.859907 0
0.808499 0.854093 0
0.845533 0.847654 0
0.880415 0.843046 0
0.91194 0.838102 0
0.936385 0.834745 0
0.944549 0.831189 0
0.949065 0.829664 0
0.951171 0.828397 0
0.951171 0.82858 0
0.951186 0.828016 0
0.951171 0.828473 0
0.951186 0.828061 0
0.951171 0.828489 0
0 0.773678 0.0332952
0 0.775479 0.0323339
0 0.779782 0.0310369
0 0.787793 0.0291752
0 0.79646 0.0272831
0 0.805661 0.0247959
0 0.815366 0.0218357
0 0.826078 0.0180514
0 0.839567 0.013138
0 0.853071 0.00717174
0.00622568 0.864363 0
0.106737 0.873182 0
0.173587 0.882795 0
0.26862 0.888395 0
0.397787 0.891478 0
0.501198 0.895308 0
0.58677 0.897002 0
0.654658 0.896422 0
0.714931 0.895674 0
0.761166 0.890852 0
0.802258 0.884443 0
0.839551 0.878706 0
0.874098 0.873472 0
0.905608 0.869078 0
0.931334 0.865339 0
0.942702 0.861997 0
0.947188 0.859663 0
0.950439 0.858366 0
0.950515 0.857633 0
0.9505 0.857221 0
0.9505 0.856947 0
0.9505 0.856703 0
0.9505 0.856413 0
0 0.790921 0.0332341
0 0.793103 0.0323339
0 0.797879 0.0308385
0 0.804517 0.0292973
0 0.813565 0.0269627
0 0.822034 0.0243229
0 0.831525 0.0210117
0 0.840604 0.0173342
0 0.853223 0.0126802
0 0.864851 0.00672923
0 0.875731 0
0.0961776 0.882689 0
0.166476 0.892363 0
0.258473 0.896696 0
0.388769 0.899504 0
0.494118 0.905425 0
0.582422 0.910506 0
0.649409 0.910918 0
0.710704 0.910613 0
0.755596 0.906828 0
0.796582 0.903716 0
0.833326 0.897551 0
0.867979 0.892912 0
0.899245 0.888457 0
0.926513 0.88542 0
0.941283 0.882139 0
0.946761 0.880217 0
0.949966 0.878553 0
0.951034 0.87808 0
0.950973 0.877348 0
0.950973 0.877409 0
0.950927 0.876905 0
0.950942 0.876997 0
0 0.809033 0.032517
0 0.810803 0.0315251
0 0.814603 0.0303502
0 0.819318 0.0286107
0 0.827054 0.0264591
0 0.834607 0.0237278
0 0.842222 0.0206607
0 0.849485 0.0173037
0 0.85919 0.0130922
0 0.869307 0.00741588
0 0.878538 7.62951e-05
0.0903639 0.884092 0
0.157946 0.892378 0
0.250675 0.89752 0
0.378576 0.900313 0
0.487282 0.906859 0
0.574548 0.911818 0
0.64361 0.914748 0
0.704601 0.917769 0
0.749737 0.915755 0
0.790265 0.912367 0
0.827085 0.909422 0
0.861646 0.905898 0
0.892943 0.902098 0
0.920638 0.898772 0
0.940734 0.896056 0
0.94699 0.893874 0
0.950195 0.89247 0
0.952026 0.89163 0
0.95198 0.891218 0
0.951965 0.89099 0
0.951934 0.890806 0
0.951919 0.890593 0
0 0.824018 0.0314336
0 0.82443 0.0305943
0 0.82591 0.0296178
0 0.827893 0.0283665
0 0.834531 0.0262608
0 0.839963 0.0238499
0 0.84651 0.0211795
0 0.851835 0.0181125
0 0.860945 0.0138857
0 0.870558 0.00836194
0 0.879927 0.00106813
0.0836194 0.884779 0
0.155505 0.893385 0
0.246281 0.897978 0
0.377005 0.901198 0
0.483558 0.907454 0
0.572534 0.913268 0
0.63978 0.915984 0
0.70161 0.919631 0
0.745861 0.919295 0
0.786282 0.919387 0
0.822522 0.916594 0
0.856458 0.914549 0
0.887266 0.911818 0
0.914595 0.908858 0
0.936996 0.90602 0
0.946944 0.904143 0
0.950378 0.902617 0
0.95256 0.901976 0
0.952728 0.901396 0
0.952728 0.901366 0
0.952682 0.900938 0
0.952682 0.900908 0
0 0.829618 0.0310826
0 0.829328 0.0304417
0 0.829007 0.0297246
0 0.829984 0.0287327
0 0.836927 0.0266423
0 0.843122 0.0241855
0 0.849104 0.0213321
0 0.854658 0.0183566
0 0.86247 0.0143587
