luts/lumix_color_lab_A/cinebasemodeA_33.cube
TITLE "Generated by Resolve"
LUT_3D_SIZE 5
0.0385443 0.0385443 0.0385443
0.152117 0.0369726 0.0299382
0.528328 0.0116121 0.0116121
0.764828 0.000808728 0.000808728
0.845121 0 0
0.0133059 0.15317 0.0413519
0.16936 0.148135 0.0183261
0.641077 0.0868238 0
0.916075 0.0565347 0
0.977874 0.0895552 0
0 0.532937 0.0203403
0.0251011 0.589685 0.00790417
0.679362 0.607828 0
1 0.565194 0
1 0.576989 0
0 0.790921 0.0332341
0 0.853223 0.0126802
0.582422 0.910506 0
0.926513 0.88542 0
0.950942 0.876997 0
0 0.83035 0.0440375
0 0.864652 0.0149081
0.578698 0.910826 0
0.894896 0.922713 0
0.956497 0.915007 0.0902266
0.0358892 0.0373541 0.161944
0.171496 0.0332341 0.146136
0.575891 0.00784314 0.0985428
0.813519 0 0.0751812
0.881743 0 0.0740215
0.009308 0.161105 0.173922
0.144091 0.148363 0.156603
0.665141 0.0590677 0.0767224
0.963409 0.026276 0.030045
0.979339 0.0416876 0.0813611
0 0.568368 0.110658
0 0.600351 0.0852064
0.663417 0.614633 0.0077821
1 0.557733 0
1 0.570916 0.0185245
0 0.8103 0.136294
0 0.849287 0.0931258
0.431144 0.911238 0
0.929458 0.883268 0
0.951553 0.873335 0.0121462
0 0.833494 0.308232
0 0.858381 0.250095
0.49659 0.898283 0.0468757
0.889296 0.918456 0.140124
0.960311 0.919799 0.302174
0.0298466 0.0354314 0.450645
0.189914 0.0194705 0.501381
0.59585 0.000549325 0.47805
0.838071 0 0.429023
0.900893 0 0.411078
0.0150301 0.0859236 0.571893
0.0653391 0.100084 0.615442
0.66511 0.0558938 0.567422
0.972015 0.0285801 0.512657
0.985046 0.0570382 0.507622
0 0.60528 0.641382
0 0.616342 0.657191
0.592859 0.611765 0.596384
0.981048 0.548363 0.552544
0.986297 0.564614 0.564218
0 0.834562 0.664546
0 0.864042 0.628946
0.248066 0.910704 0.515694
0.930312 0.924971 0.525979
0.963134 0.907958 0.5953
0 0.854231 0.70837
0 0.86978 0.665507
0.322805 0.901061 0.579065
0.881926 0.956252 0.612497
0.977234 0.967636 0.715038
0.0252232 0.0346227 0.64094
0.183627 0.0158846 0.720882
0.60174 0 0.726009
0.83151 0 0.687892
0.89929 0 0.674662
0.00823987 0.0997024 0.798672
0.0482338 0.127428 0.878828
0.643336 0.0738994 0.882719
0.951293 0.0375982 0.828992
0.990707 0.0678721 0.810498
0 0.563149 0.912428
0 0.543587 0.97789
0.56022 0.532616 0.970855
0.989181 0.462913 0.936278
0.982788 0.531701 0.90837
0 0.822858 0.911467
0 0.85687 0.938628
0.150271 0.908415 0.925277
0.913176 0.920104 0.916564
0.969406 0.909743 0.908125
0 0.856031 0.918273
0 0.869902 0.913359
0.208347 0.904433 0.883085
0.872847 0.971695 0.907744
0.985367 0.98497 0.944579
0.0237278 0.0337377 0.714214
0.147372 0.0163577 0.789456
0.591424 0 0.806546
0.816419 0 0.778378
0.892836 0 0.775311
0.00466926 0.11368 0.855009
0.047425 0.1252 0.925872
0.609766 0.0986648 0.940841
0.921324 0.0915236 0.92195
0.99884 0.115068 0.917327
0 0.497414 0.973236
0 0.511284 0.982345
0.555016 0.54139 0.991348
0.980575 0.497841 0.955962
0.975006 0.556542 0.937819
0 0.813458 0.952499
0 0.848814 0.952102
0.151202 0.895659 0.940963
0.902892 0.909987 0.966217
0.970687 0.911147 0.966018
0 0.857267 0.947326
0 0.869383 0.950378
0.275029 0.898405 0.935164
0.882383 0.973449 0.977722
0.987396 0.987396 0.987396
