luts/lumix_color_lab_A/cinebasemodeA_33.cube
TITLE "Generated by Resolve"
LUT_3D_SIZE 9
0.0385443 0.0385443 0.0385443
0.0670634 0.0349889 0.0373236
0.152117 0.0369726 0.0299382
0.326314 0.0298466 0.0197299
0.528328 0.0116121 0.0116121
0.695689 0.00393683 0.00393683
0.764828 0.000808728 0.000808728
0.810651 0 0
0.845121 0 0
0.0305638 0.0675059 0.0420386
0.0674601 0.0659495 0.0384222
0.170382 0.0571298 0.0277562
0.360479 0.0396429 0.0157778
0.588357 0.0164187 0.00746166
0.767193 0.000717174 0.000717174
0.83978 0 0
0.882689 0 0
0.914549 0 0
0.0133059 0.15317 0.0413519
0.0256809 0.153109 0.036347
0.16936 0.148135 0.0183261
0.394873 0.128374 0
0.641077 0.0868238 0
0.828916 0.0544747 0
0.916075 0.0565347 0
0.957641 0.0679484 0
0.977874 0.0895552 0
0 0.319677 0.0310216
0 0.328084 0.0255283
0.0975967 0.337926 0.000549325
0.399191 0.349172 0
0.677348 0.329549 0
0.877562 0.297505 0
0.980255 0.284672 0
1 0.296941 0
1 0.314397 0
0 0.532937 0.0203403
0 0.559716 0.0163882
0.0251011 0.589685 0.00790417
0.353033 0.622126 0
0.679362 0.607828 0
0.885939 0.581552 0
1 0.565194 0
1 0.567269 0
1 0.576989 0
0 0.712276 0.0294347
0 0.734264 0.0245518
0 0.777401 0.0131991
0.231022 0.812955 0
0.618082 0.801495 0
0.828397 0.777066 0
0.951324 0.756558 0
0.960418 0.754696 0
0.95967 0.759441 0
0 0.790921 0.0332341
0 0.813565 0.0269627
0 0.853223 0.0126802
0.166476 0.892363 0
0.582422 0.910506 0
0.796582 0.903716 0
0.926513 0.88542 0
0.951034 0.87808 0
0.950942 0.876997 0
0 0.830671 0.0313725
0 0.839368 0.0264591
0 0.865156 0.0142824
0.176226 0.892103 0
0.577768 0.913237 0
0.785809 0.921263 0
0.907012 0.919493 0
0.952834 0.912474 0
0.954116 0.911528 0
0 0.83035 0.0440375
0 0.835645 0.0278325
0 0.864652 0.0149081
0.239811 0.882597 0
0.578698 0.910826 0
0.785351 0.922377 0
0.894896 0.922713 0
0.953414 0.915785 0.022385
0.956497 0.915007 0.0902266
0.038056 0.0387732 0.0681773
0.0690166 0.0354925 0.0628977
0.163027 0.0368658 0.0548104
0.34699 0.0202487 0.0218814
0.559899 0.0100862 0.0100862
0.722957 0.00265507 0.00265507
0.791028 0 0
0.833738 0 0
0.864652 0 0
0.0294957 0.0689708 0.0699016
0.0632334 0.0652781 0.0672923
0.173053 0.054612 0.0545663
0.377325 0.0356909 0.0155184
0.619425 0.00741588 0.00741588
0.796109 0 0
0.866606 0 0
0.904875 0 0
0.932647 0 0
0.0121309 0.157244 0.0663005
0.024033 0.158694 0.0587472
0.161181 0.151843 0.0436561
0.394324 0.127382 0.00457771
0.657115 0.076524 0
0.856382 0.0420386 0
0.944381 0.0453956 0
0.977295 0.0555276 0
0.981353 0.072221 0
0 0.332998 0.051545
0 0.340124 0.0472267
0.0679637 0.347234 0.0234989
0.391577 0.357336 0
0.686473 0.328603 0
0.895994 0.28957 0
0.996948 0.277821 0
1 0.293736 0
1 0.310689 0
0 0.547173 0.0356603
0 0.570932 0.0307317
0 0.599847 0.0225376
0.317174 0.631235 0.00323491
0.679347 0.613947 0
0.898756 0.588434 0
1 0.563577 0
1 0.566369 0
1 0.577111 0
0 0.723278 0.0432898
0 0.744625 0.0382391
0 0.781933 0.0272068
0.192752 0.821363 0
0.601816 0.810056 0
0.831235 0.782223 0
0.952651 0.758419 0
0.960037 0.756603 0
0.959548 0.759716 0
0 0.799374 0.0466468
0 0.817395 0.04065
0 0.85214 0.0272679
0.142092 0.88867 0
0.542885 0.911421 0
0.787778 0.905959 0
0.929168 0.887129 0
0.951339 0.880415 0
0.951247 0.879347 0
0 0.830457 0.0458228
0 0.83563 0.0416724
0 0.860639 0.0295262
0.127382 0.889372 0
0.545357 0.912612 0
0.77525 0.92163 0
0.904753 0.920317 0
0.95404 0.913619 0
0.955367 0.913558 0.0328527
0 0.828382 0.145129
0 0.830259 0.111757
0 0.860334 0.0347143
0.163973 0.882307 0
0.554589 0.908995 0
0.777951 0.921874 0
0.893172 0.923064 0.0109255
0.953796 0.916823 0.079469
0.957183 0.915846 0.135515
0.0358892 0.0373541 0.161944
0.0728923 0.0314641 0.152483
0.171496 0.0332341 0.146136
0.367178 0.0172732 0.129854
0.575891 0.00784314 0.0985428
0.743557 0.00047303 0.0814374
0.813519 0 0.0751812
0.854093 0 0.0734874
0.881743 0 0.0740215
0.0291752 0.0578622 0.172656
0.0466468 0.0593881 0.172045
0.177386 0.0492866 0.160037
0.400153 0.0280766 0.135866
0.6327 0.00534066 0.0952926
0.816678 0 0.0708324
0.888838 0 0.0654459
0.923506 0 0.0723583
0.947616 0 0.0842908
0.009308 0.161105 0.173922
0.0217441 0.157839 0.169131
0.144091 0.148363 0.156603
0.391806 0.120516 0.128954
0.665141 0.0590677 0.0767224
0.871519 0.0276799 0.0416114
0.963409 0.026276 0.030045
0.977493 0.0352178 0.0561074
0.979339 0.0416876 0.0813611
0 0.343038 0.154009
0 0.348241 0.134783
0.0211948 0.352819 0.113741
0.369299 0.357397 0.0932479
0.675074 0.325338 0.0374456
0.900603 0.28217 0
0.992782 0.26096 0
1 0.273686 0
1 0.298421 0.0487373
0 0.568368 0.110658
0 0.585733 0.101259
0 0.600351 0.0852064
0.258747 0.631205 0.0358129
0.663417 0.614633 0.0077821
0.897826 0.579095 0
1 0.557733 0
1 0.560006 0
1 0.570916 0.0185245
0 0.740001 0.123033
0 0.756893 0.112261
0 0.785199 0.0927443
0.143359 0.821805 0.0281682
0.565744 0.812802 0
0.830518 0.779171 0
0.952499 0.754009 0
0.960616 0.749508 0
0.959854 0.751675 0
0 0.8103 0.136294
0 0.824277 0.112932
0 0.849287 0.0931258
0.0775158 0.883528 0.027512
0.431144 0.911238 0
0.772549 0.903258 0
0.929458 0.883268 0
0.951125 0.875044 0
0.951553 0.873335 0.0121462
0 0.836851 0.252354
0 0.838117 0.209934
0 0.858289 0.135561
0.0306554 0.883848 0.0569162
0.465354 0.906844 0
0.755993 0.917952 0
0.898161 0.915053 0
0.954589 0.907668 0.0200961
0.956069 0.907668 0.139879
0 0.833494 0.308232
0 0.8336 0.284443
0 0.858381 0.250095
0.0106355 0.88011 0.15491
0.49659 0.898283 0.0468757
0.760601 0.91577 0.0603799
0.889296 0.918456 0.140124
0.953429 0.918105 0.241215
0.960311 0.919799 0.302174
0.0328222 0.0360876 0.317845
0.0522316 0.0306096 0.326253
0.191043 0.0224155 0.321004
0.387152 0.0130922 0.315465
0.595666 0.00387579 0.279927
0.763592 0 0.265751
0.830442 0 0.248341
0.868269 0 0.236805
0.893538 0 0.235874
0.0263218 0.0524147 0.349126
0.043946 0.0468147 0.369894
0.189837 0.0300603 0.377386
0.408682 0.0115053 0.345083
0.648737 0.000991836 0.303197
0.832212 0 0.282338
0.902449 0 0.259434
0.93547 0 0.257389
0.957626 0 0.261952
0.0105592 0.133211 0.370077
0.0234989 0.122179 0.38114
0.125933 0.114122 0.400946
0.396628 0.0898146 0.367498
0.673548 0.0512703 0.324926
0.881407 0.0223239 0.30042
0.970169 0.0256504 0.276143
0.978119 0.0366522 0.279118
0.981613 0.0489967 0.288548
0 0.356664 0.391577
0 0.357046 0.39852
0.0180819 0.356924 0.394919
0.337514 0.354543 0.364996
0.669108 0.323339 0.329
0.904036 0.274968 0.30692
0.992615 0.245167 0.29453
1 0.260197 0.305684
1 0.294606 0.326955
0 0.597757 0.381018
0 0.607935 0.356985
0 0.618814 0.357519
0.155886 0.634684 0.309834
0.635599 0.616327 0.28748
0.883238 0.583612 0.271748
0.992126 0.558709 0.26067
0.997894 0.55996 0.276249
0.995193 0.571008 0.308309
0 0.760739 0.379675
0 0.774701 0.342931
0 0.79968 0.30341
0.0241245 0.824414 0.232227
0.516411 0.812222 0.152117
0.811399 0.78497 0.162951
0.946654 0.762005 0.170123
0.954696 0.755703 0.220798
0.953628 0.755749 0.293751
0 0.825757 0.409277
0 0.836469 0.371313
0 0.857847 0.3028
0.00062562 0.883268 0.207019
0.337621 0.904326 0.134218
0.743099 0.907881 0.143343
0.930495 0.899565 0.173312
0.955139 0.894041 0.221897
0.956741 0.891783 0.34818
0 0.846235 0.464042
0 0.84564 0.444038
0 0.865171 0.413108
0 0.887831 0.306401
0.323384 0.904112 0.176684
0.712398 0.919982 0.169131
0.895399 0.933883 0.242023
0.963638 0.934249 0.35787
0.965499 0.93611 0.4365
0 0.843549 0.487724
0 0.843656 0.469535
0 0.863371 0.450446
0 0.882567 0.393484
0.415717 0.892409 0.320424
0.725429 0.919387 0.33492
0.889967 0.93846 0.396262
0.95787 0.942443 0.463539
0.96939 0.946715 0.525597
0.0298466 0.0354314 0.450645
0.0470893 0.0294652 0.482551
0.189914 0.0194705 0.501381
0.391165 0.00975052 0.497108
0.59585 0.000549325 0.47805
0.768383 0 0.448417
0.838071 0 0.429023
0.876387 0 0.420951
0.900893 0 0.411078
0.022797 0.051133 0.513466
0.0401465 0.0452735 0.544564
0.172335 0.0290227 0.56733
0.411353 0.00759899 0.563333
0.644846 0 0.52665
0.830793 0 0.500923
0.905989 0 0.466239
0.940536 0 0.458213
0.965103 0 0.457496
0.0150301 0.0859236 0.571893
0.026215 0.0804761 0.59559
0.0653391 0.100084 0.615442
0.392355 0.0804608 0.610834
0.66511 0.0558938 0.567422
0.879103 0.0271458 0.538125
0.972015 0.0285801 0.512657
0.982025 0.0462654 0.503624
0.985046 0.0570382 0.507622
0 0.334874 0.620447
0 0.322469 0.637705
0.0178225 0.31986 0.650095
0.317815 0.314748 0.641093
0.661601 0.284474 0.598672
0.905516 0.232624 0.579324
0.997223 0.205997 0.562173
1 0.222232 0.560357
1 0.28452 0.563958
0 0.60528 0.641382
0 0.609369 0.648981
0 0.616342 0.657191
0.0683604 0.633021 0.642039
0.592859 0.611765 0.596384
0.861967 0.576608 0.567636
0.981048 0.548363 0.552544
0.988449 0.550774 0.554131
0.986297 0.564614 0.564218
0 0.769802 0.6542
0 0.782513 0.653925
0 0.802426 0.644785
0.0128023 0.827497 0.614542
0.430762 0.8121 0.555398
0.786419 0.788083 0.534661
0.936553 0.76553 0.526635
0.950851 0.758923 0.531029
0.950484 0.759854 0.550164
0 0.834562 0.664546
0 0.84538 0.652918
0 0.864042 0.628946
0 0.889281 0.580331
0.248066 0.910704 0.515694
0.708492 0.925444 0.491737
0.930312 0.924971 0.525979
0.963973 0.915434 0.560449
0.963134 0.907958 0.5953
0 0.854994 0.698405
0 0.854276 0.683925
0 0.870787 0.656611
0 0.89218 0.60502
0.220218 0.911192 0.535515
0.665797 0.93196 0.511162
0.891371 0.957076 0.558541
0.972503 0.95964 0.608301
0.974609 0.960388 0.656382
0 0.854231 0.70837
0 0.853651 0.687755
0 0.86978 0.665507
0 0.88893 0.631189
0.322805 0.901061 0.579065
0.681041 0.929091 0.56936
0.881926 0.956252 0.612497
0.963027 0.965347 0.669429
0.977234 0.967636 0.715038
0.027039 0.0348821 0.569253
0.0442969 0.0288548 0.60412
0.198444 0.0166781 0.629816
0.403388 0.00680552 0.637125
0.601236 0 0.620172
0.767468 0 0.601434
0.8365 0 0.58529
0.873716 0 0.575174
0.898909 0 0.564172
0.0202945 0.0503548 0.635691
0.0371252 0.0445106 0.674754
0.151217 0.0288243 0.709758
0.408835 0.00511177 0.71957
0.641245 0 0.691432
0.822538 0 0.658579
0.897749 0 0.635523
0.937102 0 0.628519
0.964569 0 0.614786
0.0125887 0.0850385 0.707195
0.0229038 0.0794995 0.74377
0.0558022 0.0972 0.775143
0.37499 0.0818036 0.78262
0.659266 0.0381018 0.757473
0.867857 0 0.730022
0.968109 0 0.704067
0.985016 0.0479744 0.691371
0.987701 0.0576028 0.688411
0 0.266819 0.774975
0 0.244755 0.805722
0.0227665 0.233951 0.828504
0.290562 0.238102 0.831891
0.65893 0.21735 0.818555
0.898741 0.196078 0.790951
0.995651 0.179614 0.773556
1 0.184009 0.764492
1 0.221256 0.754528
0 0.587686 0.823758
0 0.586801 0.843671
0 0.585992 0.86128
0.0578927 0.606348 0.863951
0.572534 0.586282 0.833341
0.855238 0.55256 0.800198
0.979965 0.522972 0.784024
0.986313 0.529671 0.775998
0.982589 0.550607 0.769863
0 0.761456 0.834348
0 0.771099 0.84358
0 0.788785 0.852506
0.00920119 0.814725 0.840833
0.381476 0.803632 0.796109
0.764172 0.780011 0.769223
0.929549 0.75758 0.75552
0.949828 0.750668 0.749767
0.949798 0.755947 0.753796
0 0.830762 0.840696
0 0.842161 0.838346
0 0.86186 0.83653
0 0.887755 0.814557
0.192401 0.912093 0.768048
0.683879 0.935729 0.754604
0.924544 0.931624 0.767941
0.968536 0.91873 0.773495
0.967346 0.912261 0.783688
0 0.856245 0.849546
0 0.855085 0.845701
0 0.87013 0.835859
0 0.892561 0.808011
0.149233 0.91342 0.758785
0.638209 0.93901 0.743648
0.883955 0.967819 0.765972
0.978729 0.974548 0.796536
0.980804 0.974273 0.822019
0 0.855924 0.854841
0 0.856062 0.845365
0 0.870817 0.833829
0 0.889418 0.811536
0.23299 0.904616 0.764736
0.654719 0.936172 0.758938
0.873823 0.965911 0.784207
0.966598 0.978912 0.825498
0.982712 0.980591 0.856443
0.0252232 0.0346227 0.64094
0.0424353 0.0285344 0.679988
0.183627 0.0158846 0.720882
0.402411 0.00503548 0.742321
0.60174 0 0.726009
0.763409 0 0.703792
0.83151 0 0.687892
0.869307 0 0.677577
0.89929 0 0.674662
0.018967 0.0500954 0.71603
0.0350958 0.0440223 0.757076
0.0923323 0.0655528 0.793606
0.390494 0.0409094 0.813458
0.629648 0 0.798932
0.806516 0 0.772534
0.886381 0 0.750729
0.930907 0 0.741466
0.965347 0 0.739055
0.00823987 0.0997024 0.798672
0.0161898 0.104433 0.837736
0.0482338 0.127428 0.878828
0.341848 0.126131 0.894575
0.643336 0.0738994 0.882719
0.847166 0.0307622 0.852705
0.951293 0.0375982 0.828992
0.987839 0.0574197 0.815991
0.990707 0.0678721 0.810498
0 0.257084 0.872602
0 0.247028 0.910567
0.0196231 0.249119 0.946822
0.24033 0.256474 0.953399
0.646097 0.228229 0.947906
0.887251 0.198993 0.930205
0.996414 0.184298 0.915114
1 0.186847 0.901335
1 0.192401 0.887816
0 0.563149 0.912428
0 0.555627 0.943587
0 0.543587 0.97789
0.0597848 0.550805 0.988861
0.56022 0.532616 0.970855
0.859815 0.492332 0.951186
0.989181 0.462913 0.936278
0.991699 0.490425 0.924407
0.982788 0.531701 0.90837
0 0.748837 0.914473
0 0.75462 0.936233
0 0.767407 0.963333
0.0110628 0.792401 0.968902
0.32781 0.785199 0.944991
0.750881 0.759304 0.919814
0.927642 0.737682 0.905058
0.948425 0.735821 0.897322
0.949371 0.747463 0.890425
0 0.822858 0.911467
0 0.834089 0.921935
0 0.85687 0.938628
0 0.884916 0.941283
0.150271 0.908415 0.925277
0.672023 0.928679 0.921706
0.913176 0.920104 0.916564
0.969467 0.911025 0.909651
0.969406 0.909743 0.908125
0 0.856153 0.919142
0 0.855085 0.922286
0 0.868559 0.926329
0 0.890166 0.921111
0.0649119 0.915846 0.902281
0.630976 0.942809 0.897597
0.878904 0.973144 0.907774
0.979721 0.981353 0.919646
0.983856 0.978714 0.928008
0 0.856031 0.918273
0 0.85594 0.914794
0 0.869902 0.913359
0 0.887678 0.90602
0.208347 0.904433 0.883085
0.648615 0.939467 0.889952
0.872847 0.971695 0.907744
0.967178 0.983886 0.926879
0.985367 0.98497 0.944579
0.0241703 0.0341039 0.684962
0.0415045 0.0282292 0.724559
0.152956 0.0165255 0.76376
0.394522 0.00469978 0.786572
0.600381 0 0.78468
0.760586 0 0.770352
0.829038 0 0.756085
0.868162 0 0.748562
0.89955 0 0.743557
0.0180209 0.0496223 0.761074
0.0342565 0.0437324 0.799725
0.0868849 0.0650034 0.831312
0.362585 0.0443427 0.850584
0.614847 0.0169528 0.847517
0.793576 0 0.831235
0.871046 0.0126192 0.814176
0.917922 0.028397 0.805066
0.955337 0.0293431 0.801465
0.00819409 0.0961624 0.833997
0.0144198 0.109987 0.873045
0.0474098 0.126543 0.914458
0.316793 0.128496 0.93138
0.626474 0.099443 0.931044
0.833402 0.0870375 0.916197
0.936965 0.0849622 0.897719
0.989227 0.0930037 0.887343
0.996231 0.1019 0.881743
0 0.255848 0.900221
0 0.245579 0.935561
0.0192264 0.248905 0.967849
0.218936 0.256062 0.972824
0.632227 0.241932 0.970993
0.874708 0.217334 0.959548
0.998383 0.200992 0.949035
1 0.201373 0.946471
1 0.204456 0.946868
0 0.534463 0.949157
0 0.51577 0.97377
0 0.511894 0.982971
0.0599069 0.542245 0.994385
0.555657 0.534005 0.991379
0.850752 0.496605 0.97319
0.986145 0.474662 0.959915
0.988296 0.499916 0.949264
0.980529 0.535851 0.938979
0 0.733684 0.959884
0 0.737835 0.964782
0 0.760189 0.969665
0.0115206 0.789471 0.972915
0.348013 0.78114 0.95314
0.745922 0.757778 0.944015
0.92726 0.736065 0.932998
0.947799 0.736675 0.928023
0.94934 0.748837 0.927199
0 0.814542 0.952331
0 0.827176 0.948806
0 0.853559 0.951095
0 0.880629 0.952163
0.119234 0.904326 0.941619
0.673136 0.920119 0.951995
0.905425 0.911757 0.963775
0.968719 0.905013 0.96173
0.969619 0.906737 0.961089
0 0.855985 0.946792
0 0.856031 0.946807
0 0.869749 0.950912
0 0.888792 0.951263
0.0765087 0.912795 0.942107
0.636225 0.942794 0.952316
0.87892 0.975067 0.975464
0.975753 0.978576 0.977661
0.984421 0.976532 0.975814
0 0.856962 0.946929
0 0.856535 0.946456
0 0.870558 0.950713
0.019028 0.883207 0.945418
0.232654 0.901793 0.929442
0.654597 0.9393 0.940337
0.87602 0.973342 0.963729
0.967773 0.985107 0.974472
0.986511 0.986511 0.981033
0.0237278 0.0337377 0.714214
0.0411078 0.0278325 0.752239
0.147372 0.0163577 0.789456
0.372457 0.00526436 0.808957
0.591424 0 0.806546
0.74966 0 0.791791
0.816419 0 0.778378
0.858427 0 0.777249
0.892836 0 0.775311
0.0176394 0.0492409 0.786206
0.0339055 0.0434577 0.822812
0.0845197 0.0628672 0.849653
0.340215 0.0464485 0.867308
0.595575 0.0252689 0.864393
0.77673 0 0.852506
0.857664 0.0201572 0.839994
0.906859 0.0424811 0.835691
0.947448 0.0479286 0.835142
0.00466926 0.11368 0.855009
0.0145724 0.107286 0.888182
0.047425 0.1252 0.925872
0.302647 0.127337 0.940398
0.609766 0.0986648 0.940841
0.817487 0.0847639 0.930632
0.921324 0.0915236 0.92195
0.980224 0.107836 0.920012
0.99884 0.115068 0.917327
0 0.254185 0.920455
0 0.244236 0.949187
0.0194858 0.24654 0.96701
0.23386 0.255344 0.973999
0.621637 0.240772 0.972549
0.858427 0.213001 0.960708
0.986023 0.200946 0.952178
1 0.210101 0.951812
1 0.215473 0.952422
0 0.497414 0.973236
0 0.470069 0.974762
0 0.511284 0.982345
0.068101 0.545541 0.993332
0.555016 0.54139 0.991348
0.837674 0.512367 0.97171
0.980575 0.497841 0.955962
0.982223 0.521996 0.946761
0.975006 0.556542 0.937819
0 0.722622 0.967529
0 0.734813 0.965011
0 0.757076 0.969909
0.0124056 0.78584 0.973358
0.382376 0.777478 0.950927
0.745312 0.758587 0.945541
0.925841 0.739803 0.934813
0.947723 0.742702 0.931365
0.949294 0.758144 0.931075
0 0.813458 0.952499
0 0.824765 0.949203
0 0.848814 0.952102
0 0.874266 0.952987
0.151202 0.895659 0.940963
0.683604 0.915251 0.951934
0.902892 0.909987 0.966217
0.968795 0.90573 0.965255
0.970687 0.911147 0.966018
0 0.855787 0.9467
0 0.855787 0.9467
0 0.868803 0.950759
0 0.8869 0.951324
0.179995 0.905486 0.938186
0.651667 0.941741 0.953567
0.882658 0.97319 0.977874
0.97377 0.976211 0.983841
0.984497 0.976104 0.984039
0 0.857267 0.947326
0 0.857267 0.947326
0 0.869383 0.950378
0.122438 0.875776 0.94136
0.275029 0.898405 0.935164
0.666575 0.938125 0.952087
0.882383 0.973449 0.977722
0.969177 0.985245 0.985245
0.987396 0.987396 0.987396
