luts/lumix_color_lab_A/desert_33.cube
TITLE "Generated by Resolve"
LUT_3D_SIZE 33
0 0 0
0 0 0
0 0 0
0 0 0
0 0 0
0 0 0
0 0 0
0.00984207 0.00106813 0.00192264
0.113985 0.0154879 0.0261692
0.174777 0.0215 0.0517128
0.241535 0.0096437 0.0777905
0.30985 0 0.0937667
0.391928 0 0.107485
0.485679 0 0.123842
0.571145 0 0.139467
0.649058 0 0.153948
0.722332 0 0.168414
0.786603 0 0.183215
0.84123 0 0.198352
0.884215 0.0577249 0.213123
0.918212 0.157107 0.227192
0.945785 0.207813 0.240726
0.968612 0.247318 0.253834
0.988235 0.28188 0.266972
1 0.312459 0.27982
1 0.339574 0.292165
1 0.364813 0.304067
1 0.388159 0.315694
1 0.410483 0.32726
1 0.432364 0.339055
1 0.455375 0.351843
1 0.482307 0.367254
1 0.517617 0.388968
0 0 0
0 0 0
0 0 0
0 0 0
0 0 0
0 0 0
0 0 0
0.00531014 0.000442512 0.00077821
0.110979 0.0146487 0.0243229
0.170687 0.021088 0.0497597
0.236744 0.0106813 0.0761273
0.305287 0 0.09308
0.387686 0 0.106691
0.479652 0 0.122576
0.564157 0 0.137942
0.642115 0 0.152651
0.716228 0 0.167147
0.781826 0 0.181918
0.837339 0 0.197147
0.881422 0.0552377 0.211994
0.916335 0.1552 0.226307
0.944472 0.20679 0.24007
0.967788 0.24686 0.253376
0.987488 0.281239 0.266499
1 0.31162 0.279255
1 0.338521 0.291386
1 0.363317 0.303212
1 0.386419 0.314702
1 0.408637 0.326223
1 0.43035 0.337896
1 0.453437 0.350744
1 0.480751 0.366323
1 0.516686 0.388296
0 0 0
0 0 0
0 0 0
0 0 0
0 0 0
0 0 0
0 0 0
0.00209049 0.00015259 0.000259403
0.108019 0.0144045 0.0223087
0.167361 0.0211185 0.0487984
0.233158 0.0122072 0.0746929
0.301839 0 0.0925002
0.38616 0 0.106538
0.476677 0 0.122255
0.55996 0 0.137255
0.637095 0 0.151675
0.711376 0 0.166049
0.777752 0 0.180865
0.833844 0 0.196048
0.878645 0.0594339 0.211002
0.91429 0.15697 0.225406
0.943099 0.208545 0.239353
0.966705 0.24799 0.252811
0.986587 0.282155 0.265995
1 0.311849 0.278676
1 0.338277 0.290684
1 0.362737 0.302373
1 0.385489 0.31368
1 0.407248 0.325032
1 0.42858 0.336614
1 0.451652 0.349386
1 0.479042 0.365057
1 0.515602 0.38732
0 0 0
0 0 0
0 0 0
0 0 0
0 0 0
0 0 0
0 0 0
0 0 0
0.106004 0.0142824 0.0213626
0.164782 0.0211643 0.047425
0.230564 0.0126497 0.0741894
0.299336 0 0.0920577
0.386191 0 0.106554
0.474876 0 0.121813
0.556848 0 0.136629
0.632822 0 0.150912
0.706249 0 0.165011
0.773739 0 0.179751
0.830472 0 0.194949
0.875944 0.0746014 0.209995
0.912261 0.165621 0.224582
0.941695 0.214176 0.238743
0.965698 0.252644 0.252354
0.985672 0.285603 0.265553
0.999908 0.314595 0.278202
1 0.340261 0.290074
1 0.363943 0.301625
1 0.38584 0.312718
1 0.406958 0.323903
1 0.427924 0.335286
1 0.450538 0.348013
1 0.477852 0.363714
1 0.514488 0.386007
0 0 0
0 0 0
0 0 0
0 0 0
0 0 0
0 0 0
0 0 0
0.00173953 0.000442512 0.000579843
0.102052 0.0134127 0.020676
0.160494 0.0214084 0.0460822
0.225116 0.0140841 0.0719005
0.294972 0 0.0914015
0.382879 0 0.106004
0.469322 0 0.120821
0.549798 0 0.135454
0.624369 0 0.149218
0.697932 0 0.163134
0.766644 0 0.177569
0.824781 0.00270085 0.192966
0.871992 0.112139 0.208515
0.909636 0.178836 0.22356
0.939803 0.223285 0.237995
0.964233 0.259831 0.25182
0.984283 0.291112 0.265003
0.999176 0.318853 0.277592
1 0.34345 0.289296
1 0.366186 0.300694
1 0.387274 0.31162
1 0.407691 0.322698
1 0.42826 0.334035
1 0.450675 0.346777
1 0.477974 0.362615
1 0.515099 0.385458
0 0 0
0 0 0
0 0 0
0 0 0
0 0 0
0 0 0
0 0 0
0.0560616 0.00471504 0.00802625
0.118379 0.0165103 0.0283513
0.163424 0.0213779 0.0467384
0.225376 0.0138247 0.0719921
0.299382 0 0.0921492
0.386175 0 0.106386
0.468803 0 0.120836
0.546349 0 0.134737
0.618784 0 0.148165
0.69221 0 0.161486
0.760174 0.00732433 0.175647
0.818769 0.0273289 0.191043
0.866453 0.142412 0.20647
0.904723 0.193164 0.221637
0.93492 0.23238 0.235828
0.959289 0.264973 0.249302
0.979294 0.293721 0.262089
0.995254 0.319326 0.274327
1 0.342168 0.285603
1 0.363302 0.296544
1 0.383078 0.307088
1 0.402869 0.317968
1 0.422889 0.32929
1 0.447288 0.343191
1 0.474784 0.359304
1 0.503319 0.376684
0 0 0
0 0 0
0 0 0
0 0 0
0 0.000244144 0
0 0.00209049 9.15541e-05
0 0.00604257 3.0518e-05
0.0718853 0.0101167 0.012314
0.133486 0.0201419 0.0349432
0.189197 0.0201419 0.0566873
0.261112 0.00430304 0.0840162
0.338476 0 0.0986954
0.42034 0 0.112352
0.502358 0 0.12668
0.582025 0 0.140719
0.658 0.00643931 0.153796
0.729473 0.099321 0.167529
0.789914 0.142947 0.182132
0.841245 0.159396 0.197559
0.88275 0.198505 0.212573
0.91632 0.233036 0.2271
0.94345 0.263478 0.240818
0.966217 0.29163 0.254231
0.985656 0.31809 0.267536
1 0.343282 0.280522
1 0.366155 0.292882
1 0.387945 0.304936
1 0.408499 0.316579
1 0.428519 0.328252
1 0.448203 0.340002
1 0.469154 0.352712
1 0.493751 0.367971
1 0.526253 0.389685
0 0.0688945 0
0 0.0779736 0
0 0.0823377 0
0 0.0827192 0
0 0.0838026 0
0 0.0857099 0
0 0.0908217 0
0.0755474 0.0940261 0.00669871
0.146075 0.102342 0.0418402
0.212848 0.114641 0.0699931
0.286503 0.126223 0.0889143
0.364584 0.139025 0.100908
0.445914 0.155032 0.114107
0.52665 0.174441 0.127855
0.605295 0.19881 0.141466
0.677897 0.22359 0.154498
0.742092 0.247013 0.168124
0.796994 0.265949 0.18291
0.844572 0.281224 0.198566
0.88365 0.291676 0.213809
0.915679 0.29482 0.228092
0.942214 0.297139 0.241382
0.964889 0.30808 0.254337
0.984451 0.332341 0.267765
0.999908 0.355505 0.280812
1 0.376684 0.293141
1 0.39704 0.305074
1 0.416342 0.31667
1 0.435264 0.328161
1 0.453819 0.339818
1 0.474128 0.352529
1 0.498161 0.368093
1 0.530678 0.390463
0 0.140887 0
0 0.146914 0
0 0.150408 0
0 0.151568 0
0 0.154147 0
0 0.159442 0
0 0.16347 0
0.0672618 0.165225 1.5259e-05
0.162646 0.167559 0.000991836
0.229419 0.179751 0.0309148
0.302052 0.198062 0.0836652
0.381003 0.216678 0.102602
0.462074 0.23505 0.115755
0.541299 0.25481 0.129061
0.616526 0.276081 0.141924
0.683909 0.297093 0.15407
0.753689 0.322896 0.17052
0.810285 0.343114 0.18761
0.855222 0.356237 0.204196
0.88925 0.362676 0.218692
0.916381 0.365698 0.231601
0.939696 0.368002 0.243824
0.963912 0.374594 0.258274
0.983444 0.375189 0.270741
0.998962 0.374548 0.281788
1 0.389563 0.29366
1 0.408286 0.305486
1 0.426062 0.316915
1 0.443412 0.328191
1 0.460594 0.339559
1 0.479484 0.352026
1 0.502708 0.36788
1 0.534768 0.390585
0 0.282841 0
0 0.282094 0
0 0.28159 0
0 0.281147 0
0 0.280766 0
0 0.27895 0
0.000869764 0.275303 0
0.1196 0.270604 0
0.205722 0.264317 0
0.275166 0.268223 0
0.354559 0.284382 0.00262455
0.438392 0.304265 0.0247654
0.519875 0.323873 0.0971389
0.598352 0.344259 0.132006
0.670512 0.365209 0.151293
0.729381 0.383078 0.164477
0.780545 0.399283 0.179187
0.825025 0.412116 0.194858
0.864179 0.421286 0.211017
0.896529 0.426352 0.226169
0.923934 0.429221 0.240436
0.946639 0.430854 0.253574
0.966598 0.433234 0.26627
0.983963 0.436011 0.278477
0.998184 0.438834 0.290089
1 0.429358 0.29482
1 0.432502 0.307103
1 0.437263 0.317403
1 0.453086 0.328496
1 0.46891 0.339651
1 0.486824 0.352209
1 0.509743 0.368963
1 0.541146 0.391913
0 0.343374 0
0 0.362448 0
0 0.371878 0
0 0.373419 0
0 0.371389 0
0 0.36376 0
0 0.356115 0
0.145541 0.349371 0
0.233616 0.343496 0
0.29836 0.338399 0
0.361654 0.33901 0
0.437095 0.352132 0
0.517708 0.370977 0
0.597925 0.393011 0.03682
0.672816 0.416449 0.093904
0.733974 0.437339 0.135744
0.784955 0.455116 0.168215
0.829374 0.470253 0.198764
0.866224 0.477836 0.217411
0.897017 0.480766 0.232547
0.923354 0.481453 0.246784
0.945602 0.481209 0.259937
0.965148 0.481575 0.272801
0.981872 0.482414 0.285405
0.996414 0.483833 0.297063
1 0.485908 0.308568
1 0.488075 0.319173
1 0.489799 0.329229
1 0.481605 0.333822
1 0.477012 0.338964
1 0.495262 0.35285
1 0.518166 0.370581
1 0.547875 0.393057
0 0.404013 0
0 0.426749 0
0 0.439048 0
0 0.441749 0
0 0.439826 0
0 0.433371 0
0 0.422492 0
0.160891 0.414679 0
0.249241 0.408759 0
0.317189 0.403571 0
0.37644 0.398886 0
0.441718 0.40351 0
0.517525 0.418952 0
0.598077 0.441672 0
0.669657 0.463447 0
0.727962 0.481773 0.0111391
0.776883 0.497032 0.0643931
0.820218 0.509209 0.139437
0.859403 0.51902 0.188754
0.893492 0.526986 0.231327
0.920638 0.530327 0.257908
0.942611 0.528954 0.27303
0.962066 0.52845 0.287724
0.978622 0.528435 0.301228
0.992477 0.528176 0.312932
1 0.528435 0.323537
1 0.529259 0.333486
1 0.530602 0.342855
1 0.53254 0.352041
1 0.534234 0.361013
1 0.532769 0.3691
1 0.533288 0.376761
1 0.55697 0.39556
0 0.456794 0
0 0.482597 0
0 0.497383 0
0 0.501564 0
0 0.500359 0
0 0.496284 0
0.00900282 0.486595 0
0.180713 0.479316 0
0.268177 0.474052 0
0.339071 0.470314 0
0.400427 0.466163 0
0.458473 0.463279 0
0.524254 0.471122 0
0.593286 0.486427 0
0.660014 0.505638 0
0.718273 0.524132 0
0.772808 0.54316 0
0.819104 0.556588 0.0321813
0.858259 0.564569 0.153964
0.892073 0.56994 0.212833
0.91989 0.574548 0.258396
0.941772 0.579141 0.294026
0.959548 0.578302 0.311986
0.974899 0.575555 0.323186
0.987762 0.572625 0.332708
0.997803 0.567117 0.338491
1 0.560693 0.342046
1 0.563485 0.353323
1 0.567407 0.364721
1 0.568704 0.372885
1 0.570733 0.381338
1 0.573907 0.391028
1 0.57937 0.4038
0 0.573663 0
0 0.580316 0
0 0.580865 0
0 0.580194 0
0 0.578836 0
0 0.576333 0
0 0.572198 0
0.219196 0.562448 0
0.301198 0.554299 0
0.371374 0.548241 0
0.43238 0.542062 0
0.48748 0.535805 0
0.54107 0.531823 0
0.607416 0.545083 0
0.661799 0.556527 0
0.714092 0.571344 0
0.761563 0.585077 0
0.805188 0.595651 0
0.845136 0.601984 0.0629587
0.880186 0.604639 0.175143
0.909514 0.60589 0.231525
0.933745 0.608164 0.276402
0.953414 0.61326 0.314931
0.968856 0.617609 0.342824
0.981964 0.615671 0.354543
0.993347 0.613077 0.363195
0.999863 0.611185 0.371252
1 0.610178 0.379141
1 0.609659 0.386481
1 0.608515 0.392599
1 0.605524 0.396628
1 0.608911 0.405814
1 0.614557 0.4168
0 0.600946 0
0 0.625177 0
0 0.639979 0
0 0.644297 0
0 0.64329 0
0 0.638926 0
0.00633249 0.633646 0
0.197818 0.622599 0
0.29427 0.611154 0
0.368338 0.604501 0
0.434104 0.599344 0
0.493385 0.594965 0
0.547784 0.590372 0
0.600549 0.588785 0
0.654246 0.599557 0
0.7037 0.614084 0
0.74725 0.626398 0
0.790005 0.635798 0
0.830457 0.640467 0
0.867079 0.640787 0.112978
0.898329 0.639292 0.198291
0.924743 0.638621 0.253178
0.946334 0.640345 0.297749
0.963165 0.644633 0.335576
0.975937 0.650782 0.367117
0.986648 0.651438 0.383246
0.996292 0.647334 0.389258
0.999985 0.644297 0.395392
1 0.641779 0.401144
1 0.640269 0.407141
1 0.639536 0.413306
1 0.640085 0.420127
1 0.644877 0.430381
0 0.648737 0
0 0.668559 0
0 0.681025 0
0 0.684749 0
0 0.684077 0
0 0.680613 0
0.0521096 0.676432 0
0.148699 0.671855 0
0.273136 0.662196 0
0.353491 0.654521 0
0.423835 0.650385 0
0.486015 0.647242 0
0.542489 0.643977 0
0.595026 0.640848 0
0.644465 0.64094 0
0.689952 0.652049 0
0.729915 0.663432 0
0.769406 0.671992 0
0.809857 0.675608 0
0.849027 0.674891 0
0.884337 0.672435 0.147326
0.913207 0.668605 0.221729
0.93611 0.665675 0.272358
0.955154 0.666667 0.315709
0.969757 0.670222 0.352132
0.981094 0.675395 0.382055
0.989837 0.679042 0.403738
0.998077 0.676539 0.411917
1 0.672343 0.416068
1 0.668711 0.420279
1 0.665919 0.424643
1 0.667948 0.433204
1 0.671778 0.442939
0 0.695064 0
0 0.704997 0
0 0.712566 0
0 0.715419 0
0 0.715984 0
0.031693 0.714824 0
0.123873 0.713298 0
0.180774 0.71136 0
0.232624 0.708888 0
0.33051 0.702937 0
0.401862 0.697215 0
0.467704 0.693828 0
0.524956 0.690501 0
0.577493 0.687114 0
0.626215 0.683497 0
0.669993 0.683543 0
0.708415 0.693172 0
0.750637 0.706722 0
0.792264 0.713436 0
0.836683 0.716991 0
0.875151 0.713817 0.0749523
0.905852 0.707317 0.194888
0.93077 0.701625 0.258015
0.9505 0.698634 0.306157
0.965682 0.698283 0.345312
0.977493 0.699657 0.376654
0.986068 0.700587 0.400122
0.992203 0.699504 0.416373
0.997955 0.69836 0.428183
1 0.696513 0.434516
1 0.695567 0.441001
1 0.696361 0.448615
1 0.698589 0.45716
0 0.726818 0
0 0.736706 0
0 0.743374 0
0.0293584 0.745464 0
0.0911269 0.745052 0
0.134279 0.743038 0
0.168444 0.740764 0
0.203265 0.73843 0
0.237232 0.736233 0
0.270741 0.733913 0
0.355489 0.729091 0
0.425528 0.725093 0
0.48864 0.723568 0
0.544564 0.722087 0
0.595926 0.72047 0
0.644221 0.718654 0
0.686595 0.720913 0
0.723125 0.729244 0
0.763241 0.736339 0
0.806912 0.740322 0
0.851118 0.741588 0.00183108
0.88957 0.738231 0.144701
0.918273 0.730694 0.223087
0.940734 0.72462 0.281651
0.957992 0.721233 0.32723
0.971222 0.719936 0.362707
0.981353 0.719921 0.390814
0.989288 0.72134 0.414435
0.99559 0.723644 0.434607
0.99971 0.726329 0.451392
1 0.725017 0.459342
1 0.722087 0.463172
1 0.723659 0.471443
0.0560769 0.759014 0
0.118029 0.767163 0
0.152407 0.772473 0
0.169421 0.773938 0
0.184573 0.773342 0
0.199649 0.77145 0
0.218692 0.769436 0
0.240513 0.767422 0
0.265705 0.765606 0
0.292088 0.763775 0
0.320012 0.761822 0
0.368032 0.759167 0
0.437842 0.755734 0
0.503777 0.75436 0
0.559518 0.753201 0
0.61001 0.751614 0
0.657115 0.74966 0
0.697658 0.751873 0
0.735882 0.758022 0
0.77847 0.76173 0
0.823011 0.763409 0.0241703
0.86627 0.763668 0.130495
0.903807 0.760739 0.189334
0.930022 0.752728 0.253727
0.949447 0.746212 0.307179
0.964294 0.741894 0.347417
0.975616 0.739269 0.378729
0.984527 0.738125 0.404334
0.991501 0.73817 0.425803
0.997086 0.739178 0.444205
1 0.741848 0.461387
1 0.746426 0.477989
1 0.746166 0.484504
0.188739 0.788235 0
0.213062 0.794995 0
0.230503 0.799191 0
0.240528 0.800336 0
0.248554 0.799817 0
0.256764 0.798184 0
0.268528 0.796429 0
0.283253 0.794705 0
0.301503 0.79324 0
0.322316 0.791821 0
0.344793 0.790463 0
0.368795 0.789181 0
0.393606 0.787701 0
0.439628 0.785412 0
0.502113 0.782803 0
0.568444 0.781155 0
0.620401 0.779095 0
0.66746 0.776837 0
0.708705 0.77763 0
0.749905 0.780072 0
0.794858 0.781811 0.0282292
0.840299 0.783566 0.139971
0.880766 0.782635 0.183505
0.915053 0.778531 0.22092
0.938628 0.770428 0.279011
0.955932 0.764096 0.328115
0.969009 0.759136 0.364157
0.978882 0.755596 0.392172
0.986831 0.753811 0.416068
0.993225 0.75375 0.437064
0.998428 0.75613 0.457374
1 0.760082 0.476173
1 0.765103 0.493538
0.252186 0.811887 0
0.261326 0.814328 0
0.269368 0.816007 0
0.274662 0.81622 0
0.280324 0.815717 0
0.287572 0.814832 0
0.298253 0.813993 0
0.31165 0.813306 0
0.327947 0.812802 0
0.3458 0.812238 0
0.365789 0.811765 0
0.386862 0.811246 0
0.408957 0.810559 0
0.432532 0.809918 0
0.456489 0.809171 0
0.499962 0.808209 0
0.581842 0.808011 0
0.640894 0.807523 0
0.691127 0.806836 0
0.73669 0.80824 0.0720836
0.781506 0.809873 0.147311
0.824613 0.809812 0.188449
0.864378 0.808682 0.221546
0.900282 0.806958 0.250477
0.930816 0.80354 0.280659
0.94992 0.794125 0.322881
0.963745 0.786175 0.360006
0.973816 0.778439 0.386572
0.982254 0.773373 0.410163
0.989334 0.771466 0.432944
0.99501 0.771832 0.454002
0.999283 0.773953 0.473594
1 0.777661 0.492164
0.319478 0.836332 0
0.318151 0.835798 0
0.321035 0.836133 0
0.324392 0.836103 0
0.328496 0.835721 0
0.334371 0.835203 0
0.342275 0.834592 0
0.35198 0.83386 0
0.363958 0.833204 0
0.377554 0.832471 0
0.392996 0.831678 0
0.409812 0.8309 0
0.428138 0.830121 0
0.447929 0.829435 0
0.468803 0.828733 0
0.490639 0.828046 0
0.52079 0.827222 0
0.594171 0.826596 0
0.660639 0.825544 0.00706493
0.710704 0.824231 0.1066
0.756588 0.824247 0.157305
0.800458 0.824155 0.196109
0.840955 0.823117 0.228077
0.877577 0.821546 0.256397
0.910201 0.819745 0.281849
0.93785 0.816709 0.307439
0.955169 0.807767 0.342809
0.96759 0.799817 0.376471
0.977371 0.793896 0.404791
0.985061 0.789593 0.428275
0.991135 0.786877 0.448569
0.996139 0.786755 0.468528
0.999619 0.789319 0.488914
0.377264 0.855802 0
0.377981 0.856062 0
0.378332 0.855787 0
0.380575 0.855695 0
0.384176 0.855528 0
0.389197 0.855314 0
0.395789 0.85507 0
0.403479 0.854688 0
0.412787 0.854185 0
0.423285 0.85362 0
0.43505 0.852903 0
0.447776 0.852018 0
0.461616 0.850996 0
0.476692 0.849867 0
0.492699 0.848737 0
0.509773 0.847456 0
0.527443 0.846036 0
0.547402 0.844785 0
0.626062 0.843107 0.0456245
0.686946 0.840986 0.135714
0.735286 0.839277 0.174655
0.780591 0.83888 0.211353
0.822187 0.838148 0.243381
0.858885 0.836561 0.270054
0.891127 0.834394 0.292515
0.919478 0.832059 0.312261
0.944427 0.82945 0.331029
0.95967 0.820172 0.362142
0.970794 0.8121 0.391913
0.979553 0.806104 0.418128
0.986664 0.802518 0.441993
0.992355 0.801053 0.464195
0.996719 0.801541 0.484977
0.42472 0.870405 0.0933852
0.42623 0.870848 0.0949721
0.427146 0.870863 0.0944076
0.428138 0.870573 0.0921035
0.430274 0.870237 0.0914473
0.433768 0.869932 0.0923629
0.438911 0.869718 0.0953536
0.445487 0.869505 0.0987259
0.453407 0.869261 0.102968
0.462394 0.868971 0.105714
0.472526 0.868605 0.108721
0.48368 0.868132 0.110994
0.495659 0.867552 0.11284
0.50898 0.866926 0.115511
0.523003 0.866148 0.117678
0.537865 0.865278 0.120073
0.553384 0.864302 0.122728
0.569436 0.863264 0.125093
0.594446 0.861692 0.129946
0.670344 0.859083 0.180087
0.723812 0.856901 0.213489
0.768139 0.854994 0.241428
0.808728 0.853635 0.268666
0.844602 0.85182 0.291722
0.875929 0.8495 0.311177
0.903334 0.846799 0.327657
0.927687 0.8439 0.342138
0.949355 0.840574 0.358022
0.96376 0.832578 0.383169
0.973892 0.824811 0.410651
0.981857 0.819303 0.436439
0.98819 0.815976 0.459815
0.993088 0.81471 0.481605
0.469764 0.882704 0.176715
0.471244 0.883024 0.178546
0.474098 0.883406 0.18172
0.475257 0.883268 0.18175
0.47599 0.882872 0.179736
0.477195 0.882353 0.177249
0.481041 0.882078 0.17705
0.486549 0.88191 0.17821
0.493156 0.881712 0.179309
0.500648 0.881468 0.180758
0.509041 0.881132 0.181918
0.518196 0.880674 0.182925
0.528145 0.880125 0.183917
0.538842 0.879499 0.184573
0.550225 0.878737 0.185153
0.56228 0.877836 0.185657
0.574914 0.876844 0.185855
0.588144 0.875792 0.186297
0.603067 0.874861 0.188174
0.635904 0.874052 0.201694
0.714931 0.872312 0.250584
0.761334 0.87039 0.277043
0.799969 0.868299 0.298558
0.834195 0.866178 0.317601
0.86421 0.863813 0.334462
0.8907 0.861295 0.349523
0.913863 0.858152 0.361257
0.934859 0.854826 0.371618
0.954421 0.851942 0.383352
0.967559 0.844312 0.406119
0.976654 0.836835 0.431113
0.983703 0.831556 0.455695
0.989242 0.828443 0.478569
0.518456 0.893721 0.233692
0.518105 0.893675 0.233082
0.51812 0.893599 0.232563
0.519234 0.893523 0.232578
0.521355 0.893462 0.233173
0.523949 0.893339 0.233524
0.527428 0.893156 0.234104
0.531456 0.892927 0.234546
0.536568 0.892683 0.235126
0.542336 0.892378 0.235737
0.54905 0.892042 0.2365
0.55642 0.891691 0.237095
0.564813 0.89131 0.238148
0.573907 0.890791 0.239139
0.583276 0.890181 0.239719
0.593317 0.889479 0.240101
0.603983 0.888716 0.240528
0.615167 0.887846 0.241016
0.627131 0.886946 0.241642
0.639567 0.885954 0.242145
0.691783 0.883284 0.261387
0.747982 0.880583 0.289952
0.787991 0.87837 0.310964
0.822538 0.876249 0.329686
0.851835 0.873732 0.344945
0.877241 0.870985 0.357885
0.900267 0.868421 0.370932
0.921294 0.865873 0.383032
0.940536 0.863355 0.394522
0.958343 0.860594 0.406058
0.970581 0.853605 0.425086
0.978912 0.846403 0.448859
0.985306 0.84184 0.474556
0.557778 0.901503 0.273442
0.557794 0.901503 0.273228
0.557961 0.901457 0.273014
0.558801 0.901381 0.273014
0.56025 0.901244 0.273198
0.562524 0.901152 0.273625
0.56527 0.900999 0.273899
0.568734 0.900816 0.274372
0.572976 0.900572 0.274952
0.577722 0.900328 0.275334
0.583246 0.900038 0.275898
0.589395 0.899702 0.276463
0.596201 0.899351 0.277043
0.603662 0.898894 0.277699
0.611719 0.898421 0.278355
0.620447 0.897871 0.279011
0.629572 0.897276 0.279637
0.639246 0.896574 0.280171
0.649378 0.895811 0.280659
0.660197 0.894987 0.281514
0.675639 0.893904 0.282918
0.735088 0.890684 0.308049
0.77818 0.888167 0.329015
0.812879 0.885939 0.346838
0.843305 0.883803 0.363134
0.867658 0.881102 0.37467
0.889128 0.878187 0.384405
0.908843 0.875395 0.393881
0.927382 0.872694 0.403464
0.944884 0.870222 0.41352
0.961501 0.868147 0.424811
0.973083 0.862211 0.445075
0.980682 0.855528 0.468772
0.591959 0.907637 0.30576
0.591714 0.907607 0.305409
0.59176 0.907561 0.305089
0.592645 0.9075 0.305333
0.594095 0.907439 0.305653
0.596063 0.907362 0.306203
0.598642 0.90724 0.306661
0.601602 0.907088 0.307195
0.605035 0.90692 0.307469
