luts/lumix_color_lab_A/desert_33.cube
TITLE "Generated by Resolve"
LUT_3D_SIZE 9
0 0 0
0 0 0
0.113985 0.0154879 0.0261692
0.391928 0 0.107485
0.722332 0 0.168414
0.918212 0.157107 0.227192
1 0.312459 0.27982
1 0.410483 0.32726
1 0.517617 0.388968
0 0 0
0 0 0
0.102052 0.0134127 0.020676
0.382879 0 0.106004
0.697932 0 0.163134
0.909636 0.178836 0.22356
0.999176 0.318853 0.277592
1 0.407691 0.322698
1 0.515099 0.385458
0 0.140887 0
0 0.154147 0
0.162646 0.167559 0.000991836
0.462074 0.23505 0.115755
0.753689 0.322896 0.17052
0.916381 0.365698 0.231601
0.998962 0.374548 0.281788
1 0.443412 0.328191
1 0.534768 0.390585
0 0.456794 0
0 0.500359 0
0.268177 0.474052 0
0.524254 0.471122 0
0.772808 0.54316 0
0.91989 0.574548 0.258396
0.987762 0.572625 0.332708
1 0.567407 0.364721
1 0.57937 0.4038
0 0.695064 0
0 0.715984 0
0.232624 0.708888 0
0.524956 0.690501 0
0.708415 0.693172 0
0.875151 0.713817 0.0749523
0.965682 0.698283 0.345312
0.997955 0.69836 0.428183
1 0.698589 0.45716
0.252186 0.811887 0
0.280324 0.815717 0
0.327947 0.812802 0
0.408957 0.810559 0
0.581842 0.808011 0
0.781506 0.809873 0.147311
0.930816 0.80354 0.280659
0.982254 0.773373 0.410163
1 0.777661 0.492164
0.469764 0.882704 0.176715
0.47599 0.882872 0.179736
0.493156 0.881712 0.179309
0.528145 0.880125 0.183917
0.574914 0.876844 0.185855
0.714931 0.872312 0.250584
0.86421 0.863813 0.334462
0.954421 0.851942 0.383352
0.989242 0.828443 0.478569
0.620859 0.91249 0.332372
0.623774 0.912383 0.333394
0.633844 0.91194 0.335744
0.650156 0.910918 0.337133
0.674601 0.90927 0.33933
0.707088 0.907027 0.343038
0.823636 0.898787 0.390448
0.907851 0.889387 0.430976
0.968139 0.881819 0.469062
0.721401 0.923247 0.424399
0.721309 0.923186 0.423438
0.726314 0.92282 0.424521
0.734951 0.922148 0.425437
0.74847 0.921126 0.427115
0.766888 0.919661 0.42977
0.789685 0.917769 0.433341
0.885313 0.908553 0.480766
0.942672 0.901778 0.518456
0 0 0
0 0 0
0.106462 0.0140993 0.0226444
0.38558 0 0.106432
0.696345 0 0.162982
0.89778 0.155734 0.218494
0.99382 0.304067 0.27219
1 0.401419 0.320455
1 0.507164 0.384222
0 0 0
0 0 0
0.0896925 0.0104067 0.0170443
0.371481 0 0.104051
0.673732 0 0.157946
0.893767 0.182727 0.216983
0.990921 0.31191 0.270481
1 0.395895 0.314458
1 0.503761 0.380041
0 0.146242 0
0 0.162127 0
0.16849 0.170367 0.000167849
0.455955 0.239734 0.114809
0.750942 0.337942 0.169696
0.912627 0.381003 0.23064
0.991882 0.390173 0.27808
1 0.436988 0.32369
1 0.52784 0.388067
0 0.46656 0
0 0.510903 0
0.276127 0.480858 0
0.522194 0.468605 0
0.767514 0.540658 0.0104982
0.913314 0.574975 0.270161
0.984192 0.577478 0.341985
1 0.566583 0.366583
1 0.580468 0.406027
0 0.705745 0
0 0.721508 0
0.230594 0.714427 0
0.519692 0.691432 0
0.707073 0.693095 0
0.872724 0.713237 0.134325
0.963485 0.700099 0.35465
0.996948 0.702953 0.435737
1 0.702586 0.462745
0.277485 0.816419 0
0.313115 0.822782 0
0.35462 0.820035 0
0.428122 0.81706 0
0.585107 0.812696 0
0.78323 0.810468 0.178073
0.929824 0.803601 0.293584
0.981338 0.775433 0.418097
1 0.780102 0.497337
0.483452 0.883223 0.202823
0.50367 0.885695 0.221927
0.510918 0.883238 0.211887
0.539879 0.880812 0.209949
0.589364 0.878569 0.218967
0.721767 0.873396 0.271321
0.865232 0.863828 0.343359
0.954208 0.852216 0.391012
0.988571 0.829358 0.483391
0.646235 0.913252 0.358358
0.647456 0.9131 0.357977
0.652262 0.912367 0.355886
0.663798 0.911131 0.353521
0.685023 0.909361 0.353399
0.714565 0.907042 0.355001
0.825147 0.89865 0.396017
0.9084 0.889342 0.435798
0.968048 0.881834 0.473213
0.724422 0.922957 0.428275
0.723751 0.922957 0.426764
0.728466 0.922576 0.427604
0.737133 0.921904 0.428656
0.750774 0.920851 0.43064
0.769268 0.919417 0.433585
0.791821 0.91754 0.437217
0.886061 0.908446 0.483833
0.942931 0.901717 0.520882
0 0.012253 0.0342107
0 0.0343023 0.0813764
0.12784 0 0.0605783
0.431418 0 0.138033
0.709697 0 0.196002
0.893736 0.208698 0.244221
0.989273 0.335378 0.30135
1 0.430976 0.351476
1 0.533944 0.410758
0 0.030808 0.0757305
0 0.0281224 0.0738231
0.11664 0.00195315 0.0416114
0.410315 0 0.126345
0.684047 0.0202792 0.192248
0.891722 0.227955 0.244556
0.985626 0.340047 0.299123
1 0.422446 0.343328
1 0.530022 0.406592
0 0.165713 0.0566415
0 0.183398 0.0835279
0.183368 0.181979 0.108003
0.456184 0.210605 0.164599
0.723888 0.264881 0.208576
0.899702 0.348623 0.264591
0.985458 0.415595 0.316579
1 0.463951 0.357427
1 0.551156 0.413275
0 0.47567 0.0266423
0 0.520897 0.0415961
0.0740826 0.503944 0.038529
0.529824 0.473381 0.117922
0.767544 0.529519 0.224811
0.911208 0.584176 0.340093
0.977295 0.595148 0.380789
1 0.593301 0.400092
1 0.612329 0.434623
0 0.715694 0
0.0268101 0.721447 0
0.242832 0.71722 0
0.498085 0.698466 0
0.711116 0.6981 0.118685
0.8757 0.711421 0.249729
0.959457 0.711879 0.400122
0.991775 0.718517 0.462409
1 0.715816 0.482094
0.328939 0.818631 0.0734874
0.365835 0.825299 0.132876
0.39704 0.822263 0.128313
0.460609 0.819532 0.135851
0.566552 0.815335 0.153246
0.790341 0.810575 0.25745
0.929152 0.804822 0.344503
0.977768 0.783185 0.44744
0.997131 0.78912 0.516548
0.524651 0.882338 0.269108
0.539147 0.88394 0.279103
0.545357 0.881636 0.272374
0.572946 0.879698 0.273716
0.619593 0.878126 0.283421
0.729183 0.873228 0.314519
0.869291 0.863859 0.37641
0.953353 0.853284 0.419455
0.985901 0.833082 0.501945
0.667933 0.911665 0.385733
0.669657 0.911559 0.385916
0.673747 0.910857 0.383948
0.684291 0.909651 0.382025
0.704173 0.908034 0.382574
0.731273 0.905821 0.38407
0.830854 0.898085 0.417441
0.910765 0.889235 0.454841
0.967453 0.882155 0.490105
0.739376 0.921706 0.446372
0.738659 0.921691 0.444892
0.742916 0.92134 0.445609
0.750866 0.920684 0.44651
0.763561 0.919676 0.448341
0.780774 0.918334 0.451072
0.801663 0.916564 0.454215
0.889021 0.908064 0.496086
0.943969 0.901564 0.531685
0 0.231464 0.32018
0 0.243992 0.334508
0 0.0442817 0.341833
0.514382 0 0.355673
0.804913 0 0.395026
0.936965 0 0.362829
0.995377 0.303258 0.370214
1 0.485603 0.411856
1 0.572015 0.449668
0 0.246494 0.337316
0 0.254734 0.346639
0 0.0314488 0.337484
0.493217 0 0.343145
0.794064 0 0.385153
0.93138 0 0.358007
0.986511 0.320348 0.367041
1 0.471916 0.399374
1 0.568597 0.446235
0 0.40061 0.369314
0 0.394888 0.369924
0 0.306294 0.362783
0.5402 0 0.359823
0.785351 0 0.358389
0.909972 0.204578 0.345205
0.973053 0.435645 0.381628
1 0.507454 0.40882
1 0.586664 0.451667
0 0.488945 0.303044
0 0.530236 0.325719
0 0.516289 0.32108
0.521889 0.468986 0.314076
0.763867 0.497902 0.349355
0.895582 0.521828 0.375418
0.970336 0.556878 0.408103
1 0.586297 0.433112
1 0.632273 0.466667
0.127169 0.722652 0.280156
0.246067 0.721828 0.2851
0.312184 0.719951 0.257465
0.423285 0.712245 0.257252
0.718318 0.696147 0.289387
0.881849 0.706249 0.374777
0.954437 0.72343 0.467842
0.986877 0.722683 0.489708
1 0.7337 0.510811
0.425345 0.818311 0.27303
0.461906 0.824475 0.291447
0.482109 0.822538 0.288762
0.532036 0.821149 0.293812
0.596429 0.817517 0.299321
0.803525 0.80943 0.34995
0.931701 0.803815 0.418723
0.972961 0.792081 0.494392
0.989532 0.804303 0.547799
0.587961 0.879301 0.350011
0.596109 0.880278 0.353811
0.604761 0.879164 0.3523
0.629206 0.877897 0.355627
0.667933 0.876692 0.363394
0.723186 0.873228 0.36936
0.877913 0.863554 0.427344
0.953292 0.854276 0.464561
0.981323 0.839567 0.532982
0.701869 0.908629 0.427665
0.704311 0.908644 0.428641
0.708553 0.908156 0.427726
0.719493 0.907134 0.428183
0.736828 0.905715 0.429236
0.75935 0.903716 0.430014
0.839078 0.897169 0.45185
0.914961 0.889067 0.486778
0.9664 0.882551 0.518868
0.765316 0.919402 0.477348
0.764691 0.919432 0.476081
0.76846 0.919112 0.476799
0.774914 0.918486 0.477195
0.785931 0.917601 0.478813
0.8009 0.916381 0.481071
0.818998 0.914794 0.483513
0.894133 0.907423 0.517342
0.945815 0.90132 0.550546
0 0.412161 0.549249
0 0.399985 0.5608
0 0.350668 0.57232
0.560098 0 0.574029
0.800473 0 0.550637
0.971145 0 0.534676
1 0 0.473716
1 0.353109 0.451453
1 0.556451 0.484443
0 0.368566 0.57026
0 0.35967 0.583658
0 0.271489 0.58703
0.543038 0 0.564965
0.794461 0 0.546532
0.969009 0 0.531106
1 0 0.467048
1 0.360342 0.448188
1 0.559335 0.483085
0 0.527337 0.555093
0 0.534142 0.56968
0 0.467918 0.573144
0.491829 0 0.569406
0.79649 0 0.545403
0.967559 0 0.520256
1 0.156619 0.462119
1 0.446784 0.455161
1 0.605386 0.495354
0 0.652918 0.522423
0 0.670375 0.537072
0 0.651865 0.535409
0.270954 0.579217 0.533471
0.785534 0.336675 0.527474
0.955917 0.176242 0.492302
0.997009 0.44184 0.46009
0.999939 0.576562 0.477241
1 0.655467 0.503456
0.246601 0.719905 0.452964
0.338567 0.732708 0.465095
0.409461 0.727306 0.466087
0.513436 0.717891 0.469093
0.718624 0.675944 0.466972
0.877852 0.710002 0.510216
0.949096 0.708537 0.50454
0.985031 0.703304 0.509377
1 0.715145 0.524895
0.558648 0.818235 0.450736
0.592813 0.824704 0.462272
0.613565 0.822644 0.46128
0.664271 0.819532 0.461341
0.66627 0.816831 0.409384
0.815656 0.806912 0.43122
0.932998 0.801434 0.492363
0.96762 0.804013 0.549218
0.985016 0.811536 0.573907
0.711589 0.872297 0.485191
0.721706 0.874388 0.489769
0.71017 0.874372 0.47129
0.694987 0.8757 0.436454
0.722591 0.874586 0.440604
0.753826 0.871733 0.442512
0.887877 0.863249 0.483009
0.953689 0.853025 0.518059
0.976196 0.846998 0.570871
0.74168 0.904585 0.47599
0.744289 0.904616 0.477211
0.749676 0.904372 0.478096
0.761212 0.903929 0.480705
0.77644 0.902861 0.482933
0.793576 0.901061 0.482795
0.842542 0.896574 0.489952
0.921004 0.888731 0.525185
0.965026 0.882979 0.554025
0.797131 0.916365 0.515175
0.796445 0.916411 0.514015
0.799908 0.916152 0.5149
0.806088 0.915709 0.516045
0.814603 0.914916 0.516945
0.826474 0.913863 0.518364
0.841062 0.91249 0.519814
0.900282 0.90663 0.543893
0.948211 0.901045 0.574395
0 0.380255 0.658152
0 0.365148 0.665385
0 0.328756 0.668055
0.0159762 0 0.673091
0.635569 0 0.664118
0.89807 0 0.655558
1 0 0.623987
1 0 0.549111
1 0.419181 0.519295
0 0.41265 0.659068
0 0.40795 0.666178
0 0.348013 0.669184
0 0 0.670222
0.631113 0 0.663478
0.895232 0 0.653269
1 0 0.617502
1 0 0.54757
1 0.434211 0.519799
0 0.556268 0.644633
0 0.557534 0.651347
0 0.508156 0.655482
0 0.307729 0.666148
0.612238 0 0.661265
0.894499 0 0.651728
1 0 0.612848
1 0.0770733 0.542382
1 0.494224 0.523354
0 0.693874 0.621057
0.175891 0.701503 0.627344
0.298924 0.681849 0.628199
0.439673 0.632929 0.635386
0.577661 0.382773 0.649821
0.889387 0.219226 0.645228
1 0.27538 0.599741
1 0.405356 0.536812
1 0.586114 0.531991
0.384009 0.778424 0.598123
0.44213 0.785504 0.604074
0.476448 0.778668 0.60325
0.54316 0.766247 0.604364
0.603616 0.729961 0.606073
0.866621 0.627344 0.611276
0.980758 0.607187 0.571511
1 0.606714 0.539834
1 0.687343 0.548318
0.599466 0.818845 0.552804
0.627176 0.824643 0.559869
0.64329 0.822003 0.559823
0.678141 0.81854 0.561502
0.724117 0.813016 0.563348
0.806638 0.801434 0.564599
0.926925 0.81796 0.598611
0.959564 0.81326 0.594903
0.986664 0.798901 0.583658
0.721202 0.873228 0.545922
0.732372 0.874846 0.550195
0.740337 0.873777 0.549554
0.759365 0.872633 0.549737
0.786206 0.870939 0.547189
0.800488 0.868772 0.517479
0.894133 0.863005 0.532006
0.953246 0.853422 0.56759
0.97113 0.854978 0.608026
0.799298 0.900267 0.558312
0.801801 0.900191 0.559335
0.810773 0.899443 0.562264
0.829877 0.897841 0.567483
0.814038 0.899733 0.533898
0.826429 0.898528 0.532235
0.841779 0.896254 0.53051
0.927016 0.888548 0.562417
0.964477 0.882307 0.589563
0.828901 0.913237 0.553185
0.828336 0.913268 0.552285
0.831174 0.913069 0.553048
0.836103 0.912734 0.553964
0.843519 0.912215 0.5552
0.852598 0.91136 0.556069
0.863752 0.910201 0.556725
0.904723 0.906126 0.570123
0.95082 0.900847 0.598871
0 0.369223 0.709194
0 0.363729 0.710918
0 0.330434 0.712184
0 0.237659 0.713756
0.365133 0 0.714366
0.712459 0 0.710948
0.95053 0 0.704356
1 0 0.680858
1 0.21883 0.607752
0 0.426902 0.704097
0 0.427222 0.707103
0 0.389258 0.708293
0 0.27097 0.713527
0.355383 0 0.71397
0.708247 0 0.709072
0.949401 0 0.703166
1 0 0.68011
1 0.256626 0.607614
0 0.551858 0.691478
0 0.552224 0.694423
0 0.518654 0.69688
0 0.423529 0.704784
0.310811 0.177768 0.712444
0.702586 0.0346838 0.707881
0.947585 0 0.700298
1 0.149065 0.674174
1 0.345327 0.604883
0.388205 0.687663 0.671824
0.434836 0.692805 0.673869
0.472923 0.681682 0.674327
0.460761 0.636027 0.68072
0.30721 0.475776 0.69926
0.698009 0.357214 0.70071
0.94493 0.310231 0.694621
1 0.367742 0.662348
1 0.458747 0.600259
0.508537 0.78349 0.655207
0.530266 0.785794 0.656474
0.551827 0.781903 0.656291
0.600885 0.77174 0.657771
0.673655 0.740093 0.663554
0.737896 0.633722 0.676478
0.935637 0.581872 0.675074
1 0.541863 0.644831
1 0.581933 0.596033
0.63389 0.847211 0.642908
0.636439 0.846464 0.642786
0.653941 0.844526 0.643061
0.684077 0.840146 0.643656
0.722576 0.83154 0.644785
0.76788 0.818708 0.64651
0.912032 0.774197 0.650492
0.979446 0.766033 0.623606
1 0.758816 0.604227
0.742489 0.874037 0.614755
0.744045 0.873762 0.614878
0.75465 0.873228 0.615793
0.773831 0.872084 0.617411
0.799817 0.870085 0.619547
0.829602 0.867323 0.621454
0.890623 0.862409 0.626368
0.943938 0.866163 0.639399
0.964019 0.868254 0.643488
0.809277 0.899016 0.600855
0.810605 0.898924 0.601083
0.816617 0.898497 0.602045
0.827878 0.897688 0.60351
0.843961 0.89659 0.604639
0.863035 0.89514 0.604135
0.889677 0.892348 0.613962
0.930892 0.889158 0.599939
0.96318 0.882841 0.620295
0.862287 0.909926 0.606714
0.862699 0.90988 0.606668
0.866484 0.909575 0.607767
0.873793 0.908919 0.609888
0.890776 0.907195 0.617578
0.880537 0.908568 0.595544
0.885801 0.908034 0.591501
0.897231 0.906813 0.592157
0.95378 0.900725 0.62237
0 0.381048 0.733745
0 0.377218 0.734295
0 0.356344 0.735042
0 0.298375 0.737377
0 0.148959 0.740398
0.509285 0.0010071 0.736965
0.783429 0 0.732906
0.979232 0.0581064 0.727047
1 0.262608 0.714855
0 0.435157 0.72987
0 0.435737 0.731029
0 0.41651 0.731746
0 0.352789 0.735042
0 0.175296 0.739696
0.507225 0.0663157 0.736202
0.784115 0.00440986 0.732555
0.979156 0.150484 0.726452
1 0.288884 0.714107
0 0.54406 0.719905
0 0.548394 0.720653
0 0.5308 0.721874
0 0.474098 0.726574
0 0.335409 0.7346
0.504387 0.221851 0.734112
0.783475 0.212207 0.729992
0.977813 0.274876 0.723476
1 0.365606 0.71017
0.509712 0.685512 0.70074
0.533715 0.690547 0.701122
0.528023 0.678752 0.702358
0.497719 0.641749 0.70724
0.382101 0.542626 0.718379
0.55053 0.439323 0.724025
0.785382 0.365652 0.724224
0.975006 0.413504 0.716976
1 0.470237 0.701793
0.612177 0.775326 0.686381
0.626245 0.77731 0.68658
0.64358 0.775189 0.68629
0.678096 0.766613 0.687114
0.696101 0.738033 0.691066
0.669169 0.666224 0.701137
0.822889 0.619669 0.70367
0.970123 0.544457 0.707469
1 0.578637 0.688975
0.684382 0.837919 0.674891
0.686107 0.837598 0.67483
0.699794 0.83743 0.674601
0.722438 0.835477 0.674601
0.752102 0.829816 0.675196
0.793683 0.810483 0.677821
0.84802 0.77499 0.68278
0.955428 0.751064 0.683818
1 0.730571 0.667002
0.749401 0.881636 0.665721
0.751247 0.881437 0.665705
0.760418 0.880812 0.665644
0.777295 0.879408 0.665553
0.799786 0.875914 0.665827
0.827436 0.870542 0.666651
0.860029 0.870069 0.665766
0.935317 0.856245 0.667277
0.973541 0.850126 0.656977
0.819028 0.898405 0.646128
0.820294 0.898314 0.64625
0.826017 0.897871 0.646616
0.836896 0.897002 0.647318
0.852476 0.895796 0.648554
0.871244 0.89427 0.650401
0.891554 0.892653 0.652506
0.934722 0.890486 0.658747
0.956985 0.893065 0.666377
0.87332 0.908797 0.638926
0.873503 0.908782 0.638849
0.876844 0.908492 0.639445
0.883116 0.907958 0.640528
0.892103 0.907164 0.642039
0.903304 0.906188 0.643839
0.915129 0.905211 0.64387
0.9281 0.9037 0.652186
0.957198 0.901198 0.659495
0 0.401694 0.74818
0 0.399161 0.748302
0 0.387472 0.748837
0 0.356573 0.750317
0 0.288075 0.752926
0 0.229587 0.753567
0.596475 0.238865 0.749142
0.835676 0.270878 0.743572
0.994858 0.364813 0.735195
0 0.457023 0.744335
0 0.454963 0.744427
0 0.446159 0.744884
0 0.414359 0.746777
0 0.326177 0.751247
0 0.247883 0.753094
0.599664 0.260517 0.748516
0.836973 0.293431 0.742824
0.994568 0.384634 0.734218
0.0741894 0.556252 0.734859
0.0886397 0.555062 0.734951
0.182834 0.549264 0.735332
0.160723 0.523156 0.737606
0 0.435798 0.744533
0 0.342779 0.749355
0.608301 0.325856 0.745953
0.840192 0.358175 0.739925
0.993744 0.43508 0.731197
0.561852 0.680888 0.718349
0.563684 0.680171 0.718441
0.570596 0.676661 0.718761
0.574182 0.664134 0.720165
0.515297 0.605798 0.727459
0.449424 0.520241 0.736095
0.652873 0.468071 0.73727
0.848463 0.460868 0.733608
0.99115 0.514366 0.725414
0.728756 0.779477 0.701732
0.731548 0.779721 0.701671
0.738415 0.778912 0.701656
0.743465 0.773236 0.702358
0.732387 0.74876 0.706218
0.698024 0.693599 0.714458
0.739391 0.645899 0.71931
0.863279 0.5879 0.722545
0.98677 0.607095 0.716976
0.762158 0.832761 0.692195
0.764233 0.832609 0.692226
0.77351 0.832197 0.692119
0.790539 0.831189 0.691981
0.813611 0.829969 0.691615
0.829801 0.814847 0.693843
0.831662 0.79324 0.697139
0.891005 0.753216 0.701625
0.98024 0.691417 0.707332
0.802304 0.870939 0.684367
0.803937 0.870985 0.684352
0.81033 0.871031 0.684199
0.822599 0.871092 0.68397
0.839765 0.871138 0.683635
0.860243 0.870573 0.68336
0.880751 0.861006 0.684535
0.91577 0.859007 0.683696
0.963699 0.839078 0.685817
0.843397 0.900175 0.677913
0.844343 0.900084 0.677913
0.848981 0.899763 0.677882
0.857618 0.899153 0.677836
0.869917 0.898161 0.677775
0.884916 0.896895 0.677699
0.899794 0.894118 0.677974
0.917617 0.895308 0.677165
0.955856 0.890913 0.676936
0.887678 0.908965 0.66833
0.888228 0.908888 0.668315
0.891096 0.908598 0.668574
0.896422 0.908064 0.669047
0.904112 0.907271 0.669749
0.913664 0.906279 0.670634
0.924529 0.905135 0.671748
0.935714 0.904173 0.673121
0.959777 0.902358 0.676616
