luts/lumix_color_lab_A/desert_33.cube
TITLE "Generated by Resolve"
LUT_3D_SIZE 5
0 0 0
0.113985 0.0154879 0.0261692
0.722332 0 0.168414
1 0.312459 0.27982
1 0.517617 0.388968
0 0.140887 0
0.162646 0.167559 0.000991836
0.753689 0.322896 0.17052
0.998962 0.374548 0.281788
1 0.534768 0.390585
0 0.695064 0
0.232624 0.708888 0
0.708415 0.693172 0
0.965682 0.698283 0.345312
1 0.698589 0.45716
0.469764 0.882704 0.176715
0.493156 0.881712 0.179309
0.574914 0.876844 0.185855
0.86421 0.863813 0.334462
0.989242 0.828443 0.478569
0.721401 0.923247 0.424399
0.726314 0.92282 0.424521
0.74847 0.921126 0.427115
0.789685 0.917769 0.433341
0.942672 0.901778 0.518456
0 0.012253 0.0342107
0.12784 0 0.0605783
0.709697 0 0.196002
0.989273 0.335378 0.30135
1 0.533944 0.410758
0 0.165713 0.0566415
0.183368 0.181979 0.108003
0.723888 0.264881 0.208576
0.985458 0.415595 0.316579
1 0.551156 0.413275
0 0.715694 0
0.242832 0.71722 0
0.711116 0.6981 0.118685
0.959457 0.711879 0.400122
1 0.715816 0.482094
0.524651 0.882338 0.269108
0.545357 0.881636 0.272374
0.619593 0.878126 0.283421
0.869291 0.863859 0.37641
0.985901 0.833082 0.501945
0.739376 0.921706 0.446372
0.742916 0.92134 0.445609
0.763561 0.919676 0.448341
0.801663 0.916564 0.454215
0.943969 0.901564 0.531685
0 0.412161 0.549249
0 0.350668 0.57232
0.800473 0 0.550637
1 0 0.473716
1 0.556451 0.484443
0 0.527337 0.555093
0 0.467918 0.573144
0.79649 0 0.545403
1 0.156619 0.462119
1 0.605386 0.495354
0.246601 0.719905 0.452964
0.409461 0.727306 0.466087
0.718624 0.675944 0.466972
0.949096 0.708537 0.50454
1 0.715145 0.524895
0.711589 0.872297 0.485191
0.71017 0.874372 0.47129
0.722591 0.874586 0.440604
0.887877 0.863249 0.483009
0.976196 0.846998 0.570871
0.797131 0.916365 0.515175
0.799908 0.916152 0.5149
0.814603 0.914916 0.516945
0.841062 0.91249 0.519814
0.948211 0.901045 0.574395
0 0.369223 0.709194
0 0.330434 0.712184
0.365133 0 0.714366
0.95053 0 0.704356
1 0.21883 0.607752
0 0.551858 0.691478
0 0.518654 0.69688
0.310811 0.177768 0.712444
0.947585 0 0.700298
1 0.345327 0.604883
0.508537 0.78349 0.655207
0.551827 0.781903 0.656291
0.673655 0.740093 0.663554
0.935637 0.581872 0.675074
1 0.581933 0.596033
0.742489 0.874037 0.614755
0.75465 0.873228 0.615793
0.799817 0.870085 0.619547
0.890623 0.862409 0.626368
0.964019 0.868254 0.643488
0.862287 0.909926 0.606714
0.866484 0.909575 0.607767
0.890776 0.907195 0.617578
0.885801 0.908034 0.591501
0.95378 0.900725 0.62237
0 0.401694 0.74818
0 0.387472 0.748837
0 0.288075 0.752926
0.596475 0.238865 0.749142
0.994858 0.364813 0.735195
0.0741894 0.556252 0.734859
0.182834 0.549264 0.735332
0 0.435798 0.744533
0.608301 0.325856 0.745953
0.993744 0.43508 0.731197
0.728756 0.779477 0.701732
0.738415 0.778912 0.701656
0.732387 0.74876 0.706218
0.739391 0.645899 0.71931
0.98677 0.607095 0.716976
0.802304 0.870939 0.684367
0.81033 0.871031 0.684199
0.839765 0.871138 0.683635
0.880751 0.861006 0.684535
0.963699 0.839078 0.685817
0.887678 0.908965 0.66833
0.891096 0.908598 0.668574
0.904112 0.907271 0.669749
0.924529 0.905135 0.671748
0.959777 0.902358 0.676616
