luts/lumix_color_lab_A/dramaticviolet_33.cube
TITLE "Generated by Resolve"
LUT_3D_SIZE 9
0 0 0
0.014313 0 0
0.240391 0 0
0.516289 0 0
0.700481 0 0
0.827604 0 0
0.937331 0 0
1 0 0.0132601
1 0 0.0474556
0 0 0
0.00962844 0 0
0.254383 0 0
0.575982 0 0
0.783398 0 0
0.908644 0 0
1 0 0.0165713
1 0 0.0609445
1 0.010956 0.115618
0 0.151354 0
0 0.181369 0
0.257099 0.152361 0
0.585473 0.112642 0
0.767315 0.126665 0
0.913725 0.159487 0
1 0.194064 0
1 0.224552 0
1 0.246128 0.0059968
0 0.382727 0
0 0.414923 0
0.211032 0.41619 0
0.570306 0.379583 0
0.749157 0.38143 0
0.876661 0.384771 0
0.979721 0.38912 0
1 0.394095 0
1 0.399969 0
0 0.596811 0
0 0.610864 0
0.246311 0.588022 0
0.581994 0.531701 0
0.745342 0.513939 0
0.864668 0.506508 0
0.963272 0.503609 0
1 0.50248 0
1 0.503029 0
0 0.722469 0
0.0251011 0.721904 0
0.261357 0.69131 0
0.580728 0.634607 0
0.743236 0.611658 0
0.860258 0.599985 0
0.955764 0.593286 0
1 0.588708 0
1 0.586023 0
0 0.81265 0
0.0408179 0.80763 0
0.276432 0.772457 0
0.579339 0.717662 0
0.740337 0.692302 0
0.857237 0.677195 0
0.951339 0.667796 0
1 0.661189 0
1 0.656764 0
0 0.88687 0
0.0531777 0.878935 0
0.28957 0.840345 0
0.576577 0.788037 0
0.735348 0.76173 0
0.852674 0.745159 0
0.947433 0.734035 0
1 0.725978 0
1 0.72047 0
0 0.951461 0
0.0611734 0.94168 0
0.301915 0.899931 0
0.575692 0.850278 0
0.73257 0.823896 0
0.849775 0.806424 0
0.944961 0.794064 0
1 0.784695 0
1 0.777737 0
0 0 0
0 0 0
0.20473 0 0.00291447
0.483696 0 0.0150149
0.66949 0 0.0302586
0.798321 0 0.0518959
0.91249 0 0.0831769
1 0 0.138613
1 0 0.171572
0 0 0
0 0 0
0.227222 0 0
0.570459 0 0.0228733
0.756848 0 0.0627756
0.882628 0 0.096437
0.997574 0 0.135363
1 0 0.190723
1 0.030457 0.245151
0 0.17142 0
0 0.187564 0
0.236011 0.165515 0
0.563134 0.128298 0
0.746609 0.146227 0.00416571
0.892638 0.178805 0.049546
1 0.2103 0.0859083
1 0.237385 0.113863
1 0.255894 0.131273
0 0.393942 0
0 0.42707 0
0.1935 0.429892 0
0.549523 0.393957 0
0.724392 0.39115 0
0.850492 0.392401 0
0.952514 0.395972 0
1 0.400275 0
1 0.405631 0
0 0.604547 0
0 0.61387 0
0.22678 0.591089 0
0.551339 0.538979 0
0.716564 0.52018 0
0.83566 0.512078 0
0.93402 0.508629 0
1 0.50692 0
1 0.507317 0
0 0.723522 0.0132753
0.0198672 0.721355 0.0151827
0.242039 0.691508 0
0.547066 0.640131 0
0.71191 0.616724 0
0.82974 0.604379 0
0.925078 0.59733 0
1 0.592355 0
1 0.589456 0
0 0.812024 0.0318761
0.0344244 0.805936 0.0292668
0.256657 0.771359 0
0.543847 0.722087 0
0.707179 0.696361 0
0.825498 0.680873 0
0.919814 0.671183 0
1 0.66424 0
1 0.659739 0
0 0.885176 0.0461433
0.0455177 0.876417 0.0399786
0.269139 0.838437 0
0.5402 0.791485 0
0.700771 0.765423 0
0.819654 0.748516 0
0.915175 0.737118 0
0.997879 0.728847 0
1 0.723262 0
0 0.94905 0.055024
0.0530251 0.938613 0.0471199
0.281483 0.897505 0
0.539452 0.852781 0
0.696742 0.827314 0
0.815625 0.809628 0
0.911925 0.796872 0
0.995163 0.787152 0
1 0.780041 0
0 0 0.159625
0 0 0.210269
0.165301 0 0.168368
0.405127 0 0.166705
0.593545 0 0.196277
0.721065 0 0.234287
0.827451 0 0.31043
0.90753 0 0.418769
0.992706 0 0.478019
0 0.0123293 0.134478
0 0.00932326 0.16788
0.180179 0 0.182269
0.503502 0 0.262531
0.649638 0 0.330694
0.766033 0 0.390402
0.874739 0 0.450141
0.983627 0.0208743 0.516335
1 0.0618296 0.581888
0 0.181964 0.179156
0 0.194598 0.19263
0.177752 0.177722 0.177737
0.497353 0.146593 0.209522
0.685496 0.16614 0.259312
0.828595 0.195743 0.30927
0.945083 0.224338 0.353628
1 0.246342 0.38854
1 0.262623 0.415442
0 0.415549 0.119829
0 0.441062 0.157244
0.171328 0.431128 0.169589
0.489601 0.405646 0.119005
0.664729 0.397894 0.152407
0.787976 0.397528 0.178485
0.886671 0.400626 0.201572
0.972457 0.40499 0.223011
1 0.410269 0.243183
0 0.617441 0.214511
0 0.615717 0.223636
0.198749 0.5841 0.19617
0.476677 0.545983 0.0890669
0.650355 0.524758 0.0959182
0.770626 0.515663 0.116548
0.86833 0.511589 0.136553
0.954391 0.509529 0.155795
1 0.509651 0.174441
0 0.730236 0.255573
0 0.719142 0.252216
0.211368 0.682704 0.208225
0.467018 0.644739 0.0927596
0.641138 0.620798 0.0663767
0.762066 0.607309 0.0788739
0.85774 0.599664 0.0952316
0.942321 0.594247 0.111635
1 0.591134 0.127413
0 0.8159 0.283726
0 0.801389 0.274342
0.223011 0.761654 0.219425
0.46508 0.723171 0.105272
0.631678 0.699779 0.0544137
0.755016 0.683345 0.0540322
0.850996 0.673136 0.0658122
0.934264 0.665782 0.0795911
1 0.661006 0.0936904
0 0.887098 0.307088
0.00143435 0.870314 0.292851
0.232059 0.828336 0.228077
0.464637 0.78967 0.117128
0.621805 0.768338 0.0514382
0.746166 0.750957 0.0377966
0.844465 0.738949 0.0428626
0.928344 0.730266 0.0539101
1 0.724437 0.0664225
0 0.949233 0.324422
0.00822461 0.931121 0.308049
0.242542 0.886854 0.238239
0.467872 0.848463 0.130098
0.615869 0.829129 0.0568704
0.739422 0.811826 0.0308843
0.839063 0.798688 0.0285649
0.924163 0.788296 0.0351568
0.996384 0.780911 0.0450446
0 0 0.379934
0 0 0.429816
0.0853895 0 0.446632
0.378668 0 0.384207
0.541207 0 0.397559
0.65745 0 0.438636
0.780438 0 0.519631
0.869902 0 0.562768
0.960403 0 0.60528
0 0.0469978 0.342733
0 0.0414435 0.397223
0.0686961 0 0.48925
0.480613 0 0.485756
0.617731 0 0.510216
0.732265 0 0.547173
0.841001 0.00288396 0.592493
0.952621 0.0442054 0.650019
1 0.0839551 0.706157
0 0.201999 0.399863
0 0.224506 0.394095
0.0433509 0.215167 0.410483
0.442618 0.165408 0.445258
0.610513 0.192447 0.484794
0.745403 0.221393 0.534051
0.858503 0.247211 0.57847
0.950927 0.264485 0.610742
1 0.278218 0.634653
0 0.424155 0.418921
0 0.452689 0.448402
0.120089 0.441535 0.439292
0.415045 0.415045 0.415061
0.581643 0.40708 0.438407
0.701656 0.406485 0.459449
0.79881 0.409308 0.479194
0.884138 0.413275 0.497749
0.958282 0.418189 0.515084
0 0.626505 0.47921
0 0.62681 0.479088
0.130358 0.591226 0.437583
0.413184 0.542458 0.412314
0.570474 0.528527 0.38529
0.689952 0.51928 0.405249
0.785443 0.515496 0.423026
0.868559 0.514244 0.43946
0.941405 0.514748 0.455009
0 0.740215 0.495399
0 0.731823 0.48603
0.147326 0.68687 0.44036
0.416648 0.635248 0.415198
0.555581 0.62359 0.365988
0.680903 0.609628 0.366247
0.776608 0.601617 0.381964
0.860441 0.596078 0.397467
0.933272 0.593103 0.412528
0 0.827237 0.50457
0 0.814343 0.491966
0.165286 0.762798 0.447593
0.422141 0.710887 0.420218
0.547112 0.699062 0.373877
0.670832 0.685328 0.342779
0.769177 0.674479 0.351141
0.852628 0.667109 0.364858
0.925628 0.66215 0.378531
0 0.898863 0.512367
0 0.882887 0.497612
0.179538 0.827207 0.453666
0.42652 0.775814 0.424186
0.54493 0.763439 0.381918
0.658808 0.752346 0.335821
0.761013 0.740261 0.328832
0.84625 0.731212 0.338323
0.918853 0.725185 0.350607
0 0.961257 0.517433
0 0.943008 0.502586
0.193561 0.884382 0.46096
0.432593 0.834012 0.429938
0.54699 0.821103 0.390753
0.651255 0.811719 0.340597
0.752712 0.799908 0.318563
0.840665 0.789029 0.319402
0.913863 0.781262 0.32842
0 0 0.501411
0 0 0.552789
0 0 0.619196
0.366506 0 0.56228
0.538415 0 0.545602
0.656962 0 0.570794
0.778698 0 0.630594
0.86688 0 0.663676
0.957519 0 0.701457
0 0.0682689 0.463828
0 0.0634318 0.518975
0.0266728 0.0120851 0.642222
0.48011 0 0.619394
0.622141 0 0.628473
0.735119 0 0.658106
0.845167 0.0173037 0.700298
0.954467 0.0605173 0.752255
1 0.099382 0.801144
0 0.233005 0.482658
0 0.256184 0.481727
0 0.242115 0.533776
0.430747 0.179294 0.608316
0.613825 0.204379 0.617746
0.73695 0.234791 0.648493
0.838651 0.260609 0.679088
0.922454 0.27747 0.702251
0.994598 0.291356 0.721981
0 0.436728 0.56289
0 0.463783 0.588357
0.102998 0.454826 0.571496
0.351354 0.437201 0.534798
0.554009 0.416052 0.555322
0.660868 0.419028 0.569909
0.7561 0.421088 0.592706
0.841886 0.423697 0.612894
0.917082 0.427878 0.630579
0 0.628351 0.622034
0 0.627222 0.621881
0.113634 0.592035 0.588678
0.386908 0.547097 0.545983
0.533928 0.533913 0.533928
0.649073 0.525917 0.548028
0.74342 0.522301 0.561975
0.827008 0.52076 0.575708
0.900221 0.520989 0.589029
0 0.740734 0.630976
0 0.732769 0.622461
0.111666 0.692042 0.57882
0.386557 0.640467 0.533867
0.530892 0.622095 0.530282
0.643015 0.613443 0.512505
0.737957 0.605432 0.527596
0.81976 0.600366 0.540246
0.891249 0.597864 0.551781
0 0.828504 0.634867
0 0.816663 0.622309
0.118929 0.770901 0.574044
0.39884 0.712978 0.534874
0.530907 0.694697 0.529809
0.629648 0.688273 0.497612
0.730526 0.677424 0.496086
0.813947 0.669947 0.50927
0.886625 0.665064 0.521767
0 0.901061 0.637171
0 0.886549 0.62182
0.128801 0.836713 0.570871
0.407706 0.776043 0.537331
0.531518 0.758343 0.530022
0.622202 0.752163 0.50222
0.720516 0.743114 0.475441
0.807446 0.733745 0.482048
0.880186 0.727474 0.493812
0 0.964462 0.63772
0 0.948028 0.621439
0.142519 0.894057 0.571939
0.416236 0.833127 0.542092
0.534844 0.815793 0.532967
0.621958 0.808728 0.507912
0.711009 0.801846 0.47155
0.800687 0.791272 0.462806
0.874815 0.783276 0.470695
0 0 0.586175
0 0 0.637995
0 0 0.716365
0.351019 0 0.683299
0.540383 0 0.654521
0.672084 0 0.680308
0.782849 0 0.719356
0.871717 0 0.749676
0.962768 0 0.785565
0 0.085832 0.549935
0 0.0832685 0.607858
0.0432746 0.0268101 0.750607
0.473655 0 0.728222
0.627909 0 0.727016
0.74432 0 0.751522
0.856535 0.0314641 0.7935
0.964233 0.0751354 0.841871
1 0.111849 0.884794
0 0.259373 0.547295
0 0.282414 0.554513
0 0.267079 0.625071
0.398047 0.204395 0.731853
0.617136 0.216434 0.730236
0.743145 0.244739 0.747906
0.837446 0.267643 0.767361
0.915206 0.284474 0.782132
0.982986 0.299077 0.795438
0 0.455604 0.658518
0 0.481559 0.676997
0.0679942 0.478294 0.640406
0.30988 0.455741 0.62153
0.531991 0.423758 0.668666
0.655543 0.422843 0.657771
0.739437 0.428992 0.666758
0.817182 0.433753 0.681453
0.888655 0.438437 0.698833
0 0.631861 0.724407
0 0.629725 0.723064
0.107729 0.594553 0.689296
0.363989 0.555444 0.628489
0.488045 0.548562 0.61735
0.629389 0.532082 0.63032
0.714031 0.531395 0.641077
0.796475 0.529274 0.658747
0.870054 0.528771 0.674022
0 0.741024 0.733959
0 0.732601 0.726497
0.105196 0.69163 0.687495
0.371069 0.642481 0.640589
0.512703 0.625681 0.624887
0.617639 0.617639 0.617655
0.709209 0.61062 0.628321
0.79057 0.605814 0.638972
0.862058 0.603082 0.649546
0 0.828534 0.735378
0 0.816617 0.723964
0.10367 0.771908 0.679301
0.367697 0.719509 0.62948
0.511116 0.698589 0.614267
0.614359 0.687388 0.61387
0.704417 0.680797 0.600183
0.787152 0.673411 0.612665
0.858183 0.669062 0.623362
0 0.901228 0.735439
0 0.887037 0.720836
0.105791 0.839628 0.671473
0.372625 0.783902 0.622797
0.51754 0.760006 0.61326
0.612802 0.749645 0.611902
0.692317 0.745815 0.587655
0.780987 0.73669 0.585382
0.853605 0.730297 0.596857
0 0.965118 0.733623
0 0.949447 0.717983
0.113329 0.898833 0.667475
0.383749 0.840253 0.622797
0.52372 0.816129 0.615915
0.613977 0.805783 0.612711
0.68719 0.801724 0.592325
0.772381 0.793957 0.567712
0.84799 0.785763 0.573205
0 0 0.654749
0 0 0.70695
0 0 0.79147
0.336675 0 0.779629
0.541711 0 0.748135
0.691798 0 0.778576
0.789807 0 0.798779
0.879652 0 0.826978
0.972045 0 0.861738
0 0.102235 0.620768
0 0.103868 0.683055
0.0419928 0.0375372 0.829953
0.462654 0 0.823056
0.6309 0 0.81796
0.754467 0.00471504 0.838132
0.870665 0.0465248 0.878553
0.975479 0.0882429 0.921828
1 0.123583 0.960327
0 0.283528 0.603906
0 0.306813 0.617639
0 0.292256 0.702419
0.364813 0.232044 0.824765
0.611017 0.231815 0.830045
0.74728 0.254734 0.83595
0.839918 0.273991 0.84535
0.914488 0.28983 0.854597
0.979553 0.304372 0.863706
0 0.476417 0.731243
0 0.502174 0.74284
0.0336767 0.500694 0.691615
0.278447 0.471733 0.691432
0.486549 0.440833 0.752697
0.649409 0.426856 0.745022
0.738537 0.43183 0.741497
0.811368 0.438224 0.748196
0.877317 0.444572 0.758953
0 0.637964 0.802197
0 0.635554 0.798199
0.0935683 0.602564 0.756878
0.323857 0.572381 0.675776
0.45272 0.56141 0.684977
0.607996 0.538018 0.720348
0.708904 0.534142 0.710597
0.780835 0.535851 0.716777
0.848249 0.53698 0.729458
0 0.742489 0.818189
0 0.733593 0.81001
0.102388 0.692546 0.770703
0.36318 0.645045 0.717815
0.491722 0.633097 0.688533
0.580682 0.629023 0.683986
0.693385 0.615442 0.694148
0.766598 0.613001 0.702617
0.837705 0.609964 0.71693
0 0.828458 0.820783
0 0.816205 0.809491
0.0998398 0.771328 0.766598
0.3608 0.719524 0.717006
0.497642 0.700542 0.699123
0.599893 0.690303 0.689693
0.684459 0.684459 0.684474
0.76437 0.677974 0.693492
0.83505 0.673747 0.702708
0 0.900908 0.81976
0 0.886687 0.805417
0.0970474 0.839765 0.757458
0.355627 0.786572 0.706127
0.491798 0.76614 0.687709
0.597879 0.753002 0.679805
0.681331 0.745327 0.680919
0.760449 0.739773 0.669169
0.832517 0.733516 0.680171
0 0.964981 0.816815
0 0.949477 0.80148
0.0998093 0.900084 0.751583
0.359014 0.845396 0.700359
0.497169 0.822538 0.683543
0.603937 0.807279 0.680079
0.68043 0.799924 0.679652
0.749981 0.796323 0.658198
0.827008 0.788357 0.656306
0 0.00859083 0.715404
0 0 0.768048
0 0 0.856367
0.324559 0 0.862745
0.54377 0 0.834791
0.697475 0 0.854887
0.797147 0 0.871229
0.889387 0 0.898955
0.983337 0 0.9346
0 0.118624 0.684321
0 0.135256 0.760723
0.0405737 0.048127 0.897398
0.450416 0 0.905974
0.631815 0 0.90045
0.765118 0.0199435 0.920775
0.884291 0.0617227 0.957717
0.987869 0.101198 0.996384
1 0.134035 1
0 0.306691 0.65597
0 0.330587 0.67509
0 0.316732 0.771862
0.336721 0.258717 0.901701
0.596582 0.249866 0.919921
0.74461 0.264866 0.917891
0.840757 0.280247 0.917906
0.915633 0.294865 0.921584
0.979477 0.30901 0.927611
0 0.498314 0.79115
0 0.523247 0.796811
0.0028687 0.520577 0.738216
0.25182 0.486183 0.752544
0.447791 0.457511 0.817029
0.628214 0.435431 0.828077
0.7355 0.434882 0.815702
0.811276 0.440742 0.814847
0.87483 0.447684 0.82089
0 0.646143 0.865568
0 0.643824 0.858488
0.0734874 0.613764 0.807614
0.289006 0.587686 0.722713
0.422553 0.573373 0.744778
0.566293 0.551919 0.789776
0.701442 0.536645 0.787472
0.779156 0.537453 0.781491
0.841672 0.540413 0.786679
0 0.745892 0.886687
0 0.736843 0.87747
0.0949264 0.696635 0.835386
0.342138 0.654047 0.768612
0.454551 0.647364 0.730282
0.548959 0.639689 0.742809
0.672328 0.62063 0.772335
0.76109 0.615137 0.762509
0.822889 0.615518 0.767361
0 0.829236 0.89308
0 0.816556 0.881895
0.0977798 0.771466 0.840192
0.3561 0.720455 0.787854
0.488731 0.703014 0.764858
0.579629 0.697093 0.743801
0.651957 0.694301 0.742443
0.750469 0.6822 0.751156
0.81413 0.680125 0.758541
0 0.90071 0.8925
0 0.88629 0.879042
0.0940719 0.839109 0.833875
0.351141 0.78613 0.783078
0.484901 0.766323 0.76434
0.585458 0.754971 0.753796
0.668742 0.747982 0.747448
0.742901 0.742916 0.742931
0.812589 0.73753 0.751003
0 0.964767 0.888792
0 0.949218 0.874342
0.0937667 0.899962 0.827268
0.348714 0.846403 0.775677
0.480613 0.825498 0.755871
0.581262 0.812604 0.744732
0.667247 0.802808 0.739147
0.740185 0.795819 0.739849
0.809003 0.791043 0.729625
0 0.0203403 0.768856
0 0.00277714 0.822003
0 0 0.91426
0.314214 0 0.93521
0.556771 0 0.91899
0.69984 0 0.928389
0.803601 0 0.943786
0.899092 0 0.970138
0.997559 0 1
0 0.135531 0.741695
0 0.159564 0.825757
0.0377966 0.0607156 0.960983
0.435737 0 0.983993
0.629801 0.00408942 0.981735
0.773373 0.0362249 1
0.895781 0.0769207 1
0.998535 0.113222 1
1 0.142702 1
0 0.329 0.704189
0 0.354864 0.728771
0 0.341039 0.834531
0.314076 0.283665 0.966094
0.578103 0.269413 0.996887
0.736217 0.275441 0.991287
0.838056 0.286992 0.985489
0.91574 0.300252 0.98407
0.980056 0.313588 0.986481
0 0.520058 0.842466
0 0.544228 0.84239
0 0.538476 0.781613
0.23003 0.499855 0.806531
0.417853 0.47219 0.870817
0.598398 0.447822 0.897032
0.725521 0.440406 0.886549
0.810086 0.443748 0.878309
0.875166 0.450156 0.879255
0 0.655421 0.918975
0 0.653437 0.908309
0.051606 0.626245 0.847379
0.261265 0.600839 0.767987
0.39707 0.584329 0.797162
0.533639 0.564599 0.843732
0.678523 0.544182 0.858534
0.775967 0.53933 0.846326
0.84123 0.541894 0.844129
0 0.750591 0.945281
0 0.74168 0.934218
0.0839246 0.703075 0.885618
0.315496 0.666041 0.805539
0.423896 0.659419 0.773083
0.521965 0.649378 0.794217
0.63566 0.632364 0.830701
0.754009 0.616999 0.829068
0.821149 0.616632 0.823133
0 0.831235 0.955764
0 0.818509 0.943526
0.0932021 0.773831 0.898695
0.34464 0.725307 0.838956
0.46659 0.711818 0.806119
0.546899 0.709316 0.780743
0.624216 0.703426 0.793423
0.732296 0.686641 0.819104
0.809461 0.682017 0.810712
0 0.900923 0.95848
0 0.886397 0.944503
0.092668 0.839155 0.898375
0.348547 0.786526 0.846128
0.480415 0.767346 0.825299
0.577447 0.757351 0.81062
0.651392 0.753948 0.79469
0.714702 0.751553 0.793423
0.800519 0.741192 0.801114
0 0.964523 0.955825
0 0.948821 0.941115
0.0918135 0.899504 0.893828
0.345724 0.846021 0.842512
0.476448 0.825269 0.822828
0.575097 0.812802 0.811154
0.656458 0.804456 0.803433
0.72929 0.798169 0.797711
0.79379 0.793805 0.79382
