luts/lumix_color_lab_A/dramaticviolet_33.cube
TITLE "Generated by Resolve"
LUT_3D_SIZE 33
0 0 0
0 0 0
0 0 0
0 0 0
0.014313 0 0
0.0592355 0 0
0.140841 0 0
0.190448 0 0
0.240391 0 0
0.297246 0 0
0.364904 0 0
0.443687 0 0
0.516289 0 0
0.577447 0 0
0.623575 0 0
0.663691 0 0
0.700481 0 0
0.734936 0 0
0.767269 0 0
0.798093 0 0
0.827604 0 0
0.855817 0 0
0.883375 0 0
0.910353 0 0
0.937331 0 0
0.96495 0 0
0.993774 0 0
1 0 0
1 0 0.0132601
1 0 0.0224002
1 0 0.0307927
1 0 0.0387884
1 0 0.0474556
0 0 0
0 0 0
0 0 0
0 0 0
0.0147402 0 0
0.0598611 0 0
0.141649 0 0
0.19176 0 0
0.243168 0 0
0.301549 0 0
0.372549 0 0
0.452827 0 0
0.525795 0 0
0.585504 0 0
0.631342 0 0
0.671855 0 0
0.709148 0 0
0.744121 0 0
0.777432 0 0
0.809339 0 0
0.84004 0 0
0.8701 0 0
0.90042 0 0
0.932738 0 0
0.975174 0 0
1 0 0.00178531
1 0 0.010544
1 0 0.0186313
1 0 0.0268254
1 0 0.0355383
1 0 0.0444953
1 0 0.0538643
1 0 0.0632029
0 0 0
0 0 0
0 0 0
0 0 0
0.0150607 0 0
0.0606088 0 0
0.142428 0 0
0.193133 0 0
0.246052 0 0
0.30695 0 0
0.381384 0 0
0.463493 0 0
0.537285 0 0
0.595056 0 0
0.640833 0 0
0.68217 0 0
0.720745 0 0
0.757443 0 0
0.792874 0 0
0.828153 0 0
0.866743 0 0
0.909743 0 0
0.939696 0 0
0.967208 0 0
0.99263 0 0.00172427
1 0 0.0102541
1 0 0.0188449
1 0 0.0278782
1 0 0.037232
1 0 0.0467994
1 0 0.056733
1 0 0.0668803
1 0 0.0773785
0 0 0
0 0 0
0 0 0
0 0 0
0.0134279 0 0
0.0606546 0 0
0.143389 0 0
0.194995 0 0
0.249775 0 0
0.31339 0 0
0.392798 0 0
0.477546 0 0
0.552499 0 0
0.60856 0 0
0.655589 0 0
0.69958 0 0
0.742931 0 0
0.796918 0 0
0.835737 0 0
0.867567 0 0
0.896971 0 0
0.925246 0 0
0.953338 0 0
0.980209 0 0
1 0 0.00918593
1 0 0.0184939
1 0 0.0280613
1 0 0.0382239
1 0 0.048127
1 0 0.058854
1 0 0.0698863
1 0 0.0809186
1 0 0.0935988
0 0 0
0 0 0
0 0 0
0 0 0
0.00962844 0 0
0.0582742 0 0
0.143603 0 0
0.196796 0 0
0.254383 0 0
0.322332 0 0
0.4103 0 0
0.499733 0 0
0.575982 0 0
0.636423 0 0
0.702998 0 0
0.746487 0 0
0.783398 0 0
0.816999 0 0
0.848554 0 0
0.878996 0 0
0.908644 0 0
0.937942 0 0
0.966506 0 0
0.99469 0 0.00622568
1 0 0.0165713
1 0 0.026978
1 0 0.038117
1 0 0.0491035
1 0 0.0609445
1 0 0.0743572
1 0 0.0877241
1 0.000442512 0.101564
1 0.010956 0.115618
0 0.011429 0
0 0.0126192 0
0 0.0138857 0
0 0.013962 0
0.00030518 0.0108949 0
0.0525978 0.00534066 0
0.140764 0 0
0.197177 0 0
0.260761 0 0
0.341314 0 0
0.461479 0 0
0.571176 0 0
0.628 0 0
0.674571 0 0
0.716014 0 0
0.754528 0 0
0.790661 0 0
0.824887 0 0
0.85745 0 0
0.888808 0 0
0.919692 0 0
0.949859 0 0
0.979629 0 0.000183108
1 0 0.0113069
1 0 0.0225986
1 0 0.0346075
1 0.00894179 0.0481117
1 0.0191043 0.0615702
1 0.0292363 0.075227
1 0.0395056 0.0887007
1 0.0497749 0.102251
1 0.0598306 0.115358
1 0.0693217 0.127749
0 0.0547646 0
0 0.0568704 0
0 0.0592508 0
0 0.0617227 0
0 0.0633097 0
0.0200046 0.0615702 0
0.120333 0.0489662 0
0.192538 0.0576944 0
0.267887 0.0526894 0
0.355856 0.0393988 0
0.453941 0.0224918 0
0.537408 0.00975052 0
0.598444 0.0043946 0
0.647196 0.00260929 0
0.691279 0.00299077 0
0.731914 0.00466926 0
0.770016 0.00726329 0
0.806195 0.0111696 0
0.839918 0.0154879 0
0.873045 0.0210422 0
0.904952 0.0272526 0
0.935958 0.0338903 0
0.967803 0.0424201 0
0.99968 0.0519722 0
1 0.0612345 0
1 0.0713054 0.00535592
1 0.0817731 0.0180667
1 0.0922408 0.030457
1 0.102266 0.0424048
1 0.111696 0.053666
1 0.120409 0.0641184
1 0.129198 0.0746471
1 0.137621 0.0844282
0 0.0932479 0
0 0.0973373 0
0 0.102754 0
0 0.11136 0
0 0.128786 0
0.0307469 0.130846 0
0.130831 0.115755 0
0.194903 0.108675 0
0.264683 0.10013 0
0.34728 0.0882277 0
0.442222 0.0730144 0
0.525475 0.0622416 0
0.590234 0.0566567 0
0.64033 0.0563516 0
0.684993 0.0574502 0
0.726406 0.0601053 0
0.765225 0.0639353 0
0.801999 0.0688182 0
0.837888 0.0750286 0
0.873014 0.0830396 0
0.907179 0.091722 0
0.940078 0.100999 0
0.972564 0.110643 0
1 0.120485 0
1 0.129793 0
1 0.138964 0
1 0.147936 0
1 0.156802 0.00862135
1 0.165484 0.0181277
1 0.1738 0.0271611
1 0.181735 0.0359503
1 0.189334 0.0441596
1 0.195911 0.0516518
0 0.151354 0
0 0.166186 0
0 0.173022 0
0 0.177966 0
0 0.181369 0
0.0084535 0.182483 0
0.109819 0.168338 0
0.183337 0.160693 0
0.257099 0.152361 0
0.341161 0.141344 0
0.435798 0.127565 0
0.519127 0.117449 0
0.585473 0.112642 0
0.637064 0.113146 0
0.68275 0.115557 0
0.72578 0.119982 0
0.767315 0.126665 0
0.806668 0.133989 0
0.844099 0.142061 0
0.879469 0.150469 0
0.913725 0.159487 0
0.946014 0.168521 0
0.976608 0.177218 0
1 0.185641 0
1 0.194064 0
1 0.202029 0
1 0.209659 0
1 0.217273 0
1 0.224552 0
1 0.230915 0
1 0.23624 0
1 0.241382 0.00192264
1 0.246128 0.0059968
0 0.21709 0
0 0.223285 0
0 0.229282 0
0 0.234409 0
0 0.238819 0
0 0.240711 0
0.0789502 0.228687 0
0.159243 0.221286 0
0.240101 0.212451 0
0.329 0.201633 0
0.423972 0.188708 0
0.508034 0.180072 0
0.576684 0.17792 0
0.630945 0.180896 0
0.678996 0.185168 0
0.723659 0.191196 0
0.765179 0.19826 0
0.804318 0.205707 0
0.841169 0.213031 0
0.874952 0.220249 0
0.906981 0.227619 0
0.937957 0.234989 0
0.967224 0.242252 0
0.995148 0.249348 0
1 0.256168 0
1 0.262455 0
1 0.267628 0
1 0.272206 0
1 0.276814 0
1 0.281224 0
1 0.285039 0
1 0.288716 0
1 0.292165 0
0 0.275853 0
0 0.28249 0
0 0.288197 0
0 0.293935 0
0 0.298344 0
0 0.300938 0
0.0496834 0.292012 0
0.129 0.287114 0
0.215091 0.280568 0
0.312261 0.270893 0
0.412802 0.260121 0
0.498939 0.253422 0
0.568475 0.251972 0
0.623178 0.254612 0
0.671672 0.258701 0
0.715969 0.263416 0
0.75697 0.268391 0
0.795178 0.273854 0
0.831037 0.279484 0
0.864546 0.28513 0
0.896452 0.290776 0
0.92639 0.296483 0
0.954253 0.301442 0
0.980453 0.305379 0
1 0.309026 0
1 0.312551 0
1 0.315938 0
1 0.318837 0
1 0.321904 0
1 0.324956 0
1 0.327855 0
1 0.330678 0
1 0.333318 0
0 0.331365 0
0 0.337682 0
0 0.343984 0
0 0.350225 0
0 0.355428 0
0 0.360327 0
0.0407111 0.356481 0
0.118517 0.35552 0
0.204929 0.351736 0
0.306645 0.342565 0
0.41091 0.331334 0
0.498131 0.323796 0
0.565957 0.32108 0
0.619394 0.322118 0
0.666743 0.324392 0
0.710384 0.327306 0
0.750195 0.33051 0
0.787472 0.334371 0
0.822385 0.338109 0
0.854383 0.341161 0
0.884047 0.343633 0
0.911955 0.346227 0
0.938674 0.348745 0
0.96405 0.350973 0
0.988602 0.352895 0
1 0.354879 0
1 0.356832 0
1 0.358846 0
1 0.360769 0
1 0.36289 0
1 0.365042 0
1 0.367163 0
1 0.368994 0
0 0.382727 0
0 0.390311 0
0 0.398947 0
0 0.407218 0
0 0.414923 0
0 0.42118 0
0.0539101 0.418997 0
0.127626 0.419364 0
0.211032 0.41619 0
0.311498 0.406058 0
0.415915 0.39321 0
0.503655 0.383795 0
0.570306 0.379583 0
0.622446 0.37911 0
0.668925 0.379919 0
0.711101 0.380835 0
0.749157 0.38143 0
0.78407 0.382025 0
0.81706 0.382895 0
0.847883 0.383871 0
0.876661 0.384771 0
0.904219 0.385626 0
0.930358 0.386755 0
0.955474 0.387961 0
0.979721 0.38912 0
1 0.390173 0
1 0.391363 0
1 0.392676 0
1 0.394095 0
1 0.395468 0
1 0.396918 0
1 0.39852 0
1 0.399969 0
0 0.439109 0
0 0.448524 0
0 0.457786 0
0 0.466102 0
0 0.473548 0
0 0.478737 0
0.072343 0.475395 0
0.143023 0.47454 0
0.223178 0.470665 0
0.322469 0.46009 0
0.42649 0.446052 0
0.513344 0.435035 0
0.578592 0.428794 0
0.628183 0.42533 0
0.671565 0.423102 0
0.711406 0.421683 0
0.74818 0.420798 0
0.782071 0.419898 0
0.814008 0.419333 0
0.844053 0.419211 0
0.872526 0.419409 0
0.899519 0.419623 0
0.925246 0.42005 0
0.950225 0.420569 0
0.974395 0.421149 0
0.997696 0.421759 0
1 0.422385 0
1 0.423194 0
1 0.424048 0
1 0.425071 0
1 0.426078 0
1 0.427268 0
1 0.428305 0
0 0.496864 0
0 0.505699 0
0 0.513527 0
0 0.520424 0
0 0.525994 0
0.0128023 0.529763 0
0.0894942 0.525383 0
0.158206 0.523293 0
0.235462 0.518273 0
0.332265 0.505806 0
0.432853 0.489403 0
0.517906 0.475792 0
0.581155 0.467552 0
0.630152 0.462638 0
0.67248 0.459129 0
0.711131 0.456535 0
0.746807 0.454597 0
0.780087 0.453086 0
0.811475 0.451896 0
0.841016 0.451133 0
0.869169 0.450645 0
0.896056 0.450507 0
0.921477 0.450446 0
0.945953 0.450492 0
0.969863 0.450629 0
0.992996 0.450843 0
1 0.450965 0
1 0.451331 0
1 0.451835 0
1 0.452476 0
1 0.453346 0
1 0.454002 0
1 0.454658 0
0 0.549508 0
0 0.556786 0
0 0.56318 0
0 0.568734 0
0 0.573144 0
0.0299992 0.575051 0
0.103014 0.568307 0
0.168399 0.563302 0
0.242405 0.5561 0
0.337285 0.54229 0
0.43595 0.525063 0
0.519783 0.510353 0
0.581765 0.501183 0
0.630289 0.495491 0
0.672602 0.491234 0
0.710781 0.487968 0
0.745754 0.485527 0
0.77879 0.483482 0
0.809857 0.481788 0
0.838987 0.480507 0
0.866728 0.479545 0
0.893034 0.478904 0
0.918364 0.478614 0
0.942641 0.478248 0
0.966201 0.477974 0
0.989227 0.477775 0
1 0.477638 0
1 0.477684 0
1 0.477836 0
1 0.478172 0
1 0.478737 0
1 0.479118 0
1 0.479515 0
0 0.596811 0
0 0.602396 0
0 0.606729 0
0 0.609354 0
0 0.610864 0
0.039826 0.61059 0
0.110552 0.602548 0
0.174563 0.596216 0
0.246311 0.588022 0
0.339605 0.573678 0
0.437568 0.556359 0
0.520897 0.541268 0
0.581994 0.531701 0
0.630121 0.525536 0
0.672602 0.520729 0
0.710597 0.516945 0
0.745342 0.513939 0
0.777874 0.511513 0
0.808484 0.509514 0
0.837293 0.507881 0
0.864668 0.506508 0
0.890684 0.505501 0
0.91577 0.50486 0
0.939941 0.504189 0
0.963272 0.503609 0
0.986023 0.50309 0
1 0.502663 0
1 0.502403 0
1 0.50248 0
1 0.502556 0
1 0.502678 0
1 0.502846 0
1 0.503029 0
0 0.635874 0
0 0.638895 0
0 0.641199 0
0 0.642512 0
0.00729381 0.642741 0
0.0467231 0.641321 0
0.11603 0.632532 0
0.179614 0.625528 0
0.250065 0.616922 0
0.342611 0.602258 0
0.438849 0.584894 0
0.521157 0.569757 0
0.581735 0.55996 0
0.629679 0.553429 0
0.672099 0.548196 0
0.710018 0.54403 0
0.744854 0.540581 0
0.777127 0.537728 0
0.807401 0.535393 0
0.835904 0.533471 0
0.863005 0.531884 0
0.88896 0.530678 0
0.913619 0.52958 0
0.937575 0.528618 0
0.960739 0.52781 0
0.983337 0.527047 0
1 0.52636 0
1 0.525933 0
1 0.52575 0
1 0.525567 0
1 0.525429 0
1 0.525353 0
1 0.525277 0
0 0.668025 0
0 0.669734 0
0 0.671 0
0 0.671565 0
0.013962 0.671183 0
0.0527047 0.669139 0
0.120882 0.659983 0
0.184039 0.652522 0
0.253834 0.643549 0
0.345541 0.628656 0
0.439948 0.611475 0
0.521508 0.596277 0
0.581353 0.586435 0
0.629175 0.579538 0
0.671321 0.573953 0
0.709392 0.569406 0
0.744274 0.565606 0
0.776562 0.562417 0
0.806607 0.559762 0
0.834836 0.557565 0
0.861692 0.55584 0
0.887465 0.554314 0
0.911925 0.552972 0
0.935653 0.551766 0
0.958633 0.550744 0
0.981079 0.549798 0
1 0.54902 0
1 0.548257 0
1 0.547738 0
1 0.547326 0
1 0.547005 0
1 0.546883 0
1 0.546624 0
0 0.696254 0
0 0.697368 0
0 0.698054 0
0 0.698238 0
0.019913 0.697429 0
0.0579995 0.694987 0
0.125429 0.68542 0
0.188434 0.67747 0
0.25742 0.668284 0
0.348348 0.653315 0
0.441596 0.636164 0
0.522072 0.621027 0
0.580804 0.61117 0
0.628733 0.604074 0
0.67071 0.598215 0
0.708827 0.593301 0
0.743725 0.589227 0
0.776043 0.585763 0
0.806119 0.582849 0
0.834333 0.58056 0
0.860868 0.5785 0
0.886351 0.576699 0
0.910658 0.575158 0
0.934173 0.573754 0
0.957031 0.572534 0
0.979309 0.571466 0
1 0.570367 0
1 0.56939 0
1 0.568627 0
1 0.568063 0
1 0.567605 0
1 0.567147 0
1 0.566705 0
0 0.722469 0
0 0.72311 0
0 0.723262 0
0 0.722988 0
0.0251011 0.721904 0
0.0627756 0.719142 0
0.129625 0.70927 0
0.19266 0.700832 0
0.261357 0.69131 0
0.351446 0.676326 0
0.443412 0.659373 0
0.522789 0.644434 0
0.580728 0.634607 0
0.628183 0.627253 0
0.670298 0.621164 0
0.70837 0.616022 0
0.743236 0.611658 0
0.775586 0.60795 0
0.805844 0.604959 0
0.833906 0.602274 0
0.860258 0.599985 0
0.885512 0.597925 0
0.909606 0.596185 0
0.933043 0.594736 0
0.955764 0.593286 0
0.977768 0.591928 0
0.99939 0.5906 0
1 0.589456 0
1 0.588708 0
1 0.587915 0
1 0.587167 0
1 0.586511 0
1 0.586023 0
0 0.746914 0
0 0.747204 0
0 0.747021 0
0 0.74641 0
0.0297246 0.744915 0
0.0670329 0.741863 0
0.133577 0.731731 0
0.19649 0.722957 0
0.265232 0.713054 0
0.354711 0.697978 0
0.445136 0.681331 0
0.523522 0.666667 0
0.580606 0.656779 0
0.627726 0.649287 0
0.669871 0.642985 0
0.707942 0.637659 0
0.742931 0.633234 0
0.775189 0.629297 0
0.805234 0.625879 0
0.833295 0.622965 0
0.859663 0.620462 0
0.884855 0.618372 0
0.908873 0.616403 0
0.93196 0.614618 0
0.954528 0.612955 0
0.976394 0.611444 0
0.998062 0.610117 0
1 0.608804 0
1 0.607706 0
1 0.606775 0
1 0.605982 0
1 0.605325 0
1 0.604562 0
0 0.76997 0
0 0.769909 0
0 0.769436 0
0.00292973 0.768627 0
0.0338903 0.766766 0
0.0708476 0.763424 0
0.13727 0.753002 0
0.20032 0.743908 0
0.268956 0.733776 0
0.358083 0.718669 0
0.446738 0.702434 0
0.52372 0.687831 0
0.580438 0.677928 0
0.627359 0.670298 0
0.669261 0.663828 0
0.70721 0.658518 0
0.741985 0.653773 0
0.774319 0.649607 0
0.804532 0.645914 0
0.832609 0.642741 0
0.859113 0.640162 0
0.884047 0.637797 0
0.908003 0.63563 0
0.930907 0.633707 0
0.95346 0.631998 0
0.975158 0.63035 0
0.996567 0.628733 0
1 0.627298 0
1 0.626184 0
1 0.625101 0
1 0.624125 0
1 0.62324 0
1 0.622385 0
0 0.791867 0
0 0.791501 0
0 0.79089 0
0.0068513 0.789715 0
0.037583 0.78764 0
0.0742962 0.78407 0
0.14052 0.773358 0
0.203876 0.763912 0
0.27274 0.753582 0
0.360845 0.738552 0
0.448508 0.722332 0
0.524086 0.707927 0
0.579797 0.698146 0
0.626719 0.69044 0
0.668605 0.683986 0
0.706401 0.678294 0
0.741192 0.673304 0
0.773495 0.66894 0
0.803677 0.665232 0
0.831983 0.661906 0
0.858305 0.658976 0
0.883253 0.656397 0
0.90724 0.654093 0
0.930175 0.652155 0
0.952453 0.650202 0
0.974029 0.648402 0
0.995346 0.646693 0
1 0.645228 0
1 0.643915 0
1 0.642725 0
1 0.641764 0
1 0.640787 0
1 0.639811 0
0 0.81265 0
0 0.812253 0
0 0.811307 0
0.0104524 0.809842 0
0.0408179 0.80763 0
0.0770581 0.803937 0
0.143648 0.79295 0
0.207095 0.783276 0
0.276432 0.772457 0
0.363729 0.757321 0
0.450095 0.741329 0
0.524163 0.727321 0
0.579339 0.717662 0
0.626108 0.709758 0
0.667613 0.70309 0
0.705486 0.697246 0
0.740337 0.692302 0
0.772549 0.687785 0
0.802594 0.683787 0
0.830716 0.680293 0
0.857237 0.677195 0
0.882338 0.674617 0
0.90631 0.672114 0
0.929137 0.669886 0
0.951339 0.667796 0
0.972961 0.666056 0
0.994141 0.66421 0
1 0.662547 0
1 0.661189 0
1 0.659937 0
1 0.658763 0
1 0.657679 0
1 0.656764 0
0 0.832578 0
0 0.83183 0
0 0.830732 0
0.014023 0.829053 0
0.0440986 0.826612 0
0.0799268 0.822889 0
0.14638 0.811749 0
0.209903 0.801724 0
0.279698 0.790539 0
0.366339 0.775326 0
0.451392 0.759716 0
0.524208 0.745922 0
0.578637 0.736233 0
0.624826 0.728389 0
0.666453 0.721584 0
0.704326 0.715724 0
0.739086 0.710475 0
0.771374 0.705837 0
0.801465 0.701732 0
0.829633 0.698207 0
0.856184 0.694942 0
0.881209 0.692073 0
0.905196 0.689448 0
0.928222 0.687251 0
0.950454 0.685023 0
0.971862 0.683009 0
0.992981 0.681117 0
1 0.679469 0
1 0.677989 0
1 0.6766 0
1 0.675486 0
1 0.674327 0
1 0.673198 0
0 0.851453 0
0 0.850507 0
0 0.849165 0
0.01738 0.847364 0
0.0475013 0.844907 0
0.082826 0.84094 0
0.14905 0.829526 0
0.212772 0.819226 0
0.282643 0.807874 0
0.36878 0.792844 0
0.452232 0.777325 0
0.523629 0.76379 0
0.577691 0.754131 0
0.623835 0.746395 0
0.665324 0.739498 0
0.703029 0.73344 0
0.737743 0.728069 0
0.770092 0.723461 0
0.800107 0.719249 0
0.828183 0.715526 0
0.854765 0.712184 0
0.879927 0.709285 0
0.903822 0.706569 0
0.926909 0.704067 0
0.949203 0.701762 0
0.970794 0.699763 0
0.991806 0.697734 0
1 0.695918 0
1 0.694484 0
1 0.693049 0
1 0.691722 0
1 0.690623 0
1 0.689418 0
0 0.86952 0
0 0.868376 0
0 0.867018 0
0.020737 0.864988 0
0.0504005 0.862257 0
0.0854658 0.858183 0
0.151781 0.846632 0
0.215793 0.836179 0
0.286107 0.824491 0
