luts/lumix_color_lab_A/dramaticviolet_33.cube
TITLE "Generated by Resolve"
LUT_3D_SIZE 5
0 0 0
0.240391 0 0
0.700481 0 0
0.937331 0 0
1 0 0.0474556
0 0.151354 0
0.257099 0.152361 0
0.767315 0.126665 0
1 0.194064 0
1 0.246128 0.0059968
0 0.596811 0
0.246311 0.588022 0
0.745342 0.513939 0
0.963272 0.503609 0
1 0.503029 0
0 0.81265 0
0.276432 0.772457 0
0.740337 0.692302 0
0.951339 0.667796 0
1 0.656764 0
0 0.951461 0
0.301915 0.899931 0
0.73257 0.823896 0
0.944961 0.794064 0
1 0.777737 0
0 0 0.159625
0.165301 0 0.168368
0.593545 0 0.196277
0.827451 0 0.31043
0.992706 0 0.478019
0 0.181964 0.179156
0.177752 0.177722 0.177737
0.685496 0.16614 0.259312
0.945083 0.224338 0.353628
1 0.262623 0.415442
0 0.617441 0.214511
0.198749 0.5841 0.19617
0.650355 0.524758 0.0959182
0.86833 0.511589 0.136553
1 0.509651 0.174441
0 0.8159 0.283726
0.223011 0.761654 0.219425
0.631678 0.699779 0.0544137
0.850996 0.673136 0.0658122
1 0.661006 0.0936904
0 0.949233 0.324422
0.242542 0.886854 0.238239
0.615869 0.829129 0.0568704
0.839063 0.798688 0.0285649
0.996384 0.780911 0.0450446
0 0 0.501411
0 0 0.619196
0.538415 0 0.545602
0.778698 0 0.630594
0.957519 0 0.701457
0 0.233005 0.482658
0 0.242115 0.533776
0.613825 0.204379 0.617746
0.838651 0.260609 0.679088
0.994598 0.291356 0.721981
0 0.628351 0.622034
0.113634 0.592035 0.588678
0.533928 0.533913 0.533928
0.74342 0.522301 0.561975
0.900221 0.520989 0.589029
0 0.828504 0.634867
0.118929 0.770901 0.574044
0.530907 0.694697 0.529809
0.730526 0.677424 0.496086
0.886625 0.665064 0.521767
0 0.964462 0.63772
0.142519 0.894057 0.571939
0.534844 0.815793 0.532967
0.711009 0.801846 0.47155
0.874815 0.783276 0.470695
0 0 0.654749
0 0 0.79147
0.541711 0 0.748135
0.789807 0 0.798779
0.972045 0 0.861738
0 0.283528 0.603906
0 0.292256 0.702419
0.611017 0.231815 0.830045
0.839918 0.273991 0.84535
0.979553 0.304372 0.863706
0 0.637964 0.802197
0.0935683 0.602564 0.756878
0.45272 0.56141 0.684977
0.708904 0.534142 0.710597
0.848249 0.53698 0.729458
0 0.828458 0.820783
0.0998398 0.771328 0.766598
0.497642 0.700542 0.699123
0.684459 0.684459 0.684474
0.83505 0.673747 0.702708
0 0.964981 0.816815
0.0998093 0.900084 0.751583
0.497169 0.822538 0.683543
0.68043 0.799924 0.679652
0.827008 0.788357 0.656306
0 0.0203403 0.768856
0 0 0.91426
0.556771 0 0.91899
0.803601 0 0.943786
0.997559 0 1
0 0.329 0.704189
0 0.341039 0.834531
0.578103 0.269413 0.996887
0.838056 0.286992 0.985489
0.980056 0.313588 0.986481
0 0.655421 0.918975
0.051606 0.626245 0.847379
0.39707 0.584329 0.797162
0.678523 0.544182 0.858534
0.84123 0.541894 0.844129
0 0.831235 0.955764
0.0932021 0.773831 0.898695
0.46659 0.711818 0.806119
0.624216 0.703426 0.793423
0.809461 0.682017 0.810712
0 0.964523 0.955825
0.0918135 0.899504 0.893828
0.476448 0.825269 0.822828
0.656458 0.804456 0.803433
0.79379 0.793805 0.79382
