luts/lumix_color_lab_A/HollywoodBlue_Night.cube
TITLE "Generated by Resolve"
LUT_3D_SIZE 33
0 0 0
0.00395209 0 0
0.0187839 0 0.00015259
0.0377203 0 0.00149538
0.0614939 0 0.00381476
0.0902419 0 0.00306706
0.122103 0 0.000534066
0.151446 0 0
0.180224 0 0
0.214237 0 0
0.249042 0 0
0.290181 0 0
0.332921 0 0
0.379263 0 0
0.425849 0 0
0.472404 0 0
0.515557 0 0
0.55346 0 0
0.585916 0 0
0.611826 0.00157168 0
0.631861 0.00367742 0
0.645777 0.00410468 0
0.659693 0.00451667 0
0.673625 0.00492866 0
0.687541 0.00534066 0
0.701518 0.00582895 0
0.71548 0.00628672 0
0.729381 0.00668345 0.000183108
0.743297 0.00708019 0.000579843
0.757198 0.00747692 0.000976577
0.771084 0.00787366 0.00135805
0.785077 0.00836194 0.00184634
0.799191 0.00875868 0.00225834
0 0.00476081 0.000640879
0.00509651 0.00509651 0.000976577
0.0200809 0.00556954 0.00144961
0.0388037 0.00598154 0.00282292
0.0607004 0.00645457 0.00503548
0.0899977 0.00679026 0.00415045
0.122377 0.00704967 0.00202945
0.152178 0.00772107 0
0.181643 0.00828565 0
0.215656 0.00874342 0
0.251255 0.00914015 0
0.292561 0.00929274 0
0.335851 0.00955215 0
0.382849 0.0100862 0
0.429297 0.0104982 0
0.476005 0.0109102 0
0.518532 0.0113985 0
0.55642 0.0119631 0
0.588113 0.0142061 0
0.614466 0.0179446 0
0.633204 0.0196231 0
0.64712 0.0200351 0
0.661036 0.0204318 0
0.674937 0.0208438 0
0.688914 0.0213169 0.00030518
0.702876 0.0217746 0.00077821
0.716777 0.0221714 0.00115969
0.730663 0.0225528 0.00155642
0.744549 0.0229343 0.00192264
0.758434 0.0233158 0.00230411
0.772412 0.0237888 0.00277714
0.786313 0.0241855 0.00317388
0.800366 0.0245212 0.00352483
0 0.0205844 0.00196841
0.00648508 0.0209812 0.00236515
0.0213626 0.0213626 0.00273136
0.0379644 0.0219577 0.00410468
0.0554971 0.0227207 0.00610361
0.0860761 0.0229038 0.00549325
0.120226 0.0230411 0.00442512
0.150515 0.0235294 0.00138857
0.181353 0.0240482 0
0.215625 0.0246586 0
0.252232 0.0251011 0
0.293919 0.0252384 0
0.338476 0.0256199 0
0.385122 0.0260319 0
0.432135 0.0264439 0
0.479271 0.0268559 0
0.52108 0.0273136 0
0.559426 0.0278325 0
0.590402 0.0304723 0
0.6168 0.0341497 0
0.634531 0.0355383 3.0518e-05
0.648432 0.0359503 0.000427253
0.662333 0.036347 0.000839246
0.676356 0.0368658 0.00135805
0.690242 0.0372473 0.00173953
0.704128 0.0376287 0.00210575
0.718013 0.0380102 0.00248722
0.731884 0.0383764 0.00285344
0.745815 0.0387884 0.00328069
0.759731 0.0392004 0.00369268
0.773571 0.0395514 0.00402838
0.78764 0.0398871 0.00436408
0.801465 0.0402075 0.00469978
0 0.039704 0.00311284
0.00779736 0.0398413 0.0034638
0.0227054 0.0396582 0.00378424
0.0381628 0.0397498 0.00489815
0.0538338 0.0399329 0.00630198
0.0847181 0.0395209 0.00688182
0.117006 0.0389563 0.00698863
0.148898 0.0394141 0.00355535
0.181308 0.0399176 0.00047303
0.215595 0.040589 0
0.253483 0.0411536 0
0.295476 0.0412757 0
0.340383 0.0415656 0
0.387579 0.0419776 0
0.434974 0.0423896 0
0.482277 0.0428016 0
0.524086 0.0433509 0
0.562692 0.0437781 0.000228885
0.592447 0.0466316 0.00062562
0.619272 0.0503548 0.00102235
0.635813 0.0514229 0.00140383
0.649729 0.0518349 0.00181582
0.663706 0.0523232 0.00230411
0.677592 0.0526894 0.00267033
0.691463 0.0530556 0.00303655
0.705318 0.0534066 0.0033875
0.719173 0.0537575 0.00373846
0.733074 0.0541543 0.00411994
0.74699 0.054551 0.00453193
0.760815 0.0548714 0.00485237
0.774624 0.0551766 0.00515755
0.788647 0.0554665 0.00544747
0.802441 0.0557565 0.00573739
0 0.0610971 0.00415045
0.00918593 0.0605325 0.00445563
0.024094 0.059205 0.00471504
0.0391241 0.0583658 0.00543221
0.054078 0.0575265 0.00616464
0.0836652 0.0563668 0.00843824
0.113741 0.0556649 0.00965896
0.147143 0.0564584 0.00590524
0.180987 0.0572366 0.002533
0.215839 0.0581674 0
0.254597 0.0582284 0
0.296727 0.057557 0
0.34258 0.0575113 0
0.390051 0.057908 0
0.437598 0.0583047 0.000289921
0.485908 0.0588388 0.000823987
0.526604 0.0592355 0.00120546
0.565484 0.059617 0.0016022
0.594476 0.0627604 0.00196841
0.621546 0.0664683 0.00234989
0.637049 0.0672618 0.00273136
0.651026 0.0677348 0.00321965
0.664881 0.0680858 0.00357061
0.678737 0.0684367 0.00390631
0.692576 0.0687724 0.00424201
0.706416 0.0690929 0.00457771
0.720363 0.0695506 0.00502022
0.734173 0.0698405 0.00531014
0.747982 0.0701305 0.00560006
0.761776 0.0704204 0.00588998
0.77557 0.0706951 0.00616464
0.789593 0.0710002 0.00646983
0.803418 0.0713054 0.00679026
0 0.092256 0.00755322
0.0106203 0.0917525 0.00776684
0.0256199 0.0908675 0.00796521
0.040589 0.0899825 0.00820935
0.0563516 0.0890822 0.00868238
0.0802777 0.0884718 0.0121462
0.107378 0.0880446 0.0137484
0.143679 0.088014 0.0103304
0.179706 0.0872816 0.00648508
0.214923 0.0852064 0.00180056
0.255116 0.0807355 0.000198367
0.297871 0.0747387 0.000503548
0.344488 0.0734722 0.000885023
0.39263 0.0739147 0.00137331
0.440589 0.0743114 0.00178531
0.488899 0.0746929 0.00216678
0.529061 0.0750591 0.002533
0.568032 0.0754253 0.00289921
0.596399 0.0788434 0.00326543
0.62414 0.0826886 0.00373846
0.6383 0.0831159 0.00407416
0.65214 0.0834516 0.00440986
0.66598 0.083772 0.0047303
0.679805 0.0840772 0.00503548
0.693614 0.0843824 0.00534066
0.70753 0.0847944 0.00575265
0.721325 0.085069 0.00604257
0.735103 0.0853437 0.00630198
0.748867 0.0855879 0.00656138
0.762615 0.0858167 0.00679026
0.776394 0.0860914 0.00704967
0.790417 0.0863966 0.00735485
0.804135 0.0865949 0.00755322
0 0.125399 0.0120851
0.012192 0.12491 0.0123293
0.0271153 0.123995 0.0124056
0.0420233 0.122927 0.0123293
0.0577707 0.122057 0.0130159
0.0768597 0.121874 0.0167697
0.102922 0.121904 0.0181125
0.1402 0.121843 0.0155032
0.176974 0.120058 0.0113832
0.213352 0.117052 0.00619516
0.254688 0.110384 0.00370794
0.297704 0.102586 0.00216678
0.345586 0.0984054 0.00231937
0.393851 0.0944533 0.00271611
0.442542 0.0925154 0.00308232
0.491341 0.0905928 0.00343328
0.531044 0.090837 0.00376898
0.570336 0.0911727 0.00411994
0.598413 0.0949874 0.00457771
0.625544 0.0984665 0.00489815
0.639353 0.0987564 0.00520333
0.653147 0.0990616 0.00549325
0.666957 0.0993515 0.00578317
0.680751 0.0996262 0.00605783
0.694636 0.100008 0.00645457
0.7084 0.100252 0.00668345
0.722148 0.100481 0.00691234
0.735882 0.10071 0.00714122
0.749615 0.100923 0.00735485
0.763439 0.101244 0.00767529
0.777127 0.101411 0.00784314
0.791012 0.101564 0.00799573
0.8047 0.101717 0.00814832
0 0.160601 0.0198672
0.0136263 0.159945 0.0200046
0.0285344 0.159289 0.0201419
0.0434424 0.158541 0.0202029
0.0587015 0.157946 0.0207828
0.0747845 0.157809 0.0226444
0.100053 0.158083 0.0229343
0.135424 0.15877 0.021561
0.172656 0.157687 0.0183413
0.210971 0.155566 0.0141299
0.253254 0.149447 0.00903334
0.29659 0.142428 0.00364691
0.345098 0.130297 0.00360113
0.393729 0.117586 0.00395209
0.443519 0.111772 0.00428778
0.493034 0.106126 0.00460822
0.532937 0.106523 0.00502022
0.571664 0.107134 0.00535592
0.599908 0.110735 0.00564584
0.626505 0.113939 0.0059205
0.640284 0.114199 0.00619516
0.654047 0.114458 0.00645457
0.667918 0.114809 0.00680552
0.681666 0.115038 0.00704967
0.695399 0.115267 0.00726329
0.709133 0.115465 0.00747692
0.722835 0.115648 0.00766003
0.736522 0.115801 0.00782788
0.750317 0.116091 0.00810254
0.763973 0.116228 0.00825513
0.77763 0.116365 0.0083772
0.79147 0.116457 0.00848402
0.805081 0.116548 0.00856031
0.000137331 0.199359 0.0261234
0.0150301 0.198871 0.0263371
0.0299382 0.19855 0.0265965
0.0448615 0.19823 0.0268559
0.0598459 0.198077 0.0274357
0.0747387 0.197986 0.0282597
0.0967575 0.198444 0.0279393
0.123552 0.199603 0.0268101
0.161791 0.19939 0.0244297
0.204028 0.1991 0.0217899
0.249088 0.194217 0.0161288
0.293889 0.188632 0.0101778
0.343404 0.176699 0.00759899
0.392676 0.165133 0.00508125
0.44303 0.155535 0.00537118
0.492638 0.146181 0.00575265
0.533211 0.135866 0.00607309
0.572045 0.126833 0.00634775
0.601099 0.128115 0.0065919
0.627329 0.129122 0.00682078
0.641077 0.129335 0.00704967
0.654917 0.129656 0.00737011
0.668635 0.12987 0.00758373
0.682338 0.130037 0.00776684
0.69601 0.13019 0.00791943
0.709697 0.130358 0.00807202
0.723354 0.130495 0.00822461
0.737118 0.130724 0.00846876
0.750729 0.130816 0.00856031
0.76434 0.130892 0.00863661
0.777935 0.130968 0.0087129
0.79173 0.131029 0.00877394
0.805417 0.131182 0.00892653
0.00151064 0.241688 0.0310063
0.0163882 0.241443 0.0314946
0.031281 0.241047 0.0320287
0.0462806 0.241093 0.0327306
0.0611429 0.240681 0.0332494
0.0760052 0.240269 0.0337072
0.0915847 0.240757 0.0329137
0.106966 0.241917 0.0314641
0.148852 0.242954 0.0303655
0.196109 0.244297 0.0294804
0.243626 0.240299 0.023743
0.291035 0.236149 0.0179446
0.340673 0.227176 0.01178
0.390433 0.217426 0.00646983
0.442237 0.204578 0.00674449
0.491783 0.189944 0.00671397
0.533303 0.169497 0.00694286
0.572503 0.153262 0.00717174
0.602564 0.1523 0.00738537
0.628809 0.151629 0.00764477
0.642313 0.150301 0.00787366
0.655741 0.14847 0.00802625
0.669291 0.146654 0.00817884
0.682841 0.145113 0.00831617
0.696483 0.145022 0.00842298
0.710185 0.145052 0.00860609
0.723812 0.145144 0.0087129
0.737408 0.14522 0.00877394
0.750988 0.145266 0.00881971
0.764538 0.145281 0.00885023
0.778073 0.145281 0.00885023
0.791913 0.145388 0.00895705
0.805432 0.145388 0.00894179
0.00280766 0.292515 0.0299992
0.0178073 0.292821 0.0304875
0.0326543 0.292714 0.030869
0.0475013 0.292592 0.0312657
0.0623484 0.292744 0.0315862
0.0771801 0.292638 0.0318608
0.0920272 0.292851 0.0315099
0.106889 0.293263 0.0310826
0.13547 0.296101 0.0300145
0.165728 0.299046 0.0288548
0.22153 0.297047 0.0271916
0.277165 0.294163 0.0249943
0.331014 0.2869 0.0196841
0.385275 0.278981 0.0146792
0.438804 0.268009 0.0106508
0.490257 0.256367 0.00750744
0.534447 0.2421 0.00769055
0.575692 0.229892 0.00784314
0.607584 0.222416 0.00807202
0.633753 0.212985 0.00827039
0.645396 0.198657 0.00840772
0.657359 0.184466 0.00849927
0.67013 0.170993 0.00857557
0.683146 0.161181 0.00865187
0.696834 0.160143 0.00880446
0.710445 0.159396 0.00888075
0.72398 0.159411 0.00889601
0.737514 0.159411 0.00889601
0.751034 0.159396 0.00888075
0.764553 0.15938 0.00886549
0.778164 0.159457 0.00895705
0.791852 0.159411 0.00889601
0.805341 0.159365 0.00883497
0.00416571 0.345815 0.0272221
0.0189975 0.34612 0.0276036
0.0338293 0.34638 0.027985
0.0486305 0.346227 0.0283665
0.0634318 0.346456 0.0286717
0.078233 0.3467 0.0289464
0.0931716 0.346685 0.0294194
0.107866 0.346487 0.0297704
0.122408 0.350469 0.028748
0.14139 0.35407 0.0280003
0.199527 0.354559 0.029984
0.257267 0.353735 0.0306401
0.317403 0.348028 0.0264134
0.376349 0.341253 0.0217441
0.432685 0.331884 0.0155947
0.486168 0.322652 0.0109407
0.532647 0.314092 0.0100862
0.575784 0.304829 0.00947585
0.609018 0.293675 0.00939956
0.635737 0.279011 0.00923171
0.64744 0.258259 0.00895705
0.65948 0.237675 0.0087892
0.67219 0.218677 0.00886549
0.685252 0.205341 0.00894179
0.698894 0.202579 0.00892653
0.712489 0.200412 0.00892653
0.725978 0.198932 0.00889601
0.739498 0.198169 0.00886549
0.753063 0.197681 0.00888075
0.766583 0.197223 0.00886549
0.780056 0.196872 0.00880446
0.793683 0.196048 0.00872816
0.807095 0.195407 0.00863661
0.00527962 0.409308 0.0240635
0.0200656 0.409674 0.0243229
0.0348669 0.409659 0.0245975
0.0496529 0.409964 0.0248264
0.0645304 0.410376 0.0251316
0.0792859 0.410315 0.0252995
0.0940414 0.409903 0.0254978
0.10869 0.409491 0.0256962
0.123201 0.410468 0.0252995
0.140429 0.411963 0.0254673
0.172839 0.417029 0.0288853
0.215641 0.419181 0.0308537
0.288746 0.413169 0.0292973
0.358343 0.406317 0.0274968
0.418814 0.397345 0.0251011
0.475532 0.389075 0.0219272
0.523735 0.382803 0.0168917
0.567498 0.375586 0.0130922
0.602899 0.368383 0.0122988
0.63183 0.358465 0.0112764
0.647761 0.343771 0.00982681
0.663035 0.329366 0.00889601
0.676951 0.316045 0.00895705
0.69073 0.30428 0.00892653
0.704601 0.298604 0.00888075
0.718364 0.29366 0.00881971
0.731884 0.289662 0.00875868
0.745495 0.286748 0.00877394
0.75903 0.284657 0.00874342
0.772473 0.282231 0.00865187
0.785885 0.2804 0.00854505
0.799496 0.278935 0.0084535
0.812879 0.278279 0.00834669
0.00627146 0.472816 0.0221561
0.0210269 0.472969 0.0224613
0.0357671 0.473091 0.0227359
0.0506142 0.473655 0.0231632
0.0653544 0.473762 0.0234073
0.0800641 0.473854 0.0236057
0.0947738 0.473579 0.0238041
0.109346 0.472831 0.0239567
0.123796 0.471275 0.0240787
0.138247 0.472236 0.0251011
0.152438 0.478523 0.0286412
0.184848 0.481727 0.0314031
0.258854 0.478035 0.0324254
0.3308 0.472343 0.0331121
0.399237 0.463264 0.0331273
0.462058 0.455451 0.0314031
0.512459 0.449699 0.0258183
0.558404 0.444327 0.0218967
0.59527 0.439734 0.0213779
0.626337 0.43357 0.0203555
0.64567 0.424643 0.0186007
0.66334 0.414832 0.0168612
0.677791 0.405325 0.0162661
0.692149 0.396185 0.0155642
0.706142 0.38909 0.0151522
0.720088 0.382284 0.0146639
0.733745 0.377554 0.0144198
0.747372 0.372824 0.0139925
0.760937 0.369299 0.0136263
0.774487 0.366125 0.0132753
0.787991 0.363775 0.0129549
0.801709 0.362509 0.0128481
0.815213 0.361868 0.0126345
0.0071107 0.538735 0.0284581
0.0218204 0.538964 0.0286564
0.0366522 0.539666 0.0289616
0.0513313 0.539879 0.0290684
0.0659953 0.539696 0.0291905
0.0806592 0.539513 0.0292973
0.0953231 0.539376 0.0294041
0.109957 0.539223 0.0295415
0.124346 0.53756 0.0293736
0.138613 0.536873 0.0295262
0.152758 0.538094 0.0307317
0.17763 0.539544 0.0326085
0.224018 0.54258 0.035996
0.283177 0.541314 0.0382696
0.367636 0.530617 0.0378729
0.442329 0.52105 0.0381476
0.498146 0.514717 0.0398718
0.547967 0.5093 0.0416266
0.585458 0.505379 0.0432746
0.617731 0.501411 0.0442817
0.638514 0.494728 0.0425269
0.65713 0.48806 0.0407416
0.671244 0.480186 0.0383612
0.685283 0.472892 0.0362097
0.699214 0.466926 0.0345769
0.713069 0.462074 0.0333104
0.726741 0.457893 0.032166
0.740368 0.454078 0.0310979
0.753933 0.451209 0.0302739
0.767498 0.448585 0.0295262
0.781094 0.446708 0.0290379
0.794858 0.445121 0.0286107
0.808301 0.444419 0.0283207
0.0078584 0.603082 0.0393378
0.0225834 0.603326 0.0397345
0.037232 0.603204 0.0398718
0.0518654 0.603082 0.0399481
0.0664836 0.602945 0.0401007
0.0810712 0.602777 0.0402533
0.0957656 0.602747 0.0405432
0.110277 0.601877 0.0403754
0.124605 0.600809 0.040116
0.138796 0.599145 0.0396277
0.15288 0.59675 0.0390326
0.170932 0.597223 0.040238
0.19707 0.604089 0.0455024
0.245716 0.604562 0.0486305
0.33817 0.594415 0.0486915
0.421012 0.585046 0.0506142
0.482704 0.577157 0.0561685
0.537133 0.570748 0.0611429
0.576364 0.56817 0.0652628
0.610117 0.56463 0.0675975
0.632807 0.56054 0.0671092
0.652766 0.555886 0.0657054
0.666438 0.549905 0.0622568
0.680232 0.544778 0.0594034
0.693919 0.540337 0.0569314
0.707591 0.536248 0.0546883
0.721172 0.533135 0.0529793
0.734737 0.5299 0.0511635
0.748287 0.527779 0.049958
0.761852 0.526268 0.049134
0.775357 0.524437 0.0480659
0.789029 0.523186 0.0473182
0.802426 0.522225 0.0466773
0.00843824 0.661921 0.0641642
0.0230411 0.66186 0.0641794
0.0376287 0.661768 0.0641642
0.0522011 0.661341 0.0639658
0.0667735 0.661234 0.06392
0.0814374 0.661219 0.0639811
0.0959793 0.660517 0.0635843
0.110369 0.659739 0.0631418
0.124651 0.658549 0.0624552
0.138811 0.65713 0.0616617
0.152941 0.655131 0.0606088
0.168566 0.655177 0.0615396
0.186999 0.659266 0.066453
0.227619 0.659693 0.0702831
0.31487 0.65333 0.0723583
0.396155 0.645411 0.0745556
0.465629 0.635264 0.0778058
0.526268 0.626841 0.0813611
0.56791 0.623072 0.086244
0.604837 0.619593 0.0904402
0.630365 0.6168 0.093019
0.652491 0.613443 0.0939651
0.665949 0.609064 0.0910964
0.679332 0.604578 0.0881514
0.69279 0.600626 0.0856336
0.706233 0.597269 0.0834974
0.719661 0.594293 0.0816815
0.733104 0.591882 0.0802014
0.746639 0.590143 0.0791485
0.760052 0.588449 0.0780804
0.77348 0.586786 0.076997
0.787076 0.585641 0.0762188
0.800458 0.584649 0.0755627
0.00875868 0.715862 0.0911421
0.0233158 0.715526 0.0908675
0.0378424 0.715389 0.0908217
0.0523995 0.715023 0.0905623
0.0669718 0.7149 0.0905165
0.0814679 0.714488 0.090135
0.0959793 0.713649 0.0893416
0.110338 0.712993 0.0887312
0.124575 0.711742 0.0876326
0.138766 0.710857 0.0869154
0.152819 0.708919 0.0852369
0.166705 0.70837 0.0854505
0.180133 0.710018 0.0890059
0.213397 0.710292 0.0930037
0.2916 0.707332 0.0978408
0.370138 0.701762 0.101671
0.447745 0.689113 0.101915
0.515846 0.678752 0.103563
0.560357 0.67422 0.108736
0.600397 0.670451 0.113802
0.62829 0.668711 0.118502
0.652689 0.666606 0.121462
0.6663 0.663066 0.118837
0.679744 0.659495 0.116106
0.692927 0.656794 0.113939
0.706081 0.654017 0.111711
0.719448 0.652384 0.110552
0.732647 0.650278 0.108919
0.745907 0.648676 0.107637
0.759182 0.647379 0.106615
0.772442 0.646174 0.105577
0.785916 0.645045 0.104601
0.799298 0.644678 0.10425
0.00888075 0.760327 0.123507
0.0233768 0.760006 0.123156
0.0379034 0.759716 0.122896
0.0524605 0.759686 0.122927
0.0669108 0.759106 0.122271
0.0813611 0.75874 0.121828
0.0958419 0.757946 0.121004
0.11017 0.757366 0.120394
0.124498 0.756603 0.119585
0.138582 0.755383 0.118288
0.152575 0.753735 0.116594
0.166445 0.752407 0.115389
0.179843 0.751858 0.115419
0.207752 0.751858 0.118715
0.270863 0.752148 0.128954
0.341146 0.748425 0.135607
0.429755 0.734325 0.13312
0.507424 0.722042 0.131899
0.555184 0.715709 0.135225
0.598581 0.710521 0.138872
0.627665 0.708659 0.14316
0.653773 0.70663 0.146212
0.669398 0.703868 0.144778
0.684459 0.701137 0.143145
0.697475 0.698924 0.141024
0.710613 0.696895 0.139116
0.723705 0.695003 0.137392
0.736782 0.693156 0.135698
0.74992 0.691981 0.134569
0.763043 0.690593 0.133257
0.776257 0.689479 0.13228
0.789822 0.688716 0.13164
0.803067 0.688014 0.130968
0.00886549 0.800626 0.153552
0.0234226 0.800412 0.153262
0.0378576 0.800122 0.152926
0.0523079 0.79968 0.152407
0.066743 0.79939 0.151995
0.0811627 0.798947 0.151354
0.0956436 0.798321 0.150576
0.110033 0.797864 0.150011
0.124208 0.796994 0.148898
0.138293 0.796033 0.147677
0.152255 0.79472 0.146059
0.166094 0.793225 0.144198
0.179538 0.791302 0.141787
0.201953 0.790661 0.143694
0.248951 0.792844 0.15642
0.309453 0.79115 0.165484
0.409552 0.776822 0.161883
0.49897 0.76379 0.159411
0.54995 0.755566 0.1608
0.596613 0.748608 0.162676
0.62678 0.746426 0.166308
0.65478 0.744472 0.169482
0.672465 0.742733 0.169482
0.689357 0.740963 0.169116
0.702327 0.739361 0.167224
0.71516 0.737575 0.165118
0.728115 0.736156 0.16347
0.741054 0.734752 0.161852
0.753994 0.733715 0.16054
0.767102 0.732937 0.159533
0.780255 0.732082 0.158694
0.793622 0.731243 0.157855
0.806821 0.730739 0.157259
0.00880446 0.832975 0.17937
0.0232395 0.83267 0.178973
0.0376593 0.832227 0.178393
0.0520638 0.8318 0.177813
0.0664683 0.831342 0.177203
0.0809033 0.831067 0.176806
0.0953994 0.830549 0.176104
0.109682 0.829908 0.17528
0.123842 0.829129 0.174273
0.137896 0.82826 0.173159
0.151843 0.827039 0.171557
0.165789 0.825788 0.169909
0.179156 0.824094 0.167681
0.195941 0.822858 0.167758
0.224445 0.823957 0.176562
0.271275 0.822431 0.183505
0.387243 0.811399 0.1841
0.491249 0.80032 0.184237
0.544594 0.789151 0.182528
0.594415 0.77937 0.181613
0.626154 0.776669 0.184756
0.656153 0.774029 0.187488
0.67631 0.772793 0.188907
0.695491 0.771328 0.189731
0.708309 0.769635 0.187716
0.721126 0.767941 0.185733
0.73402 0.766644 0.184146
0.746914 0.765332 0.182559
0.760021 0.764584 0.181598
0.773007 0.763607 0.180377
0.786084 0.762646 0.179339
0.79942 0.761807 0.17847
0.812604 0.761273 0.177859
0.00856031 0.860273 0.198352
0.0229496 0.859968 0.197971
0.0373541 0.859678 0.197574
0.0517433 0.859403 0.197147
0.0662242 0.85922 0.196887
0.0805982 0.858885 0.196445
0.0949874 0.858473 0.195895
0.10927 0.858015 0.195254
0.123415 0.85745 0.194553
0.137453 0.856855 0.193774
0.151476 0.85597 0.192554
0.165301 0.854948 0.191165
0.178653 0.853666 0.189395
0.19202 0.852613 0.188861
0.205371 0.852735 0.193851
0.237659 0.85156 0.19884
0.365377 0.843915 0.203738
0.482216 0.835309 0.207111
0.538689 0.821897 0.203204
0.59205 0.809674 0.199985
0.625071 0.806226 0.20235
0.657176 0.803082 0.204807
0.679545 0.802121 0.20734
0.701167 0.801007 0.209445
0.714061 0.799451 0.20766
0.72694 0.797971 0.205936
0.739818 0.796872 0.204532
0.752834 0.795972 0.203326
0.76582 0.795026 0.202167
0.778744 0.793957 0.200839
0.791867 0.793149 0.199954
0.80499 0.792355 0.199069
0.818463 0.791882 0.19852
0.00822461 0.876982 0.202899
0.0225834 0.876753 0.202625
0.0369573 0.876539 0.20235
0.0514382 0.876448 0.202213
0.0657969 0.876173 0.201862
0.0801404 0.875929 0.201556
0.0945144 0.875593 0.201129
0.108766 0.875288 0.200748
0.122911 0.874937 0.20032
0.137026 0.874632 0.199924
0.150927 0.874037 0.19913
0.164736 0.873396 0.198291
0.178088 0.872679 0.197345
0.19144 0.872007 0.196796
0.204883 0.872038 0.1991
0.231998 0.871412 0.202304
0.354055 0.867353 0.212299
0.470344 0.862287 0.220783
0.530221 0.84863 0.216495
0.588556 0.835676 0.212741
0.62298 0.831327 0.214481
0.656855 0.82707 0.21619
0.67982 0.825849 0.218616
0.702693 0.824613 0.220996
0.717067 0.823377 0.220127
0.731441 0.822187 0.219287
0.744366 0.821103 0.217929
0.757198 0.819974 0.216495
0.770153 0.819028 0.215351
0.783154 0.818189 0.214343
0.796292 0.817502 0.213581
0.809537 0.816907 0.212924
0.82295 0.816449 0.212406
0.00779736 0.892699 0.206073
0.0222477 0.892638 0.206012
0.0366064 0.8925 0.205875
0.0509499 0.892348 0.205707
0.0652781 0.892195 0.205539
0.0796216 0.892027 0.205371
0.0939651 0.891859 0.205188
0.108309 0.891783 0.205097
0.122423 0.8916 0.204898
0.136416 0.891417 0.204715
0.150317 0.891234 0.204501
0.164111 0.891035 0.204288
0.177478 0.890837 0.204089
0.190906 0.89073 0.203967
0.204227 0.890517 0.203754
0.225772 0.890288 0.20473
0.342901 0.889784 0.219699
0.45774 0.88864 0.233738
0.521477 0.874983 0.229404
0.584787 0.861463 0.225223
0.620447 0.856306 0.226398
0.656107 0.85098 0.22739
0.679988 0.849546 0.229831
0.703639 0.848173 0.232303
0.71989 0.847211 0.232425
0.735698 0.846265 0.23241
0.74873 0.845106 0.231083
0.761486 0.843854 0.229526
0.774472 0.842985 0.228504
0.787427 0.842054 0.227405
0.800717 0.84155 0.226856
0.81384 0.840803 0.226017
0.827237 0.840314 0.225467
0.00738537 0.905837 0.205661
0.0217441 0.905699 0.205524
0.0360723 0.905531 0.205341
0.0503853 0.905364 0.205158
0.0646982 0.90518 0.204959
0.0790112 0.904997 0.204761
0.0934615 0.904921 0.204669
0.107683 0.904723 0.204471
0.121782 0.904524 0.204257
0.135775 0.904326 0.204044
0.14966 0.904128 0.203815
0.163439 0.903914 0.203601
0.176913 0.903807 0.203479
0.190219 0.903578 0.203235
0.20354 0.903365 0.203006
0.21912 0.903151 0.203128
0.328206 0.903365 0.218189
0.438285 0.903685 0.233463
0.506981 0.890257 0.229206
0.575113 0.876921 0.224979
0.613947 0.871489 0.22649
0.651484 0.866392 0.228214
0.677028 0.865339 0.231418
0.701671 0.864622 0.23476
0.719692 0.86424 0.23621
0.736873 0.863828 0.237354
0.750484 0.863142 0.236744
0.76347 0.862333 0.235782
0.776593 0.861753 0.235111
0.789761 0.861219 0.234485
0.80296 0.860716 0.233936
0.816144 0.860182 0.233356
0.829587 0.859785 0.232929
0.0068513 0.918868 0.205127
0.021149 0.918685 0.204929
0.035462 0.918502 0.20473
0.0497749 0.918318 0.204532
0.0641489 0.918196 0.20441
0.0784619 0.918029 0.204211
0.0927749 0.917815 0.203998
0.107012 0.917617 0.203784
0.121096 0.917403 0.203555
0.135073 0.917189 0.203326
0.14905 0.917067 0.203189
0.162829 0.916854 0.20296
0.176211 0.916625 0.202716
0.189502 0.916396 0.202472
0.202808 0.916152 0.202213
0.216098 0.915923 0.201968
0.315099 0.916945 0.216846
0.416358 0.917876 0.231983
0.491127 0.905592 0.228931
0.564538 0.892409 0.224765
0.607202 0.886625 0.226459
0.646387 0.881651 0.228733
0.673884 0.880812 0.232593
0.699214 0.880476 0.236469
0.71902 0.880583 0.239124
0.737591 0.88072 0.241398
0.751888 0.88043 0.241505
0.765118 0.880049 0.241062
0.778363 0.879698 0.240665
0.791547 0.87924 0.240146
0.804746 0.878843 0.239719
0.817945 0.878401 0.239231
0.831373 0.878035 0.238819
0.00622568 0.931823 0.204501
0.0205081 0.931624 0.204288
0.0348058 0.931411 0.204074
0.0491646 0.931273 0.203922
0.0634775 0.931105 0.203738
0.07776 0.930892 0.20351
0.0920577 0.930678 0.203281
0.106279 0.930449 0.203037
0.120348 0.930236 0.202792
0.134417 0.930098 0.202655
0.148302 0.92987 0.202411
0.162066 0.929641 0.202167
0.175448 0.929397 0.201907
0.188739 0.929168 0.201648
0.202029 0.928923 0.201389
0.215412 0.928771 0.201236
0.302861 0.929641 0.214862
0.397604 0.930617 0.229816
