luts/lumix_color_lab_A/HollywoodBlue_Night.cube
TITLE "Generated by Resolve"
LUT_3D_SIZE 5
0 0 0
0.180224 0 0
0.515557 0 0
0.687541 0.00534066 0
0.799191 0.00875868 0.00225834
0.000137331 0.199359 0.0261234
0.161791 0.19939 0.0244297
0.533211 0.135866 0.00607309
0.69601 0.13019 0.00791943
0.805417 0.131182 0.00892653
0.00843824 0.661921 0.0641642
0.124651 0.658549 0.0624552
0.465629 0.635264 0.0778058
0.69279 0.600626 0.0856336
0.800458 0.584649 0.0755627
0.00738537 0.905837 0.205661
0.121782 0.904524 0.204257
0.328206 0.903365 0.218189
0.719692 0.86424 0.23621
0.829587 0.859785 0.232929
0.00157168 1 0.199847
0.115404 1 0.197772
0.254429 1 0.202991
0.704097 0.969543 0.229221
0.826352 0.968963 0.234821
0 0 0.165515
0.189014 0 0.178576
0.532189 0 0.11632
0.700038 0.00451667 0.116503
0.811597 0.00772107 0.119127
0.00175479 0.195087 0.180194
0.164141 0.188342 0.198703
0.548653 0.129427 0.127504
0.707271 0.128664 0.124163
0.81529 0.129335 0.124636
0.00866712 0.658961 0.19118
0.124636 0.654627 0.186572
0.462394 0.630243 0.195514
0.692683 0.594568 0.197971
0.800275 0.577585 0.187228
0.00689708 0.905379 0.320958
0.121279 0.904051 0.319554
0.321767 0.902922 0.332815
0.717983 0.862531 0.349828
0.828473 0.85803 0.346822
0.000885023 1 0.315038
0.114687 1 0.312963
0.249058 1 0.317372
0.702266 0.96875 0.343908
0.825727 0.968338 0.350134
0.00468452 0.0666209 0.58114
0.135637 0.0285344 0.610391
0.575051 0 0.596872
0.771054 0.00120546 0.60415
0.882246 0.00422675 0.616556
0.00906386 0.209155 0.61976
0.133837 0.193408 0.638926
0.590524 0.123186 0.632944
0.777859 0.124468 0.633783
0.886442 0.124636 0.632502
0.00885023 0.644434 0.598657
0.124559 0.638621 0.596796
0.512932 0.611933 0.659556
0.793698 0.56492 0.646235
0.89958 0.54255 0.635264
0.0138552 0.898024 0.622614
0.128069 0.896437 0.617761
0.338827 0.894926 0.628885
0.781506 0.877134 0.646174
0.893111 0.869703 0.63679
0.0053254 1 0.599802
0.118227 0.998154 0.593423
0.258549 0.996963 0.592172
0.754406 0.986297 0.61178
0.880262 0.983902 0.608881
0 0.0920424 0.894041
0.111437 0.0923476 0.897215
0.532341 0 0.90042
0.763149 0.00233463 0.903609
0.87425 0.00518807 0.906279
0.00337224 0.21915 0.904585
0.12192 0.221881 0.907149
0.550042 0.123735 0.908873
0.769162 0.124575 0.909682
0.877607 0.124559 0.909651
0.00891127 0.619257 0.894469
0.1243 0.611917 0.894423
0.408423 0.54226 0.90869
0.776226 0.455055 0.907469
0.88542 0.424353 0.90605
0.00596628 0.897642 0.87425
0.120058 0.894957 0.87158
0.291981 0.888808 0.87454
0.781704 0.861616 0.90164
0.904524 0.854353 0.899565
0 1 0.861906
0.113161 0.999451 0.858412
0.221576 0.997436 0.854292
0.765225 0.990448 0.89482
0.914748 0.991394 0.892912
0 0.0932937 1
0.112535 0.0946975 1
0.529763 0.000106813 1
0.763684 0.00328069 1
0.874739 0.00605783 1
0.0043946 0.220325 1
0.12256 0.222675 1
0.545754 0.124193 1
0.768933 0.124651 1
0.877165 0.124407 1
0.00891127 0.611612 1
0.124102 0.603128 1
0.396872 0.52575 1
0.774762 0.431907 1
0.88365 0.395743 1
0.00543221 0.896056 0.999054
0.119448 0.89305 0.997284
0.277607 0.885466 1
0.775158 0.854536 1
0.899565 0.846937 1
0 1 0.992721
0.112444 0.999161 0.990707
0.220829 0.99707 0.988632
0.759884 0.987396 1
0.906844 0.990066 1
