luts/lumix_color_lab_A/HollywoodBlue_Night.cube
TITLE "Generated by Resolve"
LUT_3D_SIZE 9
0 0 0
0.0614939 0 0.00381476
0.180224 0 0
0.332921 0 0
0.515557 0 0
0.631861 0.00367742 0
0.687541 0.00534066 0
0.743297 0.00708019 0.000579843
0.799191 0.00875868 0.00225834
0 0.0610971 0.00415045
0.054078 0.0575265 0.00616464
0.180987 0.0572366 0.002533
0.34258 0.0575113 0
0.526604 0.0592355 0.00120546
0.637049 0.0672618 0.00273136
0.692576 0.0687724 0.00424201
0.747982 0.0701305 0.00560006
0.803418 0.0713054 0.00679026
0.000137331 0.199359 0.0261234
0.0598459 0.198077 0.0274357
0.161791 0.19939 0.0244297
0.343404 0.176699 0.00759899
0.533211 0.135866 0.00607309
0.641077 0.129335 0.00704967
0.69601 0.13019 0.00791943
0.750729 0.130816 0.00856031
0.805417 0.131182 0.00892653
0.00527962 0.409308 0.0240635
0.0645304 0.410376 0.0251316
0.123201 0.410468 0.0252995
0.288746 0.413169 0.0292973
0.523735 0.382803 0.0168917
0.647761 0.343771 0.00982681
0.704601 0.298604 0.00888075
0.75903 0.284657 0.00874342
0.812879 0.278279 0.00834669
0.00843824 0.661921 0.0641642
0.0667735 0.661234 0.06392
0.124651 0.658549 0.0624552
0.186999 0.659266 0.066453
0.465629 0.635264 0.0778058
0.630365 0.6168 0.093019
0.69279 0.600626 0.0856336
0.746639 0.590143 0.0791485
0.800458 0.584649 0.0755627
0.00880446 0.832975 0.17937
0.0664683 0.831342 0.177203
0.123842 0.829129 0.174273
0.179156 0.824094 0.167681
0.387243 0.811399 0.1841
0.626154 0.776669 0.184756
0.708309 0.769635 0.187716
0.760021 0.764584 0.181598
0.812604 0.761273 0.177859
0.00738537 0.905837 0.205661
0.0646982 0.90518 0.204959
0.121782 0.904524 0.204257
0.176913 0.903807 0.203479
0.328206 0.903365 0.218189
0.613947 0.871489 0.22649
0.719692 0.86424 0.23621
0.776593 0.861753 0.235111
0.829587 0.859785 0.232929
0.00483711 0.95758 0.203113
0.0619516 0.956741 0.202213
0.118853 0.955871 0.201282
0.173938 0.95494 0.200275
0.282643 0.954894 0.210941
0.589578 0.928222 0.223377
0.711894 0.918975 0.234913
0.77641 0.91902 0.239521
0.82974 0.918013 0.238453
0.00157168 1 0.199847
0.0585641 1 0.198825
0.115404 1 0.197772
0.170535 1 0.196628
0.254429 1 0.202991
0.571878 0.982605 0.219638
0.704097 0.969543 0.229221
0.772976 0.969924 0.235843
0.826352 0.968963 0.234821
0 0 0.0611734
0.0579843 0 0.0660868
0.180896 0 0.0579538
0.333745 0 0.0522621
0.516442 0 0.0540169
0.63241 0.00419623 0.0557107
0.68809 0.00593576 0.0574502
0.743832 0.00767529 0.0591745
0.79968 0.00929274 0.0607919
0 0.0570993 0.0631113
0.0550546 0.0552529 0.0654307
0.180545 0.057847 0.0633097
0.343648 0.0580911 0.0580911
0.527825 0.0598001 0.0598001
0.637537 0.0677806 0.0612802
0.693034 0.0692607 0.0627451
0.748379 0.0705577 0.0640574
0.803677 0.0715801 0.0650797
0.000717174 0.196368 0.0851148
0.0603037 0.194842 0.086244
0.161532 0.195499 0.0856641
0.34406 0.171832 0.0661479
0.533776 0.132784 0.0644999
0.641382 0.129671 0.0654002
0.696254 0.130449 0.0661936
0.750866 0.130968 0.0667277
0.805341 0.131106 0.066865
0.00572213 0.408011 0.082536
0.0647746 0.408209 0.0834058
0.123476 0.408377 0.0835737
0.288396 0.410681 0.0873579
0.523156 0.37911 0.0743114
0.647547 0.338689 0.0676127
0.704738 0.295277 0.066865
0.758968 0.280903 0.0666667
0.812696 0.274495 0.0662394
0.00860609 0.661143 0.121859
0.0668498 0.66009 0.121294
0.124666 0.657008 0.119631
0.186297 0.656992 0.122942
0.463478 0.633036 0.134157
0.629953 0.61474 0.149493
0.692683 0.598321 0.142107
0.746532 0.587716 0.135653
0.80029 0.581659 0.131762
0.00874342 0.832227 0.236301
0.0663615 0.83032 0.233906
0.123705 0.828092 0.231022
0.178988 0.822843 0.22414
0.383719 0.810315 0.240146
0.624842 0.775555 0.241154
0.707698 0.768414 0.244297
0.759228 0.762921 0.237797
0.812009 0.759838 0.234318
0.0071107 0.905577 0.263401
0.0644694 0.904967 0.262745
0.121538 0.904295 0.262013
0.176654 0.903532 0.261219
0.324865 0.903136 0.275547
0.61236 0.871092 0.283711
0.718914 0.863432 0.293187
0.776059 0.860945 0.292165
0.829007 0.859037 0.289967
0.00451667 0.95729 0.260807
0.0616312 0.956451 0.259907
0.118532 0.955566 0.258976
0.173587 0.954604 0.257939
0.279637 0.954543 0.268193
0.587655 0.928252 0.281025
0.711101 0.918593 0.292348
0.776059 0.918685 0.297185
0.829404 0.917678 0.296101
0.00122072 1 0.257527
0.0582132 1 0.256489
0.115053 1 0.255436
0.170169 1 0.254261
0.251865 1 0.260243
0.570077 0.982681 0.277272
0.703288 0.969146 0.286625
0.772641 0.969589 0.293507
0.826032 0.968643 0.2925
0 0 0.165515
0.0612955 0 0.173449
0.189014 0 0.178576
0.350561 0 0.14255
0.532189 0 0.11632
0.645945 0.00247196 0.116411
0.700038 0.00451667 0.116503
0.755337 0.00622568 0.117601
0.811597 0.00772107 0.119127
0.0034638 0.0628214 0.173495
0.0637827 0.0652323 0.177127
0.185046 0.0634623 0.186954
0.36083 0.0586862 0.151553
0.543679 0.0603342 0.124086
0.651698 0.0657664 0.121035
0.705486 0.0675364 0.121004
0.760327 0.068864 0.12224
0.815717 0.0697185 0.123125
0.00175479 0.195087 0.180194
0.0623026 0.194018 0.183291
0.164141 0.188342 0.198703
0.361456 0.163058 0.166995
0.548653 0.129427 0.127504
0.654368 0.127642 0.123461
0.707271 0.128664 0.124163
0.761059 0.129259 0.124575
0.81529 0.129335 0.124636
0.00610361 0.406348 0.182269
0.0651255 0.406027 0.183429
0.123842 0.404959 0.186969
0.299245 0.408225 0.194354
0.53341 0.37348 0.158389
0.655818 0.329809 0.140551
0.711223 0.289357 0.130327
0.764385 0.274617 0.125292
0.817838 0.268238 0.123857
0.00866712 0.658961 0.19118
0.0668956 0.657832 0.189746
0.124636 0.654627 0.186572
0.186954 0.654154 0.188678
0.462394 0.630243 0.195514
0.629953 0.611566 0.206989
0.692683 0.594568 0.197971
0.74638 0.58323 0.190707
0.800275 0.577585 0.187228
0.00854505 0.830579 0.291951
0.0662394 0.828931 0.28986
0.123552 0.826474 0.286595
0.178714 0.821088 0.279622
0.379034 0.808957 0.295293
0.622965 0.773846 0.296559
0.706874 0.76669 0.300023
0.758511 0.761257 0.29369
0.811154 0.757977 0.289906
0.00689708 0.905379 0.320958
0.0642405 0.904753 0.320302
0.121279 0.904051 0.319554
0.176287 0.903166 0.318624
0.321767 0.902922 0.332815
0.610437 0.870542 0.340459
0.717983 0.862531 0.349828
0.775509 0.859983 0.349004
0.828473 0.85803 0.346822
0.00421149 0.957015 0.318334
0.061326 0.956161 0.317433
0.118212 0.955261 0.316487
0.17322 0.954238 0.315404
0.2757 0.954177 0.325154
0.585626 0.928313 0.338506
0.710094 0.918059 0.349538
0.775723 0.918334 0.354742
0.829053 0.917342 0.353674
0.000885023 1 0.315038
0.0578622 1 0.314015
0.114687 1 0.312963
0.169833 1 0.311803
0.249058 1 0.317372
0.56788 0.982879 0.334936
0.702266 0.96875 0.343908
0.77232 0.969268 0.351125
0.825727 0.968338 0.350134
0.0137789 0.0196841 0.336629
0.0732128 0.0222629 0.343236
0.170306 0 0.365637
0.362844 0 0.349752
0.567727 0 0.303883
0.687404 0 0.297276
0.742885 0.00062562 0.298268
0.799313 0.00228885 0.303227
0.856062 0.0037232 0.309392
0.0188602 0.0873579 0.354482
0.0784161 0.0902724 0.360601
0.163287 0.0647135 0.383185
0.371252 0.0595865 0.368353
0.580652 0.0607767 0.324086
0.695659 0.0623026 0.317372
0.750759 0.0636606 0.317159
0.806485 0.0648356 0.320272
0.862135 0.0656748 0.323369
0.0115663 0.20116 0.363302
0.0718547 0.199908 0.368917
0.149508 0.178058 0.39115
0.369604 0.137102 0.391379
0.587549 0.123186 0.33666
0.700587 0.123705 0.327184
0.754452 0.124331 0.323537
0.808545 0.124636 0.322332
0.862791 0.124651 0.321584
0.00646983 0.401419 0.357717
0.0654612 0.401129 0.360403
0.12398 0.398413 0.364294
0.313664 0.391928 0.413779
0.582025 0.351202 0.376638
0.703059 0.300893 0.348806
0.760235 0.267582 0.335058
0.812711 0.250568 0.325658
0.865782 0.244587 0.321386
0.00875868 0.653529 0.382895
0.0669261 0.652018 0.381888
0.124605 0.648768 0.379461
0.196048 0.644678 0.388098
0.505333 0.631479 0.407599
0.671275 0.604837 0.391348
0.732219 0.585733 0.376455
0.784466 0.573373 0.365789
0.837476 0.566857 0.359609
0.0084535 0.823545 0.445899
0.0661021 0.822003 0.442588
0.123369 0.819654 0.437476
0.1785 0.814313 0.426795
0.392645 0.808911 0.432807
0.642313 0.774258 0.415488
0.725216 0.765286 0.41062
0.775723 0.759426 0.400702
0.827405 0.756039 0.394354
0.00666819 0.90219 0.440284
0.0639963 0.901656 0.436515
0.121004 0.901076 0.432593
0.176013 0.90042 0.427466
0.319448 0.901793 0.431876
0.618799 0.873167 0.428473
0.725948 0.862684 0.43061
0.783261 0.859968 0.427222
0.835065 0.857572 0.422049
0.00392157 0.95462 0.421729
0.0610056 0.953887 0.417624
0.1178 0.953048 0.41297
0.1729 0.9523 0.407813
0.272129 0.952926 0.410025
0.589166 0.93138 0.415229
0.713985 0.918868 0.419959
0.779843 0.91899 0.42295
0.832471 0.91783 0.420005
0.000534066 1 0.405722
0.057496 1 0.401266
0.114229 1 0.396338
0.169482 1 0.39118
0.245518 1 0.391409
0.567666 0.985061 0.403113
0.703349 0.968856 0.406943
0.773892 0.96936 0.412573
0.826688 0.968307 0.409934
0.00468452 0.0666209 0.58114
0.0636301 0.0687114 0.586755
0.135637 0.0285344 0.610391
0.31722 0 0.624887
0.575051 0 0.596872
0.715404 0 0.600061
0.771054 0.00120546 0.60415
0.826551 0.00274662 0.609934
0.882246 0.00422675 0.616556
0.00834669 0.132036 0.600931
0.0675669 0.134508 0.607904
0.13756 0.107424 0.626551
0.323308 0.0598306 0.645274
0.586191 0.0613107 0.61886
0.720119 0.0627909 0.62237
0.775448 0.0640879 0.624826
0.830442 0.0650645 0.628122
0.885542 0.0659342 0.632105
0.00906386 0.209155 0.61976
0.0682689 0.21033 0.625788
0.133837 0.193408 0.638926
0.31902 0.122301 0.662135
0.590524 0.123186 0.632944
0.722744 0.123964 0.634302
0.777859 0.124468 0.633783
0.83212 0.124605 0.632868
0.886442 0.124636 0.632502
0.00677501 0.389364 0.611826
0.0657511 0.389303 0.615641
0.124193 0.385931 0.618128
0.249882 0.335103 0.674662
0.582345 0.275135 0.673625
0.734936 0.25185 0.655116
0.790158 0.215686 0.643091
0.839719 0.196277 0.631861
0.891997 0.192279 0.626398
0.00885023 0.644434 0.598657
0.0669413 0.642466 0.598184
0.124559 0.638621 0.596796
0.18056 0.630701 0.601862
0.512932 0.611933 0.659556
0.728084 0.585931 0.657694
0.793698 0.56492 0.646235
0.846372 0.55021 0.639948
0.89958 0.54255 0.635264
0.00834669 0.816083 0.617334
0.0659495 0.814359 0.615122
0.123186 0.811719 0.611719
0.178302 0.806226 0.605264
0.407187 0.799771 0.63473
0.697368 0.781521 0.650675
0.792447 0.770672 0.648234
0.844816 0.764324 0.641749
0.897032 0.760708 0.636942
0.0138552 0.898024 0.622614
0.0711528 0.897292 0.620371
0.128069 0.896437 0.617761
0.182986 0.895552 0.614557
0.338827 0.894926 0.628885
0.661799 0.88777 0.649302
0.781506 0.877134 0.646174
0.84126 0.872694 0.642008
0.893111 0.869703 0.63679
0.00999466 0.949294 0.610422
0.0668803 0.948379 0.607752
0.123384 0.947326 0.6047
0.177996 0.946334 0.601068
0.290913 0.946807 0.608316
0.627344 0.947784 0.632242
0.766506 0.937377 0.629358
0.835492 0.936477 0.629648
0.887846 0.934951 0.625559
0.0053254 1 0.599802
0.0619364 0.999298 0.596811
0.118227 0.998154 0.593423
0.172869 0.997116 0.589868
0.258549 0.996963 0.592172
0.602502 1 0.617121
0.754406 0.986297 0.61178
0.82771 0.985443 0.613199
0.880262 0.983902 0.608881
0 0.08542 0.7906
0.0511635 0.0872206 0.794476
0.113054 0.0811933 0.801831
0.261387 0 0.827268
0.55317 0 0.815869
0.711254 6.10361e-05 0.819242
0.766903 0.00177005 0.822217
0.822293 0.00325017 0.825452
0.877897 0.0047303 0.829038
0 0.149706 0.8038
0.0569772 0.151736 0.808194
0.119356 0.143267 0.816175
0.26804 0.0617075 0.836622
0.56463 0.0618296 0.827726
0.714961 0.0632486 0.831113
0.770901 0.0644846 0.833448
0.825895 0.0654002 0.835431
0.880934 0.0661936 0.837415
0.00285344 0.213886 0.816419
0.0623789 0.215488 0.819883
0.121599 0.213687 0.824491
0.262074 0.130602 0.844083
0.568399 0.123476 0.836469
0.716213 0.124178 0.838132
0.773007 0.124529 0.838483
0.827253 0.124636 0.838529
0.881559 0.12459 0.838422
0.00714122 0.371527 0.808743
0.0660105 0.370733 0.810788
0.124361 0.367163 0.812665
0.218204 0.314382 0.839185
0.541863 0.188663 0.849592
0.723278 0.192905 0.845502
0.774624 0.180758 0.837201
0.826825 0.179599 0.832685
0.880766 0.179156 0.831312
0.00888075 0.629435 0.78349
0.0669108 0.627283 0.783383
0.124498 0.623224 0.782971
0.179843 0.612879 0.788495
0.444663 0.57084 0.838285
0.710933 0.530236 0.846082
0.787152 0.503517 0.843915
0.841306 0.484901 0.842847
0.89543 0.475868 0.841718
0.00820935 0.808865 0.777432
0.0657969 0.806897 0.776013
0.122896 0.803891 0.773953
0.178088 0.798367 0.771145
0.362814 0.789181 0.789715
0.68307 0.765362 0.821363
0.798245 0.751125 0.830091
0.853162 0.743908 0.828763
0.906447 0.739971 0.826917
0.00621042 0.898726 0.773892
0.0634775 0.897826 0.772045
0.120348 0.896681 0.769741
0.175448 0.894606 0.767071
0.315297 0.891661 0.773037
0.657267 0.880156 0.800458
0.801846 0.870436 0.809934
0.869383 0.86659 0.810178
0.92253 0.863905 0.807355
0.00329595 0.950149 0.764172
0.0603494 0.949248 0.761883
0.117113 0.948211 0.759213
0.172244 0.947173 0.756436
0.270726 0.947051 0.757748
0.630533 0.944106 0.787625
0.7944 0.940139 0.801114
0.873747 0.94052 0.80734
0.928008 0.939345 0.805325
0 1 0.755337
0.056733 1 0.752697
0.113512 0.999039 0.750011
0.168811 0.998016 0.747082
0.24242 0.997375 0.745403
0.609094 0.99559 0.776394
0.785107 0.991073 0.790997
0.868147 0.991547 0.798779
0.925216 0.991058 0.798077
0 0.0920424 0.894041
0.0517433 0.0937209 0.895598
0.111437 0.0923476 0.897215
0.235248 0.00334173 0.898833
0.532341 0 0.90042
0.706249 0.000656138 0.902052
0.763149 0.00233463 0.903609
0.818616 0.00376898 0.904952
0.87425 0.00518807 0.906279
0 0.15581 0.899382
0.0575875 0.15758 0.90103
0.117174 0.156268 0.902647
0.244221 0.0740368 0.904051
0.546578 0.0623331 0.90547
0.709682 0.0636912 0.906722
0.767239 0.0648051 0.907759
0.822232 0.0656901 0.908598
0.877211 0.0664073 0.90927
0.00337224 0.21915 0.904585
0.0628672 0.220615 0.905959
0.12192 0.221881 0.907149
0.244343 0.140887 0.908064
0.550042 0.123735 0.908873
0.711162 0.124346 0.909453
0.769162 0.124575 0.909682
0.823362 0.124651 0.909743
0.877607 0.124559 0.909651
0.00746166 0.354788 0.9084
0.0662699 0.353582 0.909133
0.124437 0.349004 0.909529
0.206287 0.29984 0.909728
0.5178 0.180362 0.909743
0.709728 0.180224 0.909606
0.768887 0.179843 0.909224
0.82266 0.179461 0.908843
0.876554 0.178988 0.90837
0.00891127 0.619257 0.894469
0.0668803 0.616938 0.894575
0.1243 0.611917 0.894423
0.179736 0.60087 0.895888
0.408423 0.54226 0.90869
0.693721 0.486198 0.90811
0.776226 0.455055 0.907469
0.831098 0.43508 0.906798
0.88542 0.424353 0.90605
0.00807202 0.803037 0.880812
0.0656138 0.800961 0.880003
0.122683 0.797803 0.878798
0.177874 0.791821 0.877241
0.344274 0.780804 0.8907
0.665599 0.752087 0.905165
0.783444 0.735668 0.90483
0.838773 0.726741 0.90396
0.891768 0.722057 0.903029
0.00596628 0.897642 0.87425
0.0632029 0.896483 0.87303
0.120058 0.894957 0.87158
0.175158 0.892454 0.869871
0.291981 0.888808 0.87454
0.638148 0.872251 0.898665
0.781704 0.861616 0.90164
0.851804 0.857511 0.900664
0.904524 0.854353 0.899565
0.00297551 0.950515 0.867781
0.0599069 0.949508 0.866117
0.116762 0.948547 0.86453
0.171923 0.94757 0.862638
0.243961 0.947066 0.86273
0.605417 0.943175 0.89041
0.775036 0.937682 0.898207
0.857023 0.936019 0.8972
0.91368 0.934127 0.896117
0 1 0.861906
0.0563058 1 0.860136
0.113161 0.999451 0.858412
0.168475 0.998444 0.856504
0.221576 0.997436 0.854292
0.579629 0.995209 0.882368
0.765225 0.990448 0.89482
0.853605 0.991455 0.893889
0.914748 0.991394 0.892912
0 0.0927291 0.948684
0.0523384 0.0944228 0.950271
0.112032 0.0939193 0.951919
0.230671 0.0110475 0.95346
0.528603 0 0.955108
0.705364 0.00123598 0.956725
0.763195 0.00274662 0.958129
0.818738 0.00427253 0.959548
0.874342 0.00563058 0.960815
0 0.156527 0.95407
0.0581826 0.158282 0.955718
0.117723 0.15996 0.957305
0.240574 0.0783551 0.958679
0.543221 0.0628214 0.960052
0.709117 0.0641184 0.961257
0.767224 0.0650797 0.962158
0.822156 0.0659648 0.962966
0.877073 0.0665904 0.963561
0.00389105 0.219837 0.959197
0.0633249 0.221225 0.96051
0.122286 0.222385 0.961608
0.239719 0.14374 0.962509
0.546014 0.12398 0.963226
0.710491 0.124483 0.963714
0.768902 0.12462 0.963836
0.823041 0.124636 0.963851
0.877241 0.124498 0.963714
0.00775158 0.345251 0.962798
0.0664683 0.343877 0.963455
0.124514 0.338949 0.963745
0.2038 0.292805 0.963882
0.511498 0.180331 0.963821
0.7066 0.180087 0.963592
0.768292 0.179736 0.963241
0.822003 0.179324 0.962829
0.875837 0.178805 0.96231
0.00892653 0.613489 0.954711
0.0668193 0.610681 0.954849
0.124208 0.605447 0.955032
0.179599 0.593896 0.9552
0.399954 0.530175 0.962661
0.689326 0.467033 0.96202
0.774639 0.438193 0.961379
0.829358 0.416037 0.960678
0.883604 0.403189 0.959854
0.00793469 0.799878 0.946197
0.0653544 0.797406 0.945708
0.122469 0.794369 0.945113
0.17763 0.787976 0.94461
0.333913 0.776684 0.954314
0.657313 0.745968 0.959518
0.77792 0.728557 0.958663
0.83357 0.719265 0.957778
0.886152 0.713451 0.956756
0.00570687 0.896635 0.944472
0.0628061 0.895247 0.943572
0.119753 0.893721 0.942641
0.174853 0.891005 0.941497
0.281682 0.886519 0.945846
0.631067 0.86804 0.956405
0.776867 0.856245 0.955444
0.847791 0.85211 0.954452
0.900755 0.848966 0.953353
0.00265507 0.950484 0.940261
0.0595712 0.949462 0.939116
0.116426 0.948501 0.937972
0.171588 0.947524 0.936568
0.228489 0.9467 0.936156
0.600824 0.941466 0.952987
0.770184 0.933501 0.951995
0.849393 0.931304 0.950988
0.90663 0.929259 0.94992
0 1 0.936019
0.0559548 1 0.934737
0.112795 0.99939 0.933471
0.168139 0.998383 0.932036
0.221164 0.997284 0.930037
0.573602 0.993912 0.949569
0.761334 0.988128 0.948623
0.8448 0.989929 0.947616
0.906523 0.99028 0.946746
0 0.0932937 1
0.0529335 0.0950179 1
0.112535 0.0946975 1
0.230762 0.0134432 1
0.529763 0.000106813 1
0.705577 0.00180056 1
0.763684 0.00328069 1
0.819196 0.00476081 1
0.874739 0.00605783 1
0 0.157137 1
0.0587778 0.158877 1
0.118151 0.160418 1
0.240803 0.0794385 1
0.543877 0.0632792 1
0.709392 0.0645151 1
0.767529 0.0654154 1
0.822385 0.0662089 1
0.877226 0.0667277 1
0.0043946 0.220325 1
0.0637522 0.221653 1
0.12256 0.222675 1
0.239185 0.144259 1
0.545754 0.124193 1
0.710353 0.124498 1
0.768933 0.124651 1
0.823011 0.124605 1
0.877165 0.124407 1
0.00801099 0.342962 1
0.0666361 0.341512 1
0.12459 0.336828 1
0.203265 0.290761 1
0.509178 0.180285 1
0.705699 0.17995 1
0.76817 0.179599 1
0.821851 0.179156 1
0.875624 0.178592 1
0.00891127 0.611612 1
0.0667277 0.608438 1
0.124102 0.603128 1
0.179461 0.591363 1
0.396872 0.52575 1
0.688411 0.46099 1
0.774762 0.431907 1
0.829404 0.409964 1
0.88365 0.395743 1
0.00776684 0.798627 1
0.0651255 0.796033 0.999832
0.12224 0.792889 0.999268
0.177401 0.786465 0.998749
0.330282 0.774777 1
0.654902 0.743832 1
0.776989 0.725887 1
0.832822 0.716411 1
0.885328 0.710552 1
0.00543221 0.896056 0.999054
0.0625162 0.894652 0.998108
0.119448 0.89305 0.997284
0.174548 0.890257 0.996323
0.277607 0.885466 1
0.627894 0.866758 1
0.775158 0.854536 1
0.846571 0.850217 1
0.899565 0.846937 1
0.00225834 0.950195 0.996094
0.0592355 0.949218 0.995117
0.116075 0.948257 0.994156
0.171252 0.94728 0.993164
0.224277 0.946349 0.993118
0.597711 0.940871 1
0.76849 0.93193 1
0.847807 0.92932 1
0.905669 0.927352 1
0 1 0.992721
0.0555886 1 0.991714
0.112444 0.999161 0.990707
0.167758 0.998108 0.989654
0.220829 0.99707 0.988632
0.570153 0.993393 1
0.759884 0.987396 1
0.843931 0.98909 1
0.906844 0.990066 1
