luts/lumix_color_lab_A/sengo_33.cube
TITLE "Generated by Resolve"
LUT_3D_SIZE 5
0.0943008 0.0701152 0.0112154
0.220172 0.0992294 0.0591745
0.591684 0.133455 0.129671
0.870298 0.273869 0.24683
0.999435 0.53846 0.405219
0.0813306 0.222721 0.147707
0.252888 0.255009 0.15346
0.722271 0.324285 0.170047
0.90988 0.471626 0.27602
1 0.645472 0.448142
0.127398 0.524651 0.26154
0.207218 0.558602 0.250629
0.690776 0.636225 0.276661
0.931838 0.724422 0.398444
0.998856 0.788281 0.573724
0.300374 0.781765 0.427695
0.432425 0.801221 0.412085
0.706645 0.829007 0.456931
0.892027 0.855268 0.58378
0.969863 0.897444 0.693462
0.664927 0.951843 0.714641
0.728756 0.956176 0.721859
0.804471 0.962341 0.721614
0.884825 0.970886 0.750835
0.939879 0.977249 0.772946
0.093431 0.0938277 0.140322
0.185 0.106355 0.176562
0.487404 0.166552 0.271611
0.822126 0.312383 0.371984
0.993515 0.555779 0.512856
0.120058 0.229587 0.249912
0.272099 0.268391 0.279332
0.636332 0.346548 0.32607
0.877943 0.497063 0.406973
0.997299 0.658518 0.55172
0.187396 0.533425 0.377966
0.246738 0.567407 0.370794
0.692241 0.638071 0.407248
0.927367 0.729366 0.515251
0.992325 0.792782 0.655848
0.339086 0.7879 0.531929
0.474357 0.807248 0.538781
0.710399 0.832334 0.56141
0.892515 0.860746 0.658198
0.965164 0.899184 0.754437
0.662943 0.952529 0.767361
0.740749 0.955673 0.778241
0.805798 0.964111 0.776684
0.884504 0.970565 0.798795
0.941375 0.978958 0.824399
0.0830396 0.119432 0.360281
0.209186 0.146319 0.383459
0.436759 0.182605 0.41738
0.779339 0.280674 0.485527
0.963226 0.551568 0.62565
0.142184 0.264622 0.41915
0.25069 0.296315 0.430014
0.515633 0.334661 0.457145
0.805676 0.47013 0.51693
0.960754 0.667933 0.66389
0.250813 0.543755 0.475227
0.432837 0.587777 0.512795
0.722957 0.657481 0.559075
0.895705 0.728481 0.641657
0.978958 0.790265 0.73698
0.43827 0.79443 0.631632
0.57174 0.808209 0.644633
0.713451 0.830854 0.664424
0.893095 0.861799 0.747539
0.962463 0.908064 0.824262
0.675486 0.947951 0.823301
0.745495 0.955917 0.829465
0.806027 0.961746 0.839078
0.882597 0.973556 0.853178
0.941741 0.979522 0.872435
0.142184 0.186099 0.556146
0.286549 0.225559 0.571954
0.556069 0.3196 0.593484
0.769589 0.339376 0.639109
0.954864 0.504906 0.745113
0.186114 0.325078 0.589273
0.325307 0.362707 0.599161
0.597818 0.47277 0.613794
0.789944 0.488746 0.666651
0.955184 0.627619 0.764004
0.249104 0.567163 0.621515
0.383429 0.592782 0.636286
0.681178 0.658686 0.680003
0.831724 0.680339 0.722652
0.955062 0.764691 0.796887
0.470207 0.785428 0.691279
0.624231 0.800793 0.711467
0.769009 0.827985 0.776379
0.892256 0.868635 0.837705
0.956069 0.903243 0.886473
0.698482 0.952605 0.88191
0.762066 0.955489 0.883619
0.822843 0.961746 0.894408
0.876829 0.97142 0.902708
0.934218 0.980087 0.923247
0.335958 0.399161 0.847135
0.524697 0.428 0.84947
0.747295 0.521492 0.86157
0.86363 0.633295 0.869612
0.954147 0.64535 0.900023
0.313848 0.536751 0.854368
0.535866 0.560784 0.856062
0.749035 0.628351 0.868711
0.869917 0.711101 0.881544
0.953933 0.712215 0.906126
0.319631 0.684794 0.857328
0.537179 0.703532 0.866651
0.745342 0.728893 0.877394
0.875685 0.791196 0.892622
0.952224 0.801694 0.918853
0.41236 0.84268 0.886305
0.579339 0.846296 0.890471
0.723827 0.844358 0.89633
0.873014 0.867689 0.917372
0.947051 0.893126 0.944213
0.693706 0.957275 0.929976
0.759136 0.961791 0.932815
0.822599 0.965393 0.939986
0.886625 0.973266 0.955901
0.936614 0.98407 0.979522
