luts/lumix_color_lab_A/sengo_33.cube
TITLE "Generated by Resolve"
LUT_3D_SIZE 33
0.0943008 0.0701152 0.0112154
0.108186 0.0727703 0.0157778
0.119661 0.0777447 0.0244602
0.128817 0.0784466 0.0316625
0.140368 0.0831464 0.0386053
0.157015 0.0884565 0.0411841
0.172091 0.0916762 0.0457923
0.198795 0.0991379 0.0552377
0.220172 0.0992294 0.0591745
0.253681 0.101503 0.0621195
0.286366 0.103716 0.0669108
0.330816 0.107454 0.075639
0.38201 0.107042 0.0830396
0.434638 0.112795 0.0927749
0.489189 0.119661 0.108492
0.544305 0.125338 0.119509
0.591684 0.133455 0.129671
0.641474 0.145037 0.144961
0.685344 0.156435 0.154665
0.72163 0.166369 0.16463
0.763088 0.187289 0.187076
0.791714 0.206165 0.203586
0.822568 0.226764 0.215854
0.848142 0.252522 0.228748
0.870298 0.273869 0.24683
0.893904 0.310964 0.258579
0.919646 0.344976 0.277531
0.937835 0.377417 0.2925
0.958206 0.409384 0.303853
0.972763 0.44062 0.332616
0.986297 0.4748 0.349752
0.993271 0.5075 0.372274
0.999435 0.53846 0.405219
0.0973068 0.0829328 0.0271763
0.105989 0.0856031 0.0250095
0.119738 0.0859998 0.0315557
0.131899 0.0868544 0.0347601
0.143175 0.0913405 0.0381476
0.158145 0.0986496 0.0455787
0.175433 0.0998398 0.0482948
0.201648 0.107012 0.0571298
0.224353 0.107652 0.0616007
0.257908 0.110063 0.0630808
0.291829 0.111482 0.0691539
0.336919 0.116762 0.0755932
0.386862 0.117617 0.0860456
0.437415 0.122026 0.0950484
0.492409 0.12723 0.109453
0.549416 0.1346 0.119753
0.596948 0.141466 0.131991
0.644297 0.153048 0.145876
0.685634 0.164691 0.155657
0.723796 0.175998 0.162417
0.76466 0.200351 0.184756
0.798505 0.215503 0.19823
0.82501 0.238148 0.212818
0.849424 0.262089 0.229038
0.873549 0.289845 0.241367
0.895384 0.326604 0.252003
0.918425 0.359091 0.274693
0.941146 0.395956 0.289113
0.955428 0.419898 0.3122
0.975982 0.454383 0.336858
0.984894 0.483803 0.357565
0.989166 0.516167 0.380377
0.999847 0.550668 0.409369
0.100374 0.0984817 0.0369573
0.106493 0.0986038 0.0368048
0.117678 0.09897 0.0390021
0.132342 0.104387 0.0414588
0.146181 0.10486 0.0437018
0.168597 0.109911 0.0504768
0.18204 0.110491 0.0530251
0.205188 0.116579 0.0599069
0.221836 0.117082 0.0581064
0.262562 0.12018 0.0662089
0.30016 0.122377 0.0733959
0.343893 0.123415 0.0778363
0.398428 0.128008 0.088304
0.453849 0.134539 0.09897
0.499947 0.139544 0.1084
0.551949 0.1467 0.122988
0.602411 0.153841 0.137423
0.647578 0.163958 0.147906
0.690684 0.175891 0.15874
0.732265 0.190112 0.173922
0.767391 0.213352 0.186755
0.799313 0.227649 0.20061
0.826917 0.254337 0.212482
0.849836 0.278309 0.228473
0.875807 0.306996 0.244053
0.894438 0.340322 0.254719
0.917662 0.377005 0.277104
0.940276 0.408453 0.292241
0.958343 0.433036 0.316228
0.974685 0.467536 0.327733
0.987808 0.499855 0.353689
0.989868 0.528374 0.37261
0.999893 0.562264 0.413291
0.100145 0.10959 0.0506752
0.106416 0.109728 0.0465095
0.117678 0.114717 0.0501869
0.131899 0.117968 0.0481575
0.144228 0.118532 0.0506447
0.169009 0.121874 0.0552682
0.185885 0.124285 0.057908
0.214633 0.12549 0.0611734
0.23946 0.12961 0.0643015
0.275029 0.133333 0.0729381
0.312413 0.137652 0.0752575
0.358602 0.13846 0.0834669
0.409796 0.139712 0.0934157
0.461646 0.145037 0.102541
0.511559 0.152987 0.113985
0.564904 0.16437 0.127565
0.612848 0.169192 0.140993
0.658213 0.179126 0.154086
0.699626 0.194476 0.160098
0.73492 0.205859 0.173068
0.773114 0.226276 0.191073
0.802396 0.245167 0.206317
0.832532 0.2701 0.219654
0.856168 0.299962 0.233051
0.877028 0.326665 0.241398
0.899413 0.358312 0.260349
0.922759 0.394965 0.28394
0.941192 0.420127 0.292378
0.95787 0.447471 0.307607
0.977203 0.48072 0.331228
0.986679 0.515633 0.357427
0.992523 0.540795 0.377447
0.999939 0.573602 0.413428
0.0970779 0.128206 0.0626688
0.107271 0.128038 0.0644388
0.114824 0.128664 0.0599527
0.124331 0.134234 0.0588693
0.143816 0.135653 0.0628824
0.169863 0.143496 0.0674296
0.199268 0.144427 0.0694285
0.23238 0.14725 0.0675822
0.268467 0.147707 0.0686503
0.304967 0.147799 0.0733654
0.344244 0.155901 0.0819104
0.391882 0.155657 0.0911421
0.441047 0.160616 0.102586
0.48867 0.166888 0.111849
0.541299 0.173281 0.124681
0.590799 0.180087 0.135927
0.634119 0.189288 0.148577
0.675715 0.199283 0.159731
0.718669 0.215595 0.17052
0.754406 0.233524 0.178073
0.786191 0.249271 0.18909
0.812573 0.269947 0.204486
0.837186 0.301244 0.224475
0.857542 0.331701 0.235645
0.882536 0.355474 0.250126
0.905928 0.384955 0.266987
0.927031 0.417456 0.285664
0.945281 0.447501 0.301793
0.963394 0.470985 0.311131
0.978653 0.499718 0.338445
0.988952 0.527382 0.361151
0.99498 0.554788 0.391302
0.99971 0.586587 0.422202
0.0954757 0.142596 0.077409
0.101381 0.148226 0.0790723
0.107988 0.150927 0.076997
0.121721 0.153185 0.0807965
0.139544 0.154589 0.0788586
0.159182 0.160952 0.0853132
0.193973 0.167651 0.0861982
0.231922 0.171359 0.0857862
0.27837 0.170916 0.0816968
0.323842 0.169329 0.0796216
0.368643 0.169512 0.0868391
0.418082 0.171176 0.0971695
0.465415 0.179019 0.107729
0.510567 0.187076 0.120073
0.56202 0.193408 0.134676
0.606973 0.201846 0.142229
0.649546 0.214771 0.151293
0.68983 0.224369 0.1626
0.729274 0.237217 0.177005
0.768002 0.25568 0.186114
0.795178 0.274968 0.19971
0.817609 0.302266 0.207477
0.842893 0.32781 0.227359
0.866102 0.3561 0.238483
0.888151 0.383139 0.254185
0.910735 0.409125 0.27538
0.931121 0.437461 0.292134
0.948043 0.46772 0.311894
0.963882 0.49276 0.328191
0.97995 0.517601 0.34432
0.98999 0.545281 0.371542
0.992813 0.572045 0.391424
1 0.601038 0.423087
0.0895399 0.163317 0.0942397
0.0976883 0.165835 0.091371
0.10724 0.168963 0.0936294
0.116533 0.173983 0.092195
0.132708 0.177752 0.0960555
0.157137 0.180652 0.102632
0.180621 0.185183 0.105699
0.225147 0.192813 0.111803
0.273991 0.199802 0.108492
0.324666 0.199115 0.105379
0.383642 0.200626 0.103929
0.441138 0.196399 0.105989
0.494453 0.202533 0.11635
0.539635 0.211475 0.127977
0.582605 0.216724 0.137819
0.627482 0.226184 0.147875
0.672892 0.242695 0.160876
0.709072 0.257664 0.169604
0.748272 0.268833 0.178988
0.774151 0.291051 0.185336
0.802274 0.315297 0.19707
0.826764 0.331365 0.214664
0.851102 0.359152 0.22417
0.876158 0.382452 0.243061
0.899138 0.407752 0.26067
0.917556 0.432456 0.275456
0.935836 0.464225 0.295949
0.953872 0.491081 0.314977
0.96759 0.510597 0.336522
0.982422 0.541695 0.357061
0.990066 0.566766 0.380362
0.994614 0.586908 0.405249
1 0.618357 0.436408
0.0864424 0.189303 0.114687
0.0901656 0.192325 0.115129
0.095613 0.192584 0.11194
0.105501 0.195209 0.110018
0.124193 0.196689 0.113069
0.15108 0.201694 0.116258
0.176349 0.208133 0.11841
0.20824 0.212757 0.125765
0.262974 0.224674 0.128389
0.323873 0.234379 0.130358
0.384787 0.239261 0.122286
0.446189 0.242206 0.120424
0.515358 0.239384 0.125841
0.570275 0.244663 0.133455
0.610605 0.251164 0.144884
0.654749 0.262058 0.158602
0.69337 0.276432 0.167437
0.728634 0.292683 0.174731
0.761212 0.306859 0.181094
0.78555 0.32929 0.192706
0.812818 0.349889 0.206363
0.836423 0.369619 0.217182
0.858686 0.391363 0.234928
0.879759 0.415656 0.248463
0.899229 0.437522 0.267811
0.921416 0.462562 0.279118
0.939529 0.485359 0.295842
0.95465 0.51548 0.314321
0.968704 0.533501 0.337041
0.981262 0.557336 0.362448
0.990066 0.579828 0.385092
0.995041 0.602441 0.410239
0.999496 0.633143 0.440314
0.0813306 0.222721 0.147707
0.0857557 0.224445 0.143969
0.0906844 0.226917 0.134157
0.100298 0.228168 0.132265
0.111925 0.232654 0.13576
0.132753 0.238712 0.138964
0.165347 0.24242 0.141939
0.208682 0.24535 0.145312
0.252888 0.255009 0.15346
0.314321 0.273274 0.15903
0.386572 0.288655 0.156649
0.464607 0.293706 0.150149
0.52195 0.29897 0.14725
0.588327 0.301289 0.151965
0.648341 0.298985 0.157717
0.687327 0.308354 0.161257
0.722271 0.324285 0.170047
0.754833 0.335729 0.178592
0.782269 0.351766 0.190372
0.804288 0.369055 0.200778
0.827268 0.385977 0.21146
0.849851 0.40827 0.219974
0.870497 0.428626 0.233005
0.890776 0.450324 0.256977
0.90988 0.471626 0.27602
0.928115 0.494453 0.286778
0.945235 0.517754 0.306752
0.959197 0.541848 0.33167
0.969543 0.560769 0.349294
0.982834 0.583581 0.374441
0.990066 0.602869 0.395819
0.995041 0.623545 0.419028
1 0.645472 0.448142
0.0767071 0.249622 0.166339
0.0829328 0.258961 0.167468
0.0887617 0.261601 0.160433
0.0951553 0.264073 0.15758
0.111513 0.26978 0.152804
0.127459 0.271687 0.155108
0.151614 0.277897 0.163806
0.191424 0.280674 0.166415
0.239994 0.292515 0.174853
0.295857 0.300893 0.177218
0.366735 0.32224 0.182055
0.453269 0.337072 0.173281
0.522774 0.351461 0.169238
0.582193 0.359045 0.169772
0.646738 0.361486 0.171496
0.701869 0.361883 0.171328
0.743816 0.365988 0.174853
0.773114 0.380285 0.183261
0.800595 0.399283 0.197894
0.820111 0.414038 0.208209
0.839536 0.429725 0.214069
0.858366 0.446113 0.223911
0.885176 0.466209 0.24416
0.901991 0.487999 0.257481
0.91812 0.506859 0.272755
0.934768 0.525048 0.295995
0.949859 0.54432 0.318288
0.961501 0.573022 0.346914
0.971603 0.589654 0.367391
0.982467 0.607691 0.387243
0.989975 0.626261 0.406821
0.995041 0.64686 0.432883
1 0.667323 0.465553
0.0757916 0.280949 0.179339
0.0822919 0.293996 0.18584
0.0880903 0.295644 0.184512
0.094377 0.297993 0.183963
0.102998 0.304631 0.176501
0.124575 0.311009 0.178393
0.146548 0.314595 0.180972
0.174838 0.316503 0.178454
0.215763 0.327779 0.181155
0.276127 0.337285 0.188602
0.343206 0.350988 0.194598
0.422705 0.371679 0.195956
0.505806 0.392187 0.191073
0.578088 0.40647 0.189502
0.641947 0.415091 0.190982
0.700572 0.419196 0.186374
0.751492 0.426184 0.187167
0.785763 0.430259 0.191348
0.814435 0.444999 0.201648
0.835401 0.450736 0.209445
0.855131 0.467399 0.220752
0.872023 0.484184 0.225788
0.889418 0.499931 0.242939
0.903365 0.519326 0.25951
0.9234 0.537942 0.293141
0.938231 0.55671 0.302327
0.949187 0.577569 0.327047
0.961028 0.596216 0.351003
0.972671 0.614466 0.375982
0.983688 0.633188 0.400076
0.988602 0.645975 0.416434
0.99498 0.666835 0.443259
1 0.685985 0.476356
0.0750744 0.317556 0.202777
0.086717 0.330007 0.204669
0.0903334 0.335195 0.204059
0.0966506 0.337881 0.203403
0.103853 0.342473 0.192767
0.119738 0.343999 0.190097
0.14049 0.349065 0.192523
0.167819 0.354604 0.196567
0.200916 0.364004 0.2
0.256458 0.377508 0.204044
0.3299 0.388434 0.204532
0.407721 0.400214 0.207553
0.485557 0.422187 0.206394
0.56492 0.450355 0.202441
0.635126 0.466621 0.205905
0.694179 0.472953 0.199924
0.743358 0.479622 0.199985
0.783902 0.485863 0.202762
0.819165 0.491569 0.205264
0.846525 0.499123 0.212222
0.867689 0.5093 0.222248
0.883131 0.520745 0.2365
0.899184 0.535561 0.24773
0.911986 0.550759 0.269963
0.926497 0.568475 0.295567
0.940429 0.586679 0.313802
0.953933 0.603296 0.340627
0.966247 0.621988 0.373785
0.974502 0.636988 0.393545
0.982834 0.653193 0.410834
0.990066 0.669047 0.43122
0.994247 0.683223 0.458274
0.998505 0.702846 0.485115
0.0821851 0.369024 0.220447
0.0896468 0.373861 0.223728
0.0960861 0.376669 0.22179
0.101915 0.380499 0.217899
0.107118 0.383551 0.21294
0.119966 0.386725 0.210864
0.143252 0.393912 0.209796
0.16791 0.399496 0.212894
0.19762 0.411368 0.215854
0.242374 0.423087 0.215946
0.319921 0.432593 0.215213
0.396231 0.445426 0.215564
0.467857 0.456352 0.219791
0.546227 0.475502 0.21651
0.626764 0.500725 0.219364
0.69189 0.515709 0.213458
0.742489 0.528725 0.216495
0.779629 0.53547 0.220447
0.815595 0.540932 0.221454
0.847471 0.545251 0.224155
0.873655 0.551873 0.230625
0.89163 0.561669 0.236149
0.904555 0.571969 0.254749
0.919524 0.587259 0.28986
0.934478 0.603784 0.320821
0.943297 0.618387 0.333761
0.958511 0.635966 0.361868
0.967498 0.64979 0.388159
0.975952 0.661891 0.401358
0.98381 0.676555 0.425101
0.988739 0.689326 0.44596
0.994965 0.703685 0.474128
0.998581 0.71722 0.498527
0.0872969 0.403037 0.240269
0.0989395 0.420325 0.243778
0.103716 0.428 0.239979
0.110307 0.428443 0.23386
0.116121 0.433967 0.230564
0.124926 0.435142 0.225452
0.144274 0.439872 0.225711
0.169909 0.445197 0.219928
0.196017 0.453941 0.223697
0.229267 0.463279 0.227878
0.304204 0.472938 0.219928
0.383139 0.484779 0.221607
0.46183 0.494377 0.227207
0.531762 0.504204 0.225742
0.604822 0.523629 0.230991
0.677577 0.54934 0.226413
0.734676 0.565316 0.222965
0.778241 0.576288 0.226352
0.811887 0.582727 0.227955
0.841443 0.590707 0.232792
0.867247 0.596277 0.238788
0.890288 0.600443 0.258534
0.910948 0.610681 0.27863
0.92462 0.622095 0.306081
0.936751 0.634043 0.330419
0.947829 0.647379 0.35906
0.959609 0.66305 0.380514
0.970123 0.676158 0.404303
0.977111 0.688426 0.420371
0.983795 0.69958 0.443732
0.990066 0.712947 0.464546
0.99411 0.727031 0.496712
1 0.740032 0.523049
0.0935531 0.441901 0.243915
0.108721 0.461128 0.2551
0.115145 0.467124 0.253117
0.123171 0.467872 0.246159
0.130465 0.472984 0.241505
0.134752 0.47245 0.237308
0.146654 0.475227 0.230976
0.170825 0.481651 0.229358
0.197971 0.490013 0.234958
0.228122 0.501427 0.23299
0.296651 0.511757 0.225528
0.374777 0.520317 0.224857
0.454902 0.533364 0.224857
0.524651 0.545632 0.22884
0.587625 0.553994 0.233631
0.656641 0.571817 0.236683
0.723598 0.594217 0.250629
0.769162 0.608759 0.254139
0.806012 0.617426 0.250233
0.834669 0.623606 0.25864
0.859739 0.635767 0.27425
0.882246 0.639933 0.292515
0.905394 0.649088 0.305104
0.925017 0.654322 0.325536
0.941009 0.664546 0.351064
0.951095 0.674662 0.380224
0.962768 0.687663 0.398459
0.972213 0.698878 0.422187
0.979858 0.711971 0.444007
0.984207 0.721294 0.466194
0.990066 0.731655 0.490394
0.994064 0.741009 0.513207
0.997726 0.756741 0.539223
0.110552 0.479072 0.251011
0.123369 0.496254 0.261662
0.130785 0.50251 0.256275
0.135637 0.504234 0.250187
0.140841 0.508003 0.249592
0.149905 0.510719 0.248966
0.159838 0.512779 0.245472
0.174075 0.518975 0.242008
0.202258 0.526894 0.239811
0.231067 0.537133 0.236683
0.285588 0.547555 0.237522
0.367041 0.556146 0.235843
0.45127 0.566842 0.231388
0.52166 0.579583 0.231479
0.58468 0.585122 0.238666
0.641947 0.59646 0.256977
0.702281 0.614099 0.263935
0.753292 0.632929 0.270558
0.796918 0.646311 0.275456
0.826246 0.655406 0.28307
0.852338 0.666804 0.300847
0.875151 0.673075 0.31754
0.899687 0.680049 0.334005
0.919631 0.688746 0.350652
0.935912 0.69778 0.374136
0.949248 0.705745 0.395605
0.96231 0.714076 0.420218
0.971649 0.723156 0.444602
0.979873 0.733532 0.462409
0.981735 0.739895 0.484947
0.990066 0.749966 0.507424
0.994995 0.760113 0.531853
0.998795 0.774136 0.560342
0.127398 0.524651 0.26154
0.136843 0.529305 0.266285
0.144152 0.533532 0.26865
0.151278 0.537346 0.268894
0.157214 0.536324 0.259525
0.165515 0.54107 0.25803
0.172686 0.548409 0.257603
0.18529 0.553017 0.253742
0.207218 0.558602 0.250629
0.235416 0.570703 0.254536
0.280842 0.583627 0.249653
0.35787 0.591134 0.240803
0.439506 0.600168 0.238575
0.51368 0.61471 0.242252
0.576883 0.622309 0.249042
0.635813 0.628702 0.269322
0.690776 0.636225 0.276661
0.739483 0.651835 0.292988
0.783825 0.669276 0.302068
0.819532 0.683726 0.311116
0.84686 0.695338 0.325765
0.870024 0.702556 0.342504
0.894118 0.713756 0.358907
0.914015 0.718944 0.380652
0.931838 0.724422 0.398444
0.94641 0.729229 0.418051
0.959258 0.7393 0.443275
0.970794 0.747417 0.463737
0.979706 0.75581 0.488762
0.98407 0.761837 0.507942
0.98793 0.768978 0.526131
0.994965 0.778958 0.551934
0.998856 0.788281 0.573724
0.143038 0.555459 0.275929
0.153719 0.56492 0.282506
0.162203 0.572366 0.281163
0.169406 0.573449 0.283635
0.177325 0.574121 0.27837
0.184497 0.577508 0.279744
0.191501 0.581979 0.274952
0.200549 0.586694 0.268406
0.216419 0.594919 0.262043
0.24033 0.601633 0.266072
0.283238 0.610971 0.25864
0.352346 0.623102 0.254353
0.424231 0.6318 0.252811
0.507851 0.642145 0.254841
0.578332 0.653468 0.266255
0.636301 0.658549 0.276844
0.685328 0.664759 0.290028
0.730037 0.675181 0.310643
0.775906 0.687846 0.31751
0.812619 0.704707 0.33637
0.841566 0.718746 0.346471
0.866331 0.729763 0.362387
0.887358 0.734798 0.383352
0.906691 0.741512 0.410254
0.924712 0.752163 0.429526
0.939651 0.759213 0.449241
0.951736 0.764981 0.470314
0.963394 0.771527 0.497658
0.973724 0.780514 0.523308
0.981735 0.786358 0.542199
0.985733 0.79176 0.558892
0.990448 0.798581 0.579065
0.995453 0.807721 0.601831
0.15967 0.588586 0.285313
0.172625 0.601785 0.297795
0.181765 0.603067 0.296941
0.190372 0.610376 0.294499
0.193805 0.606592 0.293141
0.203708 0.612222 0.293187
0.209506 0.616678 0.286458
0.218677 0.620798 0.277211
0.231418 0.625711 0.273838
0.250217 0.632136 0.272923
0.289265 0.640375 0.272999
0.362783 0.65185 0.267338
0.432105 0.662013 0.263325
0.509255 0.671931 0.266712
0.578851 0.682353 0.282551
0.633555 0.687327 0.295247
0.679118 0.693263 0.306065
0.723674 0.703334 0.32018
0.767803 0.710323 0.331792
0.802884 0.720333 0.351034
0.831159 0.734218 0.366278
0.856794 0.744579 0.371847
0.882673 0.754681 0.400351
0.90428 0.761837 0.42266
0.92079 0.768414 0.447486
0.93489 0.778851 0.476005
0.946853 0.787442 0.500816
0.957015 0.792599 0.521553
0.966033 0.798917 0.539284
0.975341 0.801923 0.559869
0.983505 0.809659 0.581033
0.985946 0.813672 0.595209
0.992462 0.821256 0.618204
0.184344 0.622675 0.308827
0.193332 0.634318 0.314519
0.203143 0.638987 0.311849
0.209567 0.641749 0.309087
0.215839 0.641398 0.308659
0.220401 0.645731 0.300572
0.228016 0.646967 0.294835
0.238346 0.653666 0.293385
0.248386 0.65864 0.28838
0.266285 0.662776 0.283406
0.313375 0.674464 0.282841
0.376745 0.68513 0.279225
0.445747 0.693782 0.282353
0.515297 0.702663 0.289036
0.577905 0.711406 0.298299
0.634302 0.716045 0.311101
0.674815 0.72163 0.318791
0.719234 0.728069 0.330282
0.763195 0.735653 0.341405
0.798154 0.741466 0.358602
0.824277 0.750561 0.376501
0.847669 0.761028 0.396704
0.874922 0.771908 0.424475
0.895399 0.78265 0.452186
0.914412 0.790661 0.47686
0.92871 0.797559 0.497337
0.941482 0.806561 0.520195
0.950927 0.810132 0.538201
0.961242 0.81677 0.558618
0.971374 0.819944 0.578927
0.977935 0.822126 0.591287
0.985016 0.828717 0.611902
0.991333 0.835676 0.633433
0.204456 0.657893 0.325109
0.218112 0.662974 0.326024
0.224537 0.666941 0.324483
0.23122 0.672114 0.321447
0.237751 0.673533 0.319524
0.245075 0.678843 0.318761
0.251484 0.681895 0.317296
0.263478 0.685985 0.314702
0.271107 0.691752 0.306706
0.292927 0.694255 0.298604
0.338094 0.705257 0.298604
0.395819 0.712001 0.29897
0.456504 0.722423 0.300633
0.525734 0.729183 0.30869
0.591089 0.73698 0.322072
0.639979 0.743511 0.331441
0.681132 0.747631 0.339651
0.71812 0.754788 0.350545
0.761852 0.760143 0.365194
0.796231 0.765789 0.373297
0.82269 0.771298 0.399847
0.842741 0.77702 0.426688
0.866926 0.787945 0.451637
0.890806 0.797879 0.4766
0.907591 0.807385 0.497459
0.92105 0.813672 0.516991
0.936507 0.819928 0.538705
0.948226 0.826612 0.56141
0.95671 0.830762 0.576669
0.967391 0.836378 0.597971
0.97116 0.839841 0.612787
0.978225 0.844678 0.631876
0.985214 0.851957 0.647547
0.231403 0.693812 0.343343
0.240131 0.699413 0.347417
0.247929 0.704448 0.347829
0.256535 0.708019 0.349798
0.261921 0.708064 0.337377
0.266545 0.71194 0.330129
0.274128 0.716777 0.333288
0.293217 0.717159 0.328618
0.310796 0.727749 0.324102
0.324956 0.72842 0.317082
0.361761 0.735622 0.322744
0.415076 0.743191 0.320943
0.479042 0.75108 0.32192
0.539178 0.758343 0.333227
0.594217 0.762524 0.345876
0.645335 0.770031 0.350958
0.68748 0.776593 0.358877
0.724865 0.780667 0.375616
0.761593 0.784772 0.390539
0.793118 0.787839 0.407263
0.821866 0.793545 0.427268
0.842634 0.800626 0.454719
0.865248 0.806073 0.485496
0.884718 0.813046 0.507103
0.903151 0.822919 0.52903
0.917235 0.830137 0.543252
0.934661 0.83682 0.570031
0.944396 0.840787 0.585885
0.953567 0.843793 0.600748
0.960784 0.850904 0.616373
0.966583 0.855085 0.633997
0.97229 0.860609 0.645457
0.979522 0.868315 0.667033
0.254505 0.728985 0.370443
0.264729 0.731411 0.365972
0.271412 0.734249 0.364233
0.281483 0.738369 0.366308
0.289601 0.736553 0.357458
0.296498 0.738705 0.354391
0.299428 0.741558 0.354162
0.324285 0.747051 0.352789
0.355856 0.752285 0.347448
0.376715 0.756695 0.341985
0.398703 0.76051 0.340124
0.442893 0.766705 0.337987
0.492271 0.773693 0.346654
0.547662 0.780591 0.356252
0.605386 0.785534 0.366125
0.649683 0.791623 0.373861
0.688106 0.794903 0.381933
0.725368 0.798962 0.394553
0.76025 0.802853 0.411032
0.790829 0.806317 0.43415
0.818204 0.812085 0.456428
0.842466 0.813458 0.48275
0.862333 0.819287 0.504036
0.880812 0.825025 0.525429
0.896864 0.834607 0.546746
0.913359 0.839582 0.561349
0.927703 0.848341 0.581369
0.938415 0.852949 0.604196
0.94818 0.858091 0.620035
0.955596 0.863508 0.632319
0.963623 0.869459 0.643427
0.967803 0.873625 0.65742
0.974258 0.87985 0.675425
0.276829 0.75256 0.400885
0.286046 0.759991 0.396811
0.296651 0.762844 0.400092
0.304799 0.76318 0.398901
0.322042 0.764889 0.380346
0.331426 0.767437 0.376516
0.352087 0.768414 0.377676
0.371954 0.772717 0.376867
0.38819 0.77734 0.379767
0.411139 0.780865 0.374044
0.436728 0.785779 0.366384
0.470207 0.79115 0.36434
0.516655 0.79556 0.374655
0.575067 0.802121 0.381994
0.619516 0.805341 0.391302
0.658991 0.810391 0.402396
0.692866 0.814115 0.416464
0.727337 0.815717 0.425772
0.764614 0.817304 0.440375
0.789654 0.82182 0.472618
0.815396 0.827024 0.48864
0.840162 0.832959 0.502678
0.861021 0.835279 0.522957
0.882048 0.839109 0.54934
0.893843 0.842893 0.567056
0.907088 0.849836 0.585824
0.92163 0.857649 0.600992
0.936477 0.863981 0.62092
0.945586 0.867796 0.629694
0.951186 0.87306 0.641047
0.958877 0.878706 0.65478
0.966369 0.881865 0.671016
0.971069 0.88893 0.683528
0.300374 0.781765 0.427695
0.319432 0.78584 0.434043
0.327718 0.786786 0.432898
0.346426 0.790326 0.425101
0.359823 0.791455 0.42591
0.373907 0.790494 0.410819
0.390265 0.793622 0.408362
0.41503 0.797925 0.408728
0.432425 0.801221 0.412085
0.452262 0.803555 0.405097
0.474647 0.810681 0.406806
0.501183 0.811002 0.396979
0.548257 0.817456 0.405829
0.59202 0.822889 0.417578
0.634134 0.825467 0.428077
0.672236 0.827756 0.443915
0.706645 0.829007 0.456931
0.73431 0.832975 0.469932
0.762753 0.836133 0.487205
0.7879 0.840223 0.504021
0.813916 0.842329 0.521538
0.837247 0.848569 0.541207
0.859754 0.851133 0.553796
0.87744 0.85304 0.571359
0.892027 0.855268 0.58378
0.903059 0.860731 0.601038
0.918166 0.865019 0.614038
0.930205 0.872511 0.629099
0.940185 0.878676 0.640864
0.948547 0.885756 0.660426
0.954376 0.888136 0.669734
0.962585 0.892744 0.680766
0.969863 0.897444 0.693462
0.356558 0.810636 0.477562
0.376425 0.814191 0.481178
0.390555 0.815122 0.480537
0.402228 0.816541 0.480827
0.421653 0.816495 0.480171
0.429053 0.820005 0.475807
0.448218 0.822003 0.471992
0.465232 0.825345 0.466926
0.480842 0.825986 0.468711
0.511254 0.831083 0.473487
0.545754 0.834821 0.470085
0.56733 0.837186 0.466194
0.590539 0.840803 0.465736
0.628199 0.842573 0.471427
0.662745 0.846967 0.483955
0.69279 0.850233 0.49691
0.725505 0.852155 0.512383
0.752987 0.855039 0.531151
0.776349 0.857832 0.53872
0.801953 0.862989 0.552346
0.822675 0.863554 0.563806
0.845685 0.86685 0.579232
0.862974 0.868086 0.588098
0.876402 0.871382 0.598352
0.894118 0.87866 0.615015
0.902525 0.878035 0.624002
0.913756 0.883223 0.640986
0.923705 0.886641 0.654032
0.934737 0.891737 0.66714
0.94287 0.897215 0.673854
0.950545 0.900038 0.68426
0.958083 0.90428 0.696773
0.963607 0.911131 0.709148
0.397848 0.833417 0.51899
0.414649 0.836789 0.516121
0.431159 0.836469 0.521675
0.443046 0.838651 0.515755
0.455283 0.839811 0.513802
0.46952 0.842145 0.515801
0.480491 0.84062 0.505837
0.50573 0.844068 0.509712
0.523507 0.846403 0.506279
0.553353 0.848859 0.507332
0.57409 0.850126 0.50428
0.594934 0.854444 0.510872
0.622293 0.859174 0.515053
0.645884 0.859449 0.511223
0.678431 0.863722 0.523888
0.708247 0.867414 0.537148
0.728649 0.870649 0.54136
0.757275 0.871626 0.555398
0.780011 0.875319 0.568826
0.80473 0.876829 0.581079
0.824979 0.877073 0.588342
0.842634 0.881727 0.600076
0.86038 0.885466 0.61146
0.872419 0.887922 0.622446
0.886519 0.892607 0.635142
0.900313 0.893202 0.646159
0.913329 0.896712 0.659312
0.920867 0.899428 0.669017
0.92871 0.902403 0.674891
0.939391 0.906462 0.688716
0.948837 0.91104 0.697185
0.95642 0.917037 0.709133
0.962753 0.918364 0.716472
0.435828 0.852842 0.542977
0.452644 0.856611 0.546807
0.463432 0.856977 0.546593
