luts/lumix_color_lab_A/sengo_33.cube
TITLE "Generated by Resolve"
LUT_3D_SIZE 9
0.0943008 0.0701152 0.0112154
0.140368 0.0831464 0.0386053
0.220172 0.0992294 0.0591745
0.38201 0.107042 0.0830396
0.591684 0.133455 0.129671
0.763088 0.187289 0.187076
0.870298 0.273869 0.24683
0.958206 0.409384 0.303853
0.999435 0.53846 0.405219
0.0970779 0.128206 0.0626688
0.143816 0.135653 0.0628824
0.268467 0.147707 0.0686503
0.441047 0.160616 0.102586
0.634119 0.189288 0.148577
0.786191 0.249271 0.18909
0.882536 0.355474 0.250126
0.963394 0.470985 0.311131
0.99971 0.586587 0.422202
0.0813306 0.222721 0.147707
0.111925 0.232654 0.13576
0.252888 0.255009 0.15346
0.52195 0.29897 0.14725
0.722271 0.324285 0.170047
0.827268 0.385977 0.21146
0.90988 0.471626 0.27602
0.969543 0.560769 0.349294
1 0.645472 0.448142
0.0821851 0.369024 0.220447
0.107118 0.383551 0.21294
0.19762 0.411368 0.215854
0.467857 0.456352 0.219791
0.742489 0.528725 0.216495
0.873655 0.551873 0.230625
0.934478 0.603784 0.320821
0.975952 0.661891 0.401358
0.998581 0.71722 0.498527
0.127398 0.524651 0.26154
0.157214 0.536324 0.259525
0.207218 0.558602 0.250629
0.439506 0.600168 0.238575
0.690776 0.636225 0.276661
0.84686 0.695338 0.325765
0.931838 0.724422 0.398444
0.979706 0.75581 0.488762
0.998856 0.788281 0.573724
0.204456 0.657893 0.325109
0.237751 0.673533 0.319524
0.271107 0.691752 0.306706
0.456504 0.722423 0.300633
0.681132 0.747631 0.339651
0.82269 0.771298 0.399847
0.907591 0.807385 0.497459
0.95671 0.830762 0.576669
0.985214 0.851957 0.647547
0.300374 0.781765 0.427695
0.359823 0.791455 0.42591
0.432425 0.801221 0.412085
0.548257 0.817456 0.405829
0.706645 0.829007 0.456931
0.813916 0.842329 0.521538
0.892027 0.855268 0.58378
0.940185 0.878676 0.640864
0.969863 0.897444 0.693462
0.481819 0.873701 0.584253
0.544472 0.876707 0.584329
0.620081 0.883787 0.585122
0.683085 0.889143 0.586542
0.752712 0.900069 0.605966
0.828107 0.907225 0.636286
0.885298 0.918959 0.672267
0.927413 0.925765 0.704906
0.952224 0.935347 0.731579
0.664927 0.951843 0.714641
0.694362 0.950881 0.717571
0.728756 0.956176 0.721859
0.768963 0.960845 0.726146
0.804471 0.962341 0.721614
0.844144 0.966171 0.734752
0.884825 0.970886 0.750835
0.916335 0.976959 0.763226
0.939879 0.977249 0.772946
0.102113 0.0826276 0.0716411
0.133242 0.087953 0.0839094
0.195911 0.103456 0.111788
0.332982 0.134279 0.167239
0.549249 0.15996 0.203006
0.73254 0.206592 0.251637
0.853407 0.291295 0.296452
0.946181 0.417624 0.365896
0.997116 0.538903 0.453285
0.105241 0.130053 0.107713
0.14699 0.138994 0.116579
0.239277 0.157382 0.141909
0.395468 0.183658 0.180896
0.59324 0.21474 0.223316
0.761746 0.267124 0.255772
0.868467 0.366644 0.310002
0.952926 0.481895 0.375998
1 0.589746 0.459709
0.0991073 0.226566 0.191913
0.12784 0.230594 0.188678
0.248432 0.255528 0.208453
0.506859 0.290791 0.200015
0.68983 0.333211 0.226352
0.808621 0.395621 0.278141
0.898833 0.478523 0.334859
0.963836 0.568002 0.40174
1 0.648707 0.489525
0.106569 0.372686 0.272892
0.132876 0.387472 0.26865
0.201831 0.409476 0.257862
0.472633 0.45481 0.273838
0.736858 0.523323 0.26772
0.864347 0.549081 0.300633
0.923796 0.606836 0.372412
0.971359 0.666651 0.448463
1 0.719509 0.537987
0.151003 0.52604 0.321294
0.180819 0.54519 0.315709
0.226658 0.565347 0.296651
0.447395 0.603082 0.298497
0.687221 0.637675 0.33695
0.844938 0.69601 0.372534
0.928893 0.7252 0.44918
0.974304 0.756359 0.532082
0.996017 0.78822 0.613489
0.222385 0.665827 0.383322
0.255512 0.680873 0.372992
0.288365 0.697398 0.359579
0.468376 0.725978 0.353094
0.684688 0.749584 0.385336
0.820737 0.76849 0.458717
0.907561 0.80737 0.542931
0.953307 0.832517 0.612741
0.985428 0.852659 0.679347
0.315587 0.786282 0.485176
0.375769 0.796094 0.493416
0.454002 0.806699 0.480827
0.562753 0.818875 0.470497
0.703792 0.833448 0.514076
0.815274 0.844068 0.56228
0.891173 0.858854 0.617395
0.940688 0.879622 0.67393
0.965728 0.89955 0.724132
0.508461 0.877913 0.624338
0.570581 0.883452 0.629953
0.627161 0.886152 0.632975
0.686564 0.896025 0.630533
0.756054 0.901274 0.641871
0.831983 0.907515 0.669947
0.885756 0.919615 0.704875
0.925872 0.924666 0.728313
0.952499 0.939178 0.763272
0.664256 0.951965 0.746609
0.698299 0.953201 0.742763
0.735821 0.958099 0.749889
0.77055 0.959548 0.750027
0.804257 0.962646 0.747387
0.841642 0.966751 0.756329
0.883665 0.968948 0.769497
0.91635 0.975219 0.79202
0.939681 0.977813 0.80148
0.093431 0.0938277 0.140322
0.133471 0.097673 0.145953
0.185 0.106355 0.176562
0.313603 0.129351 0.230091
0.487404 0.166552 0.271611
0.673564 0.228534 0.324483
0.822126 0.312383 0.371984
0.927687 0.440696 0.431724
0.993515 0.555779 0.512856
0.101076 0.143359 0.17911
0.138247 0.151186 0.190585
0.202914 0.162036 0.216678
0.335195 0.188403 0.261997
0.516472 0.238163 0.298894
0.713329 0.298558 0.337942
0.842023 0.390555 0.383124
0.935378 0.50042 0.434485
0.99765 0.597162 0.527596
0.120058 0.229587 0.249912
0.151522 0.245274 0.270893
0.272099 0.268391 0.279332
0.457465 0.297551 0.293721
0.636332 0.346548 0.32607
0.775967 0.41828 0.356451
0.877943 0.497063 0.406973
0.950561 0.580301 0.463844
0.997299 0.658518 0.55172
0.146807 0.376806 0.328054
0.171496 0.388098 0.335988
0.225635 0.413458 0.32813
0.4822 0.459525 0.343801
0.725505 0.52134 0.351995
0.843793 0.555901 0.388296
0.909697 0.616419 0.443885
0.962295 0.674006 0.51725
0.995315 0.72398 0.593118
0.187396 0.533425 0.377966
0.216571 0.545693 0.379461
0.246738 0.567407 0.370794
0.473732 0.602045 0.370138
0.692241 0.638071 0.407248
0.841215 0.696834 0.452262
0.927367 0.729366 0.515251
0.969863 0.76083 0.588495
0.992325 0.792782 0.655848
0.250248 0.671214 0.431403
0.279515 0.684077 0.439933
0.333593 0.702129 0.421561
0.495262 0.726238 0.422232
0.684398 0.749676 0.460273
0.81973 0.772534 0.51931
0.907408 0.808347 0.594034
0.954314 0.836271 0.658824
0.981735 0.856245 0.718563
0.339086 0.7879 0.531929
0.402258 0.798779 0.544244
0.474357 0.807248 0.538781
0.572015 0.820523 0.535836
0.710399 0.832334 0.56141
0.817151 0.844938 0.607813
0.892515 0.860746 0.658198
0.938491 0.882155 0.712551
0.965164 0.899184 0.754437
0.525689 0.877638 0.660685
0.581582 0.882155 0.658106
0.631479 0.884733 0.667689
0.691341 0.891844 0.669413
0.751385 0.900969 0.672648
0.831327 0.90782 0.706798
0.883986 0.91986 0.735836
0.926314 0.92932 0.759075
0.953933 0.937194 0.78648
0.662943 0.952529 0.767361
0.698131 0.954284 0.773205
0.740749 0.955673 0.778241
0.770474 0.959564 0.776364
0.805798 0.964111 0.776684
0.844831 0.968841 0.785
0.884504 0.970565 0.798795
0.915358 0.974975 0.814557
0.941375 0.978958 0.824399
0.0841993 0.100618 0.245335
0.126085 0.110246 0.25417
0.183383 0.131426 0.262318
0.283742 0.140444 0.306249
0.472068 0.158999 0.351797
0.644373 0.208865 0.381353
0.785794 0.302861 0.427466
0.89221 0.45655 0.49572
0.974243 0.570626 0.574273
0.10045 0.152728 0.282032
0.135271 0.162036 0.287724
0.197894 0.181018 0.295598
0.312703 0.188571 0.331685
0.492958 0.216358 0.361685
0.664347 0.268391 0.393744
0.794491 0.399054 0.447578
0.903517 0.515511 0.505119
0.978012 0.612909 0.588434
0.120928 0.241627 0.327321
0.158206 0.253437 0.343297
0.241764 0.278355 0.362005
0.379705 0.296208 0.376654
0.539651 0.350103 0.394018
0.709041 0.425544 0.426444
0.837873 0.506767 0.473106
0.929244 0.591287 0.530739
0.98529 0.664881 0.613519
0.176562 0.380499 0.378408
0.212116 0.399603 0.396597
0.272496 0.428351 0.400595
0.513344 0.476539 0.417273
0.702968 0.514916 0.434409
0.804318 0.564553 0.465644
0.885679 0.626429 0.516777
0.945525 0.67834 0.577996
0.988632 0.728481 0.646769
0.228489 0.544381 0.427985
0.256306 0.55697 0.436439
0.297185 0.574502 0.439612
0.507683 0.605234 0.4477
0.702876 0.647898 0.482597
0.841398 0.698695 0.530205
0.918517 0.733364 0.583932
0.957046 0.76434 0.644114
0.985931 0.793774 0.704051
0.285512 0.677378 0.491997
0.329442 0.689555 0.497139
0.403296 0.701289 0.50341
0.524453 0.724987 0.497414
0.695048 0.747936 0.530449
0.821866 0.772503 0.586465
0.904509 0.810849 0.654505
0.95137 0.834852 0.705669
0.976928 0.853086 0.753079
0.384192 0.791379 0.581277
0.44773 0.800793 0.593576
0.50901 0.806561 0.597513
0.60499 0.819577 0.592752
0.714199 0.83212 0.615381
0.820218 0.845594 0.656229
0.890745 0.862196 0.699672
0.939467 0.882765 0.748943
0.963821 0.902144 0.787625
0.539727 0.877424 0.697856
0.608087 0.882048 0.698329
0.650034 0.886854 0.705837
0.70338 0.891829 0.709606
0.757061 0.900893 0.715877
0.825391 0.909178 0.738872
0.886259 0.917281 0.767697
0.921813 0.926329 0.787411
0.952483 0.938338 0.815793
0.674403 0.953826 0.794629
0.70663 0.952377 0.79968
0.741909 0.956756 0.801083
0.774975 0.958038 0.810361
0.808362 0.963989 0.806668
0.843366 0.96582 0.810681
0.88481 0.972702 0.826276
0.91754 0.977142 0.839841
0.941848 0.979522 0.848325
0.0830396 0.119432 0.360281
0.121935 0.128252 0.371313
0.209186 0.146319 0.383459
0.303059 0.179599 0.394842
0.436759 0.182605 0.41738
0.622797 0.211765 0.453788
0.779339 0.280674 0.485527
0.885756 0.404685 0.538094
0.963226 0.551568 0.62565
0.108202 0.16524 0.387533
0.143511 0.174502 0.388266
0.221683 0.199985 0.395956
0.315999 0.22884 0.406149
0.463981 0.230137 0.431769
0.646113 0.262592 0.465354
0.789227 0.354971 0.498939
0.889601 0.472175 0.544396
0.96228 0.599588 0.638895
0.142184 0.264622 0.41915
0.172854 0.273091 0.424979
0.25069 0.296315 0.430014
0.366262 0.325277 0.440452
0.515633 0.334661 0.457145
0.6804 0.388937 0.486336
0.805676 0.47013 0.51693
0.893248 0.574243 0.579995
0.960754 0.667933 0.66389
0.17261 0.398856 0.447654
0.211368 0.411551 0.45388
0.313069 0.444297 0.467842
0.468559 0.473503 0.487098
0.60441 0.500008 0.495689
0.735485 0.555657 0.522026
0.839597 0.615946 0.575433
0.917556 0.671672 0.627008
0.972412 0.724712 0.691142
0.250813 0.543755 0.475227
0.300053 0.561959 0.488716
0.432837 0.587777 0.512795
0.541115 0.614145 0.519997
0.722957 0.657481 0.559075
0.834989 0.69482 0.598245
0.895705 0.728481 0.641657
0.94197 0.759365 0.689021
0.978958 0.790265 0.73698
0.338323 0.686732 0.549722
0.414755 0.695705 0.556161
0.492256 0.706203 0.564508
0.564782 0.724849 0.574731
0.703273 0.747524 0.596139
0.826673 0.78027 0.649088
0.904662 0.815274 0.709087
0.948669 0.835721 0.754665
0.973983 0.853956 0.790997
0.43827 0.79443 0.631632
0.51133 0.802106 0.642664
0.57174 0.808209 0.644633
0.63238 0.815396 0.652064
0.713451 0.830854 0.664424
0.820996 0.844327 0.701244
0.893095 0.861799 0.747539
0.936202 0.886397 0.789197
0.962463 0.908064 0.824262
0.567315 0.876432 0.730297
0.62031 0.879454 0.734096
0.668009 0.883543 0.738705
0.714015 0.89012 0.751598
0.763439 0.897429 0.755367
0.825422 0.90959 0.769726
0.885771 0.919036 0.798321
0.926802 0.92752 0.823911
0.953933 0.944305 0.845518
0.675486 0.947951 0.823301
0.707729 0.952331 0.825086
0.745495 0.955917 0.829465
0.777295 0.957671 0.832624
0.806027 0.961746 0.839078
0.844907 0.9673 0.840986
0.882597 0.973556 0.853178
0.913741 0.97612 0.864103
0.941741 0.979522 0.872435
0.106355 0.149584 0.463615
0.144839 0.154711 0.467109
0.231708 0.175753 0.470527
0.353353 0.215625 0.487236
0.461463 0.239658 0.492027
0.610208 0.248798 0.517296
0.768338 0.286595 0.557961
0.877363 0.381125 0.608209
0.961837 0.528054 0.680766
0.125872 0.190845 0.475151
0.160632 0.205417 0.47538
0.247593 0.227527 0.486351
0.371405 0.267903 0.494987
0.476493 0.292882 0.499779
0.627863 0.302785 0.5308
0.779385 0.341207 0.571481
0.881331 0.454841 0.613306
0.960159 0.577768 0.688563
0.162234 0.287465 0.500114
0.19234 0.294835 0.502571
0.273915 0.319753 0.508141
0.414038 0.365927 0.515709
0.517617 0.390494 0.523522
0.664225 0.405783 0.549249
0.793469 0.454887 0.588846
0.887312 0.545007 0.633844
0.96289 0.638285 0.703441
0.191455 0.412711 0.519768
0.229847 0.428199 0.529702
0.322271 0.453132 0.534524
0.482322 0.492638 0.545907
0.587259 0.513466 0.555123
0.714916 0.532815 0.580789
0.820996 0.582437 0.618662
0.898238 0.640894 0.660945
0.959899 0.709133 0.722194
0.245701 0.556619 0.545617
0.283375 0.567269 0.555749
0.409918 0.587427 0.562448
0.570825 0.622446 0.594324
0.675212 0.642603 0.611551
0.77322 0.668009 0.635721
0.848325 0.705653 0.673762
0.910597 0.744274 0.716411
0.961898 0.783673 0.770626
0.349584 0.678874 0.578988
0.441764 0.690654 0.591363
0.547662 0.707744 0.613336
0.639735 0.729915 0.642206
0.720287 0.749599 0.667033
0.834791 0.786389 0.714168
0.90103 0.810498 0.756756
0.937423 0.827832 0.787366
0.968185 0.847608 0.816815
0.489082 0.793439 0.675639
0.562661 0.801602 0.682734
0.627451 0.808316 0.691249
0.680003 0.815076 0.707637
0.733455 0.827512 0.719738
0.820203 0.845701 0.748074
0.892821 0.86482 0.791363
0.934462 0.888914 0.828717
0.958618 0.910185 0.860883
0.611185 0.875776 0.765759
0.657252 0.879499 0.771481
0.699138 0.88452 0.776654
0.737804 0.888411 0.788632
0.779065 0.895506 0.798581
0.821607 0.906859 0.809613
0.883467 0.918624 0.832364
0.922072 0.931243 0.852659
0.94992 0.945037 0.873442
0.685222 0.95137 0.850996
0.717891 0.952407 0.851484
0.749203 0.953902 0.857984
0.779568 0.956664 0.857832
0.815473 0.960357 0.8663
0.84593 0.965774 0.871656
0.877424 0.970993 0.878401
0.913527 0.977066 0.887877
0.940078 0.980377 0.897734
0.142184 0.186099 0.556146
0.17789 0.200809 0.561929
0.286549 0.225559 0.571954
0.424781 0.257465 0.582345
0.556069 0.3196 0.593484
0.658701 0.335714 0.611795
0.769589 0.339376 0.639109
0.866041 0.382574 0.683009
0.954864 0.504906 0.745113
0.159457 0.239155 0.565988
0.193805 0.250034 0.573663
0.300572 0.273121 0.580041
0.444617 0.308049 0.593118
0.568093 0.379538 0.600381
0.668772 0.397787 0.618036
0.777005 0.397604 0.648219
0.870314 0.447379 0.683268
0.953384 0.563348 0.753765
0.186114 0.325078 0.589273
0.219211 0.337301 0.592187
0.325307 0.362707 0.599161
0.47863 0.405432 0.606134
0.597818 0.47277 0.613794
0.687984 0.49192 0.634195
0.789944 0.488746 0.666651
0.87892 0.533852 0.699535
0.955184 0.627619 0.764004
0.228916 0.464073 0.609781
0.261265 0.471977 0.61323
0.359716 0.483223 0.615335
0.511299 0.519112 0.62652
0.63743 0.571694 0.642115
0.721904 0.581216 0.657008
0.81062 0.58938 0.688991
0.887861 0.625895 0.725261
0.956985 0.694179 0.778759
0.249104 0.567163 0.621515
0.28101 0.577676 0.625742
0.383429 0.592782 0.636286
0.558038 0.622873 0.657862
0.681178 0.658686 0.680003
0.760449 0.672663 0.697978
0.831724 0.680339 0.722652
0.901823 0.719631 0.754818
0.955062 0.764691 0.796887
0.312093 0.689967 0.651423
0.374304 0.701335 0.661158
0.493462 0.71194 0.669734
0.611399 0.728664 0.690745
0.721645 0.749294 0.724132
0.80029 0.76321 0.746563
0.86334 0.77911 0.768154
0.912535 0.803937 0.798901
0.953719 0.838102 0.836439
0.470207 0.785428 0.691279
0.548745 0.793317 0.700435
0.624231 0.800793 0.711467
0.700694 0.810483 0.738903
0.769009 0.827985 0.776379
0.82562 0.842557 0.799649
0.892256 0.868635 0.837705
0.931685 0.891203 0.867018
0.956069 0.903243 0.886473
0.616846 0.873289 0.790951
0.661341 0.876905 0.797909
0.712398 0.880903 0.801556
0.759808 0.887892 0.820584
0.800305 0.894362 0.836088
0.833509 0.902815 0.846525
0.878431 0.917494 0.861936
0.923293 0.933242 0.889311
0.9449 0.948486 0.908034
0.698482 0.952605 0.88191
0.730358 0.953201 0.881987
0.762066 0.955489 0.883619
0.797314 0.958206 0.891875
0.822843 0.961746 0.894408
0.847684 0.967147 0.897642
0.876829 0.97142 0.902708
0.913725 0.977752 0.913207
0.934218 0.980087 0.923247
0.19678 0.269123 0.686183
0.243427 0.280858 0.690822
0.383612 0.299474 0.698146
0.524788 0.331792 0.713237
0.649516 0.384863 0.723659
0.749126 0.47422 0.736996
0.807614 0.46125 0.752956
0.874754 0.464576 0.779004
0.945541 0.537255 0.813931
0.207553 0.31313 0.698817
0.256657 0.327077 0.702327
0.39292 0.344625 0.705974
0.534936 0.381933 0.719631
0.65864 0.446662 0.73286
0.756481 0.528222 0.740276
0.811063 0.521035 0.759045
0.880827 0.527169 0.783032
0.948363 0.584268 0.820462
0.22977 0.401633 0.711681
0.271122 0.412528 0.713649
0.411719 0.435248 0.720775
0.554421 0.477333 0.730419
0.672938 0.532784 0.740185
0.763973 0.593622 0.752575
0.817472 0.588006 0.769635
0.882765 0.594934 0.789487
0.949065 0.640452 0.825544
0.263035 0.518944 0.720211
0.300389 0.526543 0.726177
0.421363 0.536782 0.728725
0.573053 0.56849 0.74548
0.690547 0.606027 0.756283
0.775357 0.659388 0.767788
0.828443 0.657801 0.786358
0.890532 0.662608 0.806912
0.947402 0.696712 0.83299
0.272999 0.609094 0.729335
0.310109 0.618341 0.734905
0.44564 0.632746 0.745739
0.581399 0.649393 0.757473
0.701762 0.676936 0.770825
0.790402 0.716411 0.78645
0.841703 0.724117 0.802716
0.897627 0.730129 0.822492
0.94966 0.755489 0.847425
0.309606 0.708766 0.750484
0.348379 0.718441 0.752697
0.445899 0.722972 0.756786
0.575479 0.726192 0.765332
0.705013 0.74696 0.786068
0.800443 0.771634 0.809064
0.856138 0.788037 0.826352
0.906722 0.795544 0.841566
0.953689 0.82237 0.872251
0.417716 0.803998 0.777142
0.488212 0.811185 0.781918
0.579126 0.816007 0.789487
0.656001 0.819272 0.801389
0.737438 0.826108 0.813779
0.811429 0.836072 0.834989
0.872862 0.85359 0.858946
0.919402 0.865278 0.87953
0.951232 0.886717 0.899016
0.603357 0.870115 0.807019
0.655863 0.874372 0.816632
0.705715 0.878004 0.821942
0.749538 0.883345 0.833555
0.800412 0.890303 0.851331
0.845045 0.901686 0.876356
0.882094 0.915938 0.898085
0.920806 0.935988 0.921187
0.940093 0.949203 0.938704
0.695644 0.946242 0.896483
0.730602 0.953124 0.900572
0.760082 0.953079 0.899931
0.795834 0.955901 0.909087
0.826612 0.960937 0.91635
0.855863 0.964431 0.925475
0.885237 0.971923 0.937255
0.907515 0.979278 0.943313
0.934432 0.979812 0.950301
0.335958 0.399161 0.847135
0.42414 0.405539 0.851621
0.524697 0.428 0.84947
0.643778 0.468009 0.85417
0.747295 0.521492 0.86157
0.817746 0.586236 0.868803
0.86363 0.633295 0.869612
0.904509 0.634089 0.884215
0.954147 0.64535 0.900023
0.311696 0.453742 0.849058
0.42208 0.458991 0.850675
0.526421 0.484108 0.853773
0.646067 0.522194 0.858228
0.745739 0.572625 0.863294
0.819944 0.623346 0.870527
0.865309 0.672801 0.876982
0.908461 0.671107 0.888258
0.952132 0.673335 0.899886
0.313848 0.536751 0.854368
0.422492 0.542947 0.855695
0.535866 0.560784 0.856062
0.649348 0.591302 0.861143
0.749035 0.628351 0.868711
0.821942 0.670237 0.872297
0.869917 0.711101 0.881544
0.912169 0.708141 0.894514
0.953933 0.712215 0.906126
0.330083 0.616648 0.854673
0.421607 0.62475 0.859983
0.536416 0.632792 0.863554
0.649012 0.654231 0.865644
0.756207 0.683803 0.871565
0.82266 0.717754 0.877165
0.872358 0.752743 0.885527
0.909697 0.751354 0.897078
0.951934 0.756405 0.91165
0.319631 0.684794 0.857328
0.393164 0.69308 0.860777
0.537179 0.703532 0.866651
0.641825 0.711009 0.869963
0.745342 0.728893 0.877394
0.825605 0.759884 0.886519
0.875685 0.791196 0.892622
0.911696 0.796872 0.904005
0.952224 0.801694 0.918853
0.317922 0.758221 0.866392
0.34757 0.763088 0.870207
0.463676 0.763668 0.868711
0.607614 0.770733 0.8766
0.722988 0.782467 0.884581
0.819196 0.800916 0.895979
0.881041 0.829877 0.90605
0.913481 0.842481 0.914733
0.952224 0.848875 0.93257
0.41236 0.84268 0.886305
0.502358 0.846296 0.888701
0.579339 0.846296 0.890471
0.645624 0.847898 0.891112
0.723827 0.844358 0.89633
0.805203 0.8477 0.902373
0.873014 0.867689 0.917372
0.917937 0.8878 0.929854
0.947051 0.893126 0.944213
0.607569 0.907637 0.913344
0.646418 0.911391 0.91075
0.685969 0.914641 0.912764
0.734112 0.914977 0.91841
0.780148 0.915053 0.924102
0.829038 0.916671 0.930602
0.871458 0.917693 0.9355
0.912871 0.930602 0.946868
0.940017 0.941527 0.959579
0.693706 0.957275 0.929976
0.72874 0.960525 0.932311
0.759136 0.961791 0.932815
0.790234 0.960296 0.935363
0.822599 0.965393 0.939986
0.853147 0.970336 0.949462
0.886625 0.973266 0.955901
0.909514 0.977539 0.967987
0.936614 0.98407 0.979522
