luts/lucashu_filmlike/cu_film5.cube
TITLE "Generated by Resolve"
LUT_3D_SIZE 5
0 0.00639353 0.0357671
0.0467536 0.0119631 0.0290532
0.467796 0.0209049 0.0347906
0.726238 0.0340124 0.0497902
0.730037 0.0341497 0.0500191
0.00706493 0.131884 0.0864118
0.10782 0.100984 0.0522316
0.441001 0.0712291 0.0241245
0.720439 0.0348516 0.0497597
0.725032 0.0341802 0.0498665
0.116548 0.432883 0.176272
0.11635 0.430762 0.176043
0.576532 0.393362 0.0514992
0.799786 0.460853 0.12784
0.799237 0.45771 0.126345
0.064271 0.727764 0.170947
0.064271 0.727764 0.170947
0.172503 0.743023 0.160632
0.794781 0.721828 0.122606
0.805142 0.728893 0.166003
0.064271 0.727764 0.170947
0.064271 0.727764 0.170947
0.102205 0.736614 0.167559
0.784909 0.719905 0.101427
0.805249 0.732723 0.166247
0 0.0196689 0.0586862
0.0450904 0.0288243 0.0874189
0.534432 0.0241093 0.0477913
0.75848 0.0343328 0.0568399
0.761273 0.0344854 0.0570687
0 0.120363 0.11397
0.0353399 0.127962 0.126589
0.52369 0.0615396 0.0526741
0.754269 0.0342107 0.0562753
0.757305 0.0342565 0.056733
0.116365 0.430488 0.176059
0.116167 0.428229 0.17583
0.575479 0.390768 0.0509499
0.799542 0.459037 0.127291
0.799207 0.456962 0.126574
0.064271 0.727764 0.170947
0.064271 0.727764 0.170947
0.169329 0.742153 0.160967
0.794644 0.721019 0.122194
0.805112 0.72813 0.165957
0.064271 0.727764 0.170947
0.064271 0.727764 0.170947
0.100755 0.736446 0.167605
0.78471 0.719814 0.101045
0.805249 0.732723 0.166247
0 0.0816663 0.121324
0 0.0868696 0.128649
0.550378 0.0658579 0.187167
0.793164 0.0359655 0.15317
0.793149 0.0359808 0.154421
0 0.0812695 0.120943
0 0.0817273 0.122103
0.545373 0.0651713 0.185458
0.793179 0.0359197 0.150744
0.793179 0.035935 0.151705
0 0.421881 0.326986
0 0.419547 0.325216
0.537087 0.532769 0.426032
0.824781 0.520516 0.273503
0.824552 0.517617 0.273747
0.0275731 0.743435 0.258915
0.0284428 0.742977 0.257954
0.119265 0.764187 0.269032
0.827802 0.770397 0.300984
0.841688 0.779278 0.358633
0.0321813 0.746548 0.251041
0.0331273 0.746303 0.249821
0.0514382 0.753857 0.254566
0.814282 0.771481 0.27071
0.839612 0.785489 0.34583
0 0.145296 0.184558
0 0.145266 0.184527
0.401221 0.223651 0.444282
0.689158 0.155322 0.49424
0.68893 0.155901 0.496818
0 0.145006 0.184253
0 0.144793 0.184039
0.3953 0.222614 0.442329
0.689967 0.153887 0.488304
0.689784 0.15433 0.490288
0 0.341253 0.385443
0 0.337789 0.381415
0.370336 0.469444 0.606928
0.796643 0.39205 0.601602
0.79379 0.382635 0.599268
0 0.702998 0.555764
0 0.701823 0.554345
0.0453193 0.714961 0.567941
0.869734 0.830457 0.698421
0.900313 0.832593 0.693736
0 0.745647 0.545129
0 0.74551 0.543191
0 0.745525 0.54342
0.858747 0.865934 0.693248
0.902144 0.869398 0.705989
0 0.157259 0.197147
0 0.157259 0.197147
0.354467 0.254292 0.54725
0.69633 0.175357 0.574716
0.69633 0.175357 0.574716
0 0.157259 0.197147
0 0.157259 0.197147
0.341878 0.25481 0.551019
0.69633 0.175357 0.574716
0.69633 0.175357 0.574716
0 0.29398 0.346456
0 0.288182 0.340093
0.279622 0.397375 0.602396
0.747814 0.276112 0.623804
0.742031 0.260426 0.618189
0 0.690089 0.611109
0 0.68867 0.610788
0.0233616 0.701473 0.624094
0.868452 0.827756 0.746731
0.907469 0.827909 0.752361
0 0.752438 0.618128
0 0.752438 0.618097
0 0.752499 0.618585
0.86424 0.877821 0.751141
0.911177 0.880232 0.758175
