luts/lucashu_filmlike/cu_film3.cube
TITLE "Generated by Resolve"
LUT_3D_SIZE 5
0.00161746 0.000732433 0.000762951
0.0654459 0.00283818 0.00553903
0.548867 0.000183108 0.0204471
0.733852 0 0.100999
0.743282 0 0.178042
0 0.0576181 0.00233463
0.0446784 0.0794537 0.00177005
0.56585 0.0815595 0.00102235
0.720699 0 0.0265202
0.7393 0 0.135256
0 0.274632 0
0 0.271336 0
0.3935 0.438163 0
0.940078 0.529351 0.00122072
0.940078 0.523735 0.00128176
0.000213626 0.436179 0
0.000198367 0.433646 0
0.000274662 0.454948 0
0.781369 0.792569 0.000213626
0.940078 0.828504 0.000671397
0.000213626 0.440879 0
0.000213626 0.440879 0
0.000213626 0.440879 0
0.672831 0.815778 0
0.940078 0.883467 0.000518807
0.00273136 0.00108339 0.00146487
0.117983 0.00282292 0.0794537
0.608118 0 0.237034
0.752194 0 0.296651
0.753521 0 0.315938
0 0.0512703 0.0238804
0.0525521 0.0813916 0.0666056
0.609812 0.038468 0.146761
0.74934 0 0.27538
0.752316 0 0.297932
0 0.271992 0
0 0.268605 0
0.390555 0.433021 0
0.940078 0.523857 0.00234989
0.940078 0.520867 0.00755322
0.000213626 0.435264 0
0.000198367 0.432166 0
0.000289921 0.451575 0
0.779736 0.788602 0.000213626
0.940078 0.825284 0.000686656
0.000213626 0.440879 0
0.000213626 0.440879 0
0.000213626 0.440879 0
0.667033 0.814298 0
0.940078 0.883467 0.000518807
0.00448615 0.000915541 0.0767224
0.113313 0.00424201 0.196292
0.648707 0 0.44741
0.767697 0 0.500755
0.768063 0 0.50428
0.0043946 0.0009308 0.0742046
0.0339818 0.00146487 0.110643
0.636606 0 0.437949
0.765698 0 0.492363
0.767224 0 0.496086
0 0.310109 0.195132
0 0.304875 0.190936
0.45301 0.477104 0.415274
0.940078 0.522774 0.554726
0.940078 0.511376 0.570581
0 0.485954 0.104479
0 0.480446 0.0982376
0 0.495079 0.110643
0.795727 0.82768 0.304311
0.940078 0.859525 0.356146
0.000122072 0.482155 0.0552682
0.00015259 0.478691 0.0435645
0.00015259 0.478294 0.0417029
0.661784 0.852522 0.155245
0.940078 0.916777 0.208103
0.0642405 0.00390631 0.260761
0.0643473 0.00389105 0.26099
0.662898 0 0.538903
0.783841 0 0.59707
0.784543 0 0.598733
0.0629587 0.00393683 0.257786
0.0621347 0.00395209 0.255879
0.651469 0 0.532372
0.781247 0 0.592386
0.783185 0 0.594614
0.0198672 0.230076 0.523735
0.0211185 0.217456 0.518853
0.588663 0.24239 0.684672
0.914061 0.190875 0.737087
0.906752 0.170031 0.724346
0 0.579599 0.438361
0 0.574548 0.434073
0 0.576852 0.438987
0.824247 0.827726 0.706249
0.940078 0.848219 0.750713
0 0.620218 0.408072
0 0.617365 0.401587
0 0.616648 0.399924
0.659724 0.918242 0.643061
0.919982 0.940078 0.687526
0.0989548 0.00129702 0.32874
0.0989548 0.00129702 0.32874
0.667796 0 0.564569
0.79707 0 0.633875
0.797375 0 0.634104
0.0989548 0.00129702 0.32874
0.0989548 0.00129702 0.32874
0.654246 0 0.558785
0.795605 0 0.6327
0.797375 0 0.634104
0.0956283 0.0207523 0.358709
0.0963455 0.0154879 0.351797
0.59646 0.0141909 0.550164
0.793637 0.0115053 0.635142
0.806195 0.00929274 0.644877
0 0.630045 0.615869
0 0.62504 0.614633
0 0.624643 0.61825
0.849928 0.808713 0.826429
0.940078 0.823697 0.862516
0 0.690501 0.561685
0 0.689387 0.559228
0 0.689464 0.559411
0.673945 0.931792 0.756573
0.916045 0.940078 0.801846
