luts/lucashu_filmlike/cu_film1.cube
TITLE "Generated by Resolve"
LUT_3D_SIZE 5
0.0356909 0.0356603 0.0329747
0.0673991 0.0387579 0.0375219
0.456687 0.0477455 0.128191
0.776761 0.190463 0.401389
0.897993 0.634836 0.80032
0.0390478 0.0885939 0.0573892
0.0716259 0.100191 0.0416571
0.434852 0.0450904 0.0893873
0.780728 0.194354 0.399008
0.897963 0.633661 0.798947
0.0426947 0.420081 0.275792
0.032929 0.429313 0.253239
0.606043 0.559274 0.145647
0.805951 0.318288 0.265949
0.897887 0.627466 0.785718
0.278645 0.70045 0.554192
0.271656 0.704601 0.555627
0.313909 0.733028 0.429038
0.897993 0.896529 0.745525
0.897993 0.693874 0.50251
0.895201 0.897993 0.897749
0.89424 0.897993 0.897551
0.894652 0.897993 0.897566
0.897993 0.897993 0.897871
0.897993 0.897993 0.897993
0.038819 0.0360876 0.0600748
0.0724956 0.0393835 0.0543832
0.454688 0.0509041 0.159701
0.774197 0.194461 0.417395
0.897871 0.636912 0.801389
0.041886 0.0849317 0.0776532
0.0690623 0.0893416 0.0831617
0.453742 0.0482185 0.132204
0.780728 0.196887 0.41062
0.897856 0.635538 0.800397
0.0466773 0.43064 0.304616
0.0394598 0.432898 0.297749
0.602853 0.561166 0.147692
0.812863 0.312764 0.289113
0.897826 0.628656 0.786801
0.28246 0.702556 0.559792
0.277867 0.706767 0.562188
0.311284 0.73315 0.437751
0.897993 0.896681 0.751064
0.897993 0.69456 0.501701
0.895247 0.897993 0.897749
0.894316 0.897993 0.897566
0.894713 0.897993 0.897581
0.897993 0.897993 0.897871
0.897993 0.897993 0.897993
0.0728771 0.037232 0.376852
0.102556 0.0377966 0.379126
0.45539 0.0708171 0.340566
0.762463 0.184817 0.474388
0.897902 0.642954 0.811627
0.0386206 0.0407874 0.368383
0.0551156 0.0374304 0.395834
0.460212 0.072221 0.347921
0.766384 0.183398 0.468528
0.897856 0.642206 0.811002
0.045655 0.42858 0.405554
0.0429694 0.439963 0.419898
0.515694 0.534936 0.501671
0.825879 0.254292 0.44184
0.897826 0.636027 0.798474
0.31014 0.712825 0.598917
0.298436 0.716258 0.601678
0.303304 0.71986 0.564446
0.897993 0.896605 0.756451
0.897993 0.683558 0.531838
0.895735 0.897993 0.897856
0.89427 0.897993 0.897612
0.895308 0.897993 0.897749
0.897993 0.897993 0.897887
0.897993 0.897993 0.897993
0.144442 0.0499733 0.54876
0.141375 0.050309 0.552865
0.410513 0.0720684 0.585229
0.777173 0.217685 0.64123
0.897993 0.663096 0.858381
0.105241 0.047837 0.53846
0.102113 0.0480049 0.541146
0.4 0.0719158 0.589837
0.781491 0.218479 0.643442
0.897993 0.662699 0.85977
0.0459754 0.296895 0.584588
0.0434882 0.315709 0.593454
0.348714 0.345342 0.794186
0.79649 0.238926 0.655665
0.897993 0.658244 0.855955
0.300343 0.691997 0.679973
0.286397 0.695567 0.681468
0.319188 0.709789 0.693294
0.891752 0.889967 0.888533
0.897704 0.652583 0.777173
0.897749 0.897993 0.897993
0.897139 0.897993 0.897993
0.8972 0.897993 0.897993
0.897673 0.897993 0.897993
0.897993 0.897993 0.897993
0.057435 0.0800031 0.529046
0.0576028 0.0833295 0.533898
0.0622263 0.0777447 0.53521
0.73518 0.207004 0.680583
0.897993 0.618036 0.894575
0.0606241 0.0928817 0.541619
0.0602731 0.0972152 0.546807
0.0595865 0.0840772 0.536294
0.740658 0.210254 0.682719
0.897993 0.617716 0.89453
0.0621195 0.336889 0.655299
0.0588998 0.349615 0.659709
0.0587625 0.331365 0.656336
0.722881 0.222904 0.728908
0.897993 0.613657 0.894163
0.18677 0.623178 0.695613
0.185641 0.632242 0.702495
0.239277 0.64715 0.73167
0.848722 0.857237 0.896803
0.897993 0.727169 0.896147
0.897261 0.897993 0.897993
0.896742 0.897993 0.897993
0.897124 0.897993 0.897993
0.897993 0.897993 0.897993
0.897993 0.897993 0.897993
