luts/lucashu_filmlike/cu_film3.cube
TITLE "Generated by Resolve"
LUT_3D_SIZE 9
0.00161746 0.000732433 0.000762951
0.0043183 0.00131228 0.0016022
0.0654459 0.00283818 0.00553903
0.278309 0.00891127 0.0335699
0.548867 0.000183108 0.0204471
0.660685 0 0.0289006
0.733852 0 0.100999
0.74168 0 0.159609
0.743282 0 0.178042
0.00276188 0.0107729 0.00267033
0.0118563 0.0142824 0.00479133
0.0578622 0.0253147 0.00830091
0.2262 0.0339666 0.00936904
0.529015 0.000900282 0.0122377
0.652277 0 0.0164492
0.728359 0 0.0716259
0.740215 0 0.142992
0.742 0 0.163287
0 0.0576181 0.00233463
0 0.0558938 0.00259403
0.0446784 0.0794537 0.00177005
0.263828 0.112825 0.00015259
0.56585 0.0815595 0.00102235
0.674372 0.00436408 0.00233463
0.720699 0 0.0265202
0.734615 0 0.104875
0.7393 0 0.135256
0 0.164569 0
0 0.162112 0
0 0.161517 0
0.165591 0.224628 0
0.548821 0.283055 0.000564584
0.772915 0.286198 0.00120546
0.906447 0.269368 0.00163272
0.901823 0.240757 0.00170901
0.898573 0.227146 0.00282292
0 0.274632 0
0 0.272328 0
0 0.271336 0
0.00155642 0.289799 0
0.3935 0.438163 0
0.743786 0.502968 0.000686656
0.940078 0.529351 0.00122072
0.940078 0.526375 0.0012665
0.940078 0.523735 0.00128176
9.15541e-05 0.359396 0
9.15541e-05 0.357626 0
7.62951e-05 0.356817 0
7.62951e-05 0.356283 0
0.0631876 0.494285 0
0.624216 0.635904 6.10361e-05
0.882704 0.687404 0.000717174
0.940078 0.704265 0.000976577
0.940078 0.703243 0.000976577
0.000213626 0.436179 0
0.000198367 0.434607 0
0.000198367 0.433646 0
0.000198367 0.43299 0
0.000274662 0.454948 0
0.367086 0.708598 0
0.781369 0.792569 0.000213626
0.940078 0.828763 0.000671397
0.940078 0.828504 0.000671397
0.000213626 0.440879 0
0.000213626 0.440879 0
0.000213626 0.440879 0
0.000213626 0.440879 0
0.000213626 0.441154 0
0.124315 0.683192 0
0.697871 0.822171 0
0.891203 0.869947 0.000366217
0.940078 0.883467 0.000518807
0.000213626 0.440879 0
0.000213626 0.440879 0
0.000213626 0.440879 0
0.000213626 0.440879 0
0.000213626 0.440879 0
0.0626688 0.656657 0
0.672831 0.815778 0
0.868482 0.864378 0.00030518
0.940078 0.883467 0.000518807
0.00210575 0.000885023 0.000991836
0.0053254 0.00132753 0.00210575
0.0859693 0.00251774 0.0311437
0.309422 0.0093843 0.0873121
0.584192 0 0.126375
0.689357 0 0.137911
0.745495 0 0.204334
0.747723 0 0.231968
0.748394 0 0.241337
0.00396735 0.00762951 0.00621042
0.0129091 0.0110018 0.0103304
0.073228 0.0213931 0.0278172
0.254719 0.0268711 0.0508125
0.567941 6.10361e-05 0.106279
0.682521 0 0.120546
0.74316 0 0.18677
0.746975 0 0.221988
0.747784 0 0.232822
0 0.0523995 0.00544747
0 0.0519265 0.00640879
0.0491188 0.0783856 0.0124666
0.274403 0.109148 0.0112917
0.570794 0.0690013 0.00941482
0.68809 0.00196841 0.059617
0.740353 0 0.160555
0.745571 0 0.20441
0.74667 0 0.218006
0 0.162463 0
0 0.15996 0
0 0.159258 0
0.164675 0.221286 0
0.547372 0.279194 0.000564584
0.771801 0.281819 0.00125124
0.910552 0.264454 0.0198367
0.915587 0.234699 0.0674754
0.914778 0.218875 0.0888991
0 0.273396 0
0 0.271077 0
0 0.270085 0
0.00122072 0.287266 0
0.391485 0.435492 0
0.742351 0.500008 0.000686656
0.940078 0.526207 0.00122072
0.940078 0.523049 0.0012665
0.940078 0.520562 0.00128176
9.15541e-05 0.358587 0
7.62951e-05 0.356756 0
7.62951e-05 0.355993 0
7.62951e-05 0.355398 0
0.0625467 0.491722 0
0.622339 0.633738 6.10361e-05
0.881437 0.685328 0.000717174
0.940078 0.702296 0.000976577
0.940078 0.701228 0.000976577
0.000213626 0.435843 0
0.000198367 0.433814 0
0.000198367 0.432837 0
0.000198367 0.43212 0
0.000289921 0.453422 0
0.362829 0.705852 0
0.780087 0.790448 0.000213626
0.940078 0.826947 0.000671397
0.940078 0.826749 0.000671397
0.000213626 0.440879 0
0.000213626 0.440879 0
0.000213626 0.440879 0
0.000213626 0.440879 0
0.000213626 0.441169 0
0.120623 0.680949 0
0.695048 0.821454 0
0.889784 0.869596 0.000366217
0.940078 0.883482 0.000503548
0.000213626 0.440879 0
0.000213626 0.440879 0
0.000213626 0.440879 0
0.000213626 0.440879 0
0.000213626 0.440879 0
0.0596933 0.653513 0
0.669245 0.814862 0
0.867063 0.864027 0.00030518
0.940078 0.883467 0.000518807
0.00273136 0.00108339 0.00146487
0.0090486 0.00135805 0.0100099
0.117983 0.00282292 0.0794537
0.337957 0.00952163 0.157641
0.608118 0 0.237034
0.702815 0 0.259724
0.752194 0 0.296651
0.75314 0 0.310246
0.753521 0 0.315938
0.0024567 0.00254826 0.00987259
0.0175784 0.00450141 0.0223697
0.0945296 0.0112612 0.0683909
0.306447 0.0136721 0.139559
0.595972 0 0.22501
0.698543 0 0.248844
0.750744 0 0.285786
0.752514 0 0.300679
0.752926 0 0.306996
0 0.0512703 0.0238804
0 0.0505837 0.0254826
0.0525521 0.0813916 0.0666056
0.306371 0.106081 0.108843
0.609812 0.038468 0.146761
0.705379 6.10361e-05 0.230579
0.74934 0 0.27538
0.751888 0 0.291569
0.752316 0 0.297932
0 0.155993 0.00352483
0 0.153521 0.00369268
0 0.153246 0.00430304
0.177554 0.228046 0.0256046
0.577615 0.283558 0.0372625
0.804334 0.282918 0.0840925
0.934127 0.260716 0.190234
0.929 0.223819 0.226017
0.924071 0.20267 0.237919
0 0.271992 0
0 0.269688 0
0 0.268605 0
0.000976577 0.285008 0
0.390555 0.433021 0
0.742107 0.497383 0.000747692
0.940078 0.523857 0.00234989
0.940078 0.522713 0.00358587
0.940078 0.520867 0.00755322
9.15541e-05 0.357824 0
7.62951e-05 0.356054 0
7.62951e-05 0.355245 0
7.62951e-05 0.354635 0
0.0616464 0.489403 0
0.621225 0.632013 6.10361e-05
0.880858 0.683574 0.000732433
0.940078 0.700603 0.000976577
0.940078 0.69955 0.000976577
0.000213626 0.435264 0
0.000198367 0.433204 0
0.000198367 0.432166 0
0.000198367 0.431418 0
0.000289921 0.451575 0
0.36141 0.703807 0
0.779736 0.788602 0.000213626
0.940078 0.825391 0.000671397
0.940078 0.825284 0.000686656
0.000213626 0.440879 0
0.000213626 0.440879 0
0.000213626 0.440879 0
0.000213626 0.440879 0
0.000213626 0.441123 0
0.117678 0.679438 0
0.693233 0.820981 0
0.888823 0.869383 0.000366217
0.940078 0.883482 0.000518807
0.000213626 0.440879 0
0.000213626 0.440879 0
0.000213626 0.440879 0
0.000213626 0.440879 0
0.000213626 0.440879 0
0.0574807 0.651453 0
0.667033 0.814298 0
0.866011 0.863767 0.00030518
0.940078 0.883467 0.000518807
0.0037232 0.00129702 0.0149233
0.00863661 0.00131228 0.0294652
0.138628 0.00448615 0.14815
0.377966 0.0065156 0.259953
0.631708 0 0.357656
0.714595 0 0.38436
0.75996 0 0.411521
0.760357 0 0.416678
0.760555 0 0.419348
0.00369268 0.00128176 0.0138705
0.00425727 0.00131228 0.0181888
0.120653 0.00358587 0.134951
0.356283 0.00761425 0.246021
0.621729 0 0.347204
0.710597 0 0.375158
0.758785 0 0.402792
0.759777 0 0.408515
0.759945 0 0.411139
0.00344854 0.0238499 0.0532082
0.00341802 0.0228428 0.0513161
0.0591745 0.0388495 0.130327
0.318914 0.0346838 0.237675
0.615396 0.000579843 0.337469
0.708995 0 0.370367
0.757733 0 0.397604
0.759411 0 0.403708
0.759609 0 0.406256
0 0.161837 0.0831006
0 0.158846 0.0810864
0 0.15848 0.0824598
0.196948 0.24271 0.211124
0.619028 0.278386 0.285618
0.825132 0.255589 0.341604
0.932982 0.203387 0.408072
0.919158 0.14258 0.42005
0.908782 0.121401 0.423041
0 0.282841 0.0263218
0 0.279683 0.0240177
0 0.278431 0.0232395
0.000732433 0.3037 0.0467384
0.419257 0.467887 0.140124
0.780682 0.524086 0.18912
0.940078 0.545983 0.273518
0.940078 0.542641 0.299977
0.940078 0.539849 0.306798
9.15541e-05 0.36112 7.62951e-05
7.62951e-05 0.358099 0
7.62951e-05 0.356756 1.5259e-05
7.62951e-05 0.356008 7.62951e-05
0.0607309 0.493965 0.00823987
0.626688 0.637247 0.0130922
0.887297 0.689403 0.0263676
0.940078 0.707958 0.0459602
0.940078 0.708827 0.0515602
0.000198367 0.433997 0
0.000198367 0.4318 0
0.000198367 0.430823 0
0.000198367 0.43006 0
0.000274662 0.446906 0
0.359731 0.699046 0
0.779553 0.784787 0.000228885
0.940078 0.82211 0.000686656
0.940078 0.822248 0.000686656
0.000213626 0.440879 0
0.000213626 0.440879 0
0.000213626 0.440879 0
0.000213626 0.440879 0
0.000213626 0.440986 0
0.11107 0.676936 0
0.690639 0.820325 0
0.886885 0.868894 0.000366217
0.940078 0.883497 0.000503548
0.000213626 0.440879 0
0.000213626 0.440879 0
0.000213626 0.440879 0
0.000213626 0.440879 0
0.000213626 0.440879 0
0.0531472 0.647929 0
0.663813 0.813458 0
0.863798 0.863233 0.00030518
0.940078 0.883467 0.000518807
0.00448615 0.000915541 0.0767224
0.00447089 0.000915541 0.0766308
0.113313 0.00424201 0.196292
0.416495 0.00128176 0.363439
0.648707 0 0.44741
0.72398 0 0.475074
0.767697 0 0.500755
0.767926 0 0.502983
0.768063 0 0.50428
0.0043946 0.000915541 0.0746929
0.00436408 0.0009308 0.0736248
0.0862898 0.00317388 0.168872
0.393927 0.00209049 0.350362
0.640925 0 0.440986
0.720302 0 0.469047
0.766674 0 0.495171
0.767376 0 0.497597
0.767483 0 0.498741
0.0043946 0.0009308 0.0742046
0.00434882 0.0009308 0.072755
0.0339818 0.00146487 0.110643
0.376074 0.00276188 0.341131
0.636606 0 0.437949
0.718624 0 0.466423
0.765698 0 0.492363
0.767132 0 0.495079
0.767224 0 0.496086
0.000610361 0.126543 0.222034
0.000610361 0.122835 0.219059
0.000610361 0.120974 0.217777
0.256077 0.159838 0.404868
0.649104 0.127871 0.491035
0.788815 0.0762798 0.517891
0.825376 0.050309 0.526329
0.821744 0.028687 0.527321
0.817929 0.0183108 0.526207
0 0.310109 0.195132
0 0.306401 0.192081
0 0.304875 0.190936
0.000518807 0.324651 0.221454
0.45301 0.477104 0.415274
0.803357 0.51371 0.487572
0.940078 0.522774 0.554726
0.940078 0.515526 0.568002
0.940078 0.511376 0.570581
0 0.41146 0.144289
0 0.408194 0.140963
0 0.406638 0.139513
0 0.405676 0.139239
0.0499275 0.558129 0.276005
0.657084 0.686122 0.373251
0.908019 0.723354 0.429175
0.940078 0.734752 0.463783
0.940078 0.733577 0.466667
0 0.485954 0.104479
0 0.482139 0.100023
0 0.480446 0.0982376
0 0.479225 0.0974441
0 0.495079 0.110643
0.344579 0.753597 0.258717
0.795727 0.82768 0.304311
0.940078 0.858534 0.35079
0.940078 0.859525 0.356146
9.15541e-05 0.487205 0.0698558
0.000106813 0.485298 0.063386
0.000122072 0.484428 0.0604257
0.000122072 0.484001 0.0590524
0.000122072 0.484352 0.0599374
0.0515755 0.729656 0.17438
0.690517 0.864546 0.20502
0.882231 0.907835 0.238804
0.940078 0.921324 0.257008
0.000122072 0.482155 0.0552682
0.000137331 0.479835 0.0474708
0.00015259 0.478691 0.0435645
0.00015259 0.478172 0.0416724
0.00015259 0.478294 0.0417029
0.0307774 0.693172 0.134218
0.661784 0.852522 0.155245
0.860227 0.898039 0.183719
0.940078 0.916777 0.208103
0.0292515 0.002533 0.173373
0.02916 0.002533 0.173129
0.0358434 0.00276188 0.180468
0.427955 0 0.42771
0.657557 0 0.503197
0.731197 0 0.530755
0.774838 0 0.556756
0.775082 0 0.557916
0.775189 0 0.558663
0.0281682 0.0024567 0.170535
0.0276646 0.00241093 0.169177
0.029633 0.00248722 0.171267
0.402014 0 0.414969
0.650217 0 0.498375
0.727459 0 0.526345
0.773907 0 0.553155
0.774563 0 0.554467
0.774655 0 0.555077
0.027985 0.00244144 0.170031
0.0272374 0.00239567 0.168078
0.0271153 0.00238041 0.167742
0.380285 0.000228885 0.40499
0.646403 0 0.496254
0.72575 0 0.524529
0.772931 0 0.551308
0.774334 0 0.552972
0.774411 0 0.553521
0.0234684 0.0165255 0.199207
0.0229343 0.0146792 0.194324
0.0228275 0.0136721 0.192142
0.289845 0.0100862 0.381445
0.639033 0.00115969 0.499336
0.723766 0.000595102 0.523217
0.773373 0.000244144 0.550561
0.77499 0 0.552178
0.775128 0 0.552712
0 0.315847 0.379934
0 0.311528 0.37705
0 0.309728 0.375982
0.00106813 0.314931 0.391165
0.51252 0.426902 0.600381
0.826429 0.439796 0.667506
0.940078 0.432486 0.718364
0.940078 0.417914 0.725353
0.940078 0.41033 0.725963
0 0.452796 0.319249
0 0.448936 0.316091
0 0.447227 0.314595
0 0.445975 0.314168
0.0580301 0.567788 0.461295
0.683009 0.683055 0.591852
0.918914 0.70985 0.643793
0.940078 0.717327 0.672801
0.940078 0.715663 0.674205
0 0.535409 0.282963
0 0.53167 0.279194
0 0.529946 0.277455
0 0.528572 0.276661
0 0.540108 0.289433
0.353155 0.773983 0.49604
0.808347 0.836851 0.561547
0.940078 0.860212 0.602747
0.940078 0.861952 0.608225
0 0.556497 0.262211
0 0.554589 0.257374
0 0.553674 0.25507
0 0.55317 0.253803
0 0.553124 0.253681
0.0361028 0.77792 0.420981
0.68806 0.904082 0.497169
0.870878 0.939544 0.532387
0.932982 0.940078 0.549081
0 0.553979 0.255772
0 0.551873 0.250385
0 0.550805 0.247654
0 0.550164 0.246036
0 0.549996 0.245579
0.0233921 0.74583 0.393851
0.656672 0.896941 0.482292
0.849607 0.935164 0.515709
0.930343 0.940078 0.536843
0.0642405 0.00390631 0.260761
0.0640879 0.00390631 0.26038
0.0643473 0.00389105 0.26099
0.388235 0 0.448707
0.662898 0 0.538903
0.73904 0 0.569757
0.783841 0 0.59707
0.784344 0 0.598154
0.784543 0 0.598733
0.0631418 0.00392157 0.258198
0.0626535 0.00395209 0.257115
0.0626383 0.00395209 0.257069
0.34992 0 0.431571
0.655421 0 0.534478
0.734936 0 0.565911
0.782589 0 0.594171
0.783444 0 0.595422
0.783597 0 0.595865
0.0629587 0.00393683 0.257786
0.0622873 0.00395209 0.256245
0.0621347 0.00395209 0.255879
0.310811 0.000289921 0.411429
0.651469 0 0.532372
0.733043 0 0.564263
0.781247 0 0.592386
0.783078 0 0.594247
0.783185 0 0.594614
0.0625315 0.00393683 0.256748
0.0617533 0.00395209 0.254978
0.0615091 0.00395209 0.254429
0.187488 0.00236515 0.334051
0.641474 0 0.528176
0.729885 0 0.562005
0.780194 0 0.590829
0.782696 0 0.593103
0.782788 0 0.593393
0.0198672 0.230076 0.523735
0.0208896 0.221347 0.520226
0.0211185 0.217456 0.518853
0.0239261 0.212024 0.517494
0.588663 0.24239 0.684672
0.812299 0.220462 0.706935
0.914061 0.190875 0.737087
0.917128 0.175204 0.735027
0.906752 0.170031 0.724346
0 0.478492 0.476265
0 0.474449 0.474174
0 0.472663 0.473335
0 0.471122 0.473091
0.0787823 0.54377 0.574487
0.720211 0.651698 0.725368
0.935515 0.669657 0.775128
0.940078 0.673579 0.799802
0.940078 0.671366 0.800595
0 0.579599 0.438361
0 0.576196 0.435401
0 0.574548 0.434073
0 0.573358 0.433463
0 0.576852 0.438987
0.39086 0.773754 0.64239
0.824247 0.827726 0.706249
0.940078 0.84596 0.74316
0.940078 0.848219 0.750713
0 0.622034 0.412161
0 0.620356 0.408331
0 0.619486 0.406348
0 0.619043 0.405356
0 0.618891 0.405066
0.0438697 0.802853 0.568689
0.699519 0.91841 0.654322
0.870756 0.940078 0.684352
0.940078 0.940078 0.69984
0 0.620218 0.408072
0 0.618326 0.403754
0 0.617365 0.401587
0 0.616861 0.400427
0 0.616648 0.399924
0.0181888 0.765316 0.533074
0.659724 0.918242 0.643061
0.845029 0.940078 0.671916
0.919982 0.940078 0.687526
0.0918441 0.00195315 0.316594
0.091722 0.00196841 0.316381
0.0918746 0.00195315 0.316655
0.296468 0.00062562 0.418418
0.667399 0 0.559701
0.748425 0 0.599695
0.796674 0 0.632746
0.797086 0 0.633341
0.797192 0 0.633631
0.0910353 0.00201419 0.31516
0.0907149 0.00205997 0.314595
0.0907301 0.00205997 0.314595
0.239231 0.00102235 0.389746
0.658991 0 0.555444
0.74432 0 0.596216
0.795758 0 0.630854
0.796506 0 0.631785
0.796597 0 0.632029
0.0908064 0.00204471 0.314778
0.0903944 0.00207523 0.314031
0.0902876 0.00207523 0.313848
0.214817 0.00114443 0.378851
0.654414 0 0.553277
0.742336 0 0.594614
0.794217 0 0.629129
0.796246 0 0.631067
0.796323 0 0.631312
0.0903029 0.00209049 0.313878
0.0898146 0.00213626 0.313008
0.089662 0.00215152 0.312749
0.151675 0.00138857 0.349889
0.643244 0 0.548699
0.739071 0 0.592187
0.792523 0 0.627253
0.795956 0 0.63032
0.796033 0 0.630533
0.123369 0.1019 0.512123
0.118181 0.0939803 0.492241
0.115999 0.0897841 0.483619
0.115236 0.0840009 0.476814
0.625315 0.0583658 0.647532
0.777188 0.0308843 0.67039
0.816953 0.0174563 0.66157
0.817105 0.0155947 0.656001
0.806043 0.0157473 0.642039
0 0.485695 0.590585
0 0.48043 0.589883
0 0.47805 0.589624
0 0.476127 0.589822
0.118593 0.522881 0.667231
0.757549 0.610132 0.806775
0.940078 0.619821 0.851637
0.940078 0.620829 0.876432
0.940078 0.618021 0.877272
0 0.606516 0.539528
0 0.603372 0.538125
0 0.601831 0.537545
0 0.600717 0.537331
0 0.602365 0.541283
0.42359 0.768277 0.727794
0.839078 0.815198 0.789899
0.940078 0.829831 0.819577
0.940078 0.832197 0.82707
0 0.666407 0.511223
0 0.665415 0.509194
0 0.664942 0.508247
0 0.664439 0.507836
0 0.664256 0.507958
0.0446326 0.81117 0.639887
0.726406 0.90367 0.738415
0.884398 0.92108 0.770657
0.940078 0.930404 0.788373
0 0.664179 0.5066
0 0.663127 0.504433
0 0.662593 0.503319
0 0.662303 0.502693
0 0.662257 0.502617
0.0224002 0.778698 0.604288
0.666529 0.927138 0.717922
0.845731 0.940078 0.74902
0.915618 0.940078 0.764706
0.0989548 0.00129702 0.32874
0.0989548 0.00129702 0.32874
0.0989548 0.00129702 0.32874
0.279545 0.000335698 0.420401
0.667796 0 0.564569
0.748898 0 0.602457
0.79707 0 0.633875
0.797375 0 0.634104
0.797375 0 0.634104
0.0989548 0.00129702 0.32874
0.0989548 0.00129702 0.32874
0.0989548 0.00129702 0.32874
0.226795 0.000595102 0.394751
0.659129 0 0.56083
0.745571 0 0.60116
0.796933 0 0.633768
0.797375 0 0.634104
0.797375 0 0.634104
0.0989548 0.00129702 0.32874
0.0989548 0.00129702 0.32874
0.0989548 0.00129702 0.32874
0.201083 0.000671397 0.383627
0.654246 0 0.558785
0.743923 0 0.600519
0.795605 0 0.6327
0.797375 0 0.634104
0.797375 0 0.634104
0.0989548 0.00129702 0.32874
0.0989548 0.00129702 0.32874
0.0989548 0.00129702 0.32874
0.117968 0.00103761 0.340368
0.642435 0 0.55407
0.741176 0 0.599466
0.792935 0 0.630564
0.797375 0 0.634104
0.797375 0 0.634104
0.0956283 0.0207523 0.358709
0.0959793 0.0169528 0.354665
0.0963455 0.0154879 0.351797
0.0984817 0.0146181 0.346303
0.59646 0.0141909 0.550164
0.739361 0.0130312 0.607202
0.793637 0.0115053 0.635142
0.806043 0.0100557 0.644663
0.806195 0.00929274 0.644877
0 0.492302 0.664836
0 0.485786 0.66479
0 0.482902 0.664836
0 0.480262 0.665141
0.161944 0.512612 0.72192
0.783536 0.585672 0.852049
0.940078 0.590387 0.891173
0.940078 0.589715 0.908675
0.940078 0.586404 0.908568
0 0.630045 0.615869
0 0.626688 0.614984
0 0.62504 0.614633
0 0.623896 0.614755
0 0.624643 0.61825
0.465019 0.767803 0.776791
0.849928 0.808713 0.826429
0.940078 0.821393 0.85388
0.940078 0.823697 0.862516
0 0.694606 0.571344
0 0.693904 0.569818
0 0.693507 0.569055
0 0.692882 0.569085
0 0.692271 0.570062
0.0510719 0.81471 0.686137
0.743282 0.896254 0.781292
0.892989 0.911147 0.80911
0.940078 0.919631 0.82324
0 0.690501 0.561685
0 0.689754 0.560037
0 0.689387 0.559228
0 0.68925 0.558938
0 0.689464 0.559411
0.0246433 0.79173 0.649348
0.673945 0.931792 0.756573
0.848096 0.940078 0.787106
0.916045 0.940078 0.801846
