luts/lucashu_filmlike/cu_film4.cube
TITLE "Generated by Resolve"
LUT_3D_SIZE 5
0.00563058 0.0062562 0.00723278
0.028687 0.0205386 0.0255131
0.318929 0.0396277 0.116732
0.603845 0.0226596 0.176028
0.6056 0.0225834 0.1794
0.0410773 0.093843 0.0652171
0.0511635 0.0957198 0.0635691
0.375448 0.0495308 0.0635996
0.60528 0.0229038 0.169879
0.606363 0.0225376 0.174472
0 0.405035 0.0833448
0 0.402655 0.0829175
0.395712 0.458915 0.0389258
0.782467 0.438727 0.029221
0.782727 0.434669 0.0289311
0.000167849 0.674861 0.147616
0.000167849 0.674861 0.147616
0.0772564 0.708614 0.132631
0.740124 0.782162 0.0392615
0.768872 0.782101 0.039353
0.000167849 0.674861 0.147616
0.000167849 0.674861 0.147616
0.0259098 0.691981 0.140459
0.715694 0.785016 0.0392767
0.768704 0.786862 0.0393378
0.0112612 0.0119478 0.019852
0.049897 0.0276951 0.0506447
0.343114 0.0384833 0.15375
0.619058 0.0215457 0.210971
0.620539 0.0213779 0.21529
0.0407263 0.0897993 0.108003
0.0520485 0.0918898 0.105959
0.422705 0.0607156 0.150057
0.620279 0.0217441 0.204746
0.618723 0.0215915 0.208942
0 0.402426 0.0828717
0 0.400092 0.0824903
0.395499 0.455894 0.0394598
0.783734 0.434195 0.0335241
0.784772 0.429664 0.035523
0.000167849 0.674861 0.147616
0.000167849 0.674861 0.147616
0.0766308 0.708095 0.132616
0.739986 0.781247 0.0392615
0.768902 0.781155 0.039353
0.000167849 0.674861 0.147616
0.000167849 0.674861 0.147616
0.0255589 0.69192 0.140475
0.715312 0.784985 0.039292
0.768704 0.786862 0.0393378
0.0812543 0.0385443 0.190784
0.132982 0.0415198 0.238178
0.405966 0.0320439 0.34966
0.674342 0.0136873 0.422278
0.674632 0.0136263 0.424231
0.0805066 0.0384222 0.188922
0.109545 0.040528 0.21593
0.40441 0.0322118 0.345281
0.673716 0.0138094 0.418265
0.67393 0.0137636 0.419715
0 0.415595 0.472984
0 0.41268 0.470649
0.414069 0.4533 0.463172
0.818586 0.399725 0.475731
0.818128 0.398459 0.4804
0 0.708476 0.431266
0 0.7075 0.428046
0.0581979 0.735317 0.42678
0.736797 0.805524 0.406043
0.771572 0.805585 0.405844
0 0.712032 0.403525
0 0.711452 0.39939
0.0157626 0.726284 0.3991
0.709926 0.816129 0.375204
0.770123 0.818235 0.373571
0.159838 0.0416114 0.444297
0.159823 0.0416114 0.444175
0.455024 0.0236057 0.617594
0.700847 0.0071107 0.69482
0.700908 0.00708019 0.695994
0.159579 0.0416266 0.443137
0.159396 0.0416419 0.442329
0.453742 0.023743 0.614588
0.700664 0.00715648 0.691981
0.700725 0.00714122 0.69279
0.0246433 0.296788 0.776867
0.0258488 0.291585 0.772717
0.433402 0.289784 0.783764
0.768536 0.263462 0.774411
0.766827 0.254383 0.772595
0 0.724315 0.801617
0 0.722972 0.8
0.0695811 0.73698 0.8056
0.735683 0.788418 0.811734
0.78703 0.788235 0.811246
0 0.766537 0.795026
0 0.766247 0.793149
0.0168002 0.770001 0.794629
0.70312 0.842618 0.805753
0.780682 0.845289 0.804669
0.169924 0.0410468 0.489204
0.169924 0.0410468 0.489204
0.458289 0.0223392 0.668116
0.703456 0.00624094 0.740459
0.703456 0.00624094 0.740459
0.169924 0.0410468 0.489204
0.169924 0.0410468 0.489204
0.457343 0.0224002 0.667842
0.703456 0.00624094 0.740459
0.703456 0.00624094 0.740459
0.0883192 0.198108 0.787915
0.0920119 0.190021 0.774929
0.425834 0.170169 0.804227
0.746883 0.12726 0.80209
0.745708 0.111192 0.798901
0 0.720913 0.859495
0 0.719554 0.859495
0.0742657 0.72842 0.859709
0.737285 0.767224 0.861555
0.788037 0.766522 0.861708
0 0.78117 0.859388
0 0.78117 0.859373
0.0172732 0.784146 0.859419
0.702907 0.841627 0.861295
0.782956 0.842924 0.86154
