luts/lucashu_filmlike/cu_film2.cube
TITLE "Generated by Resolve"
LUT_3D_SIZE 5
0.0218967 0.0277562 0.0255436
0.109117 0.0265812 0.0304417
0.540902 0.0830854 0.158419
0.845487 0.150958 0.216449
0.845487 0.154696 0.225986
0.049485 0.0970169 0.0457771
0.0776379 0.0961471 0.0451514
0.518914 0.0803235 0.0890822
0.845487 0.147509 0.203128
0.845487 0.152361 0.219074
0.31899 0.529183 0.27921
0.313191 0.521752 0.274678
0.535256 0.503166 0.21706
0.845487 0.527413 0.224887
0.845487 0.51606 0.222309
0.627619 0.77879 0.47863
0.625696 0.777951 0.477546
0.633219 0.778973 0.4804
0.843183 0.774716 0.434134
0.845487 0.76965 0.42678
0.641825 0.785153 0.485496
0.641825 0.785153 0.485496
0.641825 0.785153 0.485496
0.844602 0.79498 0.462409
0.845487 0.780392 0.439277
0.0437171 0.0566873 0.0771344
0.0869917 0.0442512 0.0875257
0.551537 0.0392462 0.192523
0.845487 0.162432 0.262165
0.845487 0.164294 0.269398
0.0540017 0.100969 0.0894636
0.0925917 0.106188 0.0964828
0.532341 0.115709 0.166995
0.845487 0.160662 0.253574
0.845487 0.162448 0.260761
0.313726 0.522545 0.275059
0.307851 0.514946 0.270451
0.529274 0.496239 0.215228
0.845487 0.517601 0.226734
0.845487 0.506081 0.229496
0.62649 0.778302 0.477989
0.624277 0.77734 0.476707
0.631449 0.778256 0.479149
0.842863 0.774044 0.433265
0.845487 0.768627 0.425299
0.641825 0.785153 0.485496
0.641825 0.785153 0.485496
0.641825 0.785153 0.485496
0.844572 0.79556 0.463203
0.845487 0.780392 0.439277
0.199344 0.240238 0.367498
0.200656 0.225132 0.361532
0.586923 0.168963 0.469047
0.845487 0.239368 0.554147
0.845487 0.24538 0.563043
0.19585 0.236316 0.361761
0.192996 0.227329 0.353689
0.563943 0.161257 0.450538
0.845487 0.228122 0.535271
0.845487 0.234134 0.543053
0.29044 0.513024 0.444297
0.283879 0.50425 0.436667
0.550805 0.537194 0.476951
0.845487 0.528984 0.472374
0.845487 0.52015 0.475349
0.598108 0.771542 0.496223
0.594034 0.769802 0.487221
0.596979 0.769711 0.482216
0.845487 0.797467 0.580316
0.845487 0.794156 0.577707
0.617411 0.780972 0.461418
0.61651 0.780621 0.451621
0.617609 0.780789 0.455695
0.845487 0.811612 0.563699
0.845487 0.800946 0.558907
0.428412 0.468055 0.640116
0.428794 0.468376 0.640391
0.626657 0.253468 0.677562
0.845487 0.355138 0.740642
0.845487 0.35787 0.742626
0.424689 0.464881 0.637415
0.4224 0.462913 0.635752
0.596338 0.249165 0.667948
0.845487 0.351263 0.736614
0.845487 0.355093 0.73901
0.476997 0.595071 0.668544
0.471519 0.587808 0.665049
0.553277 0.502235 0.664057
0.845487 0.44242 0.745022
0.845487 0.435798 0.747387
0.638514 0.79765 0.732418
0.633005 0.795407 0.729595
0.633707 0.794141 0.729046
0.845487 0.817411 0.751797
0.845487 0.817243 0.752987
0.687266 0.817044 0.742489
0.685802 0.816541 0.740353
0.685405 0.816403 0.739773
0.845396 0.836347 0.749569
0.845487 0.837766 0.758801
0.471397 0.496178 0.668772
0.471397 0.496178 0.668772
0.606851 0.26508 0.68954
0.845487 0.36434 0.75256
0.845487 0.367102 0.753811
0.471397 0.496178 0.668772
0.471397 0.496178 0.668772
0.56701 0.267643 0.68101
0.845487 0.362753 0.751827
0.845487 0.367102 0.753811
0.483406 0.520485 0.67538
0.477501 0.509789 0.672099
0.489235 0.337224 0.66247
0.845487 0.365118 0.750149
0.845487 0.374624 0.754833
0.657099 0.796567 0.754788
0.653941 0.794675 0.753857
0.653529 0.7935 0.753506
0.845487 0.81146 0.774868
0.845487 0.805508 0.776364
0.71429 0.823529 0.769818
0.714076 0.823468 0.769726
0.71368 0.823316 0.76965
0.845487 0.839994 0.782925
0.845487 0.84213 0.785397
