luts/lucashu_filmlike/cu_film5.cube
TITLE "Generated by Resolve"
LUT_3D_SIZE 33
0 0.00639353 0.0357671
0 0.00633249 0.0357671
0 0.00640879 0.0357519
0 0.00640879 0.0352026
0 0.00657664 0.0339208
0.0012665 0.00703441 0.0321813
0.00706493 0.00802625 0.0306706
0.0228733 0.00950637 0.0297551
0.0467536 0.0119631 0.0290532
0.0775921 0.0148928 0.0293584
0.120562 0.0168307 0.0294041
0.174289 0.0172885 0.0271
0.232624 0.0166018 0.0242161
0.290455 0.0161135 0.022385
0.348775 0.0167391 0.0243076
0.408927 0.0188449 0.0284123
0.467796 0.0209049 0.0347906
0.516487 0.0233005 0.037705
0.56495 0.0261845 0.038468
0.615518 0.0285649 0.0419471
0.662608 0.030869 0.0452735
0.699489 0.0327764 0.0479896
0.719265 0.0337987 0.0494392
0.724926 0.0340124 0.0497749
0.726238 0.0340124 0.0497902
0.727382 0.0340429 0.0498512
0.728252 0.0340734 0.0499123
0.728893 0.0341039 0.0499428
0.729335 0.0341192 0.0499733
0.729641 0.0341192 0.0499886
0.729839 0.0341344 0.0500038
0.729961 0.0341344 0.0500038
0.730037 0.0341497 0.0500191
0 0.0142519 0.0382696
0 0.0135348 0.0380407
0 0.0130922 0.0377966
0 0.0125582 0.0369421
9.15541e-05 0.0122377 0.0352331
0.00267033 0.0121767 0.0330663
0.00914015 0.0126955 0.0310979
0.0250706 0.0135958 0.0299229
0.0485542 0.0152285 0.0291295
0.0785534 0.0170748 0.0296178
0.120089 0.0180209 0.0289616
0.173144 0.017792 0.0265812
0.231098 0.0167544 0.0238651
0.288884 0.0160525 0.0222629
0.347066 0.0166781 0.0242161
0.407034 0.0188907 0.0277409
0.46508 0.0214694 0.0315862
0.514107 0.0237888 0.0349737
0.563806 0.0261234 0.0383764
0.61442 0.0285191 0.041886
0.661646 0.0308232 0.0452125
0.698756 0.0327611 0.0479591
0.718791 0.0337987 0.049424
0.724636 0.0340124 0.0497749
0.725948 0.0339971 0.0497902
0.727077 0.0340276 0.049836
0.727962 0.0340581 0.049897
0.728603 0.0340887 0.0499275
0.729061 0.0341039 0.049958
0.729366 0.0341192 0.0499733
0.729564 0.0341192 0.0499886
0.729686 0.0341344 0.0499886
0.729763 0.0341344 0.0500038
0 0.0239261 0.0410315
0 0.0231327 0.0407568
0 0.0218357 0.040238
0 0.0207218 0.0392615
0.00015259 0.0198825 0.0374304
0.00299077 0.0194705 0.034638
0.0121157 0.0195315 0.0319982
0.0301366 0.0202792 0.0303502
0.0545815 0.021561 0.0293278
0.0846571 0.0227665 0.029221
0.124178 0.0228428 0.027512
0.173877 0.0209964 0.0253452
0.229419 0.0182498 0.0229496
0.287175 0.0162356 0.0223697
0.345556 0.0166171 0.0241245
0.405737 0.0188296 0.0276646
0.464042 0.0214237 0.0315251
0.513237 0.0237583 0.0349126
0.562783 0.0260777 0.0383154
0.613291 0.0284733 0.0418097
0.660807 0.0307927 0.0451667
0.698116 0.0327459 0.0479286
0.71841 0.033814 0.049424
0.724346 0.0340276 0.0497749
0.725643 0.0340124 0.0497749
0.726757 0.0340124 0.0498207
0.727657 0.0340429 0.0498665
0.728313 0.0340734 0.049897
0.728756 0.0340887 0.0499428
0.729061 0.0341039 0.049958
0.729259 0.0341192 0.0499733
0.729412 0.0341192 0.0499733
0.729458 0.0341192 0.0499886
0 0.0368353 0.0454261
0 0.0360876 0.0451362
0 0.0343786 0.044419
0 0.0321355 0.0430762
0.000991836 0.0302586 0.04094
0.00547799 0.0292973 0.037705
0.0174258 0.0288243 0.0342107
0.0374609 0.0290379 0.031342
0.0626993 0.029572 0.0293278
0.0926375 0.030045 0.0271
0.131319 0.0290074 0.0242771
0.177813 0.0265507 0.0218814
0.229084 0.0227512 0.0210727
0.28452 0.0184787 0.0217746
0.343481 0.0166629 0.0240635
0.404273 0.0187839 0.0275731
0.462837 0.0213931 0.0314488
0.512261 0.0236973 0.0348516
0.561898 0.0260319 0.0382544
0.612482 0.0284276 0.0417639
0.659968 0.0307622 0.0451209
0.69749 0.0327306 0.0478981
0.718044 0.0338293 0.049424
0.724041 0.0340429 0.0497749
0.725322 0.0339971 0.0497749
0.726421 0.0340124 0.0498054
0.727337 0.0340429 0.0498512
0.727977 0.0340581 0.0498817
0.728435 0.0340887 0.0499123
0.728756 0.0340887 0.0499428
0.728954 0.0341039 0.0499428
0.729076 0.0341039 0.049958
0.729137 0.0341192 0.049958
0 0.0512551 0.0508431
0 0.05066 0.0505989
0 0.0492256 0.0499886
0 0.0469368 0.0488289
0.000274662 0.0433509 0.0461585
0.00901808 0.0410468 0.0421759
0.024094 0.0400854 0.037995
0.0458991 0.0396582 0.0332952
0.0718853 0.039826 0.0293126
0.102068 0.0397345 0.025452
0.139925 0.0382391 0.02121
0.184268 0.0351263 0.0179599
0.23061 0.0300755 0.0175479
0.280034 0.0234836 0.0199283
0.338491 0.0184939 0.0233921
0.402441 0.0187686 0.0274968
0.461295 0.0213169 0.0313573
0.510994 0.0236362 0.0347601
0.560922 0.0259861 0.0381933
0.611582 0.028397 0.0417029
0.65919 0.0307469 0.0450752
0.696864 0.0327306 0.0478828
0.717571 0.0338445 0.049424
0.72369 0.0340581 0.0497902
0.724956 0.0339971 0.0497749
0.726055 0.0339971 0.0497749
0.726955 0.0340276 0.049836
0.727596 0.0340429 0.0498665
0.728069 0.0340734 0.049897
0.728374 0.0340887 0.0499123
0.728573 0.0340887 0.0499275
0.728725 0.0340887 0.0499428
0.728786 0.0341039 0.0499428
0 0.0673228 0.0574655
0 0.0668956 0.0572671
0 0.0658274 0.0568399
0 0.0635233 0.0557565
0.000717174 0.0602121 0.0535286
0.0122835 0.0555734 0.0486305
0.0302739 0.0530098 0.0436713
0.0547799 0.0514076 0.0364843
0.0821088 0.0509499 0.0303044
0.112749 0.0506294 0.0245365
0.149676 0.0495766 0.0192569
0.192325 0.0474708 0.0155337
0.236362 0.0432593 0.014435
0.280583 0.0357061 0.016556
0.331426 0.026276 0.0215305
0.396582 0.0202487 0.027512
0.459327 0.0215305 0.0313115
0.509667 0.023621 0.034699
0.559472 0.0259251 0.0380865
0.610544 0.028336 0.0416114
0.658152 0.0306859 0.0449989
0.696071 0.0327306 0.0478523
0.717006 0.0338598 0.0494545
0.723232 0.0340887 0.0498054
0.724498 0.0340276 0.0497749
0.725567 0.0339971 0.0497597
0.726452 0.0340124 0.0498054
0.727108 0.0340276 0.049836
0.727581 0.0340581 0.0498665
0.727901 0.0340581 0.0498817
0.728099 0.0340734 0.049897
0.728237 0.0340734 0.0499123
0.728298 0.0340887 0.0499123
4.57771e-05 0.0860151 0.0654765
3.0518e-05 0.0856794 0.0653086
0 0.0849928 0.0650187
3.0518e-05 0.0831617 0.0642405
0.00134279 0.0800488 0.0625925
0.0116121 0.075227 0.0587472
0.0353857 0.0694591 0.0519265
0.0627604 0.0658122 0.0430915
0.0922713 0.0639048 0.0329747
0.124178 0.0630198 0.0242466
0.160555 0.0623178 0.0175479
0.201419 0.061738 0.0139467
0.244129 0.0598611 0.013611
0.286351 0.0544289 0.0152132
0.330587 0.0447089 0.0187686
0.386038 0.033402 0.0245823
0.449805 0.0262455 0.0307927
0.506798 0.024567 0.0349432
0.557656 0.0260929 0.038056
0.608927 0.0283207 0.0415656
0.656764 0.0306401 0.0449226
0.695048 0.0327306 0.0478218
0.716197 0.0338903 0.0494545
0.722591 0.0341192 0.049836
0.723857 0.0340429 0.0497749
0.724895 0.0339971 0.0497597
0.72575 0.0339818 0.0497597
0.726406 0.0340124 0.0497902
0.726879 0.0340276 0.0498207
0.727199 0.0340429 0.0498512
0.727413 0.0340429 0.0498665
0.72755 0.0340581 0.0498665
0.727611 0.0340581 0.0498817
0.00178531 0.107576 0.0751049
0.00175479 0.107256 0.0749676
0.00172427 0.10692 0.074815
0.00167849 0.106004 0.0744335
0.00218204 0.103288 0.0731823
0.00950637 0.0990463 0.0704814
0.0345464 0.0920272 0.0645914
0.0679484 0.084535 0.0538796
0.101884 0.0797436 0.0388952
0.136141 0.0773938 0.0256809
0.172641 0.0766766 0.016968
0.212253 0.0773327 0.0132906
0.254261 0.0776989 0.0135042
0.297124 0.0749676 0.0155032
0.33994 0.0674907 0.0179751
0.386465 0.0561227 0.021622
0.437217 0.0434577 0.026978
0.491234 0.0346685 0.0327916
0.550164 0.0306706 0.038117
0.606332 0.0297856 0.0420844
0.654963 0.0311284 0.0449073
0.693294 0.0329747 0.0478218
0.714992 0.0340581 0.049546
0.72163 0.0342107 0.049897
0.722957 0.0341039 0.0498054
0.723995 0.0340429 0.0497749
0.724819 0.0340124 0.0497597
0.725429 0.0339971 0.0497597
0.725872 0.0339971 0.0497749
0.726207 0.0340124 0.0497902
0.726421 0.0340124 0.0498054
0.726558 0.0340124 0.0498054
0.726619 0.0340276 0.0498054
0.00706493 0.131884 0.0864118
0.00697337 0.131548 0.0862745
0.00688182 0.131228 0.0861067
0.00682078 0.130877 0.0859541
0.00674449 0.129732 0.0854505
0.0087892 0.126101 0.08365
0.0283055 0.119921 0.0792554
0.0662699 0.110048 0.0700389
0.10782 0.100984 0.0522316
0.147356 0.09514 0.0311437
0.186038 0.0933242 0.0175631
0.225818 0.094667 0.0132601
0.267247 0.0967422 0.013901
0.310018 0.0964523 0.0161288
0.353597 0.0919203 0.0185092
0.398688 0.0834058 0.0210574
0.441001 0.0712291 0.0241245
0.48333 0.0589151 0.028336
0.53608 0.0488594 0.0339361
0.594263 0.0423896 0.039704
0.647929 0.0393072 0.0445563
0.688548 0.0378882 0.0480812
0.710857 0.0365759 0.049897
0.718395 0.0354467 0.0500038
0.720439 0.0348516 0.0497597
0.721813 0.0346227 0.0497749
0.722881 0.0344396 0.0497902
0.723674 0.0343328 0.0498054
0.724239 0.0342565 0.049836
0.724605 0.0342107 0.0498512
0.724819 0.0341955 0.0498512
0.724971 0.0341802 0.0498512
0.725032 0.0341802 0.0498665
0.0194095 0.159854 0.0995651
0.0191653 0.159411 0.0993515
0.0190433 0.159197 0.0992447
0.0189364 0.158953 0.0991379
0.0187381 0.158572 0.09897
0.0184024 0.156786 0.0981765
0.0255283 0.152102 0.0954604
0.0548409 0.143725 0.0889754
0.10399 0.131014 0.0743725
0.15433 0.119829 0.0460365
0.199496 0.114549 0.0225986
0.242344 0.115373 0.0140688
0.285039 0.118776 0.0147707
0.327611 0.120577 0.0170291
0.370809 0.119158 0.0193637
0.416495 0.11458 0.0218509
0.458183 0.105882 0.024155
0.492927 0.0940871 0.0263218
0.534203 0.0814374 0.0297093
0.583795 0.0708171 0.0344091
0.632151 0.0635691 0.0391699
0.667628 0.0590219 0.0427558
0.686809 0.0546273 0.0450599
0.695705 0.0501717 0.04654
0.701396 0.0468299 0.0475624
0.706416 0.0443122 0.0484016
0.710613 0.0424201 0.049073
0.713756 0.041001 0.0495766
0.715816 0.0400397 0.0499123
0.716884 0.0395056 0.0500801
0.717433 0.0392157 0.0501869
0.717754 0.0390478 0.0502327
0.717906 0.0389868 0.0502632
0.0377203 0.192493 0.114366
0.0374151 0.192004 0.114137
0.0372931 0.191775 0.114046
0.0371557 0.191531 0.113939
0.0370031 0.191287 0.113832
0.036759 0.190875 0.113664
0.0364843 0.188693 0.112673
0.0482032 0.183581 0.109163
0.088014 0.172763 0.10042
0.148257 0.157412 0.0769055
0.20795 0.145266 0.0408942
0.259892 0.142443 0.0186007
0.307713 0.146212 0.0162661
0.353063 0.149996 0.0184329
0.396109 0.151507 0.0206912
0.440391 0.15079 0.0230716
0.482246 0.146807 0.0253452
0.515541 0.138643 0.0271763
0.551217 0.128405 0.0291447
0.59147 0.117983 0.0315251
0.629648 0.110292 0.0341344
0.656077 0.10782 0.0360266
0.668482 0.104891 0.0371099
0.673198 0.09897 0.0379797
0.676326 0.0925002 0.03888
0.679271 0.0871138 0.0397345
0.681834 0.0827192 0.0405127
0.683787 0.079469 0.0411078
0.685176 0.0775158 0.0415045
0.685924 0.0764172 0.0417334
0.686366 0.0757305 0.0418708
0.686656 0.075288 0.0419471
0.686702 0.0751659 0.0419776
0.0584421 0.229496 0.1299
0.0581521 0.228992 0.129702
0.0580301 0.228748 0.12961
0.0578317 0.228397 0.129458
0.0577249 0.228153 0.129366
0.0576486 0.228031 0.12932
0.0573892 0.227604 0.129152
0.0577707 0.225589 0.128267
0.0746319 0.220279 0.124361
0.127947 0.20734 0.112703
0.201511 0.189944 0.0778515
0.271092 0.178927 0.0382086
0.330449 0.179156 0.019913
0.382101 0.184314 0.0205081
0.427344 0.187961 0.0225834
0.471458 0.190448 0.0247807
0.512886 0.190967 0.0269474
0.546227 0.188006 0.028748
0.579416 0.182834 0.0305486
0.614801 0.176516 0.0324712
0.648295 0.172183 0.0343023
0.670924 0.173953 0.035523
0.680003 0.176089 0.0360113
0.680415 0.172641 0.0360418
0.678492 0.166613 0.0359503
0.67686 0.161349 0.0358587
0.675639 0.157214 0.0357977
0.674846 0.154131 0.0357671
0.674601 0.152087 0.0357671
0.674678 0.151019 0.0357671
0.674846 0.150484 0.0357671
0.674952 0.150088 0.0357824
0.674952 0.149798 0.0357824
0.0776532 0.268421 0.144167
0.0774853 0.26804 0.144045
0.0773327 0.267659 0.143923
0.0772412 0.267445 0.143847
0.0771496 0.267216 0.143786
0.0770428 0.266957 0.143694
0.076936 0.266712 0.143618
0.0767834 0.266407 0.143526
0.0787366 0.264652 0.142809
0.105806 0.259525 0.13846
0.176913 0.245045 0.12163
0.264759 0.227207 0.0795605
0.342168 0.218677 0.0374151
0.405417 0.221393 0.0242924
0.455879 0.226444 0.0251011
0.50248 0.231128 0.0269932
0.545953 0.234775 0.0290074
0.580926 0.235813 0.0306401
0.611215 0.235096 0.0322118
0.643183 0.233768 0.0339055
0.675044 0.233661 0.0356451
0.698512 0.23769 0.0370031
0.709743 0.242451 0.0376745
0.711727 0.242847 0.0377966
0.710048 0.239384 0.0376593
0.708858 0.236835 0.0375677
0.707897 0.234745 0.0374914
0.707301 0.233295 0.0374456
0.706874 0.232197 0.0374151
0.706569 0.231418 0.0373999
0.706462 0.231113 0.0373846
0.706401 0.2309 0.0373846
0.70634 0.230732 0.0373846
0.09337 0.308797 0.156115
0.0932021 0.308232 0.155993
0.0930953 0.307851 0.155901
0.0930343 0.307637 0.15584
0.092958 0.307424 0.155795
0.0928817 0.307179 0.155734
0.0928206 0.306935 0.155688
0.0927596 0.306783 0.155642
0.0926375 0.306294 0.155535
0.0979782 0.304372 0.154986
0.144717 0.298299 0.150042
0.234302 0.282536 0.126619
0.332784 0.266026 0.0795605
0.413611 0.261097 0.0371099
0.473701 0.265034 0.0289464
0.523247 0.270985 0.0297093
0.569619 0.276768 0.0315099
0.609552 0.280522 0.0327459
0.641459 0.281956 0.0341955
0.672633 0.283101 0.0357061
0.703136 0.28542 0.0375677
0.728374 0.290684 0.040177
0.742947 0.296651 0.0422065
0.746517 0.298329 0.0425879
0.745083 0.295872 0.0420691
0.743954 0.293935 0.0416419
0.743023 0.292348 0.0413062
0.742458 0.291341 0.0410773
0.742031 0.290593 0.0409094
0.741726 0.290105 0.0408484
0.741634 0.289952 0.0408331
0.741543 0.289845 0.0408331
0.741466 0.289738 0.0408331
0.104952 0.34995 0.165316
0.104845 0.349401 0.165225
0.104768 0.349035 0.165164
0.104723 0.348791 0.165118
0.104677 0.348577 0.165087
0.104646 0.348348 0.165057
0.104601 0.348135 0.165011
0.10457 0.347982 0.164996
0.104509 0.347692 0.164935
0.104936 0.347448 0.164843
0.11725 0.345769 0.163973
0.186572 0.335653 0.156634
0.298634 0.318685 0.124956
0.398718 0.306096 0.0731975
0.476692 0.304128 0.0388952
0.53315 0.309606 0.0338598
0.582467 0.317433 0.0347143
0.626368 0.323705 0.0353857
0.660914 0.327199 0.0366827
0.692622 0.329793 0.0378424
0.723995 0.33344 0.04065
0.753277 0.340597 0.0485389
0.772976 0.349065 0.0569619
0.779339 0.352468 0.0598154
0.778744 0.350271 0.0584268
0.77821 0.348486 0.0572671
0.777783 0.347036 0.0563211
0.777432 0.345815 0.0555276
0.777203 0.345098 0.0550851
0.77705 0.344823 0.054963
0.776898 0.34464 0.0549477
0.776791 0.344549 0.054963
0.776761 0.344594 0.055024
0.112612 0.391745 0.171984
0.112566 0.391348 0.171939
0.11252 0.390982 0.171893
0.11249 0.390631 0.171862
0.112459 0.390433 0.171832
0.112444 0.390219 0.171801
0.112428 0.390112 0.171786
0.112398 0.389868 0.171771
0.112383 0.389715 0.17174
0.112337 0.389364 0.17171
0.115862 0.389883 0.17113
0.148394 0.392355 0.166873
0.240009 0.38114 0.154833
0.364187 0.35729 0.120836
0.459236 0.348211 0.0677348
0.529854 0.347402 0.0438239
0.584985 0.354406 0.0391394
0.63241 0.362921 0.0390326
0.670314 0.368933 0.039826
0.703227 0.373236 0.0403449
0.73492 0.378744 0.0447089
0.764157 0.389517 0.0618906
0.784436 0.403204 0.08542
0.791928 0.410513 0.0981765
0.79205 0.409476 0.0978866
0.791791 0.408103 0.0970169
0.791592 0.407019 0.0963149
0.79147 0.406287 0.0958572
0.791379 0.405753 0.0955215
0.791318 0.405463 0.0953231
0.791287 0.40528 0.0952163
0.791272 0.405234 0.0951858
0.791272 0.405173 0.09514
0.116548 0.432883 0.176272
0.116487 0.432349 0.176211
0.116457 0.431983 0.176165
0.116426 0.431785 0.17615
0.116426 0.431586 0.176135
0.116396 0.431357 0.176104
0.116381 0.431128 0.176089
0.11635 0.4309 0.176059
0.11635 0.430762 0.176043
0.11632 0.430442 0.176028
0.116625 0.430274 0.175982
0.127443 0.430503 0.175204
0.192721 0.429633 0.169329
0.313405 0.419364 0.149905
0.423392 0.400046 0.111971
0.509896 0.393256 0.0696422
0.576532 0.393362 0.0514992
0.629862 0.401022 0.0469368
0.672953 0.408133 0.0442817
0.707469 0.413489 0.0436408
0.739239 0.419684 0.0476387
0.768856 0.431434 0.0668498
0.790204 0.448447 0.101076
0.798962 0.459998 0.125444
0.799786 0.460853 0.12784
0.799619 0.459815 0.127321
0.799481 0.459068 0.126955
0.799374 0.458488 0.126665
0.799313 0.458152 0.126513
0.799252 0.457755 0.126345
0.799237 0.457679 0.126314
0.799222 0.457633 0.126299
0.799237 0.45771 0.126345
0.117556 0.475074 0.178851
0.11754 0.474556 0.178805
0.11754 0.474174 0.17879
0.117525 0.47393 0.178775
0.117525 0.473732 0.178759
0.117525 0.473518 0.178759
0.117525 0.473274 0.178744
0.117525 0.47306 0.178729
0.117525 0.472923 0.178729
0.11751 0.472618 0.178714
0.11751 0.472374 0.178698
0.120027 0.472969 0.178302
0.146044 0.477165 0.174838
0.237064 0.473396 0.16463
0.380148 0.453254 0.141619
0.479225 0.443046 0.103059
0.556008 0.439094 0.0728771
0.618769 0.441093 0.0595102
0.669535 0.447471 0.0540932
0.707668 0.453254 0.0512551
0.740673 0.459419 0.0522164
0.770825 0.470817 0.0699016
0.793347 0.48838 0.107073
0.803754 0.501671 0.136858
0.805203 0.504051 0.141955
0.805127 0.503288 0.141741
0.805051 0.502632 0.141558
0.805005 0.50222 0.141451
0.804974 0.501961 0.14139
0.804959 0.501793 0.141344
0.804959 0.501747 0.141329
0.804959 0.501732 0.141329
0.804959 0.501762 0.141344
0.115541 0.519265 0.17966
0.115587 0.518685 0.179644
0.115602 0.518273 0.179644
0.115618 0.517891 0.179644
0.115648 0.517678 0.179644
0.115663 0.517449 0.179644
0.115663 0.51722 0.179629
0.115679 0.516976 0.179629
0.115694 0.516838 0.179644
0.115709 0.516548 0.179629
0.115724 0.516274 0.179629
0.116091 0.516136 0.179522
0.125643 0.518212 0.178149
0.186069 0.522606 0.171633
0.317128 0.516045 0.155871
0.441001 0.490486 0.129885
0.527459 0.486442 0.0968643
0.598856 0.485863 0.0769818
0.658457 0.488853 0.0672313
0.703899 0.493446 0.0624857
0.739284 0.499107 0.0612497
0.769787 0.50901 0.07364
0.793454 0.524987 0.107561
0.80557 0.53872 0.139422
0.807904 0.542397 0.147265
0.807889 0.541756 0.147265
0.807858 0.541283 0.147189
0.807843 0.541009 0.147143
0.807828 0.54078 0.147112
0.807828 0.540688 0.147097
0.807828 0.540627 0.147097
0.807813 0.54049 0.147082
0.807813 0.540459 0.147082
0.110307 0.564797 0.178836
0.110384 0.564355 0.178851
0.11043 0.563943 0.178866
0.110475 0.563577 0.178882
0.110521 0.563317 0.178882
0.110552 0.563088 0.178897
0.110582 0.562844 0.178897
0.110613 0.562631 0.178897
0.110658 0.562356 0.178912
0.110674 0.562158 0.178927
0.110719 0.561822 0.178927
0.110765 0.561502 0.178943
0.11342 0.562051 0.178637
0.138674 0.567208 0.175677
0.232319 0.56936 0.165179
0.392477 0.549401 0.143618
0.495659 0.532616 0.115938
0.572152 0.530892 0.0923171
0.639979 0.532433 0.0800336
0.69395 0.5355 0.0745556
0.734081 0.539315 0.0729839
0.766415 0.546532 0.0803845
0.79118 0.55967 0.107774
0.804852 0.572885 0.140108
0.808499 0.578134 0.153185
0.808728 0.577951 0.153948
0.808728 0.577539 0.153826
0.808728 0.577279 0.153765
0.808728 0.577066 0.153719
0.808728 0.576989 0.153704
0.808728 0.576944 0.153689
0.808713 0.576959 0.153689
0.808728 0.576944 0.153689
0.101701 0.610819 0.176806
0.101823 0.610224 0.176852
0.101915 0.609827 0.176867
0.101976 0.609552 0.176883
0.102098 0.609018 0.176913
0.102144 0.608804 0.176928
0.10219 0.608591 0.176928
0.10222 0.608469 0.176928
0.102266 0.608194 0.176959
0.102327 0.607919 0.176974
0.102388 0.607691 0.176974
0.10248 0.607279 0.177005
0.102693 0.607202 0.176989
0.110063 0.609567 0.176074
0.168002 0.616907 0.169314
0.318212 0.615045 0.150866
0.457649 0.583703 0.127367
0.54226 0.576028 0.103426
0.615442 0.576577 0.0878157
0.677943 0.57937 0.082536
0.724712 0.582071 0.0817121
0.759899 0.586343 0.0865797
0.786343 0.595407 0.107668
0.802029 0.606897 0.139956
0.807355 0.613596 0.160723
0.808179 0.614282 0.164202
0.808194 0.613901 0.164111
0.808209 0.613657 0.164065
0.808209 0.613428 0.164004
0.808209 0.613321 0.163989
0.808225 0.613306 0.163989
0.808225 0.613306 0.163989
0.808225 0.613367 0.164004
0.0906233 0.653742 0.174395
0.0907759 0.653223 0.174426
0.0908827 0.652857 0.174441
0.0909743 0.652537 0.174472
0.0910506 0.652308 0.174472
0.0911116 0.652125 0.174487
0.0911727 0.651911 0.174502
0.0912337 0.651682 0.174517
0.0912947 0.651469 0.174533
0.0913405 0.651331 0.174548
0.0914321 0.651026 0.174548
0.0915084 0.650752 0.174563
0.0916304 0.650309 0.174578
0.0942397 0.650828 0.174273
0.119432 0.657816 0.170993
0.223728 0.666194 0.158221
0.408331 0.643915 0.134264
0.510506 0.621088 0.110933
0.588708 0.618631 0.0918135
0.657313 0.621439 0.0840009
0.711772 0.624765 0.0844892
0.751446 0.627848 0.0890822
0.779431 0.633143 0.103777
0.796841 0.641535 0.132845
0.80444 0.648524 0.160555
0.806317 0.650233 0.169482
0.806394 0.649927 0.169772
0.806409 0.649699 0.169772
0.806424 0.649485 0.169772
0.806424 0.649393 0.169772
0.806439 0.649378 0.169772
0.806439 0.649378 0.169772
0.806439 0.649424 0.169772
0.0791333 0.689509 0.172457
0.0792554 0.689128 0.172473
0.0793622 0.688869 0.172488
0.0794232 0.688701 0.172488
0.0795148 0.688441 0.172503
0.0795758 0.688289 0.172503
0.0796674 0.688029 0.172519
0.0797284 0.687861 0.172519
0.0797742 0.687709 0.172534
0.0798199 0.687587 0.172549
0.0799115 0.687343 0.172564
0.0799725 0.687144 0.172564
0.0800793 0.686854 0.17258
0.0802319 0.686717 0.17258
0.0848402 0.689097 0.171878
0.14995 0.699214 0.164477
0.342641 0.702144 0.141848
0.479164 0.666316 0.117815
0.564004 0.655528 0.0959335
0.635554 0.657008 0.0824598
0.696574 0.661646 0.0818952
0.741817 0.665568 0.0872816
0.771939 0.669215 0.0970169
0.790814 0.674693 0.119295
0.800809 0.680827 0.149218
0.804349 0.68365 0.165576
0.804837 0.683726 0.168093
0.804852 0.683482 0.16817
0.804868 0.68333 0.1682
0.804883 0.683192 0.168215
0.804883 0.683162 0.168215
0.804883 0.683177 0.168215
0.804883 0.683162 0.168231
0.0695048 0.715114 0.171359
0.0695964 0.714916 0.171374
0.0696574 0.714748 0.171374
0.0697185 0.714611 0.171374
0.0697642 0.714473 0.171374
0.06981 0.714397 0.171374
0.0698405 0.714305 0.171374
0.0698711 0.714214 0.171389
0.0698863 0.714168 0.171389
0.0699474 0.714046 0.171389
0.0699931 0.713909 0.171405
0.0700389 0.713802 0.171405
0.0700847 0.713634 0.171405
0.0701915 0.71339 0.171435
0.0729076 0.713832 0.17116
0.110674 0.723293 0.167254
0.256397 0.738155 0.151781
0.446891 0.707607 0.12723
0.54229 0.685481 0.102907
0.6168 0.683192 0.0835126
0.681651 0.687984 0.0772564
0.731395 0.693141 0.0825513
0.764996 0.697215 0.0917067
0.785824 0.701503 0.10724
0.797711 0.706783 0.134096
0.803342 0.710826 0.158099
0.804791 0.711894 0.165606
0.804837 0.71165 0.165835
0.804822 0.711467 0.16585
0.804822 0.71136 0.165835
0.804822 0.71133 0.16585
0.804822 0.711315 0.16585
0.804822 0.711345 0.16585
0.064271 0.727764 0.170947
0.064271 0.727764 0.170947
0.064271 0.727764 0.170947
0.064271 0.727764 0.170947
0.064271 0.727764 0.170947
0.064271 0.727764 0.170947
0.064271 0.727764 0.170947
0.064271 0.727764 0.170947
0.064271 0.727764 0.170947
0.064271 0.727764 0.170947
0.064271 0.727764 0.170947
0.064271 0.727764 0.170947
0.064271 0.727764 0.170947
0.064271 0.727764 0.170947
0.0650034 0.728069 0.170855
0.0755779 0.732647 0.169574
0.172503 0.743023 0.160632
0.410315 0.733166 0.137041
0.523461 0.705516 0.111681
0.601633 0.697841 0.0877394
0.668544 0.701442 0.0751507
0.721782 0.707378 0.0776226
0.758419 0.712444 0.0875105
0.78114 0.716747 0.100069
0.794781 0.721828 0.122606
0.802258 0.726925 0.151232
0.804883 0.729107 0.16466
0.805127 0.729168 0.165896
0.805158 0.729076 0.166003
0.805142 0.728985 0.166003
0.805142 0.728954 0.166003
0.805142 0.728923 0.166003
0.805142 0.728893 0.166003
0.064271 0.727764 0.170947
0.064271 0.727764 0.170947
0.064271 0.727764 0.170947
0.064271 0.727764 0.170947
0.064271 0.727764 0.170947
0.064271 0.727764 0.170947
0.064271 0.727764 0.170947
0.064271 0.727764 0.170947
0.064271 0.727764 0.170947
0.064271 0.727764 0.170947
0.064271 0.727764 0.170947
0.064271 0.727764 0.170947
0.064271 0.727764 0.170947
0.064271 0.727764 0.170947
0.0642863 0.727794 0.170947
0.0645609 0.728237 0.171023
0.137163 0.734798 0.165209
0.376349 0.740566 0.142046
0.506065 0.710994 0.11693
0.588891 0.69894 0.0917067
0.657877 0.701396 0.0760204
0.714076 0.707744 0.0752117
0.75314 0.71342 0.0848096
0.777401 0.718181 0.0972152
0.792172 0.723217 0.116167
0.800687 0.728634 0.143847
0.804334 0.731853 0.161501
0.805158 0.732631 0.165743
0.805249 0.732723 0.166247
0.805249 0.732723 0.166247
0.805249 0.732723 0.166247
0.805249 0.732723 0.166247
0.805249 0.732723 0.166247
0.064271 0.727764 0.170947
0.064271 0.727764 0.170947
0.064271 0.727764 0.170947
0.064271 0.727764 0.170947
0.064271 0.727764 0.170947
0.064271 0.727764 0.170947
0.064271 0.727764 0.170947
