luts/lucashu_filmlike/cu_film2.cube
TITLE "Generated by Resolve"
LUT_3D_SIZE 9
0.0218967 0.0277562 0.0255436
0.0468605 0.0274052 0.0238193
0.109117 0.0265812 0.0304417
0.273228 0.0431067 0.0703136
0.540902 0.0830854 0.158419
0.781796 0.126009 0.213092
0.845487 0.150958 0.216449
0.845487 0.153872 0.223499
0.845487 0.154696 0.225986
0.0281224 0.0488441 0.0342718
0.0366522 0.048127 0.0331884
0.109667 0.0470436 0.0288548
0.269627 0.0437171 0.0507668
0.527947 0.0800793 0.149889
0.769833 0.122179 0.208194
0.845487 0.149462 0.213077
0.845487 0.153033 0.220935
0.845487 0.153933 0.223682
0.049485 0.0970169 0.0457771
0.0500343 0.0957656 0.0455787
0.0776379 0.0961471 0.0451514
0.26331 0.0886397 0.0502937
0.518914 0.0803235 0.0890822
0.763378 0.119036 0.168231
0.845487 0.147509 0.203128
0.845487 0.151125 0.2159
0.845487 0.152361 0.219074
0.138842 0.257755 0.120836
0.135912 0.25272 0.118044
0.139162 0.251896 0.118273
0.237873 0.2421 0.104128
0.517555 0.232334 0.10837
0.749935 0.209003 0.130343
0.845487 0.232136 0.155337
0.845487 0.22237 0.158175
0.845487 0.218936 0.159533
0.31899 0.529183 0.27921
0.314977 0.524041 0.276081
0.313191 0.521752 0.274678
0.32723 0.525597 0.277989
0.535256 0.503166 0.21706
0.740536 0.532937 0.220005
0.845487 0.527413 0.224887
0.845487 0.518914 0.223163
0.845487 0.51606 0.222309
0.495109 0.709239 0.398184
0.490654 0.706035 0.395529
0.488533 0.704509 0.394263
0.486671 0.703166 0.393149
0.542855 0.707424 0.367514
0.749035 0.694652 0.339376
0.840757 0.71342 0.333577
0.845319 0.714931 0.333135
0.845319 0.714565 0.332601
0.627619 0.77879 0.47863
0.626322 0.778241 0.477897
0.625696 0.777951 0.477546
0.625101 0.777691 0.477195
0.633219 0.778973 0.4804
0.772259 0.787778 0.411597
0.843183 0.774716 0.434134
0.845487 0.769802 0.426978
0.845487 0.76965 0.42678
0.641825 0.785153 0.485496
0.641825 0.785153 0.485496
0.641825 0.785153 0.485496
0.641825 0.785153 0.485496
0.643 0.785367 0.485801
0.736355 0.792844 0.436606
0.844785 0.792538 0.459083
0.845487 0.780133 0.438865
0.845487 0.780392 0.439277
0.641825 0.785153 0.485496
0.641825 0.785153 0.485496
0.641825 0.785153 0.485496
0.641825 0.785153 0.485496
0.641825 0.785153 0.485496
0.712245 0.791135 0.448814
0.844602 0.79498 0.462409
0.845487 0.77995 0.43856
0.845487 0.780392 0.439277
0.0278477 0.0374914 0.0414588
0.0396887 0.036286 0.0424659
0.0914778 0.034226 0.0545357
0.264134 0.0439612 0.0902876
0.544854 0.0733196 0.171542
0.782544 0.132219 0.233646
0.845487 0.155993 0.231479
0.845487 0.157687 0.237186
0.845487 0.15816 0.23946
0.031281 0.0511025 0.0465858
0.0398108 0.0511635 0.0466926
0.102159 0.0476234 0.0446174
0.260533 0.0538949 0.0783551
0.531594 0.0742962 0.166155
0.770611 0.12932 0.229557
0.845487 0.155047 0.228733
0.845487 0.157122 0.234607
0.845487 0.157641 0.236973
0.0484932 0.0958114 0.0556954
0.0492409 0.0944991 0.0562448
0.0820935 0.0967727 0.0576486
0.265248 0.0872511 0.0592203
0.521401 0.093492 0.111589
0.765362 0.133028 0.196216
0.845487 0.154345 0.222797
0.845487 0.156161 0.23064
0.845487 0.156771 0.233082
0.136309 0.253452 0.118471
0.133257 0.248249 0.115618
0.13608 0.247242 0.115663
0.234638 0.238285 0.103197
0.514794 0.227451 0.108385
0.74876 0.207935 0.13521
0.845487 0.235477 0.167117
0.845487 0.227665 0.17261
0.845487 0.224521 0.174365
0.31664 0.526146 0.277363
0.312627 0.520989 0.27422
0.310719 0.518532 0.272725
0.324453 0.522225 0.276005
0.53196 0.499382 0.215228
0.73875 0.529503 0.218372
0.845487 0.523018 0.223377
0.845487 0.51429 0.221637
0.845487 0.511345 0.220783
0.493034 0.707744 0.396933
0.488365 0.704387 0.394171
0.486229 0.702846 0.392889
0.484398 0.701518 0.391806
0.539284 0.70573 0.366766
0.747173 0.692927 0.337743
0.840513 0.712367 0.332113
0.845319 0.713878 0.331579
0.845319 0.713436 0.330999
0.627008 0.778546 0.478294
0.625727 0.777981 0.477562
0.624918 0.777615 0.477089
0.62417 0.777295 0.476631
0.632273 0.778576 0.479698
0.770108 0.787259 0.411536
0.843015 0.77438 0.433692
0.845487 0.769253 0.426184
0.845487 0.769085 0.425971
0.641825 0.785153 0.485496
0.641825 0.785153 0.485496
0.641825 0.785153 0.485496
0.641825 0.785153 0.485496
0.642939 0.785351 0.485786
0.73431 0.792767 0.437995
0.844785 0.792889 0.459586
0.845487 0.780133 0.438865
0.845487 0.780392 0.439277
0.641825 0.785153 0.485496
0.641825 0.785153 0.485496
0.641825 0.785153 0.485496
0.641825 0.785153 0.485496
0.641825 0.785153 0.485496
0.70985 0.790997 0.450324
0.844587 0.795331 0.462913
0.845487 0.779934 0.438544
0.845487 0.780392 0.439277
0.0437171 0.0566873 0.0771344
0.0509957 0.0550393 0.0775006
0.0869917 0.0442512 0.0875257
0.260838 0.0424048 0.127947
0.551537 0.0392462 0.192523
0.784497 0.114275 0.253742
0.845487 0.162432 0.262165
0.845487 0.16376 0.266957
0.845487 0.164294 0.269398
0.0438392 0.0628519 0.0771344
0.0491035 0.0610819 0.0769665
0.0815442 0.0521706 0.0838178
0.247486 0.0447852 0.12108
0.537484 0.0404364 0.186145
0.772686 0.11194 0.249073
0.845487 0.161379 0.257832
0.845487 0.162814 0.262531
0.845487 0.163287 0.264866
0.0540017 0.100969 0.0894636
0.0540475 0.0996109 0.0887007
0.0925917 0.106188 0.0964828
0.262592 0.0951095 0.0979019
0.532341 0.115709 0.166995
0.768505 0.133822 0.238972
0.845487 0.160662 0.253574
0.845487 0.16199 0.258503
0.845487 0.162448 0.260761
0.12607 0.245212 0.121584
0.123629 0.240589 0.11957
0.125902 0.238972 0.119799
0.235035 0.243687 0.127459
0.512688 0.220981 0.13164
0.750668 0.216648 0.163973
0.845487 0.24683 0.195789
0.845487 0.238926 0.200702
0.845487 0.235996 0.202792
0.313726 0.522545 0.275059
0.309773 0.517403 0.271946
0.307851 0.514946 0.270451
0.321599 0.518624 0.274022
0.529274 0.496239 0.215228
0.737545 0.525048 0.219211
0.845487 0.517601 0.226734
0.845487 0.508965 0.228702
0.845487 0.506081 0.229496
0.491005 0.70631 0.395727
0.486442 0.702968 0.393027
0.484199 0.70135 0.391684
0.482353 0.700023 0.390585
0.53666 0.704204 0.365866
0.745663 0.691157 0.336187
0.840345 0.711421 0.330739
0.845319 0.712886 0.33019
0.845319 0.712398 0.329595
0.62649 0.778302 0.477989
0.625177 0.777737 0.477241
0.624277 0.77734 0.476707
0.623514 0.77702 0.476234
0.631449 0.778256 0.479149
0.768811 0.786877 0.411292
0.842863 0.774044 0.433265
0.845487 0.76878 0.425513
0.845487 0.768627 0.425299
0.641825 0.785153 0.485496
0.641825 0.785153 0.485496
0.641825 0.785153 0.485496
0.641825 0.785153 0.485496
0.642832 0.785321 0.48574
0.73286 0.792691 0.438926
0.84477 0.793088 0.459892
0.845487 0.780118 0.438849
0.845487 0.780392 0.439277
0.641825 0.785153 0.485496
0.641825 0.785153 0.485496
0.641825 0.785153 0.485496
0.641825 0.785153 0.485496
0.641825 0.785153 0.485496
0.708171 0.790875 0.451331
0.844572 0.79556 0.463203
0.845487 0.779919 0.438514
0.845487 0.780392 0.439277
0.094728 0.11754 0.177249
0.0961013 0.115633 0.17615
0.108568 0.0931716 0.179767
0.274296 0.082948 0.227298
0.564477 0.0667124 0.295308
0.791562 0.0893873 0.331762
0.845487 0.154147 0.342382
0.845487 0.156771 0.348714
0.845487 0.157824 0.353017
0.0929274 0.115373 0.17377
0.0925612 0.113588 0.171588
0.104005 0.0932174 0.172305
0.258762 0.0794232 0.216678
0.549706 0.0621958 0.283238
0.779568 0.0823835 0.320699
0.845487 0.152972 0.332494
0.845487 0.155703 0.33817
0.845487 0.156024 0.341222
0.0980545 0.136416 0.18088
0.0965286 0.133898 0.178042
0.110887 0.124071 0.175006
0.250233 0.0967727 0.212924
0.54316 0.0736706 0.276356
0.774502 0.0816205 0.314794
0.845487 0.152377 0.327367
0.845487 0.155383 0.332692
0.845487 0.155535 0.335256
0.12932 0.247471 0.213626
0.127352 0.243214 0.209888
0.128786 0.241627 0.209094
0.248875 0.256596 0.230625
0.534646 0.233036 0.227268
0.768734 0.251667 0.265782
0.845487 0.271382 0.28835
0.845487 0.259602 0.296284
0.845487 0.253254 0.299016
0.283055 0.503899 0.275334
0.279194 0.498573 0.271092
0.277333 0.496056 0.269337
0.293217 0.497734 0.269444
0.53521 0.520775 0.300359
0.737789 0.51104 0.284443
0.845487 0.506142 0.294682
0.845487 0.499733 0.297627
0.845487 0.497536 0.298878
0.474281 0.697093 0.383963
0.470314 0.693828 0.381598
0.468452 0.692317 0.380529
0.466453 0.690822 0.379294
0.520073 0.699565 0.381796
0.748516 0.699489 0.376638
0.842298 0.717617 0.366491
0.845487 0.718959 0.36875
0.845487 0.718685 0.369802
0.624918 0.777615 0.477089
0.623621 0.77705 0.476326
0.622583 0.776623 0.475731
0.62179 0.776272 0.475257
0.629099 0.777401 0.477867
0.765866 0.786023 0.411032
0.842664 0.773709 0.435523
0.845487 0.768734 0.429297
0.845487 0.768673 0.429633
0.641825 0.785153 0.485496
0.641825 0.785153 0.485496
0.641825 0.785153 0.485496
0.641825 0.785153 0.485496
0.642542 0.785275 0.485618
0.73019 0.792554 0.440452
0.844755 0.793439 0.46038
0.845487 0.780102 0.438819
0.845487 0.780392 0.439277
0.641825 0.785153 0.485496
0.641825 0.785153 0.485496
0.641825 0.785153 0.485496
0.641825 0.785153 0.485496
0.641825 0.785153 0.485496
0.704784 0.790585 0.453147
0.844541 0.795911 0.463661
0.845487 0.779889 0.438468
0.845487 0.780392 0.439277
0.199344 0.240238 0.367498
0.199268 0.240146 0.367376
0.200656 0.225132 0.361532
0.291188 0.149172 0.401007
0.586923 0.168963 0.469047
0.801648 0.198489 0.530495
0.845487 0.239368 0.554147
0.845487 0.243519 0.559747
0.845487 0.24538 0.563043
0.196475 0.237018 0.362799
0.195026 0.23537 0.360327
0.19527 0.22327 0.354192
0.273564 0.146578 0.386587
0.571527 0.163668 0.456077
0.790051 0.190097 0.517632
0.845487 0.231724 0.541222
0.845487 0.23621 0.546746
0.845487 0.237781 0.549569
0.19585 0.236316 0.361761
0.193744 0.233921 0.35816
0.192996 0.227329 0.353689
0.260975 0.147097 0.378866
0.563943 0.161257 0.450538
0.785107 0.186358 0.511833
0.845487 0.228122 0.535271
0.845487 0.232792 0.540612
0.845487 0.234134 0.543053
0.222599 0.325597 0.391409
0.219257 0.320211 0.38645
0.218097 0.317845 0.384665
0.27541 0.287602 0.38172
0.557321 0.240345 0.45362
0.780835 0.246403 0.505409
0.845487 0.265583 0.523995
0.845487 0.258091 0.529915
0.845487 0.25391 0.53257
0.29044 0.513024 0.444297
0.285756 0.506905 0.438819
0.283879 0.50425 0.436667
0.297414 0.504082 0.43772
0.550805 0.537194 0.476951
0.767193 0.509789 0.455924
0.845487 0.528984 0.472374
0.845487 0.522774 0.474479
0.845487 0.52015 0.475349
0.455329 0.694362 0.497978
0.450523 0.690623 0.492592
0.448234 0.688807 0.489937
0.446372 0.687419 0.488762
0.510521 0.694041 0.478599
0.758312 0.724041 0.525826
0.845487 0.725872 0.507713
0.845487 0.724178 0.50811
0.845487 0.723384 0.508705
0.598108 0.771542 0.496223
0.59556 0.770428 0.490257
0.594034 0.769802 0.487221
0.592905 0.769299 0.485801
0.596979 0.769711 0.482216
0.730556 0.786648 0.459617
0.845487 0.797467 0.580316
0.845487 0.794125 0.576928
0.845487 0.794156 0.577707
0.61825 0.781079 0.473396
0.617411 0.780774 0.466835
0.617502 0.780743 0.465553
0.617853 0.780789 0.466163
0.618082 0.780835 0.467552
0.695552 0.790921 0.466926
0.845487 0.811795 0.574624
0.845487 0.802243 0.568231
0.845487 0.802701 0.569482
0.617411 0.780972 0.461418
0.616709 0.780713 0.454368
0.61651 0.780621 0.451621
0.617105 0.780713 0.453239
0.617609 0.780789 0.455695
0.675471 0.788891 0.478416
0.845487 0.811612 0.563699
0.845487 0.800275 0.557336
0.845487 0.800946 0.558907
0.313741 0.362005 0.533639
0.313466 0.361746 0.533318
0.314458 0.36228 0.534264
0.308949 0.26157 0.517784
0.614389 0.222126 0.604318
0.815015 0.26952 0.650355
0.845487 0.315953 0.685298
0.845487 0.318807 0.688075
0.845487 0.319738 0.689525
0.310521 0.358816 0.529824
0.308919 0.357229 0.527901
0.309071 0.357122 0.527932
0.303349 0.263935 0.51075
0.598749 0.217456 0.595407
0.803708 0.263157 0.64152
0.845487 0.311528 0.67892
0.845487 0.314778 0.681712
0.845487 0.315526 0.682918
0.309957 0.358251 0.529122
0.307805 0.35613 0.526558
0.307362 0.355688 0.52604
0.301717 0.269871 0.508293
0.590845 0.215473 0.591745
0.798901 0.260578 0.637873
0.845487 0.309422 0.676097
0.845487 0.313039 0.678981
0.845487 0.313664 0.679957
0.311406 0.361975 0.529717
0.309102 0.359808 0.526909
0.308232 0.358892 0.525856
0.305989 0.303517 0.509453
0.570901 0.213672 0.585595
0.789944 0.25655 0.632471
0.845487 0.30692 0.672816
0.845487 0.311101 0.675898
0.845487 0.31162 0.676722
0.381415 0.561547 0.586465
0.377386 0.556466 0.582681
0.375799 0.554314 0.581231
0.378576 0.553368 0.580804
0.566964 0.546136 0.600809
0.792782 0.51252 0.661845
0.845487 0.525689 0.683909
0.845487 0.519478 0.687129
0.845487 0.516289 0.687663
0.472251 0.707164 0.629404
0.467506 0.703517 0.625727
0.465324 0.701808 0.624094
0.463523 0.700282 0.623148
0.562921 0.708797 0.637476
0.765286 0.7308 0.658305
0.845487 0.728252 0.654322
0.845487 0.727108 0.655802
0.845487 0.726284 0.656153
0.621149 0.789792 0.668833
0.617868 0.788373 0.665705
0.615961 0.787518 0.664118
0.61445 0.786877 0.663172
0.616403 0.786419 0.663096
0.746838 0.801724 0.656153
0.845487 0.813016 0.690562
0.845487 0.812512 0.691005
0.845487 0.812467 0.691264
0.655863 0.801129 0.672938
0.655009 0.800504 0.670054
0.654582 0.800198 0.668635
0.654322 0.800031 0.667887
0.654154 0.799969 0.667781
0.726116 0.808209 0.65301
0.845487 0.827787 0.683742
0.845487 0.823972 0.695247
0.845487 0.824323 0.695872
0.655314 0.80061 0.669993
0.654368 0.799908 0.666667
0.653895 0.799558 0.665019
0.65362 0.799344 0.664057
0.653559 0.799298 0.663859
0.711177 0.805524 0.650477
0.84535 0.826963 0.674662
0.845487 0.823651 0.691737
0.845487 0.824063 0.692332
0.428412 0.468055 0.640116
0.428 0.467704 0.639826
0.428794 0.468376 0.640391
0.42623 0.404623 0.627161
0.626657 0.253468 0.677562
0.832349 0.303807 0.712932
0.845487 0.355138 0.740642
0.845487 0.357534 0.742199
0.845487 0.35787 0.742626
0.425223 0.465324 0.637812
0.423835 0.464134 0.636805
0.42388 0.464164 0.636835
0.421637 0.40885 0.624475
0.606973 0.250278 0.671077
0.821881 0.298634 0.708232
0.845487 0.352651 0.737926
0.845487 0.355673 0.739757
0.845487 0.356008 0.7402
0.424689 0.464881 0.637415
0.422827 0.463264 0.636072
0.4224 0.462913 0.635752
0.42031 0.414725 0.62446
0.596338 0.249165 0.667948
0.817258 0.296407 0.706264
0.845487 0.351263 0.736614
0.845487 0.354818 0.738643
0.845487 0.355093 0.73901
0.423301 0.463706 0.636408
0.421164 0.46186 0.634836
0.420447 0.461234 0.634318
0.419974 0.433631 0.627085
0.567636 0.249058 0.660624
0.808896 0.292851 0.703502
0.845487 0.349325 0.735012
0.845487 0.353948 0.737514
0.845487 0.354192 0.737819
0.476997 0.595071 0.668544
0.473136 0.590097 0.666087
0.471519 0.587808 0.665049
0.470298 0.585382 0.664317
0.553277 0.502235 0.664057
0.796033 0.412985 0.710185
0.845487 0.44242 0.745022
0.845487 0.439155 0.747631
0.845487 0.435798 0.747387
0.545007 0.727092 0.704814
0.5411 0.724041 0.702678
0.539254 0.722576 0.701671
0.538079 0.721477 0.70106
0.614115 0.733166 0.711894
0.783276 0.734905 0.733883
0.845487 0.719432 0.757458
0.845487 0.719951 0.761028
0.845487 0.719081 0.761563
0.638514 0.79765 0.732418
0.634867 0.796216 0.73051
0.633005 0.795407 0.729595
0.631495 0.79472 0.728954
0.633707 0.794141 0.729046
0.777813 0.807477 0.748882
0.845487 0.817411 0.751797
0.845487 0.817609 0.753002
0.845487 0.817243 0.752987
0.684611 0.816098 0.742519
0.683482 0.815717 0.741176
0.682933 0.815518 0.740505
0.682475 0.815366 0.740093
0.681987 0.815198 0.739879
0.769711 0.822614 0.752789
0.845487 0.83534 0.75111
0.845487 0.835981 0.758892
0.845487 0.836332 0.759365
0.687266 0.817044 0.742489
0.68632 0.816724 0.7411
0.685802 0.816541 0.740353
0.685512 0.816434 0.739925
0.685405 0.816403 0.739773
0.759441 0.822492 0.750957
0.845396 0.836347 0.749569
0.845487 0.837552 0.758389
0.845487 0.837766 0.758801
0.469001 0.495567 0.667277
0.468925 0.495552 0.667216
0.469032 0.495567 0.667277
0.469429 0.456275 0.659648
0.614176 0.264195 0.690211
0.838254 0.31249 0.729229
0.845487 0.364248 0.752178
0.845487 0.366735 0.753338
0.845487 0.366766 0.753368
0.468498 0.49543 0.666941
0.468284 0.495384 0.666804
0.468284 0.495384 0.666804
0.469108 0.465126 0.66067
0.590036 0.264149 0.684901
0.829206 0.308583 0.727337
0.845487 0.36321 0.751522
0.845487 0.366537 0.753079
0.845487 0.366583 0.75314
0.46833 0.495384 0.666835
0.468055 0.495323 0.666667
0.467994 0.495293 0.666621
0.469261 0.470848 0.66157
0.577096 0.26479 0.682002
0.824964 0.306798 0.726436
0.845487 0.362356 0.751019
0.845487 0.3664 0.752911
0.845487 0.366445 0.752956
0.467918 0.495277 0.666575
0.467597 0.495201 0.666377
0.467491 0.495155 0.6663
0.468315 0.489921 0.665171
0.543679 0.270054 0.673961
0.817243 0.303593 0.72488
0.845487 0.360662 0.750072
0.845487 0.366201 0.752651
0.845487 0.366247 0.752712
0.499809 0.563149 0.685206
0.497398 0.5579 0.683879
0.496132 0.555093 0.683146
0.494545 0.551232 0.682231
0.510567 0.392386 0.667216
0.797284 0.322637 0.722835
0.845487 0.368887 0.749233
0.845487 0.377584 0.75375
0.845487 0.377829 0.753841
0.583352 0.734539 0.727489
0.58143 0.732265 0.726574
0.580484 0.731167 0.726116
0.579705 0.730175 0.72575
0.6374 0.739666 0.733974
0.780972 0.721736 0.75053
0.845487 0.699351 0.786862
0.845487 0.700298 0.791287
0.845487 0.699062 0.791302
0.656886 0.798505 0.752712
0.654597 0.79733 0.75198
0.653391 0.796674 0.751568
0.652384 0.796109 0.751232
0.653498 0.795621 0.751217
0.788846 0.810285 0.770565
0.845487 0.814954 0.772503
0.845487 0.81004 0.773754
0.845487 0.809644 0.773785
0.70312 0.82005 0.76463
0.70251 0.819852 0.764324
0.702113 0.819745 0.764111
0.701778 0.819623 0.763973
0.70132 0.819455 0.763867
0.779995 0.825559 0.775921
0.845487 0.837812 0.778973
0.845487 0.839826 0.780941
0.845487 0.84004 0.781186
0.709972 0.822736 0.766125
0.709636 0.82266 0.765835
0.709422 0.822614 0.765652
0.709285 0.822583 0.765545
0.709239 0.822568 0.765515
0.773175 0.827451 0.775616
0.845487 0.84004 0.779217
0.845487 0.84184 0.781445
0.845487 0.8421 0.781796
0.471397 0.496178 0.668772
0.471397 0.496178 0.668772
0.471397 0.496178 0.668772
0.472602 0.465202 0.662745
0.606851 0.26508 0.68954
0.837476 0.312444 0.729824
0.845487 0.36434 0.75256
0.845487 0.367102 0.753811
0.845487 0.367102 0.753811
0.471397 0.496178 0.668772
0.471397 0.496178 0.668772
0.471397 0.496178 0.668772
0.473121 0.474388 0.664302
0.580728 0.266117 0.684047
0.828168 0.308614 0.728267
0.845487 0.363455 0.752148
0.845487 0.367102 0.753811
0.845487 0.367102 0.753811
0.471397 0.496178 0.668772
0.471397 0.496178 0.668772
0.471397 0.496178 0.668772
0.473121 0.480385 0.665446
0.56701 0.267643 0.68101
0.823941 0.306905 0.727565
0.845487 0.362753 0.751827
0.845487 0.367102 0.753811
0.845487 0.367102 0.753811
0.471397 0.496178 0.668772
0.471397 0.496178 0.668772
0.471397 0.496178 0.668772
0.471534 0.495659 0.668666
0.533379 0.273426 0.673228
0.81619 0.303807 0.726284
0.845487 0.361105 0.751049
0.845487 0.367102 0.753811
0.845487 0.367102 0.753811
0.483406 0.520485 0.67538
0.479118 0.512963 0.672984
0.477501 0.509789 0.672099
0.476616 0.507988 0.671611
0.489235 0.337224 0.66247
0.79585 0.30721 0.723705
0.845487 0.365118 0.750149
0.845487 0.374502 0.754833
0.845487 0.374624 0.754833
0.584131 0.729259 0.728588
0.58233 0.726665 0.727749
0.58143 0.725353 0.727306
0.580667 0.724239 0.72694
0.631083 0.73257 0.734066
0.776944 0.706691 0.750683
0.845487 0.683436 0.788266
0.845487 0.685176 0.793225
0.845487 0.683742 0.793149
0.657099 0.796567 0.754788
0.655024 0.795346 0.754192
0.653941 0.794675 0.753857
0.652995 0.794064 0.753582
0.653529 0.7935 0.753506
0.787915 0.808713 0.773022
0.845487 0.81146 0.774868
0.845487 0.805829 0.776303
0.845487 0.805508 0.776364
0.705684 0.820142 0.767758
0.705226 0.819959 0.76762
0.704952 0.819867 0.767529
0.704631 0.81973 0.767452
0.704067 0.819501 0.76733
0.778805 0.825055 0.778836
0.845487 0.8374 0.7823
0.845487 0.839521 0.784192
0.845487 0.839704 0.784375
0.71429 0.823529 0.769818
0.714153 0.823499 0.769757
0.714076 0.823468 0.769726
0.71397 0.823438 0.769711
0.71368 0.823316 0.76965
0.772992 0.827619 0.779034
0.845487 0.839994 0.782925
0.845487 0.841871 0.785138
0.845487 0.84213 0.785397
