luts/lucashu_filmlike/cu_film1.cube
TITLE "Generated by Resolve"
LUT_3D_SIZE 33
0.0356909 0.0356603 0.0329747
0.0356909 0.0356603 0.0329747
0.0357061 0.0356756 0.03299
0.0357519 0.0357214 0.0330205
0.0358587 0.0357671 0.0330358
0.0380865 0.0365606 0.0338903
0.042359 0.0373999 0.0350805
0.0501106 0.037995 0.0360876
0.0673991 0.0387579 0.0375219
0.0959182 0.0387579 0.0390936
0.132006 0.038941 0.0409857
0.170367 0.0398413 0.0445716
0.220813 0.0408179 0.0505379
0.28159 0.0416114 0.060914
0.345312 0.042771 0.0775616
0.402899 0.0445258 0.100801
0.456687 0.0477455 0.128191
0.504036 0.0526894 0.157122
0.544564 0.0606851 0.186252
0.579736 0.0722515 0.214603
0.614191 0.0875105 0.244022
0.650614 0.105623 0.275273
0.687541 0.12488 0.308522
0.730709 0.153201 0.351019
0.776761 0.190463 0.401389
0.812665 0.22916 0.451316
0.843763 0.27158 0.501869
0.868925 0.319799 0.554269
0.885603 0.374319 0.609201
0.894697 0.436164 0.667094
0.897673 0.505913 0.720043
0.897993 0.576257 0.765621
0.897993 0.634836 0.80032
0.0356909 0.0356603 0.0329747
0.0356909 0.0356603 0.0329747
0.0357061 0.0356756 0.03299
0.0357519 0.0357214 0.0330205
0.0358587 0.0357671 0.0330358
0.0380713 0.0365454 0.033875
0.042359 0.0373999 0.0350805
0.0501717 0.037995 0.0361028
0.0676127 0.0387579 0.0375372
0.0963302 0.0387579 0.0391089
0.13257 0.038941 0.0410468
0.171099 0.0398566 0.0446479
0.221698 0.0408331 0.0506752
0.282567 0.0416266 0.0611429
0.34641 0.0428016 0.0779736
0.403937 0.0445716 0.101305
0.457618 0.0478218 0.128725
0.504997 0.0528267 0.157794
0.545388 0.060914 0.186877
0.580606 0.0725872 0.215335
0.614984 0.087892 0.244709
0.651591 0.106111 0.276097
0.688502 0.125383 0.309422
0.731929 0.15407 0.352255
0.777951 0.19147 0.402731
0.813504 0.230152 0.452598
0.844511 0.272709 0.503197
0.869566 0.321263 0.55584
0.885985 0.375952 0.610834
0.894835 0.438193 0.668681
0.897688 0.507988 0.721401
0.897993 0.578317 0.766842
0.897993 0.634836 0.80032
0.0356909 0.0356603 0.0329747
0.0356909 0.0356603 0.0329747
0.0356909 0.0356603 0.0329747
0.0357214 0.0356756 0.03299
0.0357977 0.0357214 0.0330053
0.0380255 0.0365759 0.0339361
0.042298 0.0375067 0.0352636
0.0501259 0.0381476 0.0363775
0.0678111 0.03888 0.0378882
0.0961624 0.03888 0.0394751
0.132738 0.0390478 0.0413825
0.171786 0.0399329 0.0449683
0.223163 0.0408637 0.0510414
0.284459 0.0416571 0.0615854
0.348409 0.0428473 0.0786908
0.405829 0.0446632 0.102205
0.459144 0.0479438 0.12961
0.50631 0.0530251 0.158679
0.546502 0.0612192 0.187762
0.581781 0.0730297 0.216312
0.616312 0.0885176 0.245838
0.652674 0.106661 0.277028
0.689708 0.126024 0.310536
0.733486 0.155154 0.353796
0.779507 0.192813 0.404517
0.814618 0.231556 0.454368
0.845533 0.274296 0.505074
0.870253 0.322911 0.557595
0.886427 0.378012 0.612879
0.894972 0.440757 0.67068
0.897704 0.510811 0.723293
0.897993 0.581003 0.76846
0.897978 0.634867 0.800336
0.0356909 0.0356603 0.0329747
0.0356909 0.0356603 0.0329747
0.0356909 0.0356603 0.0329747
0.0356909 0.0356603 0.0329747
0.0357671 0.0356909 0.03299
0.0379339 0.0365606 0.0339513
0.0421149 0.0375525 0.0353857
0.0499275 0.0382849 0.0366064
0.0670939 0.0390631 0.0383001
0.0950027 0.0390326 0.0398718
0.13167 0.0391394 0.0417029
0.171374 0.0400397 0.0453498
0.222889 0.0409094 0.0514382
0.284886 0.0416876 0.0619364
0.348669 0.0428626 0.0788128
0.406088 0.0446937 0.102327
0.459358 0.0479744 0.129747
0.506523 0.0530709 0.158846
0.546929 0.0613718 0.188098
0.582193 0.0731975 0.216678
0.616648 0.0887007 0.246159
0.652995 0.106828 0.277317
0.690059 0.126177 0.310796
0.734173 0.155642 0.354467
0.780179 0.193378 0.40528
0.815167 0.232105 0.455085
0.845823 0.274723 0.505699
0.870604 0.32369 0.55845
0.88658 0.378927 0.613794
0.895033 0.442191 0.671824
0.897688 0.512123 0.724208
0.897978 0.582193 0.769223
0.897978 0.634745 0.800305
0.0357214 0.0357519 0.0330205
0.0357214 0.0357519 0.0330205
0.0357214 0.0357671 0.0330358
0.0357366 0.0358282 0.0330663
0.0358587 0.0359655 0.0331579
0.038056 0.0367437 0.0339361
0.0421454 0.0378729 0.0355688
0.0495308 0.0386358 0.036759
0.0659342 0.0392767 0.0384985
0.0932326 0.0392004 0.0400549
0.13022 0.0392462 0.0418555
0.170459 0.0401007 0.0455329
0.221988 0.04094 0.0517128
0.283894 0.0417029 0.0622721
0.348119 0.0428779 0.078996
0.406012 0.0447242 0.10222
0.459419 0.0479896 0.129641
0.506767 0.0530861 0.158862
0.547051 0.0614023 0.188052
0.582147 0.0732128 0.216556
0.616617 0.0887312 0.246021
0.653101 0.106889 0.277317
0.690227 0.126268 0.310872
0.734569 0.155886 0.354726
0.780499 0.193622 0.405585
0.815427 0.232303 0.455299
0.84596 0.274952 0.506004
0.870787 0.324102 0.558892
0.886702 0.379644 0.61445
0.895033 0.442741 0.672312
0.897673 0.512703 0.724651
0.897978 0.583093 0.769802
0.897963 0.634592 0.800259
0.0375525 0.0419013 0.0369726
0.0375677 0.0419471 0.0370184
0.0375982 0.0420844 0.0370642
0.037644 0.042237 0.0371557
0.0377661 0.0424811 0.0372778
0.040238 0.0432136 0.0361639
0.0461585 0.0433356 0.0366979
0.0532082 0.0435645 0.0373693
0.0652171 0.0434577 0.0397955
0.0903487 0.0417792 0.0404364
0.12491 0.0401312 0.0410468
0.163424 0.0398108 0.0432136
0.214893 0.0403143 0.048127
0.276753 0.0411841 0.0571603
0.342351 0.0422522 0.072755
0.403159 0.0441901 0.0961776
0.457801 0.0473182 0.124163
0.505379 0.0525673 0.15404
0.545846 0.060914 0.183749
0.581125 0.0727703 0.212818
0.615717 0.0882277 0.242985
0.652186 0.106432 0.274952
0.689845 0.126177 0.308827
0.734646 0.156024 0.353414
0.780575 0.193744 0.404776
0.815579 0.232425 0.454475
0.846372 0.275486 0.505867
0.871 0.324514 0.558785
0.886732 0.379751 0.614282
0.895033 0.443214 0.672343
0.897642 0.513207 0.724895
0.897978 0.583505 0.769833
0.897963 0.634806 0.800137
0.0392615 0.0504616 0.0417029
0.0392767 0.0505379 0.0417487
0.0393072 0.0507362 0.0418555
0.0393225 0.0509346 0.0419776
0.0393225 0.0513008 0.0420996
0.0404059 0.052079 0.0400549
0.0463569 0.0524758 0.0381628
0.0566567 0.051957 0.0386511
0.0755932 0.0507973 0.0392767
0.0945754 0.0498512 0.0420844
0.129366 0.046891 0.0433204
0.165393 0.0445411 0.0451057
0.208408 0.0417792 0.0466621
0.266758 0.0406806 0.0524147
0.333944 0.0414435 0.0656748
0.396551 0.0434424 0.0880903
0.453742 0.0466011 0.117128
0.502876 0.0516976 0.147601
0.543801 0.0600137 0.178286
0.579705 0.0721752 0.208423
0.614649 0.0877089 0.238972
0.651118 0.105974 0.271458
0.689052 0.125887 0.30634
0.734447 0.156039 0.351705
0.780545 0.19382 0.403601
0.815747 0.232609 0.453712
0.846326 0.275395 0.50486
0.871138 0.324605 0.55819
0.886793 0.379721 0.613794
0.895003 0.443305 0.671977
0.897627 0.51339 0.724987
0.897963 0.584283 0.770153
0.897948 0.634562 0.799863
0.0392615 0.0649729 0.0480201
0.0392615 0.065156 0.0480964
0.0392157 0.0656596 0.048249
0.0391699 0.0660105 0.0483558
0.0391699 0.0664988 0.0484627
0.0393683 0.0677806 0.0449836
0.0439307 0.0695201 0.041825
0.0535897 0.0704662 0.0398718
0.0780194 0.069276 0.0406348
0.109987 0.0658579 0.0411383
0.144137 0.0615854 0.0438544
0.176242 0.0576181 0.0477302
0.217899 0.052079 0.0503548
0.26627 0.0465248 0.0527657
0.3234 0.0421302 0.0586404
0.387366 0.042237 0.0759289
0.44622 0.0451362 0.104997
0.498207 0.0504158 0.138079
0.541054 0.0589761 0.171084
0.577768 0.0713359 0.202701
0.612757 0.0867933 0.234287
0.649287 0.105013 0.267247
0.688289 0.125582 0.303136
0.734218 0.156115 0.349004
0.780697 0.19411 0.401709
0.815793 0.232593 0.452369
0.846494 0.275502 0.50367
0.87126 0.324712 0.557519
0.887129 0.379721 0.612879
0.895247 0.443107 0.67071
0.897719 0.513497 0.724529
0.897978 0.583932 0.769528
0.897978 0.633921 0.79942
0.0390478 0.0885939 0.0573892
0.0390478 0.0888228 0.057496
0.0389715 0.0894789 0.0578775
0.0389563 0.0900435 0.0581064
0.0389715 0.0905165 0.0582437
0.0384833 0.0923476 0.053315
0.0405585 0.0952621 0.0482948
0.0481727 0.0980392 0.0437476
0.0716259 0.100191 0.0416571
0.111925 0.0972763 0.0430457
0.152987 0.0923476 0.0447242
0.196429 0.0843214 0.0491798
0.233539 0.0771496 0.0534829
0.280995 0.067628 0.0588693
0.332738 0.0569619 0.0645457
0.382162 0.0486763 0.0716411
0.434852 0.0450904 0.0893873
0.489418 0.0486458 0.122377
0.534966 0.0570077 0.158373
0.573404 0.0694438 0.192798
0.609751 0.085481 0.226551
0.647196 0.104173 0.26096
0.687358 0.125383 0.298482
0.734066 0.156374 0.345617
0.780728 0.194354 0.399008
0.815839 0.232654 0.450248
0.84654 0.27541 0.501701
0.871351 0.324651 0.556298
0.887205 0.379858 0.612284
0.895262 0.443091 0.67013
0.897704 0.513375 0.723964
0.897978 0.583917 0.769116
0.897963 0.633661 0.798947
0.0398108 0.119783 0.0721752
0.0398413 0.120195 0.0724346
0.0396735 0.121096 0.0730907
0.0396887 0.121736 0.0734417
0.0397345 0.12256 0.0739452
0.0390173 0.124758 0.0680858
0.0387274 0.128054 0.0588693
0.0436866 0.131441 0.0528115
0.0605173 0.136721 0.0465858
0.100908 0.138994 0.0446021
0.157015 0.135363 0.0480659
0.206973 0.129152 0.0525826
0.256703 0.117571 0.0568551
0.302129 0.105577 0.0616007
0.349096 0.0917525 0.0682231
0.396658 0.0765545 0.0789654
0.439643 0.0614633 0.0909133
0.481147 0.0523384 0.107439
0.525399 0.0549325 0.139132
0.566125 0.0666056 0.177111
0.604669 0.0832685 0.21442
0.643595 0.102495 0.251957
0.685756 0.124926 0.292287
0.733669 0.156588 0.341299
0.780484 0.194446 0.395468
0.815717 0.232578 0.447364
0.846693 0.275456 0.49984
0.871489 0.324697 0.554864
0.887297 0.37995 0.611093
0.895247 0.442847 0.668742
0.897704 0.513161 0.723064
0.897978 0.584115 0.768734
0.897963 0.63357 0.798444
0.0419623 0.156863 0.0955825
0.0419776 0.157168 0.0957809
0.0417639 0.15819 0.09691
0.0417182 0.159121 0.0977493
0.0415808 0.160143 0.0985275
0.0402686 0.162234 0.0911116
0.0389715 0.165576 0.0788281
0.0401617 0.168811 0.0678416
0.0514382 0.174716 0.0578012
0.0824903 0.181079 0.0500343
0.145251 0.185687 0.0503243
0.215732 0.181186 0.0565652
0.274311 0.172595 0.0612039
0.329442 0.159503 0.0662852
0.378256 0.143389 0.0709392
0.418418 0.126619 0.0788281
0.459586 0.106279 0.0935225
0.496666 0.0834821 0.110445
0.526314 0.0671397 0.127626
0.557946 0.0663767 0.156649
0.596201 0.079942 0.195911
0.637858 0.099855 0.237598
0.683772 0.124697 0.28333
0.732952 0.156847 0.334661
0.780331 0.194751 0.390494
0.815656 0.232715 0.443824
0.847028 0.2757 0.497581
0.871565 0.324483 0.552819
0.887297 0.379507 0.609216
0.895201 0.442542 0.667231
0.897688 0.512703 0.72163
0.897963 0.583871 0.7682
0.897948 0.63357 0.797925
0.0441444 0.197391 0.123598
0.0441596 0.197879 0.123934
0.0436408 0.199161 0.125124
0.0434272 0.20029 0.126146
0.0430457 0.201266 0.126818
0.0411688 0.203204 0.119585
0.0393072 0.206714 0.107469
0.0381628 0.210803 0.091722
0.0430915 0.215274 0.0741283
0.063798 0.223056 0.060502
0.115099 0.231876 0.0534524
0.203037 0.2383 0.0565957
0.287739 0.2336 0.0637675
0.355993 0.22446 0.068864
0.410117 0.210239 0.0750286
0.454215 0.191348 0.0813001
0.490135 0.169451 0.0902113
0.523201 0.1449 0.105714
0.55198 0.115709 0.12726
0.570428 0.0912337 0.147555
0.593317 0.0851301 0.176532
0.631861 0.0993668 0.219074
0.681056 0.125017 0.270008
0.731823 0.157275 0.324742
0.779889 0.195041 0.383261
0.815549 0.23299 0.438483
0.847105 0.275593 0.493111
0.871565 0.323919 0.549371
0.887343 0.379278 0.606943
0.895186 0.442054 0.665339
0.897688 0.51284 0.7205
0.897963 0.583841 0.767544
0.897932 0.633127 0.796994
0.0451514 0.241794 0.153262
0.0451362 0.242329 0.153582
0.0440681 0.243763 0.154772
0.0433661 0.244831 0.155627
0.042771 0.245838 0.156374
0.0407874 0.247288 0.150072
0.0386053 0.250477 0.138796
0.036408 0.254582 0.12256
0.0356603 0.259541 0.0949569
0.0463417 0.265675 0.0722362
0.0800336 0.274784 0.0577554
0.16051 0.28867 0.0534218
0.273945 0.299138 0.0601663
0.374777 0.294545 0.0683299
0.444739 0.284474 0.0777905
0.489616 0.270039 0.0876783
0.528771 0.247623 0.0961166
0.560937 0.221195 0.104662
0.586954 0.19147 0.118441
0.606546 0.156603 0.142535
0.616236 0.124331 0.167285
0.637079 0.113466 0.201572
0.679362 0.12845 0.251606
0.729946 0.158236 0.309789
0.779324 0.195819 0.372076
0.815259 0.233249 0.430549
0.846967 0.275425 0.487663
0.871504 0.323049 0.544854
0.887358 0.378622 0.603204
0.895216 0.44184 0.66276
0.897688 0.512123 0.718379
0.897948 0.583154 0.766018
0.897917 0.632563 0.796002
0.043473 0.288914 0.18146
0.0434424 0.289433 0.181765
0.0420081 0.290562 0.183032
0.041062 0.291569 0.183932
0.0404517 0.292821 0.185031
0.0386969 0.293751 0.17911
0.0365454 0.2963 0.16907
0.0341497 0.299596 0.153735
0.0320439 0.304891 0.122896
0.0336004 0.309789 0.0833906
0.050309 0.317098 0.0607614
0.104677 0.3299 0.0497444
0.222507 0.35256 0.051133
0.360815 0.366827 0.0645457
0.46685 0.360815 0.0789502
0.528267 0.351202 0.0963607
0.566491 0.337499 0.108614
0.598764 0.312963 0.119951
0.625345 0.28188 0.127062
0.645487 0.246845 0.136904
0.659205 0.205966 0.159243
0.664286 0.16408 0.18793
0.685054 0.146899 0.229892
0.728344 0.162554 0.288518
0.777676 0.196826 0.354604
0.814801 0.233921 0.418387
0.846494 0.275257 0.478874
0.871473 0.322103 0.538277
0.887495 0.377752 0.598566
0.895247 0.440742 0.658824
0.897688 0.511421 0.715831
0.897948 0.582589 0.763882
0.897917 0.631846 0.794583
0.0414588 0.334691 0.209064
0.0414282 0.335195 0.2094
0.0397803 0.336172 0.211231
0.0388342 0.337209 0.212696
0.0381933 0.338399 0.213809
0.0365606 0.339086 0.208698
0.0345922 0.340902 0.2
0.0326848 0.34345 0.186847
0.0307927 0.347997 0.160143
0.0302281 0.353902 0.112779
0.0340734 0.359167 0.0689403
0.0622568 0.367544 0.0493019
0.152529 0.386404 0.0435645
0.307469 0.419425 0.0557107
0.453498 0.433555 0.0793317
0.549905 0.427543 0.101762
0.605417 0.419608 0.124651
0.63714 0.406867 0.140093
0.663157 0.382513 0.152239
0.685069 0.348409 0.158495
0.700206 0.309255 0.164523
0.709041 0.262074 0.181109
0.712291 0.210407 0.210712
0.734051 0.185885 0.262104
0.776242 0.202213 0.330266
0.813993 0.235523 0.399527
0.845853 0.275578 0.465629
0.87126 0.321355 0.529152
0.887587 0.376349 0.591775
0.895323 0.439216 0.653727
0.897704 0.509987 0.711818
0.897948 0.581537 0.761151
0.897902 0.630945 0.792477
0.0407721 0.378378 0.24033
0.0407874 0.378851 0.240711
0.039292 0.379782 0.243107
0.0383459 0.38085 0.245426
0.0376593 0.382055 0.246937
0.0362707 0.382467 0.243107
0.0346075 0.383825 0.235889
0.0328679 0.385977 0.225605
0.0308385 0.389456 0.204166
0.0294499 0.39501 0.163821
0.0295567 0.400885 0.105348
0.0392615 0.406058 0.0627146
0.0916915 0.416968 0.0442359
0.226658 0.446647 0.0458839
0.401679 0.486702 0.0717479
0.535821 0.497826 0.106065
0.622965 0.492271 0.134768
0.67335 0.484779 0.161761
0.701778 0.472862 0.18117
0.723339 0.450278 0.192096
0.741436 0.416571 0.197711
0.752148 0.374136 0.200107
0.75642 0.322194 0.208515
0.760342 0.262287 0.237049
0.782803 0.231235 0.296208
0.816266 0.24358 0.371832
0.844968 0.276646 0.444358
0.870588 0.320882 0.5149
0.887465 0.374472 0.58146
0.895399 0.436851 0.646311
0.897704 0.507973 0.706538
0.897948 0.579843 0.757671
0.897887 0.629435 0.789548
0.0426947 0.420081 0.275792
0.0427253 0.420539 0.276188
0.0413825 0.421683 0.27892
0.040177 0.42266 0.281163
0.0393378 0.423774 0.283055
0.0380713 0.424216 0.280995
0.0366522 0.425116 0.275822
0.0350195 0.426825 0.268376
0.032929 0.429313 0.253239
0.0304265 0.433417 0.222782
0.0289311 0.439582 0.170642
0.0308995 0.445106 0.106065
0.0559243 0.451347 0.0634012
0.146471 0.467491 0.0456397
0.313512 0.509758 0.0597391
0.485679 0.549996 0.102739
0.606043 0.559274 0.145647
0.685924 0.555154 0.179263
0.734951 0.547814 0.209277
0.76228 0.536538 0.231037
0.780362 0.515251 0.240833
0.794034 0.481025 0.244297
0.801038 0.438087 0.242802
0.803357 0.384649 0.243137
0.805951 0.318288 0.265949
0.825116 0.279011 0.329915
0.847303 0.285283 0.412802
0.869642 0.321614 0.491997
0.88719 0.372992 0.566293
0.895491 0.43418 0.635706
0.897719 0.505364 0.699001
0.897948 0.57734 0.752163
0.897887 0.627466 0.785718
0.0474861 0.459998 0.313039
0.0475776 0.460441 0.313466
0.0461585 0.461418 0.315831
0.04477 0.462272 0.318135
0.0437629 0.463355 0.320516
0.042359 0.463828 0.319478
0.0410163 0.464271 0.316197
0.0396735 0.465492 0.311482
0.0380713 0.467109 0.301549
0.0351415 0.469856 0.281544
0.0316777 0.474739 0.242054
0.0303044 0.481117 0.177005
0.0398108 0.487007 0.110826
0.0910811 0.495064 0.0686046
0.218173 0.519539 0.0569772
0.397864 0.571237 0.0914473
0.556161 0.609277 0.149554
0.66775 0.618631 0.197406
0.742855 0.615473 0.234836
0.790921 0.608072 0.266926
0.817548 0.597131 0.289876
0.83328 0.576669 0.299062
0.842924 0.54342 0.299763
0.845594 0.499809 0.291875
0.843976 0.445411 0.282261
0.844266 0.374899 0.296742
0.854017 0.326482 0.358984
0.870848 0.330709 0.458244
0.886534 0.372686 0.541924
0.895613 0.431464 0.62005
0.89781 0.501549 0.688487
0.897963 0.574533 0.745174
0.897902 0.624964 0.780606
0.0575875 0.498253 0.350927
0.0577401 0.498665 0.351339
0.0560616 0.499702 0.353384
0.0542306 0.500633 0.355688
0.052842 0.501884 0.358297
0.0509041 0.502403 0.357946
0.0493935 0.502754 0.355825
0.048127 0.503319 0.352956
0.0471809 0.504189 0.346441
0.0447089 0.505776 0.334478
0.0404059 0.509026 0.308721
0.0361028 0.514138 0.258152
0.0377813 0.52076 0.18381
0.0656748 0.527672 0.121798
0.150439 0.538476 0.0820172
0.29897 0.573678 0.0858167
0.475517 0.629786 0.142229
0.621134 0.665858 0.207233
0.724315 0.67602 0.259052
0.796689 0.673564 0.299519
0.843595 0.666575 0.332998
0.864576 0.65594 0.356481
0.872877 0.635691 0.363378
0.875746 0.601953 0.357702
0.874876 0.557702 0.343435
0.871763 0.502388 0.324666
0.868238 0.429969 0.325292
0.871427 0.374365 0.385245
0.886961 0.381598 0.504997
0.895598 0.429572 0.594888
0.897917 0.497108 0.673228
0.897978 0.570474 0.735164
0.897902 0.621958 0.773236
0.076463 0.53518 0.388388
0.0768139 0.535729 0.388952
0.0746777 0.536767 0.391012
0.0722515 0.537926 0.393484
0.0700084 0.539178 0.395636
0.0672007 0.53991 0.39585
0.0649424 0.540291 0.394614
0.0632639 0.540352 0.392508
0.0625162 0.54078 0.38819
0.0608835 0.541711 0.380713
0.0567636 0.543313 0.36466
0.0504616 0.546883 0.331823
0.046479 0.552666 0.269581
0.059968 0.559731 0.196506
0.115602 0.567086 0.14078
0.223178 0.583062 0.110475
0.378943 0.62797 0.135363
0.54551 0.684916 0.203967
0.679713 0.720623 0.273304
0.777584 0.732692 0.328435
0.847913 0.731517 0.371359
0.880629 0.725322 0.405783
0.890593 0.713863 0.427207
0.892897 0.692515 0.429496
0.892821 0.658106 0.417441
0.891203 0.612497 0.396063
0.887129 0.555871 0.366873
0.87921 0.480049 0.348028
0.883787 0.424628 0.416617
0.895796 0.435477 0.5561
0.897978 0.493538 0.649195
0.897993 0.565728 0.721187
0.897917 0.617777 0.763363
0.106142 0.570825 0.425208
0.106523 0.571221 0.425605
0.104067 0.572351 0.427375
0.101061 0.573587 0.429694
0.098085 0.574792 0.431617
0.0944381 0.575708 0.432364
0.0914473 0.576288 0.4318
0.0893873 0.576654 0.430457
0.0881666 0.576562 0.427008
0.0872663 0.576898 0.422019
0.084123 0.577447 0.411917
0.0769818 0.579309 0.39086
0.0684977 0.583474 0.347906
0.0715648 0.590478 0.280369
0.107805 0.598367 0.217121
0.184344 0.606882 0.17026
0.298299 0.629267 0.154925
0.450462 0.679866 0.196139
0.605737 0.73724 0.271717
0.732357 0.774456 0.34551
0.82945 0.788968 0.404868
0.882689 0.7888 0.447868
0.896681 0.782071 0.477821
0.897993 0.770153 0.494804
0.897993 0.747646 0.494636
0.897993 0.71191 0.475532
0.897169 0.663905 0.444068
0.893141 0.603784 0.401556
0.887037 0.527062 0.377066
0.892271 0.474449 0.455085
0.897993 0.495048 0.610941
0.897993 0.560601 0.69897
0.897963 0.612482 0.748547
0.144518 0.605951 0.460502
0.144961 0.606332 0.460883
0.142443 0.60734 0.462196
0.13962 0.608331 0.463783
0.137636 0.609369 0.465354
0.13492 0.610071 0.46569
0.133181 0.610788 0.46537
0.131685 0.611185 0.464469
0.130648 0.610925 0.461723
0.129091 0.610468 0.457435
0.127413 0.610559 0.451057
0.121981 0.611246 0.437461
0.112581 0.613535 0.409613
0.108858 0.619837 0.358724
0.128832 0.628595 0.294728
0.181872 0.6365 0.242695
0.262287 0.647135 0.207477
0.374319 0.676066 0.209354
0.517357 0.729702 0.261753
0.662623 0.786633 0.342626
0.786908 0.824796 0.420615
0.873304 0.839689 0.480354
0.897185 0.840223 0.5196
0.897993 0.834562 0.54403
0.897993 0.822263 0.556863
0.897993 0.799237 0.554467
0.897993 0.762142 0.526528
0.897993 0.711177 0.483253
0.896803 0.648981 0.43653
0.892973 0.571832 0.411109
0.897063 0.526253 0.505348
0.897993 0.558236 0.664912
0.897993 0.60708 0.726772
0.185489 0.63917 0.493355
0.185946 0.639536 0.493721
0.183566 0.640406 0.494881
0.180636 0.641047 0.495933
0.178927 0.641901 0.497017
0.17731 0.642756 0.497353
0.175967 0.643198 0.496864
0.174899 0.643473 0.496025
0.174258 0.64332 0.494316
0.172549 0.64271 0.49073
0.171023 0.642313 0.485985
0.16759 0.642512 0.476646
0.161578 0.644221 0.458991
0.157824 0.649622 0.425772
0.164553 0.65774 0.371954
0.196399 0.665919 0.317128
0.254978 0.674266 0.27924
0.331121 0.687022 0.257099
0.437064 0.718273 0.270619
0.572778 0.771984 0.330114
0.717037 0.830045 0.416861
0.841932 0.864134 0.500893
0.893889 0.874067 0.561547
0.897993 0.874769 0.596841
0.897993 0.871763 0.615671
0.897993 0.863905 0.623011
0.897993 0.845563 0.614954
0.897993 0.808469 0.578363
0.897993 0.756802 0.524987
0.897993 0.691722 0.472953
0.896635 0.613931 0.452476
0.897993 0.579751 0.567498
0.897993 0.602426 0.692454
0.226947 0.668864 0.52253
0.227573 0.669291 0.522957
0.224781 0.669749 0.523705
0.221698 0.670314 0.524575
0.220066 0.671046 0.525795
0.218753 0.671611 0.526009
0.217975 0.672114 0.525734
0.21735 0.672389 0.525078
0.217166 0.672496 0.523568
0.216449 0.672328 0.521416
0.214893 0.672053 0.517357
0.213443 0.67248 0.510994
0.212512 0.674968 0.499626
0.209827 0.679469 0.477028
0.210529 0.685969 0.437812
0.229328 0.694469 0.389578
0.274144 0.70399 0.356603
0.329427 0.712444 0.33312
0.399344 0.725826 0.32372
0.496834 0.756481 0.345129
0.630045 0.810941 0.411521
0.777539 0.865232 0.507805
0.879911 0.886 0.595087
0.897993 0.890593 0.650919
0.897993 0.891005 0.681025
0.897993 0.889891 0.695232
0.897993 0.886015 0.695888
0.897993 0.87512 0.676966
0.897993 0.849287 0.63328
0.897993 0.799313 0.571893
0.897993 0.732189 0.509331
0.897963 0.653864 0.500832
0.897993 0.621363 0.601129
0.278645 0.70045 0.554192
0.279454 0.700938 0.554665
0.276982 0.701411 0.555261
0.273915 0.701915 0.555688
0.272114 0.702388 0.55642
0.271077 0.703044 0.556832
0.270985 0.703761 0.556786
0.271031 0.704158 0.556435
0.271656 0.704601 0.555627
0.271794 0.704662 0.554009
0.269963 0.704341 0.550256
0.266285 0.703609 0.544137
0.265187 0.705486 0.535424
0.263279 0.708965 0.519753
0.263981 0.714443 0.492348
0.279637 0.723171 0.456962
0.313909 0.733028 0.429038
0.359182 0.742046 0.412741
0.411154 0.751171 0.403357
0.476677 0.765713 0.406241
0.57174 0.797406 0.437201
0.704982 0.851286 0.51165
0.842176 0.886091 0.610636
0.894194 0.895003 0.69279
0.897993 0.896529 0.745525
0.897993 0.896773 0.77351
0.897993 0.896513 0.783871
0.897993 0.895155 0.777356
0.897993 0.890181 0.745235
0.897993 0.875578 0.690761
0.897993 0.838407 0.622843
0.897993 0.767849 0.546044
0.897993 0.693874 0.50251
0.338659 0.733806 0.588876
0.33933 0.734188 0.589273
0.337499 0.734554 0.58999
0.334432 0.734737 0.590219
0.332357 0.735149 0.590646
0.331518 0.735714 0.590784
0.331594 0.736309 0.590738
0.332265 0.736934 0.590494
0.332616 0.73727 0.589776
0.332387 0.737392 0.588266
0.330694 0.737224 0.584817
0.326741 0.736217 0.579324
0.322194 0.735927 0.570855
0.324788 0.73962 0.560159
0.332189 0.745678 0.543297
0.345663 0.753384 0.519921
0.370916 0.76199 0.498344
0.408881 0.771786 0.488762
0.454093 0.782162 0.486152
0.506661 0.793515 0.490227
0.572915 0.810773 0.506172
0.666148 0.843473 0.547478
0.788479 0.880156 0.626505
0.879683 0.895048 0.719127
0.897673 0.897642 0.789929
0.897993 0.897948 0.830961
0.897993 0.897993 0.850309
0.897993 0.897993 0.85597
0.897993 0.897795 0.848478
0.897993 0.896223 0.815763
0.897993 0.889555 0.752239
0.897993 0.865415 0.671305
0.897993 0.815564 0.594751
0.429343 0.775036 0.638895
0.430732 0.775662 0.639673
0.429007 0.775814 0.639963
0.426886 0.775891 0.640146
0.425696 0.776089 0.640528
0.425376 0.776547 0.640803
0.427176 0.777523 0.641672
0.428016 0.778042 0.641642
0.428931 0.778546 0.641138
0.428611 0.778668 0.639231
0.425849 0.778119 0.635752
0.422232 0.777462 0.630777
0.415396 0.775814 0.622248
0.412299 0.776303 0.612421
0.418463 0.780713 0.602319
