luts/lucashu_filmlike/cu_film2.cube
TITLE "Generated by Resolve"
LUT_3D_SIZE 33
0.0218967 0.0277562 0.0255436
0.0252537 0.0281529 0.0248417
0.0295872 0.0283818 0.0242466
0.0367742 0.0281682 0.0238499
0.0468605 0.0274052 0.0238193
0.0588388 0.0263676 0.0241093
0.073228 0.0254978 0.0250401
0.0895552 0.0256199 0.0272679
0.109117 0.0265812 0.0304417
0.134325 0.0280766 0.0347601
0.168399 0.0307469 0.0418402
0.214557 0.0357977 0.0534676
0.273228 0.0431067 0.0703136
0.339147 0.0523079 0.0913252
0.407752 0.0626078 0.114397
0.475608 0.0730144 0.137285
0.540902 0.0830854 0.158419
0.60412 0.0932784 0.177417
0.666346 0.104204 0.194156
0.726162 0.115236 0.206455
0.781796 0.126009 0.213092
0.829984 0.135805 0.214649
0.845487 0.143359 0.214099
0.845487 0.148226 0.214405
0.845487 0.150958 0.216449
0.845487 0.152285 0.218891
0.845487 0.152987 0.220813
0.845487 0.153475 0.222324
0.845487 0.153872 0.223499
0.845487 0.154177 0.22443
0.845487 0.154406 0.225132
0.845487 0.154574 0.225635
0.845487 0.154696 0.225986
0.0230869 0.0319982 0.0276799
0.0250553 0.0319829 0.0273747
0.0284733 0.0322118 0.0265202
0.0347601 0.0323949 0.02533
0.0446479 0.0320287 0.0245365
0.0574807 0.0308232 0.0242161
0.0730297 0.0291447 0.0244144
0.0902724 0.0280613 0.0257572
0.109834 0.027924 0.0282902
0.134081 0.0285954 0.0321965
0.1664 0.0304265 0.0389563
0.210544 0.0350195 0.05066
0.268345 0.0421759 0.0675669
0.333303 0.0511025 0.0883192
0.40145 0.0612497 0.111269
0.469459 0.0717174 0.13431
0.534646 0.0818799 0.155642
0.598047 0.0920882 0.174914
0.660227 0.102815 0.191943
0.720043 0.11371 0.204334
0.776074 0.124468 0.211444
0.825254 0.134417 0.213611
0.845487 0.142306 0.213245
0.845487 0.147524 0.213382
0.845487 0.1505 0.215396
0.845487 0.151919 0.217899
0.845487 0.152667 0.219913
0.845487 0.153201 0.2215
0.845487 0.153613 0.222736
0.845487 0.153933 0.223682
0.845487 0.154177 0.22443
0.845487 0.154345 0.224964
0.845487 0.154467 0.225315
0.0243229 0.0364233 0.0298619
0.0254978 0.0363012 0.0296635
0.0282902 0.036347 0.0292973
0.0335393 0.03682 0.027863
0.0422522 0.0370031 0.0264591
0.054902 0.0364691 0.0255283
0.0718242 0.0350652 0.0252232
0.0911269 0.0332952 0.0257572
0.112291 0.0318914 0.0271763
0.136995 0.0312657 0.0297093
0.169009 0.0316472 0.0346685
0.211673 0.0354925 0.045716
0.267384 0.0422217 0.0636606
0.330983 0.05066 0.0856641
0.398596 0.0605173 0.109224
0.466407 0.0709392 0.132479
0.531685 0.081178 0.153994
0.59498 0.0913558 0.173373
0.65716 0.102037 0.190463
0.717113 0.112856 0.202976
0.77322 0.123568 0.210285
0.822843 0.133562 0.212772
0.845487 0.141634 0.212528
0.845487 0.147051 0.212634
0.845487 0.150149 0.214618
0.845487 0.151629 0.217151
0.845487 0.152422 0.219211
0.845487 0.152987 0.220859
0.845487 0.153429 0.222141
0.845487 0.15375 0.223133
0.845487 0.153994 0.22388
0.845487 0.154162 0.224414
0.845487 0.154284 0.224781
0.0259861 0.0421149 0.0320287
0.0263523 0.0419318 0.0319371
0.0287785 0.041886 0.0319524
0.0320897 0.0417334 0.0311437
0.0385748 0.0421302 0.0294652
0.0499123 0.0425269 0.0277867
0.0672007 0.0420081 0.0267948
0.0886091 0.0404364 0.0267338
0.112291 0.0385595 0.0276036
0.138827 0.0368658 0.0294041
0.171542 0.0354772 0.0326085
0.214084 0.0367437 0.0406806
0.268467 0.0424506 0.0569619
0.33051 0.0507515 0.0791333
0.396857 0.0602579 0.104967
0.46421 0.0703441 0.130434
0.529549 0.0805524 0.15259
0.592905 0.0907454 0.172091
0.655161 0.101442 0.189166
0.715068 0.112184 0.201755
0.771282 0.122835 0.209232
0.821149 0.132845 0.211933
0.845487 0.141054 0.21178
0.845487 0.146609 0.211856
0.845487 0.149813 0.21387
0.845487 0.151339 0.216449
0.845487 0.152163 0.218555
0.845487 0.152789 0.220233
0.845487 0.153231 0.221546
0.845487 0.153567 0.222568
0.845487 0.153811 0.223331
0.845487 0.153994 0.22388
0.845487 0.154116 0.224247
0.0281224 0.0488441 0.0342718
0.0281987 0.0485847 0.034165
0.0300603 0.0486305 0.0344091
0.0327459 0.0484474 0.034287
0.0366522 0.048127 0.0331884
0.0453346 0.0486152 0.0312047
0.0614176 0.0491951 0.0294041
0.08365 0.0486458 0.0285191
0.109667 0.0470436 0.0288548
0.138949 0.0450294 0.0303655
0.172839 0.0425727 0.0330205
0.215808 0.0411536 0.0382391
0.269627 0.0437171 0.0507668
0.330587 0.0506752 0.0708171
0.396185 0.0601053 0.0961624
0.462821 0.0701762 0.123766
0.527947 0.0800793 0.149889
0.59115 0.0901503 0.170764
0.653391 0.100847 0.187869
0.713436 0.111559 0.200549
0.769833 0.122179 0.208194
0.819959 0.132219 0.211032
0.845487 0.140505 0.210941
0.845487 0.146181 0.211048
0.845487 0.149462 0.213077
0.845487 0.151034 0.215702
0.845487 0.151904 0.217868
0.845487 0.15256 0.219608
0.845487 0.153033 0.220935
0.845487 0.153368 0.221973
0.845487 0.153628 0.222751
0.845487 0.153796 0.223316
0.845487 0.153933 0.223682
0.030869 0.0567178 0.0365301
0.0308232 0.0563973 0.0364385
0.0317693 0.0563821 0.0366064
0.0343786 0.0565499 0.0370489
0.0374151 0.0561227 0.0367285
0.0428016 0.0557107 0.0354162
0.0555276 0.0566567 0.0332799
0.0760204 0.0574807 0.0315709
0.102968 0.0569772 0.0311742
0.134874 0.0551614 0.0321965
0.171649 0.0522621 0.0343175
0.216266 0.0488136 0.0382391
0.270497 0.047715 0.046479
0.331182 0.0517433 0.0623941
0.39556 0.0597391 0.0849317
0.461051 0.0695659 0.111513
0.525841 0.0797742 0.139147
0.589456 0.0899062 0.16495
0.651789 0.100313 0.185519
0.711925 0.110872 0.199161
0.768368 0.121416 0.206958
0.818738 0.131487 0.209949
0.845487 0.139895 0.209979
0.845487 0.145678 0.210086
0.845487 0.149035 0.212131
0.845487 0.150668 0.214801
0.845487 0.151568 0.217029
0.845487 0.15227 0.218814
0.845487 0.152773 0.220203
0.845487 0.153124 0.221256
0.845487 0.153384 0.222049
0.845487 0.153582 0.222614
0.845487 0.153704 0.22298
0.03505 0.0667277 0.0387732
0.0348821 0.0663615 0.0386816
0.035111 0.0661784 0.0387274
0.0369879 0.066392 0.0392615
0.0396429 0.0663615 0.0395972
0.0433661 0.0658122 0.0391852
0.0517586 0.0660563 0.0377966
0.0677958 0.0672618 0.0360571
0.0925307 0.0682536 0.0350195
0.125628 0.0675364 0.0352178
0.166659 0.0646982 0.0364996
0.214511 0.0600595 0.0395666
0.270176 0.056199 0.0453651
0.331426 0.0556649 0.0561837
0.394751 0.0602426 0.0733501
0.459037 0.0686503 0.0963302
0.523079 0.0787213 0.122438
0.586709 0.0892042 0.149584
0.649271 0.100008 0.174136
0.710079 0.110338 0.193713
0.767086 0.120623 0.204852
0.817777 0.130663 0.208545
0.845487 0.139132 0.208652
0.845487 0.145022 0.208804
0.845487 0.148486 0.210895
0.845487 0.150179 0.213642
0.845487 0.151141 0.215915
0.845487 0.151873 0.217762
0.845487 0.152422 0.219211
0.845487 0.152819 0.22031
0.845487 0.153094 0.221103
0.845487 0.153277 0.221683
0.845487 0.153399 0.22208
0.0411231 0.0799268 0.0415503
0.0408789 0.0793774 0.0414435
0.0407874 0.0790875 0.0413825
0.0415045 0.079057 0.0416419
0.0436103 0.0793164 0.0420996
0.0467536 0.0793011 0.0422522
0.052018 0.0790875 0.0417487
0.0629892 0.07953 0.0407416
0.0828412 0.0806744 0.0398718
0.113619 0.0814374 0.0397345
0.156909 0.0802777 0.0404364
0.209583 0.0755932 0.042359
0.268055 0.0695964 0.0467994
0.330419 0.0654307 0.0538491
0.393515 0.0652934 0.0645304
0.457328 0.0695506 0.0819562
0.520745 0.0776837 0.104143
0.583673 0.0877699 0.128618
0.646113 0.0987259 0.153292
0.707759 0.109499 0.176013
0.765621 0.120165 0.192248
0.816709 0.130129 0.20148
0.845487 0.138277 0.205646
0.845487 0.144167 0.207034
0.845487 0.147753 0.209201
0.845487 0.149523 0.212024
0.845487 0.15053 0.21442
0.845487 0.151308 0.216327
0.845487 0.151904 0.217853
0.845487 0.152346 0.219013
0.845487 0.152667 0.219852
0.845487 0.152865 0.220432
0.845487 0.152987 0.220844
0.049485 0.0970169 0.0457771
0.049134 0.0963149 0.0455787
0.0489662 0.095964 0.0454719
0.0488746 0.095613 0.0454108
0.0500343 0.0957656 0.0455787
0.0527047 0.0962539 0.0458839
0.0567941 0.0964828 0.0458076
0.0637675 0.0962234 0.0455024
0.0776379 0.0961471 0.0451514
0.103151 0.0970474 0.045243
0.143938 0.0982834 0.0464027
0.200168 0.0957656 0.047364
0.26331 0.0886397 0.0502937
0.328099 0.082002 0.0557259
0.392294 0.0774548 0.0627604
0.456001 0.0766308 0.0735332
0.518914 0.0803235 0.0890822
0.581247 0.0870832 0.107759
0.643305 0.096849 0.128893
0.70489 0.107866 0.149889
0.763378 0.119036 0.168231
0.815457 0.129458 0.182193
0.845487 0.138094 0.191363
0.845487 0.144213 0.19707
0.845487 0.147509 0.203128
0.845487 0.148898 0.208621
0.845487 0.149722 0.212116
0.845487 0.150484 0.214313
0.845487 0.151125 0.2159
0.845487 0.151629 0.217136
0.845487 0.15198 0.218051
0.845487 0.152209 0.218647
0.845487 0.152361 0.219074
0.0611124 0.119768 0.052842
0.0605936 0.118761 0.052491
0.0602579 0.118135 0.0522469
0.0600595 0.117739 0.0521248
0.060029 0.117418 0.0520027
0.0618601 0.117922 0.0522011
0.0656291 0.118868 0.0523842
0.0704051 0.119127 0.0523232
0.0795453 0.118273 0.0519875
0.0987106 0.117479 0.0521248
0.133181 0.118654 0.0538338
0.187335 0.119768 0.0550698
0.255238 0.114488 0.0565194
0.324132 0.106096 0.0602426
0.390372 0.0988785 0.0658122
0.45449 0.0942092 0.0729076
0.517388 0.0920729 0.0817731
0.579583 0.0929427 0.0931258
0.641032 0.0992599 0.109148
0.702037 0.108293 0.126085
0.760616 0.118547 0.141192
0.813687 0.129671 0.153811
0.845487 0.13991 0.164385
0.845487 0.146654 0.174762
0.845487 0.149004 0.185611
0.845487 0.149447 0.194308
0.845487 0.150072 0.19968
0.845487 0.150988 0.202976
0.845487 0.151812 0.205402
0.845487 0.152392 0.207385
0.845487 0.152697 0.20885
0.845487 0.152865 0.209857
0.845487 0.152987 0.210544
0.0781109 0.151705 0.0653544
0.0772717 0.150195 0.0646372
0.0767681 0.149279 0.0641947
0.076463 0.148745 0.0639506
0.076173 0.148211 0.0637064
0.076173 0.147784 0.0634928
0.078706 0.148547 0.0639506
0.0834821 0.149981 0.0648814
0.0897536 0.150469 0.0650492
0.102419 0.149126 0.0639506
0.1308 0.146487 0.0628061
0.175036 0.147036 0.0655375
0.24387 0.14818 0.066865
0.317769 0.141314 0.0685283
0.38732 0.131411 0.0719463
0.452445 0.123095 0.0772717
0.51548 0.117617 0.0840925
0.577752 0.115221 0.0919203
0.6392 0.115694 0.100862
0.700053 0.119158 0.111009
0.758297 0.126192 0.121736
0.811292 0.136492 0.132418
0.845396 0.147356 0.142153
0.845487 0.154589 0.150088
0.845487 0.155886 0.155749
0.845487 0.155673 0.160967
0.845487 0.15642 0.167239
0.845487 0.157534 0.173281
0.845487 0.158511 0.178241
0.845487 0.15906 0.182208
0.845487 0.159136 0.185138
0.845487 0.159014 0.187243
0.845487 0.158999 0.188815
0.103624 0.197253 0.0873884
0.102724 0.195666 0.0865949
0.102083 0.194537 0.0860304
0.101762 0.193973 0.0857557
0.10135 0.193256 0.0853895
0.101106 0.192813 0.0851606
0.101518 0.192676 0.0851301
0.10425 0.19321 0.0856336
0.110018 0.194614 0.0872816
0.118685 0.195575 0.0883497
0.134096 0.193179 0.0853437
0.176059 0.186892 0.0803388
0.234165 0.186206 0.08159
0.309636 0.188449 0.0836194
0.384741 0.183795 0.0852674
0.452354 0.172992 0.0877546
0.514763 0.162402 0.0920272
0.575814 0.155245 0.0979782
0.636484 0.15169 0.105135
0.697093 0.152346 0.113313
0.754971 0.157351 0.122103
0.807828 0.166552 0.131334
0.844831 0.177172 0.140093
0.845487 0.184207 0.146777
0.845487 0.185565 0.150668
0.845487 0.184085 0.153094
0.845487 0.182376 0.155383
0.845487 0.181003 0.157549
0.845487 0.179965 0.159304
0.845487 0.17911 0.160662
0.845487 0.178408 0.161639
0.845487 0.177935 0.16231
0.845487 0.177661 0.162783
0.138842 0.257755 0.120836
0.137682 0.255772 0.119738
0.136965 0.25452 0.119066
0.136446 0.253651 0.118563
0.135912 0.25272 0.118044
0.135515 0.252049 0.117693
0.135271 0.251575 0.117418
0.135897 0.251331 0.117357
0.139162 0.251896 0.118273
0.145907 0.253452 0.120348
0.157382 0.254154 0.120516
0.183108 0.25034 0.110323
0.237873 0.2421 0.104128
0.304997 0.239353 0.103502
0.379614 0.241581 0.105043
0.452857 0.240818 0.106737
0.517555 0.232334 0.10837
0.576684 0.220859 0.111284
0.634638 0.211566 0.115999
0.693034 0.207523 0.122576
0.749935 0.209003 0.130343
0.802686 0.215869 0.138872
0.842939 0.225208 0.14696
0.845487 0.231373 0.152636
0.845487 0.232136 0.155337
0.845487 0.229664 0.156283
0.845487 0.226658 0.156878
0.845487 0.224262 0.157549
0.845487 0.22237 0.158175
0.845487 0.220844 0.158663
0.845487 0.219852 0.15903
0.845487 0.219242 0.159319
0.845487 0.218936 0.159533
0.181369 0.327581 0.160372
0.179782 0.325002 0.158907
0.178927 0.323629 0.158129
0.178286 0.322576 0.157534
0.17763 0.321508 0.156924
0.177157 0.320729 0.156497
0.176822 0.320211 0.156191
0.176608 0.319692 0.155917
0.177508 0.319448 0.155947
0.181506 0.320027 0.157168
0.190448 0.321538 0.159121
0.203418 0.321233 0.155077
0.249882 0.316823 0.139239
0.311177 0.306386 0.130983
0.379324 0.301488 0.129305
0.45095 0.304463 0.130343
0.520043 0.308263 0.132067
0.580667 0.304372 0.133089
0.636271 0.293812 0.134874
0.691341 0.284581 0.138689
0.745632 0.280125 0.144244
0.796857 0.281712 0.151247
0.838712 0.28748 0.158373
0.845487 0.292149 0.163577
0.845487 0.292302 0.16585
0.845487 0.289494 0.16614
0.845487 0.28629 0.165988
0.845487 0.283635 0.165927
0.845487 0.281621 0.165942
0.845487 0.280079 0.165972
0.845487 0.27892 0.165988
0.845487 0.278325 0.166033
0.845487 0.278035 0.166094
0.227054 0.398886 0.201526
0.22533 0.396246 0.199985
0.224277 0.394659 0.199054
0.22359 0.393591 0.198428
0.222904 0.392538 0.197818
0.2224 0.391775 0.197375
0.222095 0.391287 0.197086
0.221607 0.390555 0.196674
0.221393 0.390005 0.196353
0.222766 0.389761 0.196567
0.228199 0.390631 0.198138
0.238788 0.392798 0.200824
0.262226 0.392096 0.187198
0.322774 0.38558 0.167941
0.388708 0.373388 0.158145
0.452842 0.367391 0.157
0.519249 0.373144 0.158389
0.58349 0.381811 0.160006
0.640009 0.381888 0.160769
0.692302 0.374548 0.161959
0.743008 0.366659 0.164736
0.79118 0.3626 0.169253
0.831861 0.36286 0.174563
0.845487 0.364584 0.179019
0.845487 0.364263 0.181292
0.845487 0.361654 0.18146
0.845487 0.358526 0.180865
0.845487 0.355856 0.180346
0.845487 0.353735 0.179919
0.845487 0.352102 0.179614
0.845487 0.350927 0.17937
0.845487 0.350362 0.179263
0.845487 0.350149 0.179232
0.273487 0.467018 0.241764
0.271748 0.464576 0.240299
0.270634 0.46302 0.239368
0.269963 0.462043 0.238773
0.269276 0.461082 0.238209
0.268772 0.46038 0.237797
0.26833 0.459754 0.237415
0.267796 0.459007 0.236973
0.267414 0.458457 0.236637
0.267292 0.457923 0.236378
0.269612 0.458228 0.236957
0.279316 0.460746 0.239887
0.28394 0.460395 0.23798
0.332738 0.462425 0.21471
0.401068 0.454566 0.195102
0.464469 0.440024 0.187121
0.521294 0.432471 0.186023
0.582879 0.441825 0.1879
0.641688 0.455619 0.189715
0.693843 0.459922 0.190219
0.741711 0.456641 0.190951
0.786358 0.451148 0.192844
0.824689 0.447135 0.195819
0.845228 0.445716 0.199069
0.845487 0.444724 0.201144
0.845487 0.442344 0.201297
0.845487 0.439246 0.200549
0.845487 0.436774 0.199908
0.845487 0.434897 0.199435
0.845487 0.433356 0.199023
0.845487 0.432288 0.198749
0.845487 0.431693 0.198596
0.845487 0.431418 0.19852
0.31899 0.529183 0.27921
0.317327 0.527062 0.277913
0.316274 0.525719 0.277104
0.315618 0.524865 0.276585
0.314977 0.524041 0.276081
0.314366 0.523262 0.275608
0.313878 0.522652 0.275242
0.313527 0.522179 0.274952
0.313191 0.521752 0.274678
0.312688 0.521096 0.274281
0.312886 0.520882 0.274205
0.315373 0.521202 0.274693
0.32723 0.525597 0.277989
0.342321 0.525017 0.266957
0.405966 0.527962 0.241276
0.481971 0.521599 0.22179
0.535256 0.503166 0.21706
0.582818 0.493263 0.215396
0.639139 0.506172 0.217762
0.693263 0.523751 0.21973
0.740536 0.532937 0.220005
0.782422 0.534035 0.220249
0.818051 0.531426 0.221424
0.84268 0.529152 0.223407
0.845487 0.527413 0.224887
0.845487 0.525139 0.224933
0.845487 0.522622 0.224262
0.845487 0.520531 0.223651
0.845487 0.518914 0.223163
0.845487 0.517662 0.222782
0.845487 0.516808 0.222522
0.845487 0.516304 0.22237
0.845487 0.51606 0.222309
0.363043 0.584558 0.313024
0.361425 0.582712 0.311879
0.360403 0.581537 0.311162
0.359625 0.580652 0.310613
0.358984 0.579919 0.31017
0.358343 0.579187 0.309697
0.357885 0.578653 0.309377
0.35758 0.578317 0.309163
0.357153 0.577813 0.308858
0.356741 0.57731 0.308553
0.356374 0.576867 0.308278
0.356191 0.576394 0.307973
0.364553 0.579751 0.309453
0.370748 0.581003 0.310185
0.410773 0.585199 0.288075
0.48513 0.589456 0.263066
0.558618 0.583383 0.252689
0.59884 0.56141 0.248188
0.637629 0.55108 0.244892
0.688151 0.564416 0.246891
0.737163 0.58378 0.249302
0.778851 0.597147 0.249607
0.812802 0.602914 0.249302
0.83827 0.603708 0.249928
0.845273 0.602792 0.25098
0.845487 0.601297 0.251194
0.845487 0.599588 0.250751
0.845487 0.597971 0.250172
0.845487 0.596658 0.249683
0.845487 0.595728 0.249348
0.845487 0.595087 0.249119
0.845487 0.59472 0.249012
0.845487 0.594537 0.248951
0.406363 0.633692 0.343481
0.404746 0.631922 0.342367
0.403723 0.630793 0.341665
0.402884 0.629892 0.3411
0.402121 0.629038 0.340581
0.401602 0.628473 0.340215
0.40116 0.627985 0.33991
0.400748 0.627527 0.339635
0.400259 0.626993 0.3393
0.399908 0.626612 0.339055
0.399512 0.626169 0.338796
0.399161 0.625711 0.338476
0.401068 0.626291 0.338476
0.412665 0.630503 0.341726
0.423941 0.63061 0.333364
0.473365 0.633738 0.307469
0.558984 0.639185 0.282521
0.623667 0.632532 0.282246
0.655543 0.612955 0.279438
0.689616 0.606134 0.275715
0.732189 0.617105 0.276356
0.773693 0.634119 0.277821
0.807965 0.647898 0.277943
0.83328 0.655283 0.277348
0.843839 0.657176 0.277501
0.845319 0.656596 0.277592
0.845472 0.655573 0.277226
0.845487 0.654612 0.276753
0.845487 0.653849 0.276356
0.845487 0.653208 0.276036
0.845487 0.652766 0.275807
0.845487 0.652583 0.2757
0.845487 0.652537 0.275669
0.450187 0.675196 0.371252
0.448539 0.67364 0.370214
0.447501 0.672663 0.369558
0.446662 0.67187 0.369024
0.44596 0.671214 0.368582
0.445365 0.670665 0.368215
0.44477 0.670115 0.367834
0.444419 0.669779 0.367605
0.443946 0.669322 0.367315
0.443595 0.669001 0.367086
0.443107 0.668559 0.366781
0.442649 0.668132 0.366476
0.442527 0.667872 0.366247
0.450004 0.670405 0.367742
0.454765 0.670512 0.368414
0.481651 0.671748 0.351308
0.546227 0.676982 0.320989
0.628367 0.681163 0.30454
0.679774 0.673228 0.311223
0.706355 0.657969 0.310185
0.73492 0.652827 0.305791
0.769543 0.660655 0.304952
0.803082 0.674601 0.305669
0.829267 0.686687 0.305623
0.842252 0.691859 0.305348
0.844877 0.69247 0.305348
0.845319 0.692073 0.30518
0.845365 0.69163 0.304829
0.845365 0.691188 0.304433
0.84538 0.690837 0.304128
0.84538 0.690623 0.303944
0.84538 0.690532 0.303868
0.84538 0.690532 0.303868
0.495109 0.709239 0.398184
0.493416 0.708019 0.397162
0.492317 0.70724 0.396521
0.491325 0.706523 0.395926
0.490654 0.706035 0.395529
0.489982 0.705562 0.395132
0.489448 0.705165 0.394797
0.489006 0.70486 0.394553
0.488533 0.704509 0.394263
0.488167 0.70425 0.394049
0.487633 0.703853 0.393729
0.487144 0.703517 0.393439
0.486671 0.703166 0.393149
0.487922 0.703441 0.39321
0.496925 0.705257 0.396307
0.509453 0.706127 0.390951
0.542855 0.707424 0.367514
0.619226 0.712673 0.334112
0.690288 0.715328 0.331746
0.727138 0.706569 0.340185
0.749035 0.694652 0.339376
0.772702 0.690166 0.334813
0.800061 0.695735 0.332906
0.82562 0.706462 0.333303
0.840757 0.71342 0.333577
0.844511 0.715282 0.333745
0.845212 0.715343 0.333776
0.845304 0.71516 0.333471
0.845319 0.714931 0.333135
0.845319 0.714748 0.332845
0.845319 0.714626 0.332662
0.845319 0.714565 0.332601
0.845319 0.714565 0.332601
0.54023 0.73698 0.42501
0.53843 0.735973 0.423926
0.537362 0.735393 0.423301
0.536294 0.734798 0.422675
0.535637 0.734432 0.422278
0.534981 0.734066 0.421881
0.534508 0.733806 0.421607
0.533928 0.733486 0.421256
0.533547 0.733257 0.421027
0.533104 0.733013 0.420768
0.532677 0.732754 0.420508
0.532235 0.732525 0.420264
0.531731 0.732219 0.419959
0.531197 0.731914 0.419638
0.539528 0.7337 0.422095
0.545037 0.734249 0.423728
0.558663 0.733883 0.412161
0.609384 0.737057 0.380056
0.684276 0.741314 0.352636
0.739193 0.742092 0.36083
0.767498 0.734874 0.370809
0.784924 0.724727 0.368658
0.802747 0.719676 0.362936
0.823453 0.723018 0.360647
0.839323 0.728603 0.360952
0.844236 0.731044 0.361486
0.845182 0.731395 0.361608
0.845335 0.73135 0.361456
0.84535 0.731228 0.361181
0.84535 0.73109 0.360922
0.84535 0.731014 0.3608
0.84535 0.730968 0.360708
0.84535 0.730953 0.360678
0.580667 0.7579 0.449531
0.579232 0.757244 0.448631
0.578347 0.756832 0.448081
0.577615 0.756497 0.447623
0.577111 0.756268 0.447318
0.576532 0.756008 0.446952
0.576165 0.755825 0.446723
0.575753 0.755627 0.446464
0.575433 0.755489 0.446265
0.575036 0.755306 0.446021
0.574731 0.755154 0.445838
0.574334 0.754971 0.445579
0.573907 0.754757 0.445319
0.573419 0.754528 0.445029
0.575753 0.754955 0.445579
0.582467 0.756069 0.448524
0.590249 0.756542 0.446921
0.605417 0.7561 0.428733
0.67219 0.760006 0.390387
0.737987 0.763668 0.377615
0.779263 0.763943 0.391363
0.80148 0.758144 0.401419
0.813489 0.748775 0.397345
0.825605 0.742657 0.389685
0.838712 0.743008 0.387121
0.844099 0.744656 0.387411
0.845212 0.745113 0.387732
0.845426 0.745205 0.387839
0.845441 0.745113 0.387686
0.845441 0.744991 0.387472
0.845441 0.74493 0.38735
0.845441 0.7449 0.387304
0.845441 0.744869 0.387243
0.610605 0.771466 0.468315
0.609842 0.77113 0.467842
0.609354 0.770932 0.467552
0.608988 0.770764 0.467308
0.608713 0.770657 0.46714
0.608362 0.770504 0.466941
0.608164 0.770397 0.466819
0.607935 0.770321 0.466682
0.607736 0.77023 0.466545
0.607538 0.770138 0.466438
0.60734 0.770062 0.466316
0.607065 0.76994 0.466133
0.606775 0.769818 0.465934
0.606439 0.769665 0.465721
0.606104 0.769528 0.465507
0.613001 0.770748 0.467552
0.619425 0.771786 0.470207
0.620569 0.770901 0.464912
0.664668 0.774639 0.436164
0.728405 0.777539 0.40206
0.779339 0.780224 0.402258
0.811414 0.780728 0.420859
0.827771 0.775906 0.430045
0.834974 0.766842 0.423026
0.840558 0.760235 0.413504
0.844175 0.758602 0.41062
0.84535 0.758923 0.411124
0.845487 0.759213 0.411673
0.845487 0.759213 0.411719
0.845487 0.759075 0.411505
0.845487 0.758999 0.411383
0.845487 0.758984 0.411368
0.845487 0.758953 0.411337
0.627619 0.77879 0.47863
0.627115 0.778576 0.47834
0.626795 0.778439 0.478172
0.626551 0.778317 0.478035
0.626322 0.778241 0.477897
0.626139 0.778149 0.477806
0.625971 0.778073 0.477699
0.625834 0.778012 0.477623
0.625696 0.777951 0.477546
0.625574 0.777905 0.477485
0.625422 0.777829 0.477394
0.625269 0.777768 0.477302
0.625101 0.777691 0.477195
0.624903 0.7776 0.477073
0.624674 0.777508 0.476936
0.627695 0.778012 0.477729
0.633219 0.778973 0.4804
0.639399 0.779843 0.481178
0.654826 0.781216 0.465476
0.713649 0.784573 0.428656
0.772259 0.787778 0.411597
0.811399 0.790616 0.425376
0.834287 0.790494 0.445609
0.841566 0.783856 0.446235
0.843183 0.774716 0.434134
0.844678 0.770169 0.427237
0.845457 0.769528 0.426352
0.845487 0.769696 0.426764
0.845487 0.769802 0.426978
0.845487 0.769726 0.426886
0.845487 0.76968 0.426825
0.845487 0.769665 0.42681
0.845487 0.76965 0.42678
0.636851 0.782895 0.483299
0.636469 0.782742 0.483101
0.63621 0.78262 0.482963
0.636011 0.782528 0.482872
0.635828 0.782452 0.48278
0.635706 0.782391 0.482719
0.635569 0.78233 0.482643
0.635462 0.782284 0.482597
0.63537 0.782238 0.482551
0.635264 0.782193 0.482506
0.635157 0.782147 0.482444
0.63505 0.782101 0.482399
0.634958 0.782055 0.482338
0.634867 0.78201 0.482292
0.634745 0.781964 0.482231
0.635126 0.781994 0.482307
0.64062 0.782956 0.484321
0.65066 0.784665 0.487205
0.646342 0.78349 0.480247
0.700572 0.787686 0.448646
0.763943 0.791409 0.420172
0.807263 0.794446 0.424903
0.83418 0.796078 0.448768
0.843214 0.792035 0.456794
0.844419 0.783566 0.446433
0.845045 0.777584 0.436881
0.845472 0.775753 0.433982
0.845487 0.775692 0.433967
0.845487 0.77586 0.434287
0.845487 0.775876 0.434333
0.845487 0.775845 0.434302
0.845487 0.775814 0.434287
0.845487 0.775814 0.434272
0.641047 0.784787 0.485145
0.640925 0.784741 0.4851
0.640833 0.784695 0.485054
0.640757 0.784665 0.485023
0.640696 0.784634 0.484993
0.64065 0.784619 0.484977
0.640604 0.784604 0.484947
0.640574 0.784588 0.484947
0.640543 0.784573 0.484932
0.640513 0.784558 0.484916
0.640467 0.784527 0.484901
0.640436 0.784527 0.484886
0.640406 0.784512 0.484871
0.640375 0.784497 0.484855
0.640345 0.784482 0.48484
0.640299 0.784466 0.484825
0.645487 0.785367 0.486442
0.654582 0.786969 0.489799
0.644556 0.785168 0.488563
0.69221 0.789456 0.461372
0.755276 0.793118 0.426734
0.801862 0.796094 0.424552
