luts/lucashu_filmlike/cu_film4.cube
TITLE "Generated by Resolve"
LUT_3D_SIZE 33
0.00563058 0.0062562 0.00723278
0.00575265 0.00642405 0.00741588
0.0059968 0.00674449 0.0077821
0.00628672 0.00706493 0.00814832
0.00665293 0.00746166 0.00862135
0.00796521 0.00852979 0.0099031
0.0114137 0.0110323 0.0129244
0.0182956 0.0157321 0.018677
0.028687 0.0205386 0.0255131
0.0442206 0.0252232 0.0340124
0.066804 0.0304112 0.0449073
0.0975967 0.0353399 0.0576638
0.135195 0.0390478 0.0707103
0.176486 0.0410773 0.0828565
0.220172 0.0416419 0.0942245
0.268086 0.0411231 0.105577
0.318929 0.0396277 0.116732
0.369024 0.0374456 0.127275
0.418921 0.0347448 0.137484
0.470283 0.0316167 0.147646
0.522393 0.0281987 0.157671
0.568536 0.0250553 0.166491
0.595209 0.023209 0.172122
0.603128 0.0226749 0.174731
0.603845 0.0226596 0.176028
0.604379 0.0226291 0.17705
0.604791 0.0226291 0.177844
0.605081 0.0226139 0.178408
0.605295 0.0225986 0.178805
0.605432 0.0225834 0.179065
0.605524 0.0225834 0.179248
0.60557 0.0225834 0.179339
0.6056 0.0225834 0.1794
0.0111696 0.0129854 0.0144808
0.0108339 0.0125734 0.014023
0.0107881 0.0125277 0.0139925
0.0109255 0.0126955 0.0141604
0.0110933 0.0128939 0.014374
0.0114137 0.0131838 0.0147097
0.014023 0.0148928 0.0167239
0.020325 0.0189975 0.0216373
0.0302739 0.0234531 0.0278477
0.0451362 0.0272679 0.0353704
0.067216 0.0314488 0.0452888
0.0975052 0.0356909 0.0574655
0.13492 0.0390936 0.0703899
0.175998 0.0410773 0.0825208
0.219562 0.0416419 0.0938277
0.267475 0.0411231 0.10518
0.318349 0.0396277 0.11635
0.36875 0.0374456 0.12694
0.418479 0.0347601 0.137087
0.46981 0.031632 0.14725
0.521843 0.0282292 0.157275
0.568139 0.0250706 0.16614
0.594903 0.0232395 0.171801
0.602975 0.0226902 0.174441
0.603693 0.0226596 0.175753
0.604242 0.0226291 0.176791
0.604654 0.0226291 0.177569
0.604944 0.0226139 0.178149
0.605158 0.0226139 0.178561
0.60528 0.0225986 0.17882
0.605386 0.0225986 0.178988
0.605432 0.0225834 0.179095
0.605463 0.0225834 0.179156
0.0173953 0.0208133 0.0226139
0.0170138 0.0203098 0.0220798
0.0165713 0.0197147 0.0214847
0.016556 0.0196841 0.0214389
0.0167086 0.0198672 0.021622
0.0169528 0.0201267 0.0218814
0.0183261 0.0211032 0.0229343
0.0243229 0.0246738 0.0270085
0.0339971 0.0291905 0.0326696
0.0487526 0.0328985 0.0394141
0.0709392 0.0360113 0.0477913
0.100084 0.0381018 0.0581369
0.135851 0.0397192 0.0700694
0.176013 0.0411231 0.0821088
0.219471 0.0416266 0.0935531
0.267262 0.0411231 0.104875
0.318166 0.0396277 0.11603
0.368612 0.0374304 0.126604
0.418219 0.0347753 0.136736
0.469627 0.0316472 0.146914
0.521798 0.0282292 0.15697
0.567956 0.0250706 0.165835
0.594827 0.0232242 0.171511
0.602808 0.0226902 0.174136
0.60354 0.0226749 0.175463
0.604105 0.0226444 0.176516
0.604501 0.0226291 0.17731
0.604807 0.0226291 0.177874
0.60502 0.0226139 0.178271
0.605158 0.0226139 0.178546
0.605234 0.0225986 0.178714
0.605295 0.0225986 0.17882
0.605325 0.0225986 0.178882
0.0229343 0.0295109 0.0305638
0.0227207 0.0291447 0.0301976
0.0222934 0.0284276 0.0295109
0.0218967 0.0278325 0.0289616
0.0219577 0.0278782 0.0290074
0.0221103 0.0281071 0.0292058
0.022797 0.028687 0.0297551
0.0280919 0.031632 0.0328374
0.0374304 0.0358892 0.0374914
0.0519722 0.0391241 0.0431373
0.075349 0.041825 0.0506294
0.105913 0.0427558 0.0592813
0.141054 0.0421759 0.0694743
0.178637 0.0416419 0.0812695
0.219699 0.0416114 0.0931716
0.267155 0.0411078 0.104555
0.317937 0.0396277 0.115679
0.36849 0.0374304 0.126253
0.418128 0.0347601 0.136385
0.469764 0.031632 0.146593
0.521767 0.0282292 0.156634
0.567864 0.0250858 0.165484
0.594614 0.0232395 0.171176
0.602625 0.0226902 0.173831
0.603372 0.0226749 0.175158
0.603937 0.0226596 0.176196
0.604364 0.0226291 0.177005
0.604654 0.0226291 0.177584
0.604852 0.0226139 0.177981
0.60499 0.0226139 0.178241
0.605081 0.0226139 0.178408
0.605142 0.0226139 0.178531
0.605173 0.0225986 0.178592
0.0282139 0.0386358 0.0381018
0.0280308 0.0383154 0.0378271
0.0277256 0.0377203 0.0373236
0.0273747 0.0370336 0.0367437
0.0271916 0.0366674 0.0364233
0.0273136 0.0369268 0.0366217
0.0278782 0.0375525 0.0371405
0.0320439 0.0397803 0.0392767
0.0409705 0.0439765 0.0432593
0.0542763 0.0459754 0.0463264
0.0764172 0.0468452 0.0507668
0.109117 0.0475166 0.0587167
0.148547 0.0463722 0.0690929
0.188296 0.0435798 0.0799878
0.225849 0.0417334 0.0916304
0.267399 0.0410925 0.104036
0.318105 0.0396124 0.115343
0.36849 0.0374304 0.125872
0.418158 0.0347601 0.136004
0.469795 0.0316167 0.146212
0.521691 0.0282139 0.156222
0.567895 0.0250706 0.165118
0.594476 0.0232395 0.170809
0.602411 0.0227054 0.173449
0.603174 0.0226749 0.174807
0.603754 0.0226596 0.17586
0.604166 0.0226291 0.176654
0.604471 0.0226291 0.177249
0.604685 0.0226291 0.177661
0.604822 0.0226139 0.17792
0.604913 0.0226139 0.178073
0.604974 0.0226139 0.178195
0.60499 0.0226139 0.178256
0.0328832 0.048188 0.04477
0.0327916 0.0479286 0.0445869
0.032578 0.0475013 0.0442512
0.0322576 0.0467689 0.0437171
0.0320439 0.0463111 0.0433509
0.0320897 0.0463722 0.0433661
0.0325933 0.0469673 0.0437781
0.0362402 0.0490272 0.0455177
0.0456092 0.0534829 0.0491035
0.0603037 0.0576181 0.0523079
0.0814527 0.0567636 0.0529641
0.111406 0.0537728 0.0560159
0.151568 0.0515908 0.0645609
0.198688 0.0488899 0.0769207
0.242878 0.0444495 0.0893263
0.280262 0.0408331 0.10103
0.32192 0.0394903 0.114122
0.368826 0.0373846 0.125307
0.418173 0.0347448 0.135485
0.469535 0.031632 0.145647
0.52163 0.0282139 0.155718
0.567773 0.0250706 0.164614
0.594186 0.0232547 0.170291
0.602136 0.0227207 0.172961
0.602914 0.0226902 0.174334
0.60351 0.0226749 0.175402
0.603937 0.0226596 0.176211
0.604242 0.0226291 0.176806
0.604456 0.0226291 0.177203
0.604593 0.0226291 0.177478
0.604685 0.0226291 0.177646
0.60473 0.0226291 0.177752
0.604761 0.0226139 0.177798
0.0364385 0.0603647 0.0518044
0.0363622 0.0601358 0.051667
0.0362554 0.0597848 0.0514382
0.0360723 0.0590677 0.0509041
0.0358282 0.0583047 0.0503395
0.0357671 0.0580453 0.0501106
0.0361334 0.0585641 0.0503395
0.0394293 0.0604715 0.0514839
0.0488594 0.0648203 0.0543374
0.0649577 0.0699016 0.0572824
0.0890364 0.0715953 0.057908
0.119249 0.0664378 0.0563363
0.15378 0.0582284 0.0574655
0.198749 0.0523384 0.0654459
0.252995 0.0491798 0.078706
0.304112 0.0455329 0.0940871
0.347509 0.0407416 0.109194
0.383566 0.0367132 0.122469
0.420661 0.0346685 0.134264
0.470222 0.0315709 0.144701
0.521538 0.0281987 0.15491
0.567422 0.0250858 0.163851
0.593805 0.0232547 0.169558
0.601724 0.0227359 0.172259
0.602518 0.0227054 0.173648
0.603143 0.0226902 0.174746
0.603601 0.0226749 0.175555
0.603922 0.0226596 0.176165
0.60412 0.0226444 0.176562
0.604257 0.0226444 0.176822
0.604349 0.0226291 0.177005
0.60441 0.0226291 0.177127
0.60444 0.0226291 0.177172
0.0396887 0.0752117 0.0586862
0.0396277 0.0749218 0.0585641
0.0395819 0.0746929 0.0584268
0.0394903 0.0742199 0.0581216
0.0393683 0.0732891 0.0574197
0.0392615 0.0725109 0.0567636
0.0394446 0.072694 0.0567178
0.041886 0.0743877 0.0573281
0.0511635 0.0784924 0.0592203
0.0682231 0.0840772 0.0613718
0.0946975 0.0887922 0.0622263
0.130434 0.0861372 0.0597391
0.168917 0.0760052 0.0565194
0.209873 0.063859 0.0569924
0.257313 0.0543679 0.0631418
0.309926 0.0484169 0.0740673
0.365286 0.0440528 0.0897841
0.419898 0.0392157 0.108034
0.46389 0.0340429 0.125505
0.493599 0.0304112 0.139666
0.528115 0.0279698 0.152331
0.569223 0.0250401 0.162173
0.5944 0.023209 0.168246
0.601404 0.0227359 0.171176
0.601953 0.0227207 0.172671
0.602594 0.0227054 0.173785
0.603067 0.0226902 0.174624
0.603418 0.0226749 0.175235
0.603647 0.0226596 0.175647
0.603784 0.0226596 0.175921
0.603876 0.0226596 0.176104
0.603937 0.0226596 0.176211
0.603952 0.0226444 0.176257
0.0410773 0.093843 0.0652171
0.0410773 0.0935225 0.0651102
0.041062 0.0933242 0.0650492
0.0410468 0.0930495 0.0649271
0.0410163 0.0924697 0.0644999
0.0409552 0.0915847 0.0636149
0.041001 0.0909895 0.0628519
0.0423896 0.0921187 0.0627909
0.0511635 0.0957198 0.0635691
0.0693065 0.101427 0.0646067
0.0977188 0.107744 0.0645609
0.138567 0.109728 0.0619669
0.185901 0.102419 0.0575265
0.232609 0.0881056 0.0534066
0.278843 0.072343 0.0519722
0.326406 0.058854 0.0554055
0.375448 0.0495308 0.0635996
0.432044 0.0420539 0.0768749
0.491905 0.0362554 0.0947738
0.539605 0.032105 0.113878
0.583413 0.0283665 0.133425
0.614221 0.0238956 0.149859
0.618051 0.0221256 0.161242
0.609415 0.0224918 0.167178
0.60528 0.0229038 0.169879
0.605936 0.0228885 0.171389
0.606317 0.0228122 0.172503
0.606516 0.0227054 0.173251
0.606516 0.0225986 0.173739
0.606439 0.0225681 0.17406
0.606378 0.0225528 0.174273
0.606363 0.0225376 0.174395
0.606363 0.0225376 0.174472
0.0400854 0.117769 0.0703899
0.0401007 0.117464 0.0703593
0.040116 0.11725 0.0703136
0.0401465 0.116838 0.0702525
0.040177 0.11664 0.0701305
0.0401923 0.116014 0.0695659
0.0402533 0.115053 0.0684367
0.0408789 0.115267 0.0675212
0.0471046 0.118029 0.0672007
0.066392 0.123705 0.0668193
0.0966201 0.130587 0.065095
0.140703 0.136156 0.0615396
0.195605 0.134539 0.0564431
0.253132 0.123507 0.0508736
0.308736 0.106325 0.0458991
0.360922 0.0882277 0.0423438
0.40824 0.0720531 0.0419776
0.456901 0.0579995 0.0466163
0.51371 0.0465858 0.0563211
0.569314 0.0374762 0.0694285
0.621485 0.0306859 0.0866102
0.660014 0.0254978 0.105592
0.672465 0.0237888 0.122805
0.669978 0.0244755 0.135683
0.667674 0.0253605 0.144915
0.667826 0.0253605 0.151476
0.666362 0.0244755 0.156024
0.663935 0.0228733 0.158511
0.660563 0.0214847 0.159884
0.657267 0.021088 0.161013
0.655146 0.0209506 0.161715
0.653788 0.0208591 0.162158
0.653193 0.0208133 0.162371
0.0357824 0.149142 0.0736706
0.035874 0.148623 0.07364
0.0359045 0.148394 0.0736248
0.0359655 0.14815 0.0736248
0.0360113 0.147875 0.0735943
0.0360571 0.147539 0.0734722
0.0361639 0.146868 0.072755
0.0364233 0.146502 0.0713359
0.0395819 0.148013 0.06981
0.0571298 0.152819 0.0677958
0.0894636 0.159976 0.0640879
0.13611 0.167376 0.0587625
0.195575 0.171344 0.0529946
0.261173 0.167163 0.0470283
0.327062 0.154223 0.0408789
0.391882 0.136294 0.0351415
0.450446 0.117311 0.0304265
0.500999 0.0991531 0.0273594
0.551797 0.0817578 0.0266575
0.602792 0.0655222 0.0294957
0.653101 0.0524605 0.0375525
0.698619 0.0428626 0.0489204
0.724895 0.0369726 0.060853
0.731136 0.034226 0.0723125
0.729183 0.0327459 0.0828565
0.726864 0.0312352 0.0914321
0.723705 0.0291752 0.0981155
0.720211 0.0269932 0.102098
0.716594 0.0254673 0.10486
0.713497 0.0250858 0.107042
0.711498 0.0250095 0.108263
0.71014 0.0249943 0.109117
0.709499 0.024979 0.109606
0.0278019 0.188006 0.0745098
0.0279545 0.187411 0.0745251
0.0280156 0.187137 0.0745251
0.0281071 0.186725 0.0745403
0.0281682 0.186481 0.0745403
0.0282139 0.186328 0.0745403
0.0282902 0.185977 0.0744335
0.028397 0.185611 0.0733959
0.0295872 0.185931 0.0711376
0.040528 0.18967 0.0675059
0.073518 0.19678 0.0618296
0.123583 0.205066 0.0545205
0.18645 0.212512 0.0480812
0.256321 0.21529 0.0429847
0.327306 0.209705 0.0379644
0.399268 0.196582 0.0321965
0.46949 0.179324 0.0262455
0.530465 0.161669 0.0211185
0.58764 0.143633 0.0168612
0.643488 0.12488 0.0134737
0.694331 0.106966 0.0122988
0.735424 0.0915389 0.0130617
0.757671 0.0803235 0.0152895
0.760967 0.0732586 0.0188144
0.757275 0.0683452 0.022858
0.754864 0.0644846 0.0265507
0.753292 0.0616159 0.0297704
0.752331 0.0598459 0.0324559
0.752117 0.0589151 0.0346532
0.752392 0.0585489 0.0362249
0.752728 0.058381 0.037232
0.752956 0.0581826 0.0379187
0.753155 0.0582437 0.0381781
0.0175479 0.231937 0.0729534
0.0176852 0.231327 0.0729839
0.0178225 0.230716 0.0730144
0.0178836 0.230457 0.0730297
0.0179446 0.230198 0.0730449
0.0180056 0.229908 0.0730602
0.0180667 0.229618 0.0730755
0.0181277 0.229435 0.0728923
0.018143 0.229511 0.0712444
0.0215305 0.231495 0.0669108
0.047776 0.237919 0.0598917
0.100893 0.246494 0.0509804
0.16939 0.255283 0.0436408
0.243 0.262211 0.0400244
0.315999 0.264637 0.0382544
0.388663 0.259907 0.0351415
0.462791 0.248112 0.0299229
0.530526 0.232822 0.0243381
0.590677 0.216709 0.0195773
0.65005 0.199817 0.0149996
0.707393 0.182834 0.0106203
0.754894 0.167697 0.00698863
0.782162 0.15671 0.00538643
0.7897 0.149584 0.00564584
0.789883 0.144396 0.00657664
0.790356 0.139879 0.00737011
0.790616 0.136431 0.00805676
0.790494 0.133989 0.00874342
0.790311 0.132403 0.00924697
0.790249 0.131365 0.00952163
0.790265 0.130785 0.00968948
0.79028 0.130419 0.00979629
0.79028 0.130388 0.00984207
0.00787366 0.277256 0.070985
0.00794995 0.276844 0.070985
0.00801099 0.276417 0.070985
0.00807202 0.276005 0.070985
0.00810254 0.275761 0.070985
0.00814832 0.275517 0.070985
0.00817884 0.27538 0.070985
0.00822461 0.275074 0.0710002
0.00830091 0.274662 0.070634
0.00881971 0.275074 0.0676738
0.0192874 0.279591 0.0605478
0.0697948 0.287922 0.0506752
0.143984 0.297444 0.0423133
0.223423 0.30631 0.0389563
0.300618 0.312871 0.0388952
0.373297 0.315694 0.0386358
0.446708 0.313054 0.0364843
0.519295 0.302907 0.0317388
0.581613 0.289464 0.0270848
0.641825 0.274937 0.0222171
0.700572 0.259998 0.0177768
0.752483 0.245945 0.0136416
0.78497 0.235676 0.0109255
0.794491 0.230045 0.0099031
0.794446 0.226596 0.00959792
0.7944 0.223606 0.00933852
0.794354 0.221546 0.00915541
0.794324 0.22002 0.00901808
0.794308 0.219043 0.00892653
0.794293 0.218433 0.00888075
0.794278 0.218143 0.00885023
0.794278 0.21799 0.00883497
0.794278 0.218021 0.00885023
0.00166323 0.321523 0.0713664
0.00167849 0.321126 0.0713207
0.00169375 0.320729 0.0712902
0.00170901 0.320363 0.0712444
0.00172427 0.320134 0.0712139
0.00172427 0.319921 0.0711986
0.00173953 0.319799 0.0711986
0.00177005 0.319509 0.0711681
0.00177005 0.319188 0.0711376
0.00177005 0.319219 0.070222
0.00631724 0.321477 0.0644236
0.0390478 0.328801 0.0545815
0.110643 0.338567 0.0445258
0.197864 0.348684 0.0394141
0.281392 0.357473 0.0387884
0.358251 0.36318 0.0390021
0.431159 0.366293 0.0390936
0.503853 0.36527 0.0378729
0.569986 0.356191 0.0338445
0.630625 0.344121 0.0292821
0.689479 0.330861 0.0250095
0.743633 0.318029 0.0209659
0.781384 0.308141 0.0179141
0.793393 0.302922 0.0167239
0.793698 0.300359 0.0164645
0.793805 0.29836 0.0162814
0.793912 0.296651 0.0161135
0.793973 0.295506 0.0160067
0.794018 0.294804 0.0159304
0.794034 0.294392 0.0158846
0.794049 0.293919 0.0158389
0.794034 0.293828 0.0158389
0.794034 0.293889 0.0158389
0 0.363287 0.0760967
0 0.362722 0.0760052
0 0.362341 0.0759594
0 0.36199 0.0759289
0 0.361776 0.0758984
0 0.361547 0.0758831
0 0.361318 0.0758526
0 0.361181 0.0758373
0 0.360906 0.0757916
0 0.360662 0.0757
0.000244144 0.361257 0.0737774
0.0121462 0.366918 0.0642863
0.0721294 0.377188 0.051667
0.163439 0.38941 0.0422675
0.256306 0.401053 0.0388037
0.33991 0.409491 0.0388495
0.41532 0.414252 0.0390478
0.489708 0.417334 0.0391699
0.558175 0.416632 0.038468
0.617975 0.409644 0.0356603
0.677089 0.398901 0.0317082
0.732372 0.387457 0.0276951
0.77261 0.378241 0.0246891
0.787015 0.373327 0.0234684
0.788342 0.371038 0.0231937
0.788479 0.369421 0.0230411
0.788602 0.368048 0.0229038
0.788678 0.367132 0.0228122
0.788724 0.366583 0.0227665
0.788739 0.366232 0.0227359
0.788754 0.36611 0.0227207
0.788769 0.366064 0.0227207
0.788754 0.366125 0.0227359
0 0.405035 0.0833448
0 0.404501 0.0832532
0 0.40412 0.0831922
0 0.403891 0.0831464
0 0.403677 0.0831006
0 0.403464 0.0830701
0 0.403037 0.0829938
0 0.402823 0.082948
0 0.402655 0.0829175
0 0.402319 0.0828565
0 0.402213 0.0822003
0.0040589 0.40444 0.0772564
0.0355383 0.413855 0.0647898
0.117937 0.427375 0.0498817
0.222797 0.440925 0.0408026
0.314595 0.451987 0.0387579
0.395712 0.458915 0.0389258
0.473259 0.463676 0.0391241
0.546197 0.466484 0.0392309
0.607141 0.465782 0.038819
0.66389 0.461494 0.0371862
0.718822 0.453437 0.0339513
0.76054 0.445914 0.0310216
0.778897 0.441291 0.0296025
0.782467 0.438727 0.029221
0.782559 0.437354 0.0291142
0.782635 0.436362 0.0290532
0.782681 0.43563 0.0290074
0.782712 0.435187 0.0289769
0.782727 0.434836 0.0289464
0.782742 0.434714 0.0289464
0.782742 0.434699 0.0289311
0.782727 0.434669 0.0289311
0 0.447471 0.0916609
0 0.446937 0.0915541
0 0.44654 0.0914778
0 0.446189 0.0913863
0 0.44596 0.0913558
0 0.445731 0.09131
0 0.445502 0.0912642
0 0.445289 0.0912184
0 0.445121 0.0911727
0 0.4448 0.0911116
0 0.444572 0.090959
0.000701915 0.445426 0.0888685
0.0147555 0.451713 0.0797131
0.0770123 0.464652 0.0645304
0.178927 0.479973 0.0490272
0.282826 0.493462 0.0400092
0.372274 0.502861 0.0387579
0.452796 0.50869 0.0389868
0.530373 0.512947 0.0392004
0.597055 0.514626 0.0393378
0.653498 0.513909 0.0391699
0.705653 0.511193 0.0382696
0.747005 0.507073 0.0368353
0.769238 0.503578 0.0356756
0.775219 0.501503 0.0351873
0.775357 0.500313 0.0350958
0.775448 0.499474 0.0350347
0.775494 0.498939 0.0349737
0.77554 0.498589 0.0349432
0.77557 0.498161 0.0349126
0.775601 0.497993 0.0348974
0.775601 0.497993 0.0348974
0.775586 0.498054 0.0348974
1.5259e-05 0.487846 0.100694
1.5259e-05 0.487358 0.100572
1.5259e-05 0.486976 0.100496
1.5259e-05 0.486763 0.100435
1.5259e-05 0.486427 0.100359
0 0.486229 0.100313
1.5259e-05 0.48603 0.100267
1.5259e-05 0.485939 0.100237
0 0.485664 0.100175
1.5259e-05 0.48539 0.100114
0 0.485161 0.100069
1.5259e-05 0.485115 0.0995193
0.004654 0.488319 0.0952468
0.0381781 0.500511 0.0826276
0.12578 0.517952 0.0645457
0.243183 0.534203 0.0482948
0.343755 0.546471 0.0396429
0.429191 0.553613 0.0388342
0.510567 0.559045 0.0390478
0.584009 0.562142 0.0392462
0.643824 0.562707 0.0394293
0.695659 0.562234 0.0394751
0.737499 0.560952 0.0392157
0.763195 0.559518 0.0388952
0.771221 0.558404 0.0387579
0.771344 0.557595 0.0387274
0.771359 0.556893 0.0387121
0.771389 0.556466 0.0386969
0.771405 0.556207 0.0386816
0.771405 0.555978 0.0386664
0.77142 0.555947 0.0386664
0.77142 0.555962 0.0386511
0.77142 0.555917 0.0386511
4.57771e-05 0.526329 0.110369
4.57771e-05 0.525979 0.110277
4.57771e-05 0.525505 0.110155
4.57771e-05 0.525292 0.110094
4.57771e-05 0.524987 0.110018
4.57771e-05 0.524651 0.109926
4.57771e-05 0.524468 0.10988
4.57771e-05 0.524361 0.10985
4.57771e-05 0.524132 0.109789
4.57771e-05 0.523873 0.109728
4.57771e-05 0.523629 0.109667
4.57771e-05 0.523247 0.109575
0.000839246 0.524636 0.107942
0.015198 0.533776 0.0995041
0.0785229 0.551049 0.0839551
0.191943 0.570779 0.0647898
0.308049 0.586984 0.0478828
0.402426 0.597498 0.0399023
0.487221 0.604181 0.0389868
0.566583 0.608728 0.0391089
0.632288 0.610422 0.039292
0.685847 0.61062 0.0394598
0.72961 0.610376 0.0395819
0.759152 0.610132 0.0396582
0.770275 0.609491 0.039704
0.771298 0.608759 0.039704
0.771282 0.60827 0.039704
0.771267 0.607935 0.039704
0.771267 0.607614 0.039704
0.771282 0.607523 0.0396887
0.771282 0.607507 0.0396887
0.771282 0.607431 0.0396887
0.771282 0.607385 0.0396887
7.62951e-05 0.563958 0.120378
7.62951e-05 0.563577 0.120272
7.62951e-05 0.563134 0.12015
7.62951e-05 0.562936 0.120104
7.62951e-05 0.562615 0.120012
7.62951e-05 0.562417 0.119966
7.62951e-05 0.562219 0.119905
7.62951e-05 0.562036 0.11986
7.62951e-05 0.561913 0.119829
7.62951e-05 0.561639 0.119768
7.62951e-05 0.561349 0.119677
7.62951e-05 0.560937 0.11957
7.62951e-05 0.561181 0.118929
0.00531014 0.565789 0.114855
0.0415198 0.580591 0.103517
0.135561 0.602304 0.0858167
0.263432 0.622263 0.0658427
0.370809 0.636622 0.0487068
0.460151 0.645243 0.0408179
0.544839 0.651576 0.039292
0.617517 0.655161 0.0392004
0.673915 0.65626 0.0393225
0.719478 0.656672 0.0394598
0.752605 0.656748 0.0395514
0.768658 0.656458 0.0395972
0.772274 0.656016 0.0396124
0.772274 0.655634 0.0396124
0.772274 0.655268 0.0396124
0.772274 0.654826 0.0396124
0.772274 0.654765 0.0396124
0.772274 0.654765 0.0396124
0.772274 0.654688 0.0396124
0.77229 0.654658 0.0396124
0.000106813 0.600732 0.130159
0.000106813 0.600275 0.130037
0.000106813 0.59997 0.129946
0.000106813 0.599771 0.1299
0.000106813 0.599481 0.129824
0.000106813 0.599298 0.129778
0.000106813 0.599084 0.129732
0.000106813 0.598901 0.129686
0.000106813 0.598718 0.129625
0.000106813 0.59855 0.12958
0.000106813 0.59826 0.129503
0.000106813 0.597986 0.129442
0.000106813 0.597559 0.12932
0.0011902 0.5991 0.127886
0.016846 0.609293 0.120546
0.0834821 0.629557 0.106538
0.208438 0.65243 0.0882124
0.334051 0.670192 0.0679942
0.430549 0.681117 0.0510567
0.51931 0.689036 0.0422675
0.598688 0.694469 0.039765
0.659403 0.696727 0.0393225
0.706676 0.697704 0.039353
0.742611 0.698222 0.0394446
0.764614 0.698329 0.0395056
0.771832 0.698116 0.0395209
0.77203 0.697795 0.0395209
0.772045 0.697475 0.0395209
0.772045 0.697261 0.0395209
0.772045 0.6972 0.0395209
0.772045 0.6972 0.0395361
0.772045 0.697154 0.0395209
0.772045 0.697124 0.0395209
0.000137331 0.63418 0.138582
0.000122072 0.633814 0.138506
0.000137331 0.633539 0.138445
0.000137331 0.633295 0.138384
0.000122072 0.633021 0.138323
0.000137331 0.632868 0.138277
0.000137331 0.632639 0.138231
0.000137331 0.632563 0.138216
0.000122072 0.63238 0.13817
0.000137331 0.632166 0.138109
0.000137331 0.631922 0.138064
0.000122072 0.631662 0.138003
0.000137331 0.631296 0.137911
0.000122072 0.631647 0.137362
0.00584421 0.636896 0.133776
0.0448157 0.653483 0.12369
0.151324 0.678203 0.108125
0.293736 0.699001 0.0908675
0.400946 0.712551 0.0712596
0.492805 0.721309 0.0535134
0.577096 0.72784 0.0440528
0.643793 0.73106 0.0404669
0.692988 0.732372 0.0394598
0.731106 0.733074 0.039353
0.757824 0.73344 0.0394141
0.769253 0.733394 0.0394446
0.770809 0.733135 0.0394446
0.770809 0.73286 0.0394446
0.770809 0.732662 0.0394446
0.770825 0.732601 0.0394446
0.770825 0.732586 0.0394598
0.770825 0.73254 0.0394598
0.770825 0.732525 0.0394446
0.00015259 0.660365 0.144579
0.00015259 0.660151 0.144518
0.00015259 0.659937 0.144472
0.00015259 0.659846 0.144457
0.00015259 0.659693 0.144411
0.00015259 0.659602 0.144411
0.00015259 0.659525 0.144396
0.00015259 0.659419 0.144366
0.00015259 0.659297 0.144335
0.00015259 0.659098 0.144305
0.00015259 0.658976 0.144274
0.00015259 0.658793 0.144228
0.00015259 0.658579 0.144183
0.00015259 0.658289 0.144106
0.00210575 0.660594 0.142779
0.0238804 0.673899 0.135912
0.109331 0.698253 0.122927
0.253101 0.721904 0.107851
0.373877 0.738338 0.0915236
0.468757 0.747799 0.0737316
0.556435 0.755077 0.0560922
0.628641 0.759457 0.0451514
0.680247 0.761181 0.0404974
0.71957 0.761959 0.0393683
0.748516 0.762432 0.0393378
0.764858 0.762539 0.0393683
0.769635 0.762387 0.0393835
0.769665 0.762081 0.0393835
0.769665 0.761898 0.0393835
0.76968 0.761791 0.0393835
0.76968 0.761761 0.0393835
0.76968 0.761761 0.0393835
0.76968 0.761746 0.0393835
0.000167849 0.674861 0.147616
0.000167849 0.674861 0.147616
0.000167849 0.674861 0.147616
0.000167849 0.674861 0.147616
0.000167849 0.674861 0.147616
0.000167849 0.674861 0.147616
0.000167849 0.674861 0.147616
0.000167849 0.674861 0.147616
0.000167849 0.674861 0.147616
0.000167849 0.674861 0.147616
0.000167849 0.674861 0.147616
0.000167849 0.674861 0.147616
0.000167849 0.674861 0.147616
0.000167849 0.674861 0.147616
0.000244144 0.67657 0.146914
0.0116121 0.686595 0.142687
0.0772564 0.708614 0.132631
0.213367 0.735027 0.118517
0.349004 0.754101 0.103883
0.448356 0.764767 0.0889601
0.539025 0.772824 0.0711223
0.615015 0.778134 0.053193
0.66923 0.780438 0.0429084
0.709529 0.781506 0.0396429
0.740124 0.782162 0.0392615
0.760586 0.782544 0.0393225
0.768429 0.782559 0.039353
0.768872 0.782406 0.039353
0.768856 0.782269 0.039353
0.768872 0.782193 0.039353
0.768872 0.782147 0.039353
0.768872 0.782116 0.039353
0.768872 0.782101 0.039353
0.000167849 0.674861 0.147616
0.000167849 0.674861 0.147616
0.000167849 0.674861 0.147616
0.000167849 0.674861 0.147616
0.000167849 0.674861 0.147616
0.000167849 0.674861 0.147616
0.000167849 0.674861 0.147616
0.000167849 0.674861 0.147616
0.000167849 0.674861 0.147616
0.000167849 0.674861 0.147616
0.000167849 0.674861 0.147616
0.000167849 0.674861 0.147616
0.000167849 0.674861 0.147616
0.000167849 0.674861 0.147616
0.000183108 0.675639 0.14728
0.0078584 0.681941 0.144549
0.056672 0.701595 0.135744
0.179919 0.730465 0.12134
0.328267 0.751598 0.10663
0.432975 0.764065 0.0918135
0.525841 0.773159 0.0747234
0.604471 0.779553 0.0567178
0.660838 0.782727 0.0446326
0.701762 0.784344 0.0400092
0.733104 0.785428 0.0392309
0.755596 0.786191 0.039292
0.766522 0.786557 0.0393225
