luts/lucashu_filmlike/cu_film3.cube
TITLE "Generated by Resolve"
LUT_3D_SIZE 33
0.00161746 0.000732433 0.000762951
0.00210575 0.000869764 0.000946059
0.00262455 0.0010071 0.00114443
0.00337224 0.00115969 0.00135805
0.0043183 0.00131228 0.0016022
0.00881971 0.0015259 0.00192264
0.0196384 0.00183108 0.00251774
0.0383154 0.00225834 0.00357061
0.0654459 0.00283818 0.00553903
0.104082 0.00360113 0.0100862
0.153735 0.00505074 0.0187839
0.21239 0.00700389 0.0272374
0.278309 0.00891127 0.0335699
0.349233 0.00936904 0.0367132
0.423713 0.00695811 0.035874
0.493919 0.00262455 0.0288701
0.548867 0.000183108 0.0204471
0.586618 0 0.0148928
0.615717 0 0.0163424
0.641184 0 0.0234531
0.660685 0 0.0289006
0.678111 0 0.0366369
0.697719 0 0.0518807
0.718532 0 0.0750286
0.733852 0 0.100999
0.737224 0 0.122026
0.739528 0 0.138491
0.740856 0 0.15053
0.74168 0 0.159609
0.74229 0 0.166705
0.742763 0 0.17203
0.743084 0 0.175891
0.743282 0 0.178042
0.0021973 0.00103761 0.00106813
0.00213626 0.00105287 0.0010071
0.0031281 0.00123598 0.00115969
0.0077821 0.00187686 0.00143435
0.01355 0.00271611 0.00224308
0.0189517 0.00340276 0.00341802
0.027512 0.0039826 0.00462348
0.0426947 0.00471504 0.0056611
0.0640879 0.0056611 0.00675975
0.097322 0.00622568 0.00901808
0.144549 0.0068513 0.0158846
0.202884 0.00781262 0.0239719
0.269154 0.00915541 0.0305791
0.33991 0.00970474 0.0341802
0.414984 0.0074464 0.0341802
0.485405 0.00309758 0.0274205
0.542107 0.000411994 0.0190433
0.582116 0 0.012604
0.611566 0 0.012314
0.637675 0 0.0190433
0.657496 0 0.0251011
0.675105 0 0.0318456
0.694194 0 0.0444495
0.715251 0 0.0655375
0.732418 0 0.0920577
0.735973 0 0.113756
0.738613 0 0.131548
0.740276 0 0.144884
0.741238 0 0.154681
0.741878 0 0.161975
0.742351 0 0.167422
0.742718 0 0.171527
0.742916 0 0.173831
0.00277714 0.00161746 0.00140383
0.00285344 0.00158694 0.00138857
0.00297551 0.00157168 0.00132753
0.00909438 0.00231937 0.0015259
0.0178378 0.00350958 0.00227359
0.0277256 0.00488289 0.00375372
0.0396582 0.00627146 0.00608835
0.0551614 0.00776684 0.00883497
0.0738537 0.00953689 0.0106355
0.0970932 0.0115663 0.0115206
0.132952 0.0133059 0.0145113
0.184268 0.0144045 0.0183871
0.25156 0.0138857 0.02327
0.329976 0.0113527 0.0287938
0.409476 0.00772107 0.0320592
0.480262 0.0033875 0.0261234
0.538094 0.000549325 0.0179446
0.5794 0 0.0112306
0.609079 0 0.00982681
0.635447 0 0.0155947
0.655497 0 0.0221561
0.673289 0 0.0285801
0.692027 0 0.039292
0.713191 0 0.0585641
0.731289 0 0.0852216
0.734966 0 0.107362
0.737819 0 0.125978
0.739757 0 0.140276
0.740902 0 0.150759
0.741543 0 0.158221
0.742031 0 0.16376
0.742397 0 0.167956
0.742611 0 0.170321
0.00300603 0.00537118 0.00204471
0.00328069 0.00529488 0.00207523
0.00602731 0.00614939 0.0027924
0.00856031 0.00694286 0.00314336
0.014313 0.00822461 0.00357061
0.0223545 0.00993362 0.00440986
0.0330358 0.0118563 0.00608835
0.0479438 0.0140383 0.00840772
0.0680552 0.0165255 0.0102083
0.0930953 0.0192111 0.0114137
0.124926 0.0215763 0.0126955
0.168307 0.0230869 0.0136873
0.22858 0.0223392 0.0152438
0.306966 0.0179141 0.0182803
0.396033 0.0100099 0.0219883
0.474205 0.00401312 0.0226139
0.534874 0.000640879 0.0166781
0.577081 0 0.0100099
0.607065 0 0.00776684
0.633341 0 0.0121767
0.653864 0 0.0193484
0.671748 0 0.0255589
0.690211 0 0.0345312
0.711208 0 0.0518044
0.729931 0 0.078584
0.733974 0 0.101106
0.737011 0 0.120455
0.739223 0 0.13576
0.740566 0 0.146944
0.741222 0 0.154467
0.741726 0 0.160189
0.742092 0 0.164523
0.742306 0 0.166903
0.00276188 0.0107729 0.00267033
0.00291447 0.0105898 0.00268559
0.00526436 0.0115206 0.00337224
0.00827039 0.0127413 0.00415045
0.0118563 0.0142824 0.00479133
0.0170748 0.0164034 0.00527962
0.0254673 0.0189975 0.00602731
0.0386358 0.0219577 0.00724804
0.0578622 0.0253147 0.00830091
0.0844129 0.0287785 0.00903334
0.118944 0.0319219 0.00944533
0.165896 0.0343328 0.00939956
0.2262 0.0339666 0.00936904
0.298024 0.0282139 0.00991836
0.380957 0.0157473 0.0112306
0.462974 0.00575265 0.0131228
0.529015 0.000900282 0.0122377
0.574853 0 0.00880446
0.605356 0 0.0059205
0.631403 0 0.00875868
0.652277 0 0.0164492
0.670359 0 0.0226444
0.688594 0 0.0298924
0.709361 0 0.0450141
0.728359 0 0.0716259
0.732906 0 0.0946517
0.736126 0 0.114611
0.738613 0 0.130938
0.740215 0 0.142992
0.740887 0 0.150591
0.74139 0 0.15639
0.741772 0 0.160845
0.742 0 0.163287
0.00201419 0.0178836 0.00326543
0.00205997 0.0175784 0.00323491
0.00300603 0.0180514 0.00357061
0.00570687 0.0194095 0.00437934
0.00888075 0.0212711 0.00512703
0.0140383 0.0240177 0.00560006
0.0228275 0.0274968 0.00598154
0.0365911 0.0313725 0.00645457
0.0562295 0.0357061 0.00686656
0.0843519 0.0402075 0.00694286
0.122469 0.0447547 0.00662242
0.172915 0.0485237 0.00590524
0.234882 0.0493629 0.00508125
0.304799 0.0440986 0.00437934
0.382422 0.030045 0.00396735
0.459297 0.0141299 0.00515755
0.523995 0.00364691 0.00683604
0.57171 0 0.00538643
0.605203 0 0.00450141
0.629953 0 0.00645457
0.650706 0 0.0133974
0.66891 0 0.0195621
0.687099 0 0.0260929
0.707652 0 0.0391241
0.726772 0 0.0637675
0.73167 0 0.0869917
0.735027 0 0.107622
0.737713 0 0.124712
0.739574 0 0.13756
0.740459 0 0.145937
0.741009 0 0.151934
0.741405 0 0.156497
0.741619 0 0.158999
0.00102235 0.0273442 0.00350958
0.00105287 0.0269169 0.00350958
0.00125124 0.0269169 0.00360113
0.00218204 0.0278172 0.00410468
0.00503548 0.0298009 0.004654
0.0110781 0.0332036 0.00515755
0.0213779 0.0376898 0.00550851
0.0370489 0.0427558 0.0056611
0.0588693 0.0481727 0.00560006
0.0892958 0.053727 0.00520333
0.130297 0.0598001 0.00434882
0.183291 0.0652781 0.00329595
0.247242 0.0679942 0.00224308
0.319844 0.065156 0.00141909
0.398062 0.052781 0.0009308
0.469215 0.0330053 0.00125124
0.528954 0.0153201 0.00164797
0.576074 0.00424201 0.00239567
0.610681 1.5259e-05 0.00381476
0.63212 0 0.00459297
0.649973 0 0.00999466
0.667445 0 0.0160372
0.685649 0 0.0224613
0.70602 0 0.0332952
0.724834 0 0.0539864
0.730083 0 0.0773175
0.733562 0 0.0984817
0.736431 0 0.116289
0.738552 0 0.130175
0.739818 0 0.139773
0.740475 0 0.146181
0.740902 0 0.150835
0.741131 0 0.153429
0.00015259 0.0402686 0.00318914
0.000167849 0.0396277 0.00321965
0.000183108 0.0393072 0.00325017
0.000366217 0.0395972 0.00344854
0.00177005 0.04094 0.00381476
0.00639353 0.0444495 0.00415045
0.0156863 0.0499428 0.00427253
0.031342 0.0564736 0.00415045
0.0556039 0.0630808 0.00370794
0.0892958 0.0697642 0.0030518
0.133791 0.0771038 0.00213626
0.190478 0.0842451 0.00137331
0.25832 0.0894026 0.000793469
0.334401 0.0898909 0.000381476
0.416114 0.0818494 0.000595102
0.488304 0.0631266 0.000839246
0.547417 0.0407416 0.00106813
0.592615 0.0204776 0.00135805
0.624796 0.00680552 0.00155642
0.643534 0.0011902 0.00180056
0.654658 0 0.0059968
0.668345 0 0.0112154
0.684901 0 0.0176089
0.70425 0 0.0263523
0.722576 0 0.0415656
0.727977 0 0.0644541
0.731579 0 0.0862898
0.7346 0 0.104875
0.73698 0 0.119677
0.738628 0 0.130495
0.739574 0 0.137911
0.740185 0 0.143206
0.740475 0 0.146044
0 0.0576181 0.00233463
0 0.0567788 0.00238041
0 0.0563516 0.00241093
0 0.0560311 0.00242618
0 0.0558938 0.00259403
0.00138857 0.0579995 0.00273136
0.00714122 0.0632792 0.00270085
0.0204013 0.0710918 0.00236515
0.0446784 0.0794537 0.00177005
0.0830549 0.0878157 0.00122072
0.131624 0.0966201 0.000671397
0.192157 0.105364 0.000289921
0.263828 0.112825 0.00015259
0.343832 0.116777 0.000320439
0.428351 0.114046 0.000564584
0.503105 0.101884 0.000793469
0.56585 0.0815595 0.00102235
0.614054 0.0560616 0.00120546
0.648966 0.0301976 0.00137331
0.67097 0.01149 0.00154116
0.674372 0.00436408 0.00233463
0.681437 0.00103761 0.00544747
0.69279 0 0.0106355
0.70721 0 0.0176242
0.720699 0 0.0265202
0.725277 0 0.0474861
0.728878 0 0.0697185
0.732082 0 0.0893568
0.734615 0 0.104875
0.736477 0 0.116503
0.737881 0 0.125383
0.738842 0 0.131853
0.7393 0 0.135256
0 0.0809033 0.00105287
0 0.0800641 0.00109865
0 0.0795605 0.00112917
0 0.0792096 0.00114443
0 0.0788586 0.0011902
0 0.0782483 0.00128176
0.00190738 0.0800641 0.00132753
0.0083772 0.0865339 0.0011902
0.0247501 0.0965896 0.000793469
0.0643473 0.107164 0.000289921
0.118441 0.117983 0
0.18381 0.128878 0
0.25948 0.138857 4.57771e-05
0.342565 0.146349 0.000244144
0.42948 0.148745 0.000488289
0.507103 0.144076 0.000732433
0.574624 0.133196 0.0009308
0.628199 0.116823 0.00112917
0.668894 0.0953384 0.00129702
0.702144 0.0688029 0.00144961
0.723537 0.0415656 0.00166323
0.740276 0.022858 0.00218204
0.749767 0.0114137 0.00328069
0.7467 0.00569161 0.00552377
0.731258 0.00396735 0.0109712
0.729625 0.00222782 0.0240635
0.731807 0.0010071 0.0446326
0.734524 0.000183108 0.0655833
0.736248 0 0.0817578
0.736873 0 0.0943618
0.737057 0 0.104173
0.737026 0 0.11162
0.736996 0 0.115816
0 0.106828 3.0518e-05
0 0.105898 7.62951e-05
0 0.105425 9.15541e-05
0 0.104982 0.000106813
0 0.104616 0.000122072
0 0.104021 0.00015259
0.000106813 0.10367 0.000213626
0.0019379 0.105608 0.000259403
0.00823987 0.112886 0.000137331
0.034699 0.126162 0
0.090135 0.13991 0
0.162173 0.153643 0
0.244312 0.166842 0
0.331807 0.178363 0.00015259
0.420737 0.185687 0.000381476
0.501945 0.187457 0.00062562
0.573968 0.184298 0.000839246
0.633249 0.176699 0.00102235
0.680049 0.165026 0.0011902
0.71809 0.149081 0.00134279
0.750134 0.130724 0.00146487
0.776928 0.113436 0.00158694
0.801526 0.0961013 0.00178531
0.81912 0.0781109 0.00236515
0.816846 0.059205 0.00396735
0.811322 0.0399176 0.00787366
0.805203 0.0263371 0.0152132
0.798932 0.016968 0.0255436
0.790951 0.0107424 0.0380255
0.7776 0.00943008 0.0507362
0.764324 0.00918593 0.0620279
0.752941 0.00901808 0.0726787
0.746639 0.00889601 0.07953
0 0.135348 0
0 0.134325 0
0 0.1337 0
0 0.133242 0
0 0.132891 0
0 0.132509 0
0 0.131853 0
0 0.131716 0
0.000793469 0.134722 0
0.0116274 0.144289 0
0.0514992 0.160952 0
0.123171 0.17879 0
0.214206 0.195911 0
0.30869 0.211521 1.5259e-05
0.40119 0.223575 0.000259403
0.487999 0.231113 0.000488289
0.565225 0.234287 0.000717174
0.631296 0.233738 0.000900282
0.685725 0.230121 0.00106813
0.727443 0.223713 0.00120546
0.765347 0.215488 0.00132753
0.799954 0.205234 0.00144961
0.835111 0.193057 0.00157168
0.866194 0.17882 0.00170901
0.876402 0.162509 0.00183108
0.872938 0.145434 0.00216678
0.866957 0.132036 0.00314336
0.861219 0.121965 0.00596628
0.854826 0.114351 0.0111086
0.845899 0.11078 0.0169833
0.83743 0.108186 0.0225986
0.830594 0.106432 0.0280613
0.826734 0.10515 0.0316014
0 0.164569 0
0 0.163485 0
0 0.16289 0
0 0.162432 0
0 0.162112 0
0 0.161791 0
0 0.161563 0
0 0.161379 0
0 0.161517 0
0.000946059 0.164721 0
0.017319 0.180392 0
0.0736248 0.201968 0
0.165591 0.224628 0
0.271626 0.244739 0
0.371374 0.261646 9.15541e-05
0.464927 0.274525 0.000350958
0.548821 0.283055 0.000564584
0.622415 0.288014 0.00077821
0.684947 0.28986 0.000946059
0.731929 0.28867 0.00109865
0.772915 0.286198 0.00120546
0.813062 0.28304 0.00132753
0.85333 0.2795 0.00146487
0.889097 0.275349 0.00157168
0.906447 0.269368 0.00163272
0.907042 0.262043 0.00164797
0.905074 0.254215 0.00164797
0.903273 0.24686 0.00166323
0.901823 0.240757 0.00170901
0.900649 0.235782 0.00187686
0.899779 0.231998 0.00222782
0.899016 0.228794 0.00260929
0.898573 0.227146 0.00282292
0 0.193133 0
0 0.192157 0
0 0.191424 0
0 0.190982 0
0 0.190646 0
0 0.190326 0
0 0.190127 0
0 0.189899 0
0 0.18967 0
0 0.190219 0
0.00204471 0.198901 0
0.0287938 0.221302 0
0.101656 0.250156 0
0.218189 0.275807 0
0.331792 0.298131 0
0.432639 0.315801 0.000167849
0.524727 0.329549 0.000411994
0.606256 0.339147 0.000610361
0.675944 0.345205 0.000808728
0.731014 0.348043 0.000961318
0.774273 0.348699 0.00108339
0.817411 0.349142 0.00122072
0.86128 0.349508 0.00134279
0.901534 0.349371 0.00144961
0.924727 0.347417 0.0015259
0.927077 0.343465 0.00154116
0.926085 0.339117 0.00155642
0.925155 0.335164 0.00155642
0.924346 0.331701 0.00155642
0.923735 0.329091 0.00157168
0.923278 0.327169 0.00155642
0.922896 0.325551 0.00155642
0.922683 0.324666 0.00157168
0 0.22208 0
0 0.221088 0
0 0.220371 0
0 0.219928 0
0 0.219486 0
0 0.219181 0
0 0.218967 0
0 0.218753 0
0 0.218524 0
0 0.218372 0
0.000122072 0.220737 0
0.00579843 0.238041 0
0.0452583 0.268177 0
0.140963 0.302068 0
0.276402 0.329839 0
0.389273 0.352514 0
0.491341 0.371099 0.000228885
0.581018 0.38526 0.000442512
0.657542 0.394995 0.000656138
0.721828 0.401587 0.000823987
0.769574 0.405249 0.000946059
0.814206 0.408087 0.00106813
0.860304 0.411109 0.00120546
0.906676 0.414054 0.00134279
0.938109 0.415244 0.00141909
0.940078 0.413184 0.00144961
0.940078 0.410239 0.00144961
0.940078 0.40734 0.00146487
0.940078 0.405005 0.00144961
0.940078 0.403418 0.00146487
0.940063 0.40206 0.00146487
0.939864 0.401038 0.00144961
0.939757 0.400519 0.00146487
0 0.249531 0
0 0.248478 0
0 0.247807 0
0 0.247395 0
0 0.246967 0
0 0.246693 0
0 0.246387 0
0 0.246204 0
0 0.245975 0
0 0.245762 0
0 0.246098 0
0.000854505 0.252659 0
0.0130465 0.277775 0
0.0643778 0.321691 0
0.200778 0.356161 0
0.333532 0.384543 0
0.448508 0.407919 1.5259e-05
0.547204 0.426169 0.000259403
0.632532 0.439872 0.000488289
0.703944 0.449668 0.000671397
0.759609 0.456153 0.000823987
0.807263 0.461265 0.000946059
0.854307 0.466041 0.00108339
0.904768 0.471061 0.00122072
0.940078 0.474632 0.00132753
0.940078 0.47393 0.00134279
0.940078 0.471885 0.00135805
0.940078 0.469642 0.00135805
0.940078 0.467796 0.00135805
0.940078 0.466484 0.00137331
0.940078 0.465614 0.00135805
0.940078 0.464851 0.00135805
0.940078 0.464469 0.00137331
0 0.274632 0
0 0.273671 0
0 0.273075 0
0 0.272679 0
0 0.272328 0
0 0.272053 0
0 0.271794 0
0 0.271611 0
0 0.271336 0
0 0.271138 0
0 0.271015 0
0 0.272602 0
0.00155642 0.289799 0
0.0210574 0.329152 0
0.107225 0.374426 0
0.259648 0.409354 0
0.3935 0.438163 0
0.505302 0.461509 7.62951e-05
0.601328 0.479988 0.000320439
0.68011 0.493248 0.000518807
0.743786 0.502968 0.000686656
0.796399 0.510307 0.000823987
0.844663 0.516701 0.000946059
0.896468 0.523323 0.00109865
0.940078 0.529351 0.00122072
0.940078 0.530449 0.0012665
0.940078 0.529442 0.0012665
0.940078 0.527764 0.0012665
0.940078 0.526375 0.0012665
0.940078 0.525322 0.0012665
0.940078 0.524559 0.0012665
0.940078 0.52401 0.00128176
0.940078 0.523735 0.00128176
0 0.298817 0
0 0.297871 0
0 0.297292 0
0 0.296803 0
0 0.296544 0
0 0.296208 0
0 0.295949 0
0 0.295766 0
0 0.295521 0
0 0.295323 0
0 0.295109 0
0 0.295598 0
0.000274662 0.303502 0
0.0041352 0.3299 0
0.0360418 0.384344 0
0.174395 0.426764 0
0.32256 0.46186 0
0.454429 0.49073 0
0.562585 0.513848 0.000137331
0.65066 0.530938 0.000350958
0.722026 0.543526 0.000534066
0.781201 0.553353 0.000686656
0.831998 0.561212 0.000823987
0.883268 0.568963 0.000961318
0.937041 0.576944 0.00109865
0.940078 0.580301 0.00115969
0.940078 0.58053 0.00117494
0.940078 0.579309 0.0011902
0.940078 0.578225 0.0011902
0.940078 0.577432 0.0011902
0.940078 0.576852 0.0011902
0.940078 0.576455 0.0011902
0.940078 0.576257 0.0011902
3.0518e-05 0.32195 0
3.0518e-05 0.32105 0
3.0518e-05 0.320546 0
3.0518e-05 0.320104 0
3.0518e-05 0.319799 0
3.0518e-05 0.319554 0
3.0518e-05 0.319326 0
3.0518e-05 0.319097 0
3.0518e-05 0.318944 0
3.0518e-05 0.318761 0
3.0518e-05 0.318563 0
3.0518e-05 0.318364 0
3.0518e-05 0.319249 0
4.57771e-05 0.332876 0
0.00946059 0.384527 0
0.0880751 0.43714 0
0.237369 0.480171 0
0.39292 0.514519 0
0.516182 0.542153 0
0.61622 0.563333 0.000183108
0.694072 0.578439 0.000381476
0.76083 0.590524 0.000564584
0.816205 0.600061 0.000701915
0.866957 0.608606 0.000823987
0.921859 0.61767 0.000961318
0.940078 0.623926 0.00108339
0.940078 0.625605 0.00111391
0.940078 0.624735 0.00111391
0.940078 0.623804 0.00111391
0.940078 0.623194 0.00111391
0.940078 0.622782 0.00111391
0.940078 0.622492 0.00111391
0.940078 0.622354 0.00111391
6.10361e-05 0.342306 0
6.10361e-05 0.341604 0
6.10361e-05 0.341146 0
6.10361e-05 0.340734 0
6.10361e-05 0.340429 0
6.10361e-05 0.340124 0
6.10361e-05 0.33991 0
6.10361e-05 0.339696 0
6.10361e-05 0.339529 0
6.10361e-05 0.339315 0
6.10361e-05 0.339132 0
6.10361e-05 0.338949 0
6.10361e-05 0.339239 0
6.10361e-05 0.344991 0
0.00135805 0.373556 0
0.0256046 0.439597 0
0.146853 0.49279 0
0.309941 0.533623 0
0.461433 0.566598 0
0.575891 0.592126 1.5259e-05
0.661921 0.609888 0.000228885
0.735348 0.624292 0.000411994
0.796429 0.635615 0.000564584
0.849119 0.645106 0.000701915
0.903014 0.654673 0.000839246
0.940078 0.663737 0.000976577
0.940078 0.666987 0.00103761
0.940078 0.666712 0.00103761
0.940078 0.66598 0.00105287
0.940078 0.6654 0.00103761
0.940078 0.665049 0.00103761
0.940078 0.664805 0.00105287
0.940078 0.664714 0.00103761
9.15541e-05 0.359396 0
9.15541e-05 0.358663 0
9.15541e-05 0.358221 0
9.15541e-05 0.357885 0
9.15541e-05 0.357626 0
9.15541e-05 0.357366 0
9.15541e-05 0.357183 0
9.15541e-05 0.357 0
7.62951e-05 0.356817 0
7.62951e-05 0.35668 0
7.62951e-05 0.356481 0
7.62951e-05 0.356313 0
7.62951e-05 0.356283 0
9.15541e-05 0.357534 0
0.000198367 0.370687 0
0.00706493 0.433387 0
0.0631876 0.494285 0
0.203418 0.544823 0
0.393774 0.584054 0
0.525032 0.614008 0
0.624216 0.635904 6.10361e-05
0.705409 0.652934 0.000274662
0.772625 0.666407 0.000442512
0.83003 0.677577 0.000579843
0.882704 0.687404 0.000717174
0.937911 0.697505 0.000854505
0.940078 0.703258 0.0009308
0.940078 0.704829 0.000961318
0.940078 0.704265 0.000976577
0.940078 0.703899 0.000961318
0.940078 0.703593 0.000961318
0.940078 0.703319 0.000976577
0.940078 0.703243 0.000976577
0.000106813 0.376944 0
0.000106813 0.376226 0
0.000106813 0.375692 0
0.000106813 0.375341 0
0.000106813 0.375067 0
0.000106813 0.374792 0
0.000106813 0.374578 0
0.000106813 0.374395 0
0.000106813 0.374228 0
0.000106813 0.374075 0
0.000106813 0.373861 0
0.000106813 0.373693 0
0.000106813 0.37351 0
0.000106813 0.373342 0
0.000122072 0.377997 0
0.00129702 0.417624 0
0.0215457 0.484672 0
0.124086 0.548699 0
0.304387 0.594797 0
0.465263 0.629923 0
0.580636 0.656275 0
0.671519 0.676402 0.000122072
0.745617 0.692149 0.00030518
0.808255 0.704982 0.000457771
0.861448 0.715572 0.000610361
0.914473 0.725811 0.000732433
0.940078 0.733837 0.000839246
0.940078 0.737881 0.000900282
0.940078 0.738003 0.000900282
0.940078 0.737667 0.000900282
0.940078 0.737469 0.000900282
0.940078 0.737301 0.000915541
0.940078 0.737179 0.000900282
0.000137331 0.396506 0
0.000137331 0.395605 0
0.000137331 0.39498 0
0.000137331 0.394553 0
0.000137331 0.394217 0
0.000137331 0.393881 0
0.000137331 0.393591 0
0.000137331 0.393362 0
0.000137331 0.39321 0
0.000137331 0.392981 0
0.000137331 0.392798 0
0.000137331 0.392508 0
0.000137331 0.392309 0
0.000137331 0.392126 0
0.000137331 0.393042 0
0.000183108 0.409339 0
0.00675975 0.47451 0
0.0598154 0.546883 0
0.193011 0.601526 0
0.393393 0.642481 0
0.528588 0.672969 0
0.632227 0.696254 0
0.714549 0.714244 0.000167849
0.782544 0.728603 0.000335698
0.839277 0.740169 0.000488289
0.888991 0.750118 0.000610361
0.936584 0.759564 0.000732433
0.940078 0.76582 0.000808728
0.940078 0.767376 0.000839246
0.940078 0.767147 0.000839246
0.940078 0.766949 0.000839246
0.940078 0.766781 0.000839246
0.940078 0.76672 0.000839246
0.000183108 0.418036 0
0.000183108 0.417258 0
0.000183108 0.416587 0
0.000183108 0.416129 0
0.000167849 0.415671 0
0.000167849 0.415335 0
0.000167849 0.415091 0
0.000167849 0.414816 0
0.000167849 0.414557 0
0.000167849 0.414328 0
0.000167849 0.41413 0
0.000167849 0.41384 0
0.000167849 0.413611 0
0.000167849 0.413367 0
0.000167849 0.413123 0
0.000183108 0.419287 0
0.000579843 0.467506 0
0.00985733 0.538354 0
0.0857252 0.608148 0
0.29456 0.65568 0
0.459495 0.690211 0
0.583932 0.716793 0
0.677409 0.736721 1.5259e-05
0.751659 0.752041 0.000198367
0.813428 0.764569 0.000366217
0.862745 0.774365 0.000488289
0.910765 0.783917 0.000610361
0.940078 0.791913 0.000701915
0.940078 0.795941 0.000762951
0.940078 0.795666 0.000762951
0.940078 0.795407 0.000762951
0.940078 0.79527 0.000762951
0.940078 0.795148 0.000762951
0.000213626 0.436179 0
0.000213626 0.435889 0
0.000213626 0.43534 0
0.000213626 0.434958 0
0.000198367 0.434607 0
0.000198367 0.434318 0
0.000198367 0.434119 0
0.000198367 0.433845 0
0.000198367 0.433646 0
0.000198367 0.433524 0
0.000198367 0.433295 0
0.000198367 0.433158 0
0.000198367 0.43299 0
0.000198367 0.432807 0
0.000198367 0.432593 0
0.000198367 0.434348 0
0.000274662 0.454948 0
0.0040589 0.520516 0
0.0396887 0.612039 0
0.164019 0.668116 0
0.367086 0.708598 0
0.52221 0.739849 0
0.632715 0.762707 0
0.7149 0.779263 4.57771e-05
0.781369 0.792569 0.000213626
0.835126 0.803296 0.000350958
0.883024 0.812924 0.000457771
0.928954 0.822049 0.000579843
0.940078 0.828763 0.000671397
0.940078 0.828946 0.000671397
0.940078 0.828763 0.000671397
0.940078 0.828611 0.000671397
0.940078 0.828504 0.000671397
0.000213626 0.440085 0
0.000213626 0.439918 0
0.000213626 0.439811 0
0.000213626 0.439734 0
0.000213626 0.439673 0
0.000213626 0.439612 0
0.000213626 0.439567 0
0.000213626 0.439521 0
0.000213626 0.439475 0
0.000213626 0.439429 0
0.000213626 0.439384 0
0.000213626 0.439368 0
0.000213626 0.439323 0
0.000213626 0.439277 0
0.000213626 0.439216 0
0.000213626 0.439567 0
0.000228885 0.449348 0
0.00148013 0.504463 0
0.0135653 0.594842 0
0.0813306 0.663767 0
0.284077 0.713283 0
0.457115 0.751873 0
0.586236 0.780606 0
0.678584 0.801404 0
0.749233 0.81709 6.10361e-05
0.807111 0.829786 0.000198367
0.856458 0.840635 0.000320439
0.903059 0.850782 0.000442512
0.940078 0.859205 0.000549325
0.940078 0.861753 0.000579843
0.940078 0.862104 0.000579843
0.940078 0.861936 0.000579843
0.940078 0.861921 0.000579843
0.000213626 0.440879 0
0.000213626 0.440879 0
0.000213626 0.440879 0
0.000213626 0.440879 0
0.000213626 0.440879 0
0.000213626 0.440879 0
0.000213626 0.440879 0
0.000213626 0.440879 0
0.000213626 0.440879 0
0.000213626 0.440879 0
0.000213626 0.440879 0
0.000213626 0.440879 0
0.000213626 0.440879 0
0.000213626 0.440879 0
0.000213626 0.440879 0
0.000213626 0.440879 0
0.000213626 0.446189 0
0.00047303 0.486625 0
0.00254826 0.565011 0
0.0403754 0.649546 0
0.218097 0.706233 0
0.402487 0.75021 0
0.550546 0.783612 0
0.651347 0.808392 0
0.7252 0.826383 0
0.784894 0.840604 0.000122072
0.835447 0.852552 0.000244144
0.880598 0.863203 0.000350958
0.920989 0.872618 0.000457771
0.940078 0.878187 0.000518807
0.940078 0.879423 0.000518807
0.940078 0.879393 0.000534066
0.940078 0.879347 0.000534066
0.000213626 0.440879 0
0.000213626 0.440879 0
0.000213626 0.440879 0
0.000213626 0.440879 0
0.000213626 0.440879 0
0.000213626 0.440879 0
0.000213626 0.440879 0
0.000213626 0.440879 0
0.000213626 0.440879 0
