luts/lucashu_filmlike/cu_film1.cube
TITLE "Generated by Resolve"
LUT_3D_SIZE 9
0.0356909 0.0356603 0.0329747
0.0358587 0.0357671 0.0330358
0.0673991 0.0387579 0.0375219
0.220813 0.0408179 0.0505379
0.456687 0.0477455 0.128191
0.614191 0.0875105 0.244022
0.776761 0.190463 0.401389
0.885603 0.374319 0.609201
0.897993 0.634836 0.80032
0.0357214 0.0357519 0.0330205
0.0358587 0.0359655 0.0331579
0.0659342 0.0392767 0.0384985
0.221988 0.04094 0.0517128
0.459419 0.0479896 0.129641
0.616617 0.0887312 0.246021
0.780499 0.193622 0.405585
0.886702 0.379644 0.61445
0.897963 0.634592 0.800259
0.0390478 0.0885939 0.0573892
0.0389715 0.0905165 0.0582437
0.0716259 0.100191 0.0416571
0.233539 0.0771496 0.0534829
0.434852 0.0450904 0.0893873
0.609751 0.085481 0.226551
0.780728 0.194354 0.399008
0.887205 0.379858 0.612284
0.897963 0.633661 0.798947
0.0451514 0.241794 0.153262
0.042771 0.245838 0.156374
0.0356603 0.259541 0.0949569
0.273945 0.299138 0.0601663
0.528771 0.247623 0.0961166
0.616236 0.124331 0.167285
0.779324 0.195819 0.372076
0.887358 0.378622 0.603204
0.897917 0.632563 0.796002
0.0426947 0.420081 0.275792
0.0393378 0.423774 0.283055
0.032929 0.429313 0.253239
0.0559243 0.451347 0.0634012
0.606043 0.559274 0.145647
0.780362 0.515251 0.240833
0.805951 0.318288 0.265949
0.88719 0.372992 0.566293
0.897887 0.627466 0.785718
0.106142 0.570825 0.425208
0.098085 0.574792 0.431617
0.0881666 0.576562 0.427008
0.0684977 0.583474 0.347906
0.298299 0.629267 0.154925
0.82945 0.788968 0.404868
0.897993 0.747646 0.494636
0.887037 0.527062 0.377066
0.897963 0.612482 0.748547
0.278645 0.70045 0.554192
0.272114 0.702388 0.55642
0.271656 0.704601 0.555627
0.265187 0.705486 0.535424
0.313909 0.733028 0.429038
0.57174 0.797406 0.437201
0.897993 0.896529 0.745525
0.897993 0.890181 0.745235
0.897993 0.693874 0.50251
0.667384 0.861387 0.785504
0.660273 0.860945 0.784161
0.670787 0.863874 0.789273
0.664683 0.862257 0.78143
0.669322 0.865492 0.768063
0.763958 0.884916 0.78468
0.888258 0.897459 0.843885
0.897993 0.897993 0.897459
0.897993 0.897993 0.897169
0.895201 0.897993 0.897749
0.894423 0.897993 0.897597
0.89424 0.897993 0.897551
0.894667 0.897993 0.897642
0.894652 0.897993 0.897566
0.895445 0.897993 0.897353
0.897993 0.897993 0.897871
0.897993 0.897993 0.897993
0.897993 0.897993 0.897993
0.0359197 0.0357061 0.0329442
0.0359808 0.0358434 0.0330816
0.0653544 0.0391089 0.038468
0.216571 0.0412757 0.0540627
0.451759 0.0483864 0.135973
0.611627 0.0896162 0.254124
0.773434 0.194003 0.410544
0.884352 0.376181 0.612589
0.897871 0.635843 0.800504
0.0357519 0.0357214 0.03299
0.0358892 0.0359655 0.0331273
0.0648203 0.0394598 0.0390936
0.218265 0.0413519 0.0552529
0.454582 0.0486763 0.138048
0.612772 0.0900282 0.254841
0.776425 0.197559 0.415671
0.884886 0.382818 0.619593
0.897765 0.635981 0.800534
0.039353 0.0887007 0.0573587
0.0393225 0.0914168 0.0589914
0.0711833 0.101061 0.0419318
0.231449 0.0781872 0.0545663
0.432517 0.0456703 0.0935836
0.608057 0.0861524 0.230396
0.779446 0.195941 0.402884
0.886091 0.382055 0.615625
0.897871 0.634562 0.79939
0.0451667 0.242695 0.154009
0.04271 0.246571 0.157092
0.035584 0.260288 0.0950942
0.271199 0.301717 0.0603189
0.526192 0.2495 0.0995499
0.614389 0.125505 0.171008
0.777813 0.196963 0.375402
0.886625 0.381033 0.606882
0.897795 0.633402 0.796399
0.0423133 0.421027 0.277211
0.0390173 0.424414 0.284016
0.0329595 0.429908 0.253773
0.0560311 0.45243 0.0639506
0.605081 0.56141 0.147875
0.781399 0.515465 0.243717
0.805829 0.319585 0.267308
0.88719 0.374395 0.567941
0.897841 0.627848 0.785855
0.10544 0.571679 0.426291
0.0974289 0.575433 0.432593
0.0887617 0.577279 0.42771
0.0689097 0.584253 0.34818
0.297993 0.629801 0.155947
0.830289 0.790646 0.407904
0.897993 0.748394 0.496941
0.887236 0.528176 0.379156
0.897948 0.612573 0.748425
0.278813 0.701015 0.554742
0.271839 0.702831 0.556985
0.272999 0.705165 0.556176
0.266133 0.706096 0.535836
0.31516 0.733639 0.429923
0.571679 0.797604 0.43859
0.897993 0.89662 0.748592
0.897993 0.890471 0.747005
0.897993 0.695247 0.500694
0.668727 0.861799 0.786465
0.661845 0.861433 0.785183
0.673152 0.864591 0.790784
0.666636 0.862806 0.78265
0.671107 0.86595 0.769268
0.765682 0.885206 0.786038
0.888594 0.89749 0.845396
0.897993 0.897993 0.89752
0.897993 0.897993 0.897276
0.895201 0.897993 0.897749
0.894408 0.897993 0.897597
0.894255 0.897993 0.897551
0.894667 0.897993 0.897642
0.894652 0.897993 0.897566
0.89546 0.897993 0.897353
0.897993 0.897993 0.897871
0.897993 0.897993 0.897993
0.897993 0.897993 0.897993
0.038819 0.0360876 0.0600748
0.0386664 0.0361486 0.0611276
0.0724956 0.0393835 0.0543832
0.219303 0.0433204 0.0749371
0.454688 0.0509041 0.159701
0.616342 0.0923018 0.27039
0.774197 0.194461 0.417395
0.884627 0.377752 0.616373
0.897871 0.636912 0.801389
0.0384985 0.0361334 0.0606699
0.0383459 0.0362097 0.0619364
0.0729381 0.0395819 0.0568399
0.221637 0.0435187 0.0779889
0.457465 0.051194 0.162478
0.6177 0.0927443 0.271916
0.777157 0.198093 0.422583
0.885161 0.384283 0.623056
0.897734 0.636698 0.801099
0.041886 0.0849317 0.0776532
0.0415808 0.0871595 0.0803845
0.0690623 0.0893416 0.0831617
0.258457 0.0614176 0.0827955
0.453742 0.0482185 0.132204
0.614923 0.0895094 0.248997
0.780728 0.196887 0.41062
0.886427 0.383841 0.618708
0.897856 0.635538 0.800397
0.0511788 0.2542 0.186603
0.0479438 0.258442 0.190799
0.0459449 0.260319 0.173663
0.261097 0.297169 0.070985
0.528634 0.233555 0.122576
0.620981 0.114321 0.198444
0.779904 0.198032 0.385428
0.886717 0.382284 0.609796
0.89778 0.634394 0.797452
0.0466773 0.43064 0.304616
0.0429999 0.434104 0.311788
0.0394598 0.432898 0.297749
0.0409552 0.450553 0.0893111
0.602853 0.561166 0.147692
0.7832 0.509224 0.254414
0.812863 0.312764 0.289113
0.887419 0.375525 0.572137
0.897826 0.628656 0.786801
0.112856 0.575998 0.438407
0.104768 0.579782 0.444907
0.0964523 0.581399 0.441901
0.076524 0.581933 0.380682
0.280201 0.626413 0.159121
0.830396 0.791592 0.409201
0.897993 0.745159 0.498695
0.88806 0.524605 0.387839
0.897948 0.613336 0.749584
0.28246 0.702556 0.559792
0.274754 0.704128 0.562112
0.277867 0.706767 0.562188
0.268498 0.705333 0.54313
0.311284 0.73315 0.437751
0.568612 0.796597 0.440024
0.897993 0.896681 0.751064
0.897993 0.890257 0.74873
0.897993 0.69456 0.501701
0.672053 0.86244 0.78912
0.664088 0.862196 0.787564
0.675212 0.86511 0.793469
0.670695 0.863798 0.786572
0.671946 0.86595 0.771496
0.765957 0.885283 0.787503
0.888594 0.897505 0.846098
0.897993 0.897993 0.897566
0.897993 0.897993 0.897353
0.895247 0.897993 0.897749
0.894408 0.897993 0.897597
0.894316 0.897993 0.897566
0.894728 0.897993 0.897658
0.894713 0.897993 0.897581
0.895445 0.897993 0.897368
0.897993 0.897993 0.897871
0.897993 0.897993 0.897993
0.897993 0.897993 0.897993
0.0465858 0.0369879 0.181918
0.0462806 0.0369573 0.185153
0.081239 0.0379644 0.175631
0.222004 0.0464942 0.149248
0.451209 0.057084 0.223316
0.621027 0.0976577 0.315892
0.775494 0.196597 0.43743
0.885206 0.380819 0.625162
0.897871 0.638422 0.803952
0.0462501 0.0369879 0.183871
0.0460822 0.0369573 0.187304
0.0821851 0.0379797 0.179675
0.224201 0.0467689 0.154849
0.454078 0.0576791 0.22742
0.622919 0.0985885 0.31812
0.778714 0.200427 0.442893
0.885603 0.387518 0.631815
0.897749 0.638376 0.803952
0.0373999 0.0622416 0.179507
0.0372015 0.0636301 0.184131
0.0509041 0.0542916 0.232731
0.242008 0.0518349 0.176043
0.453803 0.0554055 0.206149
0.624033 0.0953384 0.298741
0.782544 0.198642 0.431922
0.886992 0.387198 0.628183
0.897841 0.637446 0.802823
0.0482185 0.243473 0.22594
0.0453651 0.247715 0.231739
0.0470283 0.258061 0.23975
0.244205 0.280049 0.254963
0.55697 0.196719 0.254658
0.630335 0.103838 0.257771
0.783597 0.200259 0.41088
0.887098 0.385824 0.619455
0.897765 0.636423 0.800244
0.0524605 0.442664 0.347585
0.0481117 0.446296 0.354711
0.0474403 0.450767 0.355383
0.0549783 0.454215 0.301762
0.577279 0.558694 0.199512
0.786511 0.489601 0.282307
0.830091 0.29482 0.352087
0.887953 0.378408 0.584192
0.897826 0.630671 0.789944
0.128817 0.585779 0.464942
0.119417 0.589502 0.471214
0.113863 0.591882 0.471199
0.0999771 0.583398 0.440864
0.216251 0.618433 0.1841
0.826535 0.790997 0.40798
0.897993 0.738125 0.504784
0.890776 0.515053 0.414359
0.897948 0.615106 0.753033
0.291936 0.705867 0.572671
0.281819 0.707424 0.574716
0.282979 0.709819 0.574975
0.282017 0.708461 0.562799
0.299092 0.729702 0.468086
0.556344 0.792584 0.442695
0.897993 0.896696 0.753384
0.897993 0.889113 0.752544
0.897993 0.691615 0.508766
0.681178 0.864866 0.797513
0.671458 0.864103 0.794751
0.672206 0.865263 0.795895
0.678508 0.865705 0.794659
0.671336 0.865263 0.776242
0.763897 0.885145 0.790204
0.888304 0.89749 0.846952
0.897993 0.897993 0.897612
0.897993 0.897993 0.897444
0.895399 0.897993 0.89778
0.894545 0.897993 0.897642
0.893904 0.897993 0.89749
0.89482 0.897993 0.897688
0.894911 0.897993 0.897642
0.895369 0.897993 0.897398
0.897993 0.897993 0.897871
0.897993 0.897993 0.897993
0.897993 0.897993 0.897993
0.0728771 0.037232 0.376852
0.0721447 0.0372625 0.380346
0.102556 0.0377966 0.379126
0.244907 0.0421149 0.348898
0.45539 0.0708171 0.340566
0.630228 0.11603 0.424536
0.762463 0.184817 0.474388
0.886152 0.389776 0.65124
0.897902 0.642954 0.811627
0.0719615 0.0372931 0.379217
0.0717784 0.0373236 0.382559
0.103624 0.0378576 0.382635
0.247517 0.0424353 0.353689
0.458793 0.0715038 0.344793
0.632959 0.117464 0.428107
0.763607 0.186465 0.478233
0.886687 0.396796 0.658213
0.897765 0.643198 0.811872
0.0386206 0.0407874 0.368383
0.038468 0.0410315 0.372595
0.0551156 0.0374304 0.395834
0.243 0.0437934 0.389059
0.460212 0.072221 0.347921
0.635294 0.115084 0.418021
0.766384 0.183398 0.468528
0.887877 0.396979 0.65539
0.897856 0.642206 0.811002
0.0336461 0.181643 0.372198
0.0331121 0.185534 0.378943
0.0328069 0.190738 0.397665
0.182803 0.186267 0.478325
0.53048 0.162295 0.426169
0.63653 0.114412 0.396445
0.766018 0.181994 0.452705
0.888136 0.39588 0.647944
0.897765 0.641032 0.808194
0.045655 0.42858 0.405554
0.0424506 0.432609 0.41239
0.0429694 0.439963 0.419898
0.0585184 0.450355 0.425513
0.515694 0.534936 0.501671
0.818158 0.454643 0.509453
0.825879 0.254292 0.44184
0.888609 0.388342 0.615793
0.897826 0.636027 0.798474
0.145495 0.594797 0.502708
0.135912 0.598444 0.507851
0.132723 0.602441 0.511543
0.133974 0.601846 0.504906
0.262959 0.64184 0.482963
0.779004 0.780148 0.514931
0.897948 0.718547 0.543114
0.896025 0.489326 0.495659
0.897917 0.619516 0.763012
0.31014 0.712825 0.598917
0.300023 0.713848 0.600504
0.298436 0.716258 0.601678
0.303578 0.716731 0.596872
0.303304 0.71986 0.564446
0.519234 0.783795 0.460227
0.897993 0.896605 0.756451
0.897993 0.886549 0.768292
0.897993 0.683558 0.531838
0.700069 0.869337 0.815137
0.69044 0.868696 0.81236
0.688991 0.869398 0.812894
0.689418 0.869017 0.810224
0.694255 0.869841 0.803281
0.754406 0.883955 0.797559
0.88716 0.897414 0.848753
0.897993 0.897993 0.897673
0.897993 0.897993 0.897566
0.895735 0.897993 0.897856
0.894972 0.897993 0.897749
0.89427 0.897993 0.897612
0.89453 0.897993 0.897658
0.895308 0.897993 0.897749
0.895262 0.897993 0.89749
0.897993 0.897993 0.897887
0.897993 0.897993 0.897993
0.897993 0.897993 0.897993
0.117784 0.0425574 0.494514
0.116106 0.04271 0.497658
0.127367 0.043183 0.500877
0.244739 0.0470283 0.505684
0.447028 0.0643626 0.495796
0.642741 0.136828 0.516533
0.768612 0.200977 0.568612
0.881209 0.385489 0.700862
0.897917 0.654627 0.830304
0.116381 0.0426337 0.496513
0.115938 0.0427558 0.498482
0.127047 0.0432441 0.501839
0.247623 0.0473487 0.507591
0.449653 0.0649882 0.498039
0.646494 0.138643 0.520287
0.769421 0.202319 0.571359
0.88191 0.393439 0.708446
0.897826 0.655695 0.831006
0.0688029 0.0411688 0.480156
0.0677348 0.0413062 0.482033
0.0841077 0.0420844 0.492302
0.222354 0.0471809 0.516747
0.44918 0.0666056 0.508492
0.649012 0.138308 0.519142
0.772717 0.199786 0.56672
0.88336 0.393149 0.7075
0.897887 0.655055 0.830716
0.0444038 0.0816358 0.481407
0.0437934 0.0849165 0.486915
0.0439155 0.086656 0.490806
0.107378 0.0636606 0.518029
0.449012 0.0865949 0.549813
0.655482 0.14519 0.528557
0.771679 0.19881 0.563699
0.883345 0.391348 0.702968
0.897826 0.654582 0.82919
0.034287 0.372091 0.513695
0.0330663 0.377234 0.519585
0.0335088 0.384649 0.52874
0.0415198 0.39118 0.554253
0.440299 0.446235 0.720439
0.806043 0.441154 0.693614
0.800641 0.232136 0.570016
0.883192 0.381826 0.679194
0.897841 0.650202 0.822675
0.137835 0.578332 0.560327
0.129091 0.58265 0.565545
0.12752 0.587274 0.570535
0.132662 0.589776 0.571313
0.261021 0.630137 0.605447
0.740093 0.753979 0.730999
0.896696 0.691661 0.725689
0.8963 0.449027 0.63476
0.897871 0.635172 0.792615
0.320302 0.713512 0.63238
0.309987 0.714229 0.633036
0.309895 0.717205 0.635294
0.315633 0.719661 0.63534
0.351629 0.733242 0.643946
0.656519 0.844755 0.753216
0.896513 0.894316 0.830839
0.897993 0.878508 0.792233
0.897993 0.668772 0.65211
0.734417 0.877089 0.846143
0.723857 0.876539 0.842954
0.723751 0.877348 0.843549
0.721126 0.876875 0.841352
0.733715 0.878828 0.844236
0.746227 0.881376 0.834241
0.881544 0.897078 0.85449
0.897993 0.897993 0.89778
0.897993 0.897993 0.897749
0.896757 0.897993 0.897993
0.896117 0.897993 0.897948
0.895506 0.897993 0.897856
0.89546 0.897993 0.897841
0.895903 0.897993 0.897902
0.8963 0.897993 0.897902
0.897948 0.897993 0.897932
0.897993 0.897993 0.897993
0.897993 0.897993 0.897993
0.144442 0.0499733 0.54876
0.142504 0.0501869 0.551537
0.141375 0.050309 0.552865
0.208667 0.0541085 0.564721
0.410513 0.0720684 0.585229
0.610178 0.127153 0.610636
0.777173 0.217685 0.64123
0.864897 0.344991 0.713787
0.897993 0.663096 0.858381
0.14342 0.0500801 0.550195
0.142061 0.050248 0.551919
0.140734 0.0503395 0.55317
0.210452 0.0543832 0.565988
0.413672 0.0728161 0.58706
0.613809 0.129046 0.613718
0.777996 0.219074 0.644236
0.867475 0.355047 0.723369
0.897993 0.663828 0.859113
0.105241 0.047837 0.53846
0.102831 0.0479286 0.540185
0.102113 0.0480049 0.541146
0.182315 0.0526284 0.561395
0.4 0.0719158 0.589837
0.614237 0.129488 0.615793
0.781491 0.218479 0.643442
0.869245 0.354437 0.722774
0.897993 0.662699 0.85977
0.0516365 0.0657359 0.525429
0.051133 0.0673991 0.529015
0.0512856 0.069337 0.529534
0.083711 0.0486 0.533455
0.361273 0.0704051 0.593606
0.617166 0.1402 0.632685
0.780728 0.218967 0.644388
0.868574 0.351919 0.720394
0.897993 0.662364 0.859144
0.0459754 0.296895 0.584588
0.0439002 0.303593 0.588739
0.0434882 0.315709 0.593454
0.0453651 0.318273 0.602914
0.348714 0.345342 0.794186
0.736446 0.353399 0.823667
0.79649 0.238926 0.655665
0.865736 0.339605 0.706065
0.897993 0.658244 0.855955
0.0956588 0.531014 0.619013
0.0899062 0.536019 0.623652
0.0913863 0.542901 0.631632
0.111666 0.548592 0.645136
0.2177 0.576852 0.712856
0.677485 0.690486 0.866163
0.895491 0.708278 0.86099
0.890532 0.440818 0.755245
0.897993 0.647272 0.845197
0.300343 0.691997 0.679973
0.288945 0.693385 0.680217
0.286397 0.695567 0.681468
0.289693 0.696864 0.681849
0.319188 0.709789 0.693294
0.669215 0.840497 0.830213
0.891752 0.889967 0.888533
0.897948 0.86865 0.876936
0.897704 0.652583 0.777173
0.753216 0.881209 0.86891
0.742275 0.880858 0.865766
0.742809 0.881773 0.866285
0.742443 0.881743 0.86569
0.757809 0.884382 0.869795
0.807279 0.891035 0.881651
0.895079 0.897993 0.897139
0.897993 0.897993 0.897993
0.897993 0.897993 0.897887
0.897749 0.897993 0.897993
0.89749 0.897993 0.897993
0.897139 0.897993 0.897993
0.897108 0.897993 0.897993
0.8972 0.897993 0.897993
0.897673 0.897993 0.897993
0.897673 0.897993 0.897993
0.897993 0.897993 0.897993
0.897993 0.897993 0.897993
0.118242 0.0516518 0.550042
0.116167 0.0516518 0.550973
0.114244 0.0514839 0.550439
0.115373 0.0516213 0.551141
0.320775 0.0728466 0.615198
0.556741 0.114809 0.640162
0.756405 0.222766 0.69427
0.793606 0.256504 0.718044
0.897993 0.663493 0.892882
0.116182 0.051606 0.550362
0.114519 0.0514382 0.549935
0.11194 0.0513008 0.549187
0.114443 0.0515602 0.550484
0.321904 0.0730907 0.615549
0.559106 0.115816 0.64062
0.758587 0.224475 0.694987
0.795193 0.260334 0.721599
0.897993 0.664256 0.893263
0.0842756 0.0502022 0.531518
0.0819562 0.0504768 0.531075
0.0790875 0.0508278 0.529488
0.0832227 0.0509804 0.531838
0.302037 0.0706035 0.611261
0.550881 0.114336 0.642115
0.760464 0.224384 0.694392
0.799649 0.263127 0.723522
0.897993 0.663752 0.893599
0.0571908 0.0801099 0.53785
0.0567788 0.0823529 0.541192
0.0572366 0.0848249 0.543389
0.0567788 0.0805371 0.538857
0.239841 0.0633402 0.595422
0.535927 0.117372 0.654093
0.760693 0.225223 0.695109
0.800809 0.264179 0.724468
0.897993 0.66276 0.893446
0.0569314 0.282445 0.62884
0.0549477 0.289845 0.632013
0.0543069 0.297322 0.634562
0.0538338 0.290883 0.631098
0.164904 0.248096 0.691096
0.597498 0.266285 0.802853
0.764416 0.237278 0.713771
0.801495 0.264286 0.724529
0.897993 0.658473 0.893278
0.0886702 0.501167 0.659358
0.0846265 0.506172 0.662425
0.0831769 0.509224 0.664332
0.0845808 0.510124 0.667002
0.153155 0.525612 0.713741
0.580682 0.615625 0.891814
0.897292 0.676555 0.897917
0.89041 0.468727 0.856641
0.897993 0.647379 0.892058
0.261799 0.661448 0.714321
0.25597 0.66421 0.71516
0.258305 0.667872 0.717464
0.266011 0.669337 0.721447
0.322896 0.691035 0.74992
0.587411 0.787671 0.849653
0.881636 0.880415 0.896819
0.897993 0.875395 0.89659
0.897993 0.679011 0.886519
0.66804 0.859312 0.859998
0.667887 0.860487 0.860166
0.674342 0.863264 0.862043
0.674983 0.863279 0.862058
0.697749 0.869505 0.868421
0.767132 0.884184 0.884245
0.895888 0.897993 0.897993
0.897993 0.897993 0.897993
0.897993 0.897993 0.897993
0.897963 0.897993 0.897993
0.897856 0.897993 0.897993
0.897765 0.897993 0.897993
0.89778 0.897993 0.897993
0.897841 0.897993 0.897993
0.897978 0.897993 0.897993
0.897993 0.897993 0.897993
0.897993 0.897993 0.897993
0.897993 0.897993 0.897993
0.057435 0.0800031 0.529046
0.0573434 0.0812085 0.531746
0.0576028 0.0833295 0.533898
0.0573892 0.0823682 0.533379
0.0622263 0.0777447 0.53521
0.450385 0.0926375 0.636622
0.73518 0.207004 0.680583
0.776532 0.241321 0.710582
0.897993 0.618036 0.894575
0.0569772 0.0799725 0.5299
0.0572213 0.0810101 0.53167
0.0576028 0.0834058 0.533974
0.0574044 0.082414 0.53341
0.0636301 0.0750134 0.534859
0.457786 0.0939956 0.637507
0.739834 0.210254 0.681926
0.776471 0.241657 0.710948
0.897993 0.618463 0.894423
0.0606241 0.0928817 0.541619
0.059968 0.094667 0.54432
0.0602731 0.0972152 0.546807
0.0601358 0.0962997 0.546075
0.0595865 0.0840772 0.536294
0.45127 0.0939345 0.638529
0.740658 0.210254 0.682719
0.778988 0.241016 0.710033
0.897993 0.617716 0.89453
0.0674144 0.13579 0.577188
0.0661631 0.14168 0.582528
0.0665293 0.149187 0.587228
0.0663157 0.145144 0.584985
0.0637217 0.12697 0.56997
0.434745 0.102373 0.651743
0.730632 0.206683 0.688563
0.779309 0.241032 0.709987
0.897993 0.617121 0.894362
0.0621195 0.336889 0.655299
0.0593271 0.343191 0.657862
0.0588998 0.349615 0.659709
0.0585946 0.346563 0.658763
0.0587625 0.331365 0.656336
0.47718 0.278294 0.808972
0.722881 0.222904 0.728908
0.779644 0.241093 0.710018
0.897993 0.613657 0.894163
0.100633 0.510475 0.679561
0.0969406 0.515511 0.68162
0.096025 0.519738 0.682963
0.0949111 0.5178 0.682643
0.090135 0.504585 0.683742
0.399115 0.544717 0.857328
0.882033 0.634241 0.897993
0.893538 0.492897 0.868223
0.897993 0.608545 0.893874
0.18677 0.623178 0.695613
0.183429 0.627466 0.698726
0.185641 0.632242 0.702495
0.195941 0.635065 0.710002
0.239277 0.64715 0.73167
0.432761 0.714885 0.813535
0.848722 0.857237 0.896803
0.897993 0.864759 0.897307
0.897993 0.727169 0.896147
0.553628 0.810666 0.834699
0.560693 0.815396 0.836561
0.572183 0.821759 0.840543
0.583581 0.825925 0.844221
0.634104 0.84509 0.860517
0.7608 0.880415 0.887907
0.889601 0.897658 0.897993
0.897993 0.897993 0.897993
0.897993 0.897993 0.897993
0.897261 0.897993 0.897993
0.897002 0.897993 0.897993
0.896742 0.897993 0.897993
0.896864 0.897993 0.897993
0.897124 0.897993 0.897993
0.897658 0.897993 0.897993
0.897993 0.897993 0.897993
0.897993 0.897993 0.897993
0.897993 0.897993 0.897993
