luts/lucashu_filmlike/cu_film5.cube
TITLE "Generated by Resolve"
LUT_3D_SIZE 9
0 0.00639353 0.0357671
0 0.00657664 0.0339208
0.0467536 0.0119631 0.0290532
0.232624 0.0166018 0.0242161
0.467796 0.0209049 0.0347906
0.662608 0.030869 0.0452735
0.726238 0.0340124 0.0497902
0.729335 0.0341192 0.0499733
0.730037 0.0341497 0.0500191
0 0.0512551 0.0508431
0.000274662 0.0433509 0.0461585
0.0718853 0.039826 0.0293126
0.23061 0.0300755 0.0175479
0.461295 0.0213169 0.0313573
0.65919 0.0307469 0.0450752
0.724956 0.0339971 0.0497749
0.728069 0.0340734 0.049897
0.728786 0.0341039 0.0499428
0.00706493 0.131884 0.0864118
0.00674449 0.129732 0.0854505
0.10782 0.100984 0.0522316
0.267247 0.0967422 0.013901
0.441001 0.0712291 0.0241245
0.647929 0.0393072 0.0445563
0.720439 0.0348516 0.0497597
0.724239 0.0342565 0.049836
0.725032 0.0341802 0.0498665
0.0776532 0.268421 0.144167
0.0771496 0.267216 0.143786
0.0787366 0.264652 0.142809
0.342168 0.218677 0.0374151
0.545953 0.234775 0.0290074
0.675044 0.233661 0.0356451
0.710048 0.239384 0.0376593
0.706874 0.232197 0.0374151
0.70634 0.230732 0.0373846
0.116548 0.432883 0.176272
0.116426 0.431586 0.176135
0.11635 0.430762 0.176043
0.192721 0.429633 0.169329
0.576532 0.393362 0.0514992
0.739239 0.419684 0.0476387
0.799786 0.460853 0.12784
0.799313 0.458152 0.126513
0.799237 0.45771 0.126345
0.101701 0.610819 0.176806
0.102098 0.609018 0.176913
0.102266 0.608194 0.176959
0.102693 0.607202 0.176989
0.457649 0.583703 0.127367
0.724712 0.582071 0.0817121
0.807355 0.613596 0.160723
0.808209 0.613428 0.164004
0.808225 0.613367 0.164004
0.064271 0.727764 0.170947
0.064271 0.727764 0.170947
0.064271 0.727764 0.170947
0.064271 0.727764 0.170947
0.172503 0.743023 0.160632
0.668544 0.701442 0.0751507
0.794781 0.721828 0.122606
0.805158 0.729076 0.166003
0.805142 0.728893 0.166003
0.064271 0.727764 0.170947
0.064271 0.727764 0.170947
0.064271 0.727764 0.170947
0.064271 0.727764 0.170947
0.113939 0.737316 0.167056
0.638193 0.699504 0.0791943
0.786969 0.720745 0.105104
0.805203 0.732677 0.166003
0.805249 0.732723 0.166247
0.064271 0.727764 0.170947
0.064271 0.727764 0.170947
0.064271 0.727764 0.170947
0.064271 0.727764 0.170947
0.102205 0.736614 0.167559
0.630671 0.698894 0.0806592
0.784909 0.719905 0.101427
0.805081 0.73257 0.165393
0.805249 0.732723 0.166247
0 0.00885023 0.0434882
0 0.0112154 0.0503395
0.054963 0.0140078 0.0463722
0.254444 0.021088 0.0415656
0.496132 0.0222934 0.0370184
0.676997 0.0314794 0.0462043
0.735683 0.0343328 0.0503395
0.738109 0.0344244 0.0504768
0.738643 0.0344244 0.0504921
0 0.0436561 0.061677
0 0.0434882 0.0630961
0.0522011 0.0446479 0.0570382
0.245029 0.0348211 0.0431983
0.490929 0.022034 0.0366064
0.673884 0.0313268 0.0459907
0.734554 0.0343023 0.0502785
0.737041 0.0343938 0.0504158
0.737621 0.0343938 0.0504311
0.00277714 0.129 0.0912032
0.00265507 0.127901 0.0908217
0.095964 0.10808 0.0715801
0.274617 0.0970626 0.0205997
0.456535 0.0660105 0.0256657
0.665675 0.0358282 0.0465248
0.730663 0.034638 0.0501106
0.733974 0.0343633 0.0503243
0.734615 0.0343328 0.050309
0.0771038 0.26717 0.143755
0.076524 0.265782 0.143313
0.0780804 0.26334 0.142382
0.340841 0.217136 0.0369726
0.54464 0.233219 0.0289311
0.674815 0.233448 0.0356298
0.711742 0.241138 0.0377203
0.708782 0.233829 0.0375219
0.708431 0.232563 0.0375067
0.116487 0.432227 0.176211
0.11635 0.430793 0.176043
0.116289 0.430076 0.175982
0.192493 0.428656 0.169177
0.576272 0.392386 0.0513008
0.738964 0.418814 0.0475776
0.799619 0.45977 0.12726
0.799146 0.457053 0.125933
0.799084 0.456687 0.12578
0.101839 0.610147 0.176852
0.102205 0.608499 0.176944
0.102403 0.607569 0.176989
0.102785 0.606683 0.17702
0.456855 0.583032 0.127489
0.724666 0.581231 0.08159
0.807385 0.612909 0.160525
0.80824 0.612787 0.163821
0.808255 0.612665 0.163821
0.064271 0.727764 0.170947
0.064271 0.727764 0.170947
0.064271 0.727764 0.170947
0.064271 0.727764 0.170947
0.171328 0.742748 0.160754
0.668238 0.701244 0.0752117
0.79472 0.721553 0.122347
0.805142 0.728847 0.165988
0.805127 0.728679 0.165988
0.064271 0.727764 0.170947
0.064271 0.727764 0.170947
0.064271 0.727764 0.170947
0.064271 0.727764 0.170947
0.114153 0.737408 0.167041
0.637659 0.699458 0.0793011
0.786892 0.720714 0.104936
0.805203 0.732662 0.165988
0.805249 0.732723 0.166247
0.064271 0.727764 0.170947
0.064271 0.727764 0.170947
0.064271 0.727764 0.170947
0.064271 0.727764 0.170947
0.101976 0.736599 0.167559
0.630426 0.698878 0.0807202
0.784833 0.71986 0.101259
0.805066 0.732555 0.165347
0.805249 0.732723 0.166247
0 0.0196689 0.0586862
0 0.0220188 0.0622568
0.0450904 0.0288243 0.0874189
0.276188 0.0262303 0.0695201
0.534432 0.0241093 0.0477913
0.706249 0.0320134 0.0529488
0.75848 0.0343328 0.0568399
0.760662 0.0344549 0.057023
0.761273 0.0344854 0.0570687
0 0.0323339 0.0686656
0 0.0319371 0.0685435
0.0387274 0.0377813 0.090486
0.271534 0.0276493 0.0692149
0.53135 0.0239719 0.0469978
0.703273 0.0318456 0.0527199
0.757214 0.0342565 0.056733
0.75938 0.0343786 0.0569162
0.759945 0.0344244 0.0569619
0 0.120363 0.11397
0 0.119295 0.113375
0.0353399 0.127962 0.126589
0.273533 0.120394 0.0967422
0.52369 0.0615396 0.0526741
0.701137 0.0330663 0.0522774
0.754269 0.0342107 0.0562753
0.756741 0.0342412 0.0566873
0.757305 0.0342565 0.056733
0.0619059 0.269383 0.158541
0.061265 0.267994 0.158068
0.0620127 0.267628 0.158236
0.332052 0.234714 0.081239
0.54609 0.239338 0.0298466
0.67985 0.238209 0.0359045
0.721248 0.242847 0.0384833
0.720058 0.234058 0.0383917
0.720134 0.232532 0.0383917
0.116365 0.430488 0.176059
0.116228 0.429023 0.175906
0.116167 0.428229 0.17583
0.19115 0.427268 0.169116
0.575479 0.390768 0.0509499
0.738521 0.417197 0.047425
0.799542 0.459037 0.127291
0.799222 0.456992 0.126497
0.799207 0.456962 0.126574
0.102129 0.60882 0.176913
0.10248 0.607217 0.177005
0.102678 0.606241 0.177066
0.103075 0.605234 0.177096
0.455756 0.582116 0.127764
0.724453 0.580133 0.0814221
0.807416 0.611765 0.160174
0.808301 0.611688 0.163546
0.808301 0.611521 0.163516
0.064271 0.727764 0.170947
0.064271 0.727764 0.170947
0.064271 0.727764 0.170947
0.064271 0.727764 0.170947
0.169329 0.742153 0.160967
0.667933 0.700725 0.075288
0.794644 0.721019 0.122194
0.805127 0.728298 0.165957
0.805112 0.72813 0.165957
0.064271 0.727764 0.170947
0.064271 0.727764 0.170947
0.064271 0.727764 0.170947
0.064271 0.727764 0.170947
0.113787 0.737453 0.167041
0.63714 0.699413 0.079408
0.78677 0.720668 0.104677
0.805203 0.732662 0.165957
0.805249 0.732723 0.166247
0.064271 0.727764 0.170947
0.064271 0.727764 0.170947
0.064271 0.727764 0.170947
0.064271 0.727764 0.170947
0.100755 0.736446 0.167605
0.629831 0.698863 0.0808576
0.78471 0.719814 0.101045
0.805066 0.73254 0.165301
0.805249 0.732723 0.166247
0 0.0454871 0.0855726
0 0.0446326 0.0847486
0.00560006 0.0687724 0.124483
0.281178 0.0507515 0.136965
0.555428 0.0269169 0.103395
0.742046 0.0333562 0.0848249
0.788678 0.0355383 0.0847944
0.788846 0.0355383 0.0858473
0.788922 0.0355383 0.0863661
0 0.045304 0.0854047
0 0.0449531 0.0850385
0.00450141 0.066041 0.119356
0.276753 0.0505074 0.136355
0.553246 0.0266575 0.102312
0.740017 0.0332647 0.083772
0.788434 0.0355535 0.0835126
0.788663 0.0355383 0.0846265
0.788724 0.0355383 0.085008
0 0.0816358 0.113573
0 0.0803998 0.112596
0.00108339 0.0927596 0.130419
0.27071 0.0835279 0.151583
0.552895 0.0310216 0.104173
0.738262 0.0332494 0.082536
0.788128 0.0355535 0.0821851
0.788342 0.0355535 0.0831311
0.788403 0.0355535 0.0834669
0.000183108 0.255818 0.211154
0.00015259 0.254383 0.210376
0.000122072 0.253986 0.210529
0.246143 0.301167 0.252811
0.571054 0.282597 0.173342
0.738415 0.238071 0.092958
0.780011 0.233463 0.0941024
0.77911 0.222568 0.0966659
0.778988 0.220615 0.0974289
0.0787671 0.448768 0.225193
0.0790265 0.447135 0.224582
0.079118 0.446281 0.224292
0.127138 0.464866 0.229465
0.572366 0.44712 0.175616
0.749493 0.448966 0.0995193
0.807141 0.486885 0.164904
0.80705 0.484794 0.165331
0.80708 0.484657 0.165667
0.0970626 0.614404 0.194751
0.097734 0.612314 0.194247
0.0979782 0.61146 0.194141
0.0981003 0.610803 0.194781
0.451438 0.599435 0.153475
0.726848 0.592081 0.103227
0.809583 0.622477 0.173266
0.810666 0.623529 0.17792
0.810758 0.623529 0.17821
0.0643626 0.72723 0.172091
0.0644846 0.727077 0.171603
0.0645762 0.726925 0.171328
0.0647746 0.726482 0.171176
0.161288 0.738689 0.16199
0.666026 0.698558 0.0758068
0.794293 0.718715 0.121538
0.805097 0.726162 0.166018
0.805127 0.726055 0.16611
0.064271 0.727764 0.170947
0.064271 0.727764 0.170947
0.064271 0.727764 0.170947
0.064271 0.727764 0.170947
0.110597 0.737408 0.167208
0.635081 0.699229 0.0798047
0.786206 0.720409 0.103532
0.805158 0.732631 0.165789
0.805249 0.732723 0.166247
0.064271 0.727764 0.170947
0.064271 0.727764 0.170947
0.064271 0.727764 0.170947
0.064271 0.727764 0.170947
0.0958572 0.735866 0.167773
0.62771 0.698756 0.0813458
0.784024 0.71957 0.100038
0.80502 0.732509 0.165087
0.805249 0.732723 0.166247
0 0.0816663 0.121324
0 0.0816358 0.121294
0 0.0868696 0.128649
0.239445 0.0968032 0.220645
0.550378 0.0658579 0.187167
0.748501 0.0358892 0.157412
0.793164 0.0359655 0.15317
0.793149 0.0359808 0.15404
0.793149 0.0359808 0.154421
0 0.081529 0.121187
0 0.0813611 0.121019
0 0.0850233 0.12636
0.234562 0.0971847 0.22031
0.548638 0.0653544 0.186145
0.746883 0.0358282 0.156313
0.793179 0.035935 0.151949
0.793164 0.0359503 0.152651
0.793164 0.0359503 0.152987
0 0.0812695 0.120943
0 0.0810559 0.120714
0 0.0817273 0.122103
0.221805 0.0991226 0.221027
0.545373 0.0651713 0.185458
0.7449 0.0357519 0.155459
0.793179 0.0359197 0.150744
0.793179 0.0359197 0.151431
0.793179 0.035935 0.151705
0 0.214527 0.226947
0 0.212833 0.225498
0 0.211551 0.224414
0.13669 0.267659 0.313954
0.574044 0.233799 0.273182
0.770947 0.156527 0.198016
0.808301 0.13283 0.183215
0.806851 0.120027 0.179995
0.806806 0.119295 0.179812
0 0.421881 0.326986
0 0.420706 0.325628
0 0.419547 0.325216
0.0197452 0.442359 0.343236
0.537087 0.532769 0.426032
0.76408 0.515587 0.29453
0.824781 0.520516 0.273503
0.824567 0.517937 0.273671
0.824552 0.517617 0.273747
0.0254063 0.625071 0.287312
0.0259709 0.623529 0.286824
0.0263066 0.622614 0.286549
0.0260624 0.621164 0.286931
0.412833 0.691798 0.325246
0.746273 0.66006 0.301228
0.834791 0.671687 0.299153
0.836545 0.673304 0.305577
0.836591 0.673289 0.305821
0.0275731 0.743435 0.258915
0.0281529 0.74316 0.258259
0.0284428 0.742977 0.257954
0.0285496 0.742687 0.257923
0.119265 0.764187 0.269032
0.696208 0.755276 0.262058
0.827802 0.770397 0.300984
0.841672 0.779385 0.358526
0.841688 0.779278 0.358633
0.0308385 0.746883 0.252827
0.0314183 0.746731 0.252094
0.0317388 0.746654 0.251667
0.031754 0.746654 0.251667
0.0689708 0.756237 0.25771
0.669017 0.759716 0.258366
0.817655 0.773678 0.279362
0.840345 0.786694 0.350195
0.84065 0.787015 0.351812
0.0321813 0.746548 0.251041
0.0327764 0.746395 0.250278
0.0331273 0.746303 0.249821
0.0332036 0.746288 0.24976
0.0514382 0.753857 0.254566
0.66125 0.758816 0.255131
0.814282 0.771481 0.27071
0.839185 0.785122 0.343633
0.839612 0.785489 0.34583
0 0.115389 0.154376
0 0.115282 0.154284
0 0.11545 0.154467
0.0841688 0.177661 0.284245
0.459449 0.125689 0.321874
0.699657 0.0982834 0.279789
0.774121 0.0774243 0.257511
0.773175 0.0786603 0.259556
0.772473 0.0795148 0.261067
0 0.11519 0.154177
0 0.115038 0.154025
0 0.115023 0.15404
0.0796979 0.176303 0.280842
0.457679 0.125048 0.319829
0.699138 0.0972915 0.276677
0.775967 0.0750591 0.253452
0.775082 0.0762798 0.255406
0.774563 0.0768902 0.256458
0 0.115023 0.154009
0 0.114778 0.153765
0 0.114717 0.153704
0.0710307 0.173938 0.272099
0.454582 0.124773 0.318288
0.697932 0.0967727 0.274769
0.777371 0.073167 0.25037
0.776577 0.0742199 0.252033
0.776211 0.0747082 0.252827
0 0.134371 0.170596
0 0.133074 0.169451
0 0.132219 0.168734
0.0312963 0.176593 0.243229
0.442176 0.13576 0.325917
0.692592 0.101579 0.275151
0.781521 0.0725414 0.246387
0.780514 0.0727092 0.247242
0.780179 0.0731365 0.247929
0 0.382818 0.384436
0 0.381308 0.382895
0 0.380499 0.382147
0.00750744 0.389578 0.393408
0.474022 0.525643 0.543664
0.791775 0.504051 0.508354
0.873945 0.498238 0.468208
0.874235 0.492546 0.467201
0.874311 0.491859 0.467491
0 0.581521 0.445441
0 0.580118 0.44445
0 0.579232 0.444038
0 0.577859 0.443931
0.350515 0.682307 0.533181
0.757992 0.716716 0.576715
0.866941 0.719661 0.534218
0.871138 0.719646 0.53434
0.871168 0.719539 0.534432
0 0.735271 0.410132
0 0.73518 0.408469
0 0.735042 0.407736
0 0.734356 0.407782
0.0618601 0.74931 0.426719
0.710155 0.821302 0.535805
0.856626 0.812345 0.546304
0.878126 0.818265 0.580148
0.878172 0.818128 0.580255
0 0.755459 0.397284
0 0.755581 0.395529
0 0.755642 0.394659
0 0.755688 0.394278
0.00335698 0.762158 0.401328
0.684184 0.843015 0.525231
0.84535 0.831556 0.53341
0.879362 0.841459 0.589532
0.880339 0.841978 0.592706
0 0.755505 0.394568
0 0.755627 0.392447
0 0.755688 0.391485
0 0.755734 0.39118
0 0.75906 0.395285
0.6748 0.842771 0.520485
0.841688 0.830274 0.527581
0.877958 0.840345 0.583612
0.87985 0.841367 0.589929
0 0.145296 0.184558
0 0.145251 0.184512
0 0.145266 0.184527
0.00888075 0.20264 0.268818
0.401221 0.223651 0.444282
0.618173 0.165438 0.491402
0.689158 0.155322 0.49424
0.689021 0.155718 0.496025
0.68893 0.155901 0.496818
0 0.145174 0.184436
0 0.145022 0.184283
0 0.145022 0.184268
0.00796521 0.200351 0.265034
0.399298 0.222919 0.442664
0.616251 0.165087 0.488823
0.689662 0.154482 0.490913
0.689525 0.154849 0.492485
0.689418 0.155032 0.493278
0 0.145006 0.184253
0 0.144839 0.1841
0 0.144793 0.184039
0.00596628 0.195727 0.257389
0.3953 0.222614 0.442329
0.614038 0.164874 0.486488
0.689967 0.153887 0.488304
0.689845 0.154208 0.489754
0.689784 0.15433 0.490288
0 0.144427 0.183642
0 0.144228 0.183459
0 0.144167 0.183383
0.0019379 0.172854 0.222675
0.37435 0.223255 0.443366
0.605264 0.164843 0.480873
0.690517 0.152499 0.482048
0.690394 0.152789 0.48336
0.690288 0.152941 0.48397
0 0.341253 0.385443
0 0.339025 0.382834
0 0.337789 0.381415
0.00187686 0.33959 0.384848
0.370336 0.469444 0.606928
0.70251 0.416495 0.607843
0.796643 0.39205 0.601602
0.793896 0.383368 0.599268
0.79379 0.382635 0.599268
0 0.551522 0.523552
0 0.549737 0.522271
0 0.548943 0.521737
0 0.547601 0.521157
0.274754 0.658213 0.627588
0.744595 0.713207 0.678676
0.883085 0.710201 0.679332
0.892622 0.708965 0.677241
0.892485 0.708537 0.677409
0 0.702998 0.555764
0 0.702373 0.554864
0 0.701823 0.554345
0 0.700984 0.554284
0.0453193 0.714961 0.567941
0.700542 0.822522 0.675715
0.869734 0.830457 0.698421
0.900114 0.832731 0.693736
0.900313 0.832593 0.693736
0 0.745617 0.547005
0 0.74551 0.545785
0 0.745449 0.54519
0 0.745373 0.545098
0 0.746227 0.546044
0.663264 0.862043 0.666331
0.861524 0.864836 0.694942
0.898833 0.867262 0.703502
0.90248 0.867918 0.706691
0 0.745647 0.545129
0 0.745556 0.543893
0 0.74551 0.543191
0 0.745495 0.542992
0 0.745525 0.54342
0.652064 0.861631 0.663218
0.858747 0.865934 0.693248
0.896895 0.868269 0.700587
0.902144 0.869398 0.705989
0 0.157198 0.197086
0 0.157198 0.197086
0 0.157198 0.197086
0.00233463 0.204349 0.263706
0.358923 0.254002 0.546014
0.610651 0.202945 0.548592
0.69633 0.175357 0.574716
0.69633 0.175357 0.574716
0.69633 0.175357 0.574716
0 0.157198 0.197086
0 0.157198 0.19707
0 0.157198 0.19707
0.00205997 0.201907 0.259953
0.354162 0.254139 0.547631
0.607904 0.204028 0.547616
0.69633 0.175357 0.574716
0.69633 0.175357 0.574716
0.69633 0.175357 0.574716
0 0.157183 0.19707
0 0.157183 0.197055
0 0.157183 0.197055
0.00173953 0.196674 0.252232
0.347051 0.254429 0.54934
0.605112 0.20502 0.546654
0.696315 0.175341 0.57467
0.69633 0.175357 0.574716
0.69633 0.175357 0.574716
0 0.157122 0.196994
0 0.157107 0.196994
0 0.157107 0.196994
0.000244144 0.178424 0.225879
0.312352 0.256352 0.553872
0.593256 0.209369 0.54229
0.696239 0.175204 0.574243
0.696254 0.175219 0.574319
0.696254 0.175235 0.574334
0 0.307393 0.361578
0 0.304006 0.357824
0 0.30132 0.354864
0 0.301015 0.355337
0.298619 0.418753 0.611521
0.651331 0.356329 0.618006
0.761959 0.308324 0.635126
0.757885 0.298314 0.631342
0.757061 0.2963 0.630655
0 0.541253 0.551034
0 0.539605 0.550134
0 0.538628 0.54963
0 0.537072 0.548943
0.231189 0.645014 0.652247
0.728511 0.702754 0.712566
0.855665 0.700236 0.726406
0.865812 0.699092 0.727504
0.865705 0.698802 0.727459
0 0.69308 0.602182
0 0.692241 0.601846
0 0.691707 0.601694
0 0.690715 0.601541
0.0282292 0.704555 0.614908
0.680919 0.811841 0.71342
0.871489 0.829404 0.73962
0.90988 0.830259 0.741222
0.91043 0.830121 0.741192
0 0.747372 0.606394
0 0.747112 0.606165
0 0.746914 0.606043
0 0.746365 0.606119
0 0.745022 0.606439
0.64181 0.851774 0.704677
0.866407 0.869871 0.742748
0.905547 0.871855 0.747387
0.910796 0.872389 0.747066
0 0.750988 0.605463
0 0.750957 0.605173
0 0.750942 0.605081
0 0.750957 0.605158
0 0.750988 0.605524
0.629999 0.858167 0.702403
0.864775 0.878828 0.742748
0.90454 0.879393 0.748089
0.910094 0.880171 0.749783
0 0.157259 0.197147
0 0.157259 0.197147
0 0.157259 0.197147
0.00204471 0.200992 0.258579
0.354467 0.254292 0.54725
0.60972 0.203265 0.548394
0.69633 0.175357 0.574716
0.69633 0.175357 0.574716
0.69633 0.175357 0.574716
0 0.157259 0.197147
0 0.157259 0.197147
0 0.157259 0.197147
0.00183108 0.198322 0.254612
0.349218 0.254475 0.549065
0.60676 0.204471 0.547372
0.69633 0.175357 0.574716
0.69633 0.175357 0.574716
0.69633 0.175357 0.574716
0 0.157259 0.197147
0 0.157259 0.197147
0 0.157259 0.197147
0.00148013 0.192325 0.245869
0.341878 0.25481 0.551019
0.603693 0.205692 0.546304
0.69633 0.175357 0.574716
0.69633 0.175357 0.574716
0.69633 0.175357 0.574716
0 0.157259 0.197147
0 0.157259 0.197147
0 0.157259 0.197147
7.62951e-05 0.176883 0.223621
0.305791 0.257206 0.553979
0.591424 0.210529 0.542092
0.69633 0.175357 0.574716
0.69633 0.175357 0.574716
0.69633 0.175357 0.574716
0 0.29398 0.346456
0 0.29041 0.34255
0 0.288182 0.340093
0 0.287556 0.340124
0.279622 0.397375 0.602396
0.633982 0.331106 0.605585
0.747814 0.276112 0.623804
0.743053 0.263005 0.619089
0.742031 0.260426 0.618189
0 0.53698 0.55346
0 0.535302 0.552605
0 0.534249 0.552071
0 0.53283 0.551339
0.217624 0.639261 0.652827
0.724544 0.697536 0.716228
0.852644 0.694118 0.727825
0.862776 0.693034 0.729534
0.86273 0.692851 0.729473
0 0.690089 0.611109
0 0.689281 0.61091
0 0.68867 0.610788
0 0.687694 0.610651
0.0233616 0.701473 0.624094
0.67599 0.809689 0.721706
0.868452 0.827756 0.746731
0.906661 0.828077 0.752316
0.907469 0.827909 0.752361
0 0.745754 0.61854
0 0.745464 0.618479
0 0.74519 0.618463
0 0.744503 0.618509
0 0.742901 0.618692
0.638453 0.848096 0.714015
0.865599 0.868147 0.750423
0.906767 0.871672 0.755734
0.912352 0.872206 0.755947
0 0.752438 0.618128
0 0.752438 0.618082
0 0.752438 0.618097
0 0.752453 0.618219
0 0.752499 0.618585
0.626963 0.856779 0.711772
0.86424 0.877821 0.751141
0.905898 0.879438 0.757
0.911177 0.880232 0.758175
