luts/lucashu_filmlike/cu_film4.cube
TITLE "Generated by Resolve"
LUT_3D_SIZE 9
0.00563058 0.0062562 0.00723278
0.00665293 0.00746166 0.00862135
0.028687 0.0205386 0.0255131
0.135195 0.0390478 0.0707103
0.318929 0.0396277 0.116732
0.522393 0.0281987 0.157671
0.603845 0.0226596 0.176028
0.605295 0.0225986 0.178805
0.6056 0.0225834 0.1794
0.0282139 0.0386358 0.0381018
0.0271916 0.0366674 0.0364233
0.0409705 0.0439765 0.0432593
0.148547 0.0463722 0.0690929
0.318105 0.0396124 0.115343
0.521691 0.0282139 0.156222
0.603174 0.0226749 0.174807
0.604685 0.0226291 0.177661
0.60499 0.0226139 0.178256
0.0410773 0.093843 0.0652171
0.0410163 0.0924697 0.0644999
0.0511635 0.0957198 0.0635691
0.185901 0.102419 0.0575265
0.375448 0.0495308 0.0635996
0.583413 0.0283665 0.133425
0.60528 0.0229038 0.169879
0.606516 0.0225986 0.173739
0.606363 0.0225376 0.174472
0.0175479 0.231937 0.0729534
0.0179446 0.230198 0.0730449
0.018143 0.229511 0.0712444
0.16939 0.255283 0.0436408
0.462791 0.248112 0.0299229
0.707393 0.182834 0.0106203
0.789883 0.144396 0.00657664
0.790311 0.132403 0.00924697
0.79028 0.130388 0.00984207
0 0.405035 0.0833448
0 0.403677 0.0831006
0 0.402655 0.0829175
0.0355383 0.413855 0.0647898
0.395712 0.458915 0.0389258
0.66389 0.461494 0.0371862
0.782467 0.438727 0.029221
0.782712 0.435187 0.0289769
0.782727 0.434669 0.0289311
7.62951e-05 0.563958 0.120378
7.62951e-05 0.562615 0.120012
7.62951e-05 0.561913 0.119829
7.62951e-05 0.561181 0.118929
0.263432 0.622263 0.0658427
0.617517 0.655161 0.0392004
0.768658 0.656458 0.0395972
0.772274 0.654826 0.0396124
0.77229 0.654658 0.0396124
0.000167849 0.674861 0.147616
0.000167849 0.674861 0.147616
0.000167849 0.674861 0.147616
0.000167849 0.674861 0.147616
0.0772564 0.708614 0.132631
0.539025 0.772824 0.0711223
0.740124 0.782162 0.0392615
0.768856 0.782269 0.039353
0.768872 0.782101 0.039353
0.000167849 0.674861 0.147616
0.000167849 0.674861 0.147616
0.000167849 0.674861 0.147616
0.000167849 0.674861 0.147616
0.0303044 0.693309 0.139742
0.502281 0.771023 0.0794537
0.719982 0.785168 0.0392004
0.768704 0.786862 0.0393378
0.768704 0.786862 0.0393378
0.000167849 0.674861 0.147616
0.000167849 0.674861 0.147616
0.000167849 0.674861 0.147616
0.000167849 0.674861 0.147616
0.0259098 0.691981 0.140459
0.496498 0.77052 0.0806897
0.715694 0.785016 0.0392767
0.768704 0.786862 0.0393378
0.768704 0.786862 0.0393378
0.00729381 0.00784314 0.0104524
0.00920119 0.00941482 0.0124971
0.0369268 0.0233768 0.0334325
0.147509 0.0400092 0.0822614
0.329473 0.0392615 0.129122
0.52871 0.0279088 0.167956
0.608438 0.022446 0.185016
0.609628 0.0223697 0.187518
0.609888 0.0223545 0.188067
0.0268711 0.0354772 0.0420844
0.0259861 0.0340581 0.0399176
0.0430915 0.0423285 0.0498054
0.154925 0.0439002 0.0817426
0.32874 0.039292 0.127825
0.528496 0.027924 0.166873
0.607889 0.0224765 0.183902
0.609094 0.0224002 0.186419
0.609354 0.022385 0.186954
0.0409552 0.0925917 0.0758831
0.0408942 0.0914168 0.0751049
0.0513008 0.0946822 0.0747234
0.188724 0.0950637 0.0712596
0.40325 0.054612 0.0948653
0.588296 0.028809 0.154696
0.610803 0.0228885 0.180331
0.610483 0.0223239 0.183078
0.610162 0.0223239 0.183688
0.0179294 0.230289 0.0730449
0.0182956 0.228702 0.0731212
0.0185397 0.227832 0.0714885
0.169039 0.253513 0.0438849
0.463111 0.245487 0.0301061
0.710231 0.177081 0.0177768
0.795331 0.134401 0.0210422
0.794324 0.122683 0.026154
0.793896 0.121294 0.0272374
0 0.404196 0.0831922
0 0.402838 0.082948
0 0.401862 0.0827802
0.0354772 0.412985 0.0647135
0.395804 0.457847 0.0389258
0.663951 0.460349 0.0371252
0.782544 0.437613 0.0291295
0.782818 0.433692 0.0288396
0.782834 0.433265 0.0288243
7.62951e-05 0.563378 0.120226
7.62951e-05 0.562051 0.119875
7.62951e-05 0.561242 0.119661
7.62951e-05 0.560662 0.118791
0.263554 0.621546 0.065568
0.617639 0.654353 0.0392004
0.768673 0.655802 0.0395972
0.772274 0.654246 0.0396124
0.772274 0.654002 0.0396124
0.000167849 0.674861 0.147616
0.000167849 0.674861 0.147616
0.000167849 0.674861 0.147616
0.000167849 0.674861 0.147616
0.0770123 0.708537 0.132647
0.538796 0.772549 0.0710155
0.740063 0.781888 0.0392615
0.768872 0.781979 0.039353
0.768887 0.781811 0.039353
0.000167849 0.674861 0.147616
0.000167849 0.674861 0.147616
0.000167849 0.674861 0.147616
0.000167849 0.674861 0.147616
0.0300603 0.693248 0.139773
0.50219 0.771023 0.0794842
0.719905 0.785153 0.0392004
0.768704 0.786862 0.0393378
0.768704 0.786862 0.0393378
0.000167849 0.674861 0.147616
0.000167849 0.674861 0.147616
0.000167849 0.674861 0.147616
0.000167849 0.674861 0.147616
0.0256352 0.691905 0.14049
0.496345 0.770489 0.080705
0.715557 0.785 0.039292
0.768704 0.786862 0.0393378
0.768704 0.786862 0.0393378
0.0112612 0.0119478 0.019852
0.0193484 0.016434 0.028397
0.049897 0.0276951 0.0506447
0.161959 0.0408789 0.101518
0.343114 0.0384833 0.15375
0.54049 0.0269322 0.193744
0.619058 0.0215457 0.210971
0.620203 0.0214237 0.214252
0.620539 0.0213779 0.21529
0.0202182 0.0239414 0.0380713
0.0203098 0.0234836 0.0369421
0.0489052 0.0339818 0.0567483
0.16173 0.0413825 0.101015
0.342504 0.0385138 0.152392
0.540154 0.026978 0.191928
0.618357 0.021622 0.208972
0.619486 0.0215 0.212085
0.619776 0.0214542 0.21294
0.0407263 0.0897993 0.108003
0.0406806 0.0887617 0.106767
0.0520485 0.0918898 0.105959
0.208759 0.0991226 0.129809
0.422705 0.0607156 0.150057
0.571481 0.0270542 0.183841
0.620279 0.0217441 0.204746
0.618875 0.0216068 0.208179
0.618723 0.0215915 0.208942
0.0160983 0.232074 0.125597
0.0164492 0.230488 0.125475
0.0166934 0.229618 0.124407
0.174243 0.25214 0.101701
0.475563 0.231067 0.0684672
0.720317 0.158511 0.0538186
0.801038 0.119814 0.0574655
0.798413 0.111192 0.0626841
0.797894 0.10985 0.0638285
0 0.402426 0.0828717
0 0.401068 0.0826276
0 0.400092 0.0824903
0.0344854 0.411154 0.065156
0.395499 0.455894 0.0394598
0.664256 0.45771 0.0380255
0.783734 0.434195 0.0335241
0.784573 0.430472 0.0351568
0.784772 0.429664 0.035523
7.62951e-05 0.562493 0.119982
7.62951e-05 0.560998 0.119585
7.62951e-05 0.560159 0.119356
7.62951e-05 0.559579 0.118502
0.262928 0.620478 0.0653391
0.617502 0.653162 0.0392004
0.768597 0.654414 0.0395972
0.772274 0.652934 0.0396124
0.772274 0.65275 0.0396277
0.000167849 0.674861 0.147616
0.000167849 0.674861 0.147616
0.000167849 0.674861 0.147616
0.000167849 0.674861 0.147616
0.0766308 0.708095 0.132616
0.538521 0.771893 0.0706798
0.739986 0.781247 0.0392615
0.768902 0.781323 0.039353
0.768902 0.781155 0.039353
0.000167849 0.674861 0.147616
0.000167849 0.674861 0.147616
0.000167849 0.674861 0.147616
0.000167849 0.674861 0.147616
0.0301213 0.693248 0.139773
0.501945 0.770993 0.07953
0.719646 0.785153 0.0392004
0.768704 0.786862 0.0393378
0.768704 0.786862 0.0393378
0.000167849 0.674861 0.147616
0.000167849 0.674861 0.147616
0.000167849 0.674861 0.147616
0.000167849 0.674861 0.147616
0.0255589 0.69192 0.140475
0.496025 0.770459 0.0807813
0.715312 0.784985 0.039292
0.768704 0.786862 0.0393378
0.768704 0.786862 0.0393378
0.0198978 0.0188602 0.0481727
0.0301366 0.0232242 0.0629892
0.110826 0.0391852 0.133318
0.193912 0.0417945 0.162478
0.37322 0.0360113 0.22533
0.571252 0.023209 0.280262
0.648936 0.0177462 0.30135
0.649531 0.0176852 0.303456
0.649714 0.0176547 0.304128
0.0195926 0.0186618 0.0474403
0.0223697 0.0199435 0.0514839
0.107393 0.03888 0.130495
0.192889 0.0417945 0.160876
0.372656 0.0360723 0.223621
0.570764 0.02327 0.278141
0.648203 0.0178531 0.298924
0.648814 0.0177768 0.300877
0.649027 0.0177462 0.301595
0.0337224 0.0531167 0.115145
0.0332952 0.0520485 0.112505
0.0666361 0.0604562 0.141512
0.201343 0.063035 0.184634
0.379202 0.038056 0.224903
0.571252 0.0233921 0.275731
0.647242 0.0179904 0.295903
0.647883 0.0178988 0.297948
0.648112 0.0178683 0.298634
0.0136263 0.227863 0.267399
0.0140078 0.2262 0.265873
0.0142519 0.225116 0.264836
0.183688 0.244282 0.259236
0.492256 0.216068 0.263294
0.725887 0.181842 0.277684
0.800565 0.164599 0.29369
0.798367 0.159045 0.300053
0.797848 0.157977 0.301793
0 0.415656 0.257786
0 0.414008 0.256184
0 0.41297 0.255467
0.026566 0.424643 0.248142
0.403815 0.465049 0.225681
0.683085 0.445716 0.200046
0.807233 0.412345 0.188891
0.808072 0.407691 0.191989
0.808225 0.406989 0.192721
0 0.567773 0.183139
0 0.566308 0.181827
0 0.565377 0.181827
0 0.565057 0.183307
0.258061 0.626032 0.154391
0.618021 0.657359 0.124331
0.771618 0.658946 0.120897
0.77583 0.657771 0.124697
0.77586 0.65771 0.125994
0.000167849 0.674022 0.147433
0.000167849 0.673976 0.147433
0.000167849 0.673884 0.147402
0.000167849 0.67335 0.147295
0.0736248 0.70425 0.132403
0.536843 0.76907 0.0693217
0.738933 0.778515 0.0392615
0.769009 0.778637 0.039353
0.769009 0.77847 0.039353
0.000167849 0.674861 0.147616
0.000167849 0.674861 0.147616
0.000167849 0.674861 0.147616
0.000167849 0.674861 0.147616
0.0281682 0.692607 0.140093
0.49958 0.770779 0.0799878
0.718212 0.785092 0.0392004
0.768704 0.786862 0.0393378
0.768704 0.786862 0.0393378
0.000167849 0.674861 0.147616
0.000167849 0.674861 0.147616
0.000167849 0.674861 0.147616
0.000167849 0.674861 0.147616
0.0233005 0.691234 0.14078
0.49369 0.770245 0.0812238
0.714015 0.784939 0.0393378
0.768704 0.786862 0.0393378
0.768704 0.786862 0.0393378
0.0812543 0.0385443 0.190784
0.0811475 0.038529 0.190509
0.132982 0.0415198 0.238178
0.259022 0.0399023 0.302968
0.405966 0.0320439 0.34966
0.598825 0.0189364 0.398825
0.674342 0.0136873 0.422278
0.67454 0.0136416 0.42359
0.674632 0.0136263 0.424231
0.0809644 0.0384985 0.190066
0.0806592 0.0384527 0.189288
0.127977 0.0413672 0.233127
0.257755 0.0399634 0.300862
0.405615 0.032105 0.347509
0.598627 0.0189975 0.396933
0.674006 0.0137484 0.420203
0.674205 0.0137026 0.421378
0.674266 0.0136873 0.42182
0.0805066 0.0384222 0.188922
0.0800641 0.0383612 0.187823
0.109545 0.040528 0.21593
0.255177 0.0400854 0.298573
0.40441 0.0322118 0.345281
0.597986 0.0190738 0.394949
0.673716 0.0138094 0.418265
0.673899 0.0137789 0.419409
0.67393 0.0137636 0.419715
0.0231937 0.171588 0.395987
0.023682 0.169772 0.393072
0.0240635 0.168246 0.391119
0.204807 0.178378 0.433066
0.46833 0.163119 0.436698
0.672496 0.122026 0.45069
0.737514 0.0892195 0.454429
0.731579 0.0778668 0.451209
0.729503 0.0759594 0.450431
0 0.415595 0.472984
0 0.413855 0.47126
0 0.41268 0.470649
0.0235294 0.421683 0.46949
0.414069 0.4533 0.463172
0.695186 0.419257 0.465919
0.818586 0.399725 0.475731
0.818219 0.398505 0.479438
0.818128 0.398459 0.4804
0 0.596033 0.458503
0 0.594598 0.456809
0 0.593713 0.455848
0 0.592523 0.455985
0.252125 0.64741 0.451759
0.617121 0.669932 0.438865
0.78024 0.660304 0.428611
0.786435 0.657465 0.429328
0.786465 0.657221 0.429465
0 0.708476 0.431266
0 0.707897 0.429053
0 0.7075 0.428046
0 0.706905 0.428214
0.0581979 0.735317 0.42678
0.536965 0.798093 0.414206
0.736797 0.805524 0.406043
0.771542 0.805798 0.405188
0.771572 0.805585 0.405844
0 0.712978 0.410147
0 0.712581 0.407385
0 0.712413 0.406226
0 0.712428 0.406287
0.0216526 0.729076 0.405982
0.496635 0.804685 0.391806
0.714199 0.817029 0.382834
0.770123 0.818998 0.381415
0.770123 0.819059 0.382101
0 0.712032 0.403525
0 0.711666 0.400885
0 0.711452 0.39939
0 0.711421 0.399237
0.0157626 0.726284 0.3991
0.489998 0.803265 0.384115
0.709926 0.816129 0.375204
0.770047 0.818189 0.373175
0.770123 0.818235 0.373571
0.132433 0.0422217 0.33164
0.132357 0.0422217 0.331258
0.134569 0.0422217 0.33344
0.294179 0.0364233 0.445792
0.434684 0.0273289 0.50013
0.616495 0.0146334 0.553689
0.691463 0.00982681 0.569696
0.691585 0.00978103 0.571115
0.691646 0.00976577 0.57174
0.132235 0.0422217 0.330877
0.131975 0.0422217 0.330037
0.133822 0.0422217 0.331716
0.293584 0.0364691 0.444022
0.434241 0.0274052 0.498039
0.616373 0.0146944 0.551369
0.691203 0.00988785 0.566918
0.69131 0.00985733 0.568002
0.691371 0.00984207 0.568612
0.13196 0.0422217 0.329961
0.131701 0.0422217 0.329076
0.131914 0.0422217 0.329122
0.290013 0.0366979 0.440894
0.433265 0.0274968 0.496239
0.615976 0.0147555 0.549325
0.69099 0.00993362 0.564584
0.691096 0.00991836 0.565667
0.691142 0.0099031 0.566186
0.105943 0.0561227 0.345464
0.107179 0.0551919 0.343145
0.107866 0.0544289 0.340902
0.247471 0.0496376 0.439033
0.42591 0.0354772 0.500023
0.611826 0.0194095 0.546532
0.691966 0.012665 0.561074
0.691478 0.0121157 0.561547
0.691539 0.0121614 0.561852
0 0.378286 0.654841
0 0.376349 0.653193
0 0.37496 0.652399
0.0290684 0.378271 0.655909
0.427222 0.399695 0.664378
0.674327 0.393713 0.653742
0.784924 0.381918 0.656291
0.784054 0.37731 0.655741
0.783917 0.376989 0.65594
0 0.596323 0.660517
0 0.594766 0.659052
0 0.59379 0.658351
0 0.592218 0.658015
0.262501 0.63473 0.670375
0.61648 0.649729 0.662287
0.790784 0.633356 0.665171
0.799405 0.630854 0.666606
0.79942 0.630579 0.66717
0 0.7243 0.650507
0 0.723522 0.648829
0 0.722972 0.648066
0 0.722103 0.647684
0.0591287 0.742901 0.653391
0.539605 0.800519 0.654856
0.734722 0.805371 0.646326
0.777188 0.8056 0.644907
0.777218 0.805386 0.644877
0 0.744503 0.641978
0 0.744274 0.640192
0 0.744121 0.639078
0 0.744091 0.638865
0.0153506 0.756985 0.642329
0.498421 0.825803 0.645838
0.709651 0.835691 0.637186
0.772747 0.837705 0.634775
0.773526 0.837736 0.634684
0 0.744137 0.639155
0 0.743847 0.636957
0 0.743725 0.635966
0 0.743679 0.635599
0.0157168 0.753902 0.638163
0.492195 0.825071 0.64181
0.705242 0.835279 0.633082
0.770825 0.837369 0.63032
0.773419 0.837476 0.630365
0.159838 0.0416114 0.444297
0.159792 0.0416114 0.444038
0.159823 0.0416114 0.444175
0.287388 0.0351263 0.544091
0.455024 0.0236057 0.617594
0.620386 0.0120394 0.673961
0.700847 0.0071107 0.69482
0.700877 0.00709544 0.695552
0.700908 0.00708019 0.695994
0.159731 0.0416266 0.443778
0.159609 0.0416266 0.443275
0.159579 0.0416266 0.443153
0.286488 0.0352026 0.542504
0.454765 0.0236667 0.616114
0.620172 0.0120851 0.672404
0.70074 0.00714122 0.693263
0.700786 0.00712596 0.693919
0.700801 0.0071107 0.694163
0.159579 0.0416266 0.443137
0.159426 0.0416266 0.442527
0.159396 0.0416419 0.442329
0.282551 0.0354467 0.539086
0.453742 0.023743 0.614588
0.62005 0.0121004 0.671229
0.700664 0.00715648 0.691981
0.70071 0.00714122 0.692515
0.700725 0.00714122 0.69279
0.158999 0.0416876 0.440833
0.158862 0.0416876 0.440238
0.158816 0.0416876 0.440024
0.24918 0.0373236 0.51284
0.444785 0.024445 0.609247
0.613672 0.0125734 0.666804
0.700496 0.00721752 0.689052
0.700542 0.00720226 0.689601
0.700542 0.00720226 0.689845
0.0246433 0.296788 0.776867
0.0252537 0.293843 0.774289
0.0258488 0.291585 0.772717
0.0512245 0.288045 0.773144
0.433402 0.289784 0.783764
0.663325 0.277028 0.778668
0.768536 0.263462 0.774411
0.767147 0.25594 0.7729
0.766827 0.254383 0.772595
0 0.57612 0.804959
0 0.574182 0.803998
0 0.573068 0.803403
0 0.571389 0.803281
0.276555 0.599435 0.815106
0.618341 0.609903 0.814191
0.778805 0.607843 0.811399
0.78793 0.605707 0.81149
0.78793 0.605447 0.811551
0 0.724315 0.801617
0 0.723537 0.800504
0 0.722972 0.8
0 0.722026 0.799908
0.0695811 0.73698 0.8056
0.543618 0.784512 0.814649
0.735683 0.788418 0.811734
0.787015 0.788434 0.811093
0.78703 0.788235 0.811246
0 0.766659 0.79704
0 0.766476 0.795956
0 0.766384 0.795422
0 0.766278 0.795239
0.0159457 0.771405 0.797284
0.502266 0.832715 0.810407
0.707897 0.840711 0.807736
0.775372 0.842481 0.806897
0.781247 0.842557 0.806958
0 0.766537 0.795026
0 0.766369 0.793912
0 0.766247 0.793149
0 0.766232 0.793072
0.0168002 0.770001 0.794629
0.49572 0.833326 0.808194
0.70312 0.842618 0.805753
0.770214 0.844923 0.804883
0.780682 0.845289 0.804669
0.169894 0.0410468 0.489052
0.169894 0.0410468 0.489036
0.169894 0.0410468 0.489052
0.27657 0.035111 0.576272
0.459556 0.0222629 0.668299
0.619959 0.0112001 0.718791
0.703456 0.00624094 0.740459
0.703456 0.00624094 0.740459
0.703456 0.00624094 0.740459
0.169879 0.0410468 0.489021
0.169879 0.0410468 0.489021
0.169879 0.0410468 0.489021
0.275181 0.0352026 0.575235
0.45951 0.0222629 0.668299
0.619837 0.0112001 0.7187
0.703456 0.00624094 0.740459
0.703456 0.00624094 0.740459
0.703456 0.00624094 0.740459
0.169879 0.0410468 0.488975
0.169879 0.0410468 0.488975
0.169848 0.0410468 0.488945
0.269963 0.035523 0.571252
0.458824 0.0223087 0.668116
0.619638 0.0112154 0.718608
0.703456 0.00624094 0.740444
0.703456 0.00624094 0.740459
0.703456 0.00624094 0.740459
0.169833 0.0410468 0.488777
0.169818 0.041062 0.488762
0.169802 0.041062 0.488701
0.236545 0.0374151 0.544366
0.449378 0.0229953 0.6645
0.613275 0.0116274 0.716335
0.703441 0.00624094 0.740169
0.703441 0.00624094 0.74023
0.703441 0.00624094 0.740246
0.0818952 0.222873 0.803265
0.0841077 0.217899 0.795331
0.0852369 0.214649 0.79028
0.0997482 0.209232 0.787457
0.428672 0.199771 0.810147
0.644663 0.182788 0.810941
0.752361 0.166842 0.809476
0.751308 0.156374 0.807309
0.751324 0.154925 0.807263
0 0.560204 0.859129
0 0.558206 0.859068
0 0.556741 0.859022
0 0.554742 0.858976
0.281865 0.574243 0.860609
0.619669 0.581964 0.861463
0.777234 0.57847 0.861433
0.787732 0.576074 0.861372
0.787732 0.575769 0.861372
0 0.721859 0.858915
0 0.721126 0.858763
0 0.720531 0.858671
0 0.719463 0.85864
0.0720531 0.730617 0.859113
0.545129 0.771054 0.860807
0.736736 0.772717 0.861112
0.7879 0.772305 0.861219
0.788052 0.772076 0.861219
0 0.773892 0.85745
0 0.773617 0.857282
0 0.773373 0.857206
0 0.772717 0.857267
0.0166018 0.773999 0.857649
0.505745 0.826947 0.860746
0.708568 0.832242 0.860945
0.776226 0.833341 0.861006
0.78703 0.833463 0.86099
0 0.777829 0.856977
0 0.777768 0.856825
0 0.777722 0.856733
0 0.777737 0.856779
0.0170901 0.78085 0.857237
0.497963 0.836194 0.860716
0.702632 0.844373 0.860868
0.769909 0.845975 0.860853
0.782666 0.846235 0.860853
0.169924 0.0410468 0.489204
0.169924 0.0410468 0.489204
0.169924 0.0410468 0.489204
0.270954 0.035462 0.572351
0.458289 0.0223392 0.668116
0.619181 0.0112459 0.718578
0.703456 0.00624094 0.740459
0.703456 0.00624094 0.740459
0.703456 0.00624094 0.740459
0.169924 0.0410468 0.489204
0.169924 0.0410468 0.489204
0.169924 0.0410468 0.489204
0.269337 0.0355535 0.571099
0.458259 0.0223392 0.668162
0.618845 0.0112612 0.718456
0.703456 0.00624094 0.740459
0.703456 0.00624094 0.740459
0.703456 0.00624094 0.740459
0.169924 0.0410468 0.489204
0.169924 0.0410468 0.489204
0.169924 0.0410468 0.489204
0.263462 0.0358892 0.566491
0.457343 0.0224002 0.667842
0.618601 0.0112764 0.718395
0.703456 0.00624094 0.740459
0.703456 0.00624094 0.740459
0.703456 0.00624094 0.740459
0.169924 0.0410468 0.489204
0.169924 0.0410468 0.489204
0.169924 0.0410468 0.489204
0.233127 0.037644 0.542473
0.447639 0.0231022 0.664363
0.612222 0.0116884 0.716381
0.703456 0.00624094 0.740459
0.703456 0.00624094 0.740459
0.703456 0.00624094 0.740459
0.0883192 0.198108 0.787915
0.0907149 0.193286 0.779263
0.0920119 0.190021 0.774929
0.105455 0.184176 0.772595
0.425834 0.170169 0.804227
0.638895 0.148791 0.804242
0.746883 0.12726 0.80209
0.745937 0.113832 0.799313
0.745708 0.111192 0.798901
0 0.553979 0.859846
0 0.551827 0.859846
0 0.550378 0.859846
0 0.54815 0.859846
0.28072 0.565682 0.860624
0.619638 0.572564 0.861601
0.776577 0.569146 0.862074
0.787732 0.566384 0.862104
0.787732 0.566094 0.862104
0 0.720913 0.859495
0 0.720073 0.85951
0 0.719554 0.859495
0 0.718517 0.85951
0.0742657 0.72842 0.859709
0.546044 0.766125 0.861006
0.737285 0.767224 0.861555
0.787762 0.766918 0.861692
0.788037 0.766522 0.861708
0 0.773922 0.859388
0 0.773602 0.859388
0 0.773312 0.859403
0 0.772549 0.859388
0.0171206 0.77348 0.859434
0.507347 0.823621 0.860761
0.709056 0.828611 0.861341
0.775982 0.829679 0.86154
0.787381 0.829862 0.86157
0 0.78117 0.859388
0 0.78117 0.859373
0 0.78117 0.859373
0 0.781201 0.859373
0.0172732 0.784146 0.859419
0.499306 0.836042 0.860716
0.702907 0.841627 0.861295
0.77023 0.842756 0.861494
0.782956 0.842924 0.86154
