luts/changyun_leica_like/cold.cube
TITLE "Generated by Resolve"
LUT_3D_SIZE 33
0.0280766 0.0407263 0.0388647
0.0280919 0.0407263 0.0388342
0.0281376 0.0406958 0.0387121
0.0352178 0.0405127 0.0402533
0.049836 0.0401007 0.0396887
0.067689 0.0398413 0.0394751
0.0872816 0.0397955 0.0395514
0.106691 0.0396277 0.0397955
0.130617 0.0392157 0.0404974
0.163088 0.0388647 0.0422217
0.20206 0.0383764 0.0439765
0.249332 0.0382086 0.0466621
0.305959 0.0389868 0.0514382
0.365316 0.0394141 0.0550393
0.421118 0.0413977 0.0628977
0.470542 0.0452735 0.0768139
0.511818 0.050721 0.0931563
0.55111 0.0574502 0.112215
0.586786 0.0613107 0.129671
0.617578 0.0626993 0.147326
0.641154 0.0676127 0.166186
0.647456 0.0690623 0.173907
0.648341 0.0691386 0.176669
0.649134 0.0691539 0.179355
0.64979 0.0691844 0.181506
0.650294 0.0692149 0.183261
0.650675 0.0692149 0.18471
0.651072 0.0691539 0.186389
0.651743 0.0691386 0.188342
0.652689 0.0688792 0.191943
0.653696 0.0684977 0.196155
0.655161 0.0677043 0.203555
0.656611 0.0668498 0.211276
0.0281987 0.04065 0.038529
0.0281376 0.0407111 0.0387121
0.0281071 0.0407263 0.0388037
0.0317235 0.0407568 0.0395514
0.045304 0.0401312 0.0398566
0.0633402 0.039765 0.0399329
0.0834211 0.0397803 0.0404059
0.103334 0.0395514 0.0400702
0.128313 0.0392615 0.0407263
0.16228 0.03888 0.0424201
0.202991 0.0383154 0.0445411
0.251621 0.0377356 0.0466468
0.309483 0.0379187 0.0498207
0.367956 0.0381628 0.0517586
0.422431 0.0397345 0.0573129
0.470954 0.0433204 0.0707408
0.512642 0.0488441 0.0882582
0.553246 0.0559548 0.108782
0.589563 0.0610666 0.128099
0.620935 0.0635233 0.147478
0.64184 0.0680247 0.164706
0.646571 0.0690318 0.171038
0.647562 0.0690776 0.174151
0.648341 0.0691386 0.176608
0.648997 0.0691539 0.178836
0.649531 0.0691691 0.180713
0.649882 0.0691997 0.181811
0.650233 0.0691234 0.183398
0.650675 0.0690166 0.18526
0.651453 0.0686961 0.188739
0.652354 0.0682689 0.192905
0.653758 0.0674449 0.200229
0.655222 0.0665446 0.208057
0.0281987 0.04065 0.038529
0.0281376 0.0407111 0.0387121
0.0281071 0.0407263 0.0388037
0.0281376 0.0406958 0.0386969
0.0379492 0.0409705 0.0404822
0.0552834 0.0409705 0.0402075
0.0753338 0.0405585 0.040116
0.0965896 0.0400549 0.0400397
0.12253 0.0397345 0.0409094
0.157717 0.0390173 0.0424201
0.199649 0.0383001 0.0444953
0.249607 0.037644 0.0469368
0.307912 0.0375372 0.0500801
0.367483 0.0378271 0.0521553
0.421775 0.0390173 0.0556497
0.468269 0.0417182 0.0643778
0.508598 0.0462196 0.0799115
0.549752 0.0525368 0.101015
0.588083 0.0595865 0.123369
0.620798 0.0639658 0.144533
0.640925 0.0680095 0.161379
0.645304 0.0689403 0.16733
0.646311 0.0690166 0.170214
0.647166 0.0690623 0.172946
0.647868 0.0690929 0.175189
0.648386 0.0691386 0.176791
0.648814 0.0691386 0.178225
0.649241 0.0690929 0.179843
0.649653 0.068986 0.181506
0.650385 0.0686198 0.185046
0.651179 0.0681621 0.189166
0.652552 0.0672923 0.19649
0.653956 0.0663767 0.204181
0.0281987 0.04065 0.0385443
0.0281224 0.0407111 0.0387427
0.0280919 0.0407263 0.038819
0.0281071 0.0407263 0.038819
0.0318914 0.0416419 0.0400244
0.046128 0.042771 0.0414588
0.0638437 0.043183 0.041413
0.0860914 0.0426032 0.0409247
0.113191 0.0413977 0.0406348
0.148836 0.0400854 0.041886
0.193408 0.0390478 0.0442054
0.244587 0.037995 0.046891
0.304356 0.0374914 0.05037
0.365667 0.037705 0.0530404
0.421118 0.0388647 0.0564279
0.467826 0.0413977 0.0643931
0.506767 0.0452583 0.0766766
0.544182 0.049134 0.0916762
0.583749 0.0561379 0.115297
0.619455 0.0639506 0.140414
0.639521 0.0679637 0.157198
0.643915 0.0688487 0.163073
0.644892 0.068925 0.165988
0.645762 0.0689708 0.168688
0.64651 0.0690318 0.170779
0.647105 0.0690471 0.172686
0.647562 0.0690776 0.174197
0.647974 0.0690318 0.175601
0.648417 0.0689403 0.177279
0.649195 0.068574 0.180819
0.65005 0.068101 0.184909
0.651438 0.0672313 0.192203
0.652903 0.0663157 0.199817
0.0296178 0.0483864 0.04271
0.02916 0.0479744 0.0418708
0.029221 0.0471962 0.0415808
0.0303349 0.0458839 0.0408789
0.0321355 0.0446784 0.0405432
0.0398718 0.0461433 0.0422675
0.0543374 0.046891 0.042771
0.0734264 0.0462196 0.0421149
0.100664 0.0446632 0.0415198
0.137881 0.0422675 0.0417182
0.183871 0.0406653 0.0435035
0.237171 0.0393225 0.0462959
0.299428 0.0381476 0.0497749
0.362402 0.0377661 0.0531319
0.419959 0.0386816 0.0572519
0.467002 0.0411688 0.0653697
0.506218 0.0450446 0.0771801
0.543252 0.0487526 0.0908827
0.580591 0.0545205 0.109087
0.61622 0.0624552 0.133928
0.637934 0.0679026 0.152743
0.642374 0.0687877 0.158556
0.643351 0.0688029 0.161532
0.644266 0.0688792 0.164034
0.645014 0.068925 0.166308
0.645624 0.0689403 0.168246
0.646082 0.068986 0.169528
0.64654 0.0689555 0.171054
0.647013 0.0688487 0.172915
0.647807 0.0684977 0.176242
0.648722 0.0680095 0.180468
0.650156 0.0671397 0.187671
0.651682 0.0661936 0.195422
0.0321202 0.0631266 0.0513771
0.0312505 0.0625772 0.0495613
0.0309453 0.061387 0.0487373
0.033051 0.0589761 0.0471656
0.0373846 0.0557717 0.0456092
0.0435187 0.0548562 0.0449989
0.0538949 0.0567483 0.0461585
0.0714122 0.0563363 0.0468452
0.0967727 0.0534829 0.0458228
0.131533 0.0500496 0.04448
0.176699 0.0441444 0.0432136
0.229709 0.0411994 0.0451362
0.293584 0.0397192 0.0485237
0.359609 0.0385748 0.051667
0.417716 0.0387274 0.057084
0.465858 0.0409247 0.0660105
0.505776 0.0447395 0.078294
0.543053 0.0485084 0.0920119
0.580652 0.0543984 0.109728
0.615335 0.0622721 0.131609
0.636316 0.067689 0.148882
0.640574 0.0686198 0.154086
0.64181 0.0687419 0.157137
0.64268 0.0687877 0.159518
0.643427 0.0687877 0.161791
0.644068 0.0688334 0.163607
0.644587 0.068864 0.165072
0.64509 0.0687877 0.166873
0.645579 0.0686809 0.168643
0.646326 0.0683604 0.171862
0.647181 0.0679179 0.175738
0.648661 0.0670481 0.18294
0.650141 0.0661173 0.190707
0.0339208 0.0817273 0.0597543
0.0323644 0.0809949 0.0573434
0.0315557 0.0794232 0.0558022
0.0327764 0.076936 0.0551919
0.0395819 0.0727703 0.0530251
0.0474403 0.0694438 0.0510414
0.0583505 0.0697337 0.0497444
0.0741894 0.0714122 0.0506142
0.0999619 0.0700694 0.0514382
0.134401 0.0650339 0.0488746
0.179706 0.058732 0.0466163
0.232441 0.0491188 0.0442054
0.291173 0.0428321 0.0468147
0.355825 0.0398718 0.0496986
0.415488 0.0395209 0.0556954
0.464393 0.0409552 0.0656443
0.504982 0.0445411 0.0785382
0.542992 0.0482795 0.0932326
0.580743 0.0540475 0.111681
0.615534 0.0618296 0.133639
0.636561 0.0672465 0.150561
0.639918 0.06804 0.153918
0.640513 0.0681163 0.155337
0.641627 0.0682841 0.157763
0.642527 0.0683757 0.160143
0.643137 0.0683757 0.161913
0.643641 0.0683757 0.163348
0.644053 0.0683299 0.164721
0.644404 0.0683146 0.16585
0.644862 0.0681621 0.167697
0.645396 0.0679332 0.169955
0.646418 0.0673991 0.174548
0.647425 0.066804 0.179263
0.0347753 0.10312 0.065919
0.0325017 0.103166 0.0631113
0.0310826 0.102388 0.0612802
0.0312047 0.100313 0.0607614
0.0361944 0.0969253 0.0597086
0.046891 0.0915541 0.0568551
0.0582589 0.0900282 0.055787
0.0774243 0.090547 0.0531472
0.102159 0.091722 0.0540627
0.137499 0.0889296 0.0541848
0.187686 0.0794385 0.0515755
0.241382 0.0699168 0.0471809
0.301671 0.057496 0.0442054
0.360098 0.0454108 0.0456855
0.414618 0.0412451 0.0525826
0.463462 0.0416724 0.0640574
0.504036 0.0445563 0.0780499
0.541939 0.0481575 0.0929122
0.580087 0.0538796 0.11162
0.614939 0.0615702 0.133547
0.636805 0.0671397 0.151369
0.639872 0.0678569 0.154223
0.639887 0.0678569 0.154269
0.640284 0.0679026 0.155245
0.640787 0.0679637 0.15642
0.641215 0.0680552 0.157305
0.641855 0.0681163 0.158816
0.642298 0.0681621 0.159991
0.642634 0.0682078 0.160876
0.643046 0.068101 0.162402
0.643534 0.0678721 0.164416
0.644526 0.0673533 0.168658
0.645594 0.066743 0.17348
0.0344244 0.131258 0.0725567
0.0314794 0.131594 0.0681468
0.0293889 0.130907 0.0648966
0.0290837 0.129595 0.0640116
0.030869 0.127291 0.063447
0.0404059 0.123064 0.0611276
0.0545968 0.117983 0.0596475
0.0722972 0.117235 0.0582132
0.101686 0.117052 0.0540322
0.139498 0.116808 0.0542306
0.188907 0.112444 0.0547646
0.252338 0.0964523 0.0523079
0.314382 0.0825208 0.0471351
0.374228 0.0675975 0.0445258
0.425757 0.0513008 0.0477302
0.465217 0.0450294 0.0604868
0.503899 0.0458534 0.0761883
0.540581 0.048127 0.0922103
0.578912 0.0536812 0.110964
0.613855 0.0613718 0.132509
0.636927 0.0671855 0.151476
0.639872 0.0678569 0.154223
0.639872 0.0678569 0.154223
0.639887 0.0678569 0.154223
0.639948 0.0678569 0.154376
0.640131 0.0678721 0.154803
0.640391 0.0679179 0.155413
0.640574 0.0679332 0.155886
0.640726 0.0679484 0.156207
0.64097 0.0678416 0.157153
0.641428 0.067628 0.159075
0.642359 0.0670939 0.163226
0.643565 0.0665141 0.168139
0.033402 0.167285 0.0813458
0.030518 0.168246 0.0749523
0.0274968 0.168841 0.0695354
0.026566 0.1682 0.0667735
0.0266117 0.166461 0.0664988
0.0301518 0.164233 0.0641489
0.0420844 0.159731 0.0615091
0.0622873 0.1552 0.0597238
0.0903182 0.15436 0.057557
0.132647 0.152728 0.0518044
0.188525 0.150423 0.0521706
0.248859 0.143542 0.0530251
0.324453 0.121172 0.0522621
0.390417 0.103059 0.050248
0.443839 0.08542 0.0504463
0.484535 0.0649424 0.0578012
0.511742 0.0536355 0.0710002
0.542153 0.0511482 0.0897536
0.577081 0.0535592 0.108171
0.612345 0.0610666 0.131044
0.636851 0.067155 0.1514
0.639872 0.0678569 0.154223
0.639872 0.0678569 0.154223
0.639887 0.0678569 0.154223
0.639887 0.0678569 0.154223
0.639902 0.0678416 0.154208
0.639933 0.0678416 0.154238
0.639994 0.0678569 0.15436
0.64004 0.0678569 0.154498
0.640314 0.0677501 0.155566
0.640803 0.0675364 0.157473
0.641794 0.0669871 0.161776
0.642847 0.066392 0.166369
0.0308995 0.210376 0.0932021
0.0292668 0.212161 0.085008
0.0263523 0.212604 0.0779889
0.0247349 0.212573 0.0715496
0.0247196 0.212085 0.0686809
0.0247196 0.210651 0.0685588
0.0274815 0.20885 0.0651102
0.0394751 0.204623 0.0605631
0.0701152 0.200992 0.0582895
0.111376 0.199634 0.0550393
0.172412 0.196582 0.0480201
0.24567 0.192065 0.0484474
0.318578 0.185061 0.0513466
0.399817 0.160098 0.0563821
0.463462 0.137942 0.0597391
0.508919 0.118242 0.0644846
0.53872 0.0919509 0.071519
0.560296 0.0665751 0.0834669
0.583291 0.0588083 0.104295
0.61265 0.0615244 0.127474
0.638254 0.0676432 0.150958
0.639979 0.0679026 0.154177
0.639872 0.0678569 0.154223
0.639887 0.0678569 0.154223
0.639887 0.0678569 0.154223
0.639902 0.0678416 0.154208
0.639918 0.0678416 0.154208
0.639933 0.0678416 0.154208
0.639933 0.0678416 0.154208
0.640131 0.0677195 0.155093
0.640513 0.0674907 0.156802
0.641474 0.0669413 0.160891
0.642496 0.066331 0.165423
0.0270085 0.260273 0.107118
0.0255894 0.262211 0.0990921
0.0243229 0.263096 0.0906233
0.0233463 0.263111 0.08365
0.0231785 0.263661 0.076112
0.0231937 0.263493 0.0722057
0.0233158 0.262409 0.0722972
0.0241245 0.260166 0.0670024
0.0348516 0.255909 0.0594034
0.0762036 0.25304 0.0551308
0.136828 0.251728 0.0506905
0.218235 0.24802 0.043473
0.310002 0.241581 0.0451972
0.389273 0.23534 0.0512551
0.470024 0.213947 0.0657359
0.532586 0.189807 0.0777447
0.572427 0.169986 0.0872358
0.601495 0.141131 0.0975204
0.616876 0.0958419 0.105959
0.629007 0.073106 0.122621
0.64683 0.0710613 0.145998
0.645075 0.06981 0.151568
0.643412 0.0692454 0.152331
0.642298 0.0687724 0.153613
0.641184 0.0683452 0.154055
0.640314 0.0679789 0.154269
0.639948 0.0678264 0.15436
0.639994 0.0678111 0.154467
0.640055 0.0677653 0.154742
0.640406 0.0676585 0.155779
0.641138 0.0675975 0.157198
0.642573 0.0673228 0.160723
0.644312 0.0670787 0.164355
0.0238956 0.314168 0.122789
0.0234684 0.316533 0.115923
0.0229038 0.317723 0.107774
0.0227512 0.318013 0.101472
0.0223239 0.319219 0.0963302
0.0223239 0.31989 0.0890059
0.0224002 0.319799 0.0824903
0.0225528 0.318639 0.0825666
0.0226596 0.316213 0.075639
0.0335851 0.312398 0.0603494
0.0855421 0.311803 0.0521553
0.168994 0.311086 0.0463417
0.270466 0.306813 0.0392157
0.376745 0.299565 0.0438239
0.456916 0.296986 0.0560464
0.535698 0.283543 0.0813611
0.60174 0.256641 0.106554
0.640742 0.236423 0.120806
0.670085 0.208331 0.131731
0.682857 0.158358 0.137179
0.674693 0.0946822 0.141085
0.666987 0.0783551 0.146059
0.661295 0.0755627 0.147951
0.655741 0.0731975 0.151247
0.650202 0.0709697 0.153475
0.648005 0.0700999 0.153857
0.647379 0.0697795 0.154665
0.647257 0.0696269 0.155337
0.647547 0.0696422 0.15581
0.64831 0.0698405 0.155978
0.649653 0.0703136 0.155886
0.652201 0.0709239 0.156664
0.655619 0.0716411 0.157733
0.0229801 0.370047 0.145983
0.0228122 0.372427 0.140002
0.0225681 0.373922 0.132525
0.022385 0.37467 0.124727
0.0222171 0.37525 0.119081
0.0221408 0.376333 0.115969
0.0221714 0.377234 0.110933
0.0222171 0.377646 0.103441
0.0222629 0.376959 0.101427
0.0223697 0.374838 0.0946059
0.0352331 0.37084 0.0680858
0.100832 0.372015 0.0513161
0.209308 0.372305 0.0450904
0.327123 0.368383 0.0391699
0.44387 0.362936 0.0485389
0.522591 0.364157 0.0680705
0.598535 0.358419 0.103838
0.670085 0.335531 0.142061
0.712749 0.313344 0.161196
0.742519 0.286992 0.173266
0.753017 0.239857 0.177539
0.738216 0.187076 0.169711
0.717006 0.146639 0.158114
0.69662 0.113527 0.145769
0.688457 0.101808 0.146441
0.684077 0.0963607 0.148486
0.68072 0.0924239 0.149859
0.678538 0.0902724 0.150484
0.678447 0.0907607 0.151339
0.681315 0.095079 0.152911
0.687922 0.103929 0.155703
0.696986 0.115892 0.159899
0.709941 0.13431 0.166445
0.0256809 0.42858 0.180865
0.0256809 0.431098 0.175921
0.0256199 0.433158 0.169802
0.0254826 0.433936 0.16228
0.0252842 0.434501 0.155138
0.0250248 0.43508 0.149325
0.0245823 0.435904 0.146761
0.0240024 0.437552 0.145495
0.0236667 0.438209 0.137209
0.0236973 0.437629 0.131853
0.0242161 0.434775 0.124361
0.0419776 0.431785 0.0899062
0.128695 0.435187 0.0586099
0.263508 0.438102 0.0527657
0.391455 0.434684 0.0488594
0.509438 0.429633 0.0638743
0.586419 0.433463 0.0936141
0.6607 0.434546 0.135042
0.734295 0.419059 0.180087
0.782528 0.393698 0.204898
0.808972 0.368475 0.216617
0.813779 0.336812 0.21706
0.804196 0.315373 0.210163
0.795117 0.296971 0.203754
0.786526 0.279896 0.198123
0.779202 0.265431 0.193378
0.773236 0.253956 0.189593
0.769421 0.246494 0.187243
0.767422 0.24271 0.186007
0.768765 0.245212 0.186938
0.772961 0.253223 0.189639
0.782116 0.269596 0.196612
0.794339 0.292042 0.205951
0.036286 0.490379 0.22829
0.0368505 0.493233 0.224918
0.0374304 0.49543 0.220432
0.0376898 0.496345 0.214099
0.0378576 0.496971 0.207324
0.0380865 0.497581 0.201022
0.0383307 0.498436 0.195499
0.0382849 0.499031 0.190936
0.0378119 0.500237 0.189532
0.0374151 0.501488 0.183886
0.0371557 0.501442 0.176974
0.0375677 0.498589 0.167666
0.0591897 0.496513 0.124941
0.176532 0.502205 0.0802472
0.331899 0.505913 0.0751202
0.458976 0.502419 0.075288
0.572259 0.498039 0.0961776
0.650248 0.50341 0.132311
0.720104 0.509438 0.174166
0.79237 0.501457 0.218112
0.840238 0.480537 0.246418
0.86186 0.452232 0.256931
0.857603 0.437263 0.252247
0.852598 0.425559 0.247761
0.848264 0.415244 0.243977
0.844678 0.406699 0.240955
0.842359 0.40058 0.239109
0.840513 0.396399 0.237598
0.84033 0.395987 0.237491
0.841291 0.398169 0.238392
0.844282 0.404944 0.241016
0.849531 0.416892 0.24596
0.856794 0.434165 0.253101
0.0566873 0.554528 0.286885
0.0578927 0.557763 0.28513
0.0588693 0.560372 0.282506
0.059266 0.56144 0.277455
0.0594797 0.562264 0.271977
0.0599832 0.563424 0.266773
0.0603189 0.563989 0.261097
0.0605478 0.564401 0.254734
0.0607309 0.564721 0.247562
0.060441 0.565621 0.241825
0.059968 0.567895 0.238865
0.0593576 0.568093 0.232715
0.0598001 0.564874 0.221958
0.0877241 0.562432 0.167315
0.247608 0.571893 0.114458
0.409522 0.575799 0.111482
0.527199 0.571145 0.114824
0.635294 0.566781 0.140047
0.711086 0.572122 0.178668
0.776593 0.580743 0.217212
0.839551 0.579446 0.256489
0.883925 0.56495 0.284627
0.891447 0.551492 0.287495
0.888731 0.540871 0.284184
0.886717 0.531991 0.281758
0.884932 0.525017 0.279728
0.883787 0.520409 0.278523
0.883146 0.517891 0.277974
0.883101 0.517311 0.27808
0.883619 0.519448 0.278874
0.885298 0.525811 0.281025
0.888319 0.537194 0.285054
0.892256 0.554116 0.2907
0.0881666 0.6206 0.353796
0.0897536 0.623896 0.353552
0.0914473 0.626688 0.352789
0.0922866 0.628443 0.350286
0.0929427 0.629755 0.346899
0.09337 0.63064 0.342641
0.0937514 0.631189 0.337819
0.0941176 0.631739 0.332464
0.0944533 0.632288 0.325261
0.0948196 0.633021 0.315831
0.0946059 0.633539 0.304768
0.0935073 0.634836 0.298909
0.0920272 0.634821 0.295735
0.0922866 0.630686 0.281178
0.132677 0.62977 0.210483
0.335561 0.642924 0.158602
0.485023 0.644862 0.157244
0.593118 0.638178 0.163394
0.695354 0.633509 0.190921
0.768856 0.638254 0.228656
0.826276 0.648615 0.263645
0.877501 0.652522 0.298466
0.906645 0.645579 0.316533
0.906493 0.63772 0.314427
0.90573 0.631067 0.312322
0.905364 0.626322 0.311177
0.904707 0.623178 0.310185
0.90399 0.620935 0.309514
0.903716 0.620935 0.309682
0.90396 0.623362 0.310796
0.904097 0.628428 0.312444
0.904662 0.63859 0.315633
0.905226 0.651987 0.319829
0.131456 0.685908 0.422568
0.13344 0.68925 0.423835
0.135729 0.692607 0.425086
0.136568 0.694316 0.423621
0.13727 0.695689 0.42182
0.137911 0.696818 0.419455
0.138491 0.697704 0.416526
0.13875 0.698573 0.412985
0.139116 0.699657 0.408331
0.13904 0.700282 0.400366
0.138659 0.700618 0.388785
0.137804 0.700557 0.372641
0.135805 0.701213 0.359487
0.134081 0.699962 0.35668
0.137194 0.695827 0.337575
0.202808 0.699199 0.254108
0.429068 0.71162 0.214923
0.55552 0.711833 0.215381
0.65713 0.704097 0.220203
0.753399 0.699062 0.248325
0.822293 0.702846 0.284977
0.869352 0.71371 0.316854
0.906981 0.720867 0.344137
0.915312 0.718074 0.34905
0.914626 0.713741 0.346807
0.914183 0.709957 0.345312
0.91342 0.707118 0.343969
0.913024 0.70576 0.343832
0.912718 0.705867 0.344381
0.912718 0.707774 0.34612
0.912688 0.712718 0.348898
0.913314 0.720287 0.353613
0.914397 0.730739 0.360052
0.178622 0.748394 0.493828
0.180865 0.751476 0.495857
0.182788 0.754116 0.497337
0.183764 0.755734 0.49691
0.184283 0.75671 0.495872
0.184817 0.75758 0.494224
0.185626 0.75877 0.492943
0.185855 0.759487 0.490578
0.185657 0.759945 0.486748
0.18529 0.760403 0.481041
0.184634 0.760739 0.472374
0.183673 0.760754 0.459556
0.183078 0.760891 0.441016
0.181537 0.760189 0.42237
0.179278 0.757214 0.418097
0.190097 0.753841 0.390158
0.305043 0.765545 0.306966
0.514412 0.774121 0.283742
0.621729 0.774853 0.285191
0.717998 0.766995 0.286992
0.809522 0.76286 0.315877
0.870985 0.76556 0.349783
0.907469 0.776349 0.376165
0.928618 0.78378 0.394232
0.928634 0.780926 0.39263
0.927398 0.777859 0.390402
0.926452 0.775692 0.38909
0.92575 0.774578 0.388983
0.925383 0.774899 0.390188
0.92546 0.777127 0.392874
0.926329 0.780957 0.397055
0.927275 0.786969 0.402838
0.929427 0.794125 0.410559
0.220554 0.798703 0.562753
0.222049 0.800793 0.564553
0.22359 0.80296 0.566247
0.224231 0.804196 0.566247
0.224598 0.805051 0.565576
0.225223 0.805982 0.564965
0.225742 0.80679 0.564309
0.225864 0.807401 0.5626
0.225696 0.807889 0.560296
0.225071 0.808179 0.555962
0.224063 0.808392 0.549828
0.222889 0.808606 0.540856
0.221592 0.80853 0.527199
0.22002 0.807904 0.506188
0.218082 0.805966 0.493462
0.221607 0.801907 0.468635
0.243687 0.802228 0.434073
0.416526 0.820462 0.368551
0.590936 0.828489 0.364309
0.683833 0.830304 0.364523
0.775814 0.824659 0.365728
0.86099 0.821271 0.392889
0.914611 0.822217 0.421988
0.941146 0.829923 0.440894
0.947921 0.832227 0.444892
0.946487 0.829755 0.441947
0.945571 0.828138 0.440375
0.945113 0.827787 0.440833
0.944747 0.827893 0.441611
0.944595 0.828977 0.443687
0.945342 0.831846 0.447639
0.947097 0.835889 0.454337
0.950515 0.841291 0.4645
0.252613 0.836484 0.625757
0.254017 0.838087 0.627878
0.255192 0.839673 0.629328
0.255772 0.840681 0.629679
0.256291 0.841535 0.629816
0.256504 0.841978 0.629343
0.256718 0.842313 0.628687
0.256718 0.842618 0.627634
0.256458 0.842924 0.626032
0.255879 0.84329 0.623606
0.254734 0.843488 0.619348
0.252888 0.843351 0.612726
0.250736 0.842924 0.603159
0.248432 0.842222 0.588693
0.246464 0.841215 0.571679
0.245792 0.839094 0.561685
0.264424 0.835966 0.504479
0.327993 0.84567 0.474327
0.518349 0.863447 0.440024
0.66981 0.872953 0.453681
0.751034 0.876661 0.455985
0.833524 0.873472 0.452323
0.905623 0.869734 0.473472
0.951614 0.869139 0.498253
0.969619 0.872511 0.509438
0.969726 0.870665 0.5066
0.969512 0.86949 0.505394
0.968826 0.868544 0.505043
0.9682 0.868452 0.506722
0.967605 0.86949 0.510719
0.967208 0.871504 0.516579
0.967056 0.875242 0.526375
0.967315 0.880461 0.540108
0.280324 0.862638 0.676707
0.282002 0.863584 0.677943
0.283421 0.864576 0.679057
0.284199 0.865248 0.679393
0.28452 0.865644 0.679072
0.284855 0.866041 0.678859
0.285222 0.866361 0.678523
0.285359 0.866575 0.677867
0.285298 0.86688 0.676982
0.284947 0.867262 0.675517
0.283925 0.867552 0.672663
0.282429 0.867811 0.668803
0.280797 0.868116 0.662867
0.278859 0.868177 0.654719
0.276631 0.867903 0.643198
0.273442 0.865995 0.634516
0.274372 0.862287 0.602884
0.314443 0.864393 0.53431
0.4383 0.881743 0.525902
0.616876 0.897841 0.528939
0.75787 0.90988 0.559976
0.823651 0.914626 0.561028
0.883879 0.91252 0.550683
0.937713 0.910262 0.564111
0.969894 0.909529 0.583947
0.9776 0.909438 0.587335
0.976959 0.907835 0.584207
0.976318 0.906889 0.5832
0.975372 0.906706 0.584756
0.974258 0.907301 0.589303
0.973602 0.909239 0.597665
0.97258 0.912062 0.609186
0.972198 0.916121 0.625223
0.294286 0.872663 0.698314
0.294728 0.87248 0.697841
0.295003 0.87248 0.6972
0.294972 0.872465 0.696406
0.294789 0.872496 0.69546
0.29453 0.872496 0.694469
0.294362 0.872419 0.693401
0.294118 0.872374 0.692287
0.29366 0.872419 0.690959
0.292821 0.872496 0.688914
0.291493 0.872587 0.685756
0.289631 0.872587 0.681682
0.287465 0.872541 0.675807
0.284962 0.872282 0.667399
0.282216 0.871809 0.655482
0.280705 0.87158 0.649195
0.280568 0.872206 0.64387
0.304173 0.876036 0.611185
0.405509 0.887114 0.565194
0.539544 0.902144 0.590082
0.705379 0.917098 0.614816
0.83418 0.932738 0.653452
0.88127 0.938537 0.657313
0.926757 0.943038 0.659892
0.96112 0.942428 0.66949
0.978637 0.941512 0.681514
0.978912 0.939941 0.677714
0.978607 0.939055 0.675883
0.977768 0.938689 0.676814
0.976654 0.939193 0.682155
0.975723 0.940124 0.689677
0.975067 0.942351 0.701885
0.975052 0.945647 0.7187
0.294926 0.872908 0.700938
0.295262 0.872816 0.700313
0.295415 0.872755 0.699611
0.295369 0.872709 0.698833
0.295186 0.87277 0.697993
0.294789 0.872831 0.696956
0.294423 0.87277 0.696025
0.294072 0.872709 0.69482
0.292912 0.872908 0.69308
0.292073 0.872953 0.691081
0.290929 0.873014 0.688258
0.289433 0.87306 0.684123
0.287465 0.872908 0.678218
0.285298 0.872602 0.670497
0.282643 0.872053 0.65861
0.280842 0.871641 0.650339
0.28069 0.87219 0.646433
0.2972 0.875669 0.621698
0.374853 0.883833 0.566491
0.511757 0.899611 0.590066
0.664286 0.915282 0.621897
0.809461 0.930648 0.668437
0.885222 0.943313 0.703822
0.916014 0.947448 0.70782
0.949752 0.952972 0.722026
0.972732 0.958236 0.749813
0.977142 0.959625 0.758022
0.977081 0.959442 0.757534
0.976562 0.959365 0.758267
0.975784 0.959319 0.760464
0.974975 0.959289 0.763088
0.974121 0.959182 0.766583
0.973404 0.959167 0.770687
0.295186 0.873503 0.703059
0.295476 0.873274 0.702419
0.295689 0.873091 0.701717
0.295659 0.872969 0.700816
0.295415 0.872984 0.69984
0.294942 0.873045 0.698909
0.294438 0.873045 0.697963
0.293919 0.873075 0.696788
0.293187 0.873091 0.695171
0.292195 0.873075 0.692943
0.291096 0.873167 0.69015
0.289723 0.873228 0.686061
0.287816 0.87306 0.6804
0.285618 0.872724 0.672312
0.283024 0.872175 0.661082
0.280964 0.871717 0.650919
0.280491 0.87187 0.64828
0.291905 0.874998 0.62826
0.346761 0.879789 0.569924
0.492912 0.897887 0.586633
0.640757 0.913405 0.617197
0.793317 0.928847 0.661891
0.876844 0.941802 0.699748
0.91046 0.946731 0.707683
0.942046 0.95172 0.716381
0.968048 0.957626 0.744503
0.976089 0.96025 0.761318
0.975799 0.96025 0.762264
0.975128 0.960281 0.764019
0.974105 0.960327 0.766735
0.973266 0.960296 0.769574
0.97261 0.960174 0.772717
0.972244 0.960006 0.775525
0.295674 0.873793 0.704601
0.295903 0.873457 0.70399
0.296025 0.873289 0.703334
0.295857 0.873121 0.702495
0.295567 0.873182 0.701488
0.295048 0.873259 0.700374
0.29453 0.873243 0.699245
0.293996 0.873304 0.698238
0.293233 0.873289 0.696712
0.292241 0.873259 0.694377
0.291096 0.873289 0.691356
