luts/changyun_leica_like/cold.cube
TITLE "Generated by Resolve"
LUT_3D_SIZE 5
0.0280766 0.0407263 0.0388647
0.130617 0.0392157 0.0404974
0.511818 0.050721 0.0931563
0.64979 0.0691844 0.181506
0.656611 0.0668498 0.211276
0.0344244 0.131258 0.0725567
0.101686 0.117052 0.0540322
0.503899 0.0458534 0.0761883
0.639948 0.0678569 0.154376
0.643565 0.0665141 0.168139
0.0566873 0.554528 0.286885
0.0607309 0.564721 0.247562
0.527199 0.571145 0.114824
0.886717 0.531991 0.281758
0.892256 0.554116 0.2907
0.294926 0.872908 0.700938
0.292912 0.872908 0.69308
0.28069 0.87219 0.646433
0.949752 0.952972 0.722026
0.973404 0.959167 0.770687
0.295842 0.87454 0.708492
0.294331 0.872801 0.697963
0.302785 0.875212 0.613748
0.96408 0.955245 0.736095
0.971664 0.960815 0.769528
0.024567 0.0471809 0.110338
0.148043 0.0469215 0.117388
0.539864 0.0525063 0.16492
0.671138 0.0713512 0.235676
0.677684 0.0708019 0.262074
0.0327459 0.123415 0.127977
0.0831159 0.108248 0.12221
0.525643 0.0501564 0.126787
0.655085 0.0686809 0.199252
0.660807 0.0679484 0.218982
0.0575875 0.554101 0.336736
0.0608988 0.56524 0.309606
0.516609 0.573068 0.114717
0.886458 0.530068 0.28159
0.892241 0.553552 0.290898
0.298558 0.873442 0.710674
0.297307 0.873121 0.703975
0.280766 0.87158 0.649546
0.947997 0.952483 0.719005
0.972213 0.957427 0.770916
0.301045 0.874922 0.721218
0.299641 0.87332 0.712352
0.294087 0.873533 0.630518
0.956252 0.953353 0.727413
0.970459 0.960571 0.77554
0.00892653 0.103426 0.437507
0.0930037 0.0747234 0.4925
0.59736 0.0912337 0.452735
0.746242 0.109224 0.437995
0.745403 0.110597 0.479179
0.00972 0.135088 0.437903
0.0091249 0.111101 0.452613
0.601877 0.0961318 0.470466
0.748302 0.110323 0.43389
0.747906 0.111666 0.474617
0.0679179 0.550622 0.521004
0.0723278 0.561685 0.533639
0.500557 0.571618 0.577401
0.960113 0.481483 0.533288
0.96791 0.501213 0.567056
0.316869 0.876875 0.764675
0.323735 0.875303 0.763699
0.306966 0.87425 0.729549
0.952743 0.959075 0.82179
0.979782 0.963302 0.872053
0.324987 0.880262 0.797223
0.333181 0.877699 0.794247
0.31751 0.877241 0.754253
0.961059 0.968978 0.897719
0.981048 0.975647 0.919158
0.0459754 0.358251 0.675074
0.0485237 0.370504 0.683146
0.432425 0.406104 0.90634
0.909041 0.436622 0.908629
0.905333 0.437644 0.910903
0.047425 0.365805 0.677913
0.0465553 0.364172 0.677546
0.41004 0.431739 0.91104
0.912657 0.435721 0.904753
0.906004 0.437491 0.910124
0.090074 0.546014 0.712123
0.0946365 0.555734 0.721843
0.205997 0.585595 0.816083
0.966751 0.538796 0.934279
0.957809 0.562493 0.944717
0.342092 0.882551 0.863478
0.353017 0.884199 0.864607
0.336065 0.874754 0.852567
0.940932 0.946777 0.949905
0.978729 0.955917 0.957351
0.342855 0.884978 0.877012
0.352438 0.88365 0.874388
0.34638 0.886 0.867079
0.956313 0.974838 0.972839
0.998886 0.986252 0.985702
0.0469978 0.363684 0.67744
0.050782 0.380636 0.687709
0.434943 0.431739 0.919112
0.908812 0.436698 0.908507
0.908202 0.436927 0.907973
0.0480812 0.366598 0.678904
0.0465553 0.364172 0.677546
0.423606 0.430671 0.915541
0.911772 0.43595 0.905608
0.905684 0.437568 0.910384
0.113466 0.585321 0.753323
0.11458 0.589609 0.753613
0.205554 0.594446 0.817197
0.964218 0.559213 0.951949
0.953048 0.577539 0.952529
0.341588 0.885847 0.877012
0.351904 0.883803 0.87451
0.334615 0.871443 0.866316
0.915602 0.938964 0.960571
0.97734 0.956237 0.968536
0.337713 0.886717 0.878126
0.351934 0.883787 0.874495
0.352621 0.88365 0.874388
0.921889 0.967514 0.971222
0.998108 0.988266 0.988067
