luts/changyun_leica_like/cold.cube
TITLE "Generated by Resolve"
LUT_3D_SIZE 9
0.0280766 0.0407263 0.0388647
0.049836 0.0401007 0.0396887
0.130617 0.0392157 0.0404974
0.305959 0.0389868 0.0514382
0.511818 0.050721 0.0931563
0.641154 0.0676127 0.166186
0.64979 0.0691844 0.181506
0.651743 0.0691386 0.188342
0.656611 0.0668498 0.211276
0.0296178 0.0483864 0.04271
0.0321355 0.0446784 0.0405432
0.100664 0.0446632 0.0415198
0.299428 0.0381476 0.0497749
0.506218 0.0450446 0.0771801
0.637934 0.0679026 0.152743
0.645014 0.068925 0.166308
0.647013 0.0688487 0.172915
0.651682 0.0661936 0.195422
0.0344244 0.131258 0.0725567
0.030869 0.127291 0.063447
0.101686 0.117052 0.0540322
0.314382 0.0825208 0.0471351
0.503899 0.0458534 0.0761883
0.636927 0.0671855 0.151476
0.639948 0.0678569 0.154376
0.640726 0.0679484 0.156207
0.643565 0.0665141 0.168139
0.0238956 0.314168 0.122789
0.0223239 0.319219 0.0963302
0.0226596 0.316213 0.075639
0.270466 0.306813 0.0392157
0.60174 0.256641 0.106554
0.674693 0.0946822 0.141085
0.650202 0.0709697 0.153475
0.647547 0.0696422 0.15581
0.655619 0.0716411 0.157733
0.0566873 0.554528 0.286885
0.0594797 0.562264 0.271977
0.0607309 0.564721 0.247562
0.0598001 0.564874 0.221958
0.527199 0.571145 0.114824
0.839551 0.579446 0.256489
0.886717 0.531991 0.281758
0.883101 0.517311 0.27808
0.892256 0.554116 0.2907
0.220554 0.798703 0.562753
0.224598 0.805051 0.565576
0.225696 0.807889 0.560296
0.221592 0.80853 0.527199
0.243687 0.802228 0.434073
0.775814 0.824659 0.365728
0.947921 0.832227 0.444892
0.944747 0.827893 0.441611
0.950515 0.841291 0.4645
0.294926 0.872908 0.700938
0.295186 0.87277 0.697993
0.292912 0.872908 0.69308
0.287465 0.872908 0.678218
0.28069 0.87219 0.646433
0.664286 0.915282 0.621897
0.949752 0.952972 0.722026
0.976562 0.959365 0.758267
0.973404 0.959167 0.770687
0.294682 0.874372 0.706508
0.296269 0.873014 0.703563
0.294957 0.872587 0.698711
0.289967 0.872221 0.68333
0.281132 0.870985 0.649165
0.636011 0.912123 0.616754
0.937194 0.949233 0.712108
0.979324 0.959213 0.761364
0.973327 0.960174 0.77052
0.295842 0.87454 0.708492
0.296834 0.873381 0.705211
0.294331 0.872801 0.697963
0.287388 0.871702 0.672862
0.302785 0.875212 0.613748
0.81181 0.930678 0.669612
0.96408 0.955245 0.736095
0.977111 0.959792 0.76257
0.971664 0.960815 0.769528
0.0279088 0.0410925 0.04271
0.0473793 0.0415503 0.0517128
0.138506 0.0443732 0.0710002
0.328481 0.0442054 0.0911727
0.525383 0.0497444 0.130053
0.650385 0.0667277 0.198016
0.660273 0.0690471 0.212924
0.662333 0.0690929 0.219211
0.665049 0.0674601 0.236011
0.0289158 0.0458686 0.0436103
0.0281834 0.04094 0.0390631
0.108843 0.0401617 0.0453956
0.308217 0.0400244 0.0641947
0.525231 0.0528878 0.114076
0.64744 0.0667582 0.184817
0.652934 0.0676738 0.197528
0.655787 0.0679789 0.204471
0.659007 0.066331 0.221134
0.0363165 0.125277 0.0989548
0.0347753 0.120668 0.0746471
0.0916609 0.112062 0.0541848
0.316167 0.0688334 0.0463874
0.505257 0.044358 0.0826276
0.642008 0.0672007 0.165057
0.646601 0.0678264 0.174212
0.647791 0.0679026 0.177874
0.650401 0.0664836 0.190753
0.0251926 0.312917 0.158221
0.0227817 0.316228 0.128573
0.0227054 0.314931 0.0892805
0.260258 0.306584 0.0385748
0.603006 0.247211 0.105928
0.673198 0.09131 0.142275
0.648783 0.0704967 0.15375
0.647379 0.0695048 0.156527
0.6551 0.0713817 0.158389
0.0576333 0.556069 0.311315
0.0602731 0.563745 0.299489
0.0611582 0.565881 0.273762
0.0596933 0.567376 0.229114
0.523995 0.573373 0.115663
0.843976 0.578256 0.259434
0.887144 0.533455 0.282399
0.88365 0.519142 0.278798
0.892714 0.556191 0.291325
0.2224 0.799435 0.572869
0.226551 0.805783 0.575601
0.227375 0.808637 0.570581
0.223392 0.808988 0.539773
0.241276 0.80354 0.444297
0.77612 0.826535 0.369299
0.948028 0.832822 0.445747
0.944259 0.828305 0.442649
0.94963 0.841413 0.466514
0.295857 0.873304 0.704982
0.296498 0.872953 0.702281
0.295232 0.872801 0.69781
0.289219 0.872969 0.683406
0.280613 0.871809 0.64831
0.658106 0.914717 0.620996
0.949584 0.952895 0.721706
0.976623 0.959152 0.75671
0.973083 0.958541 0.769314
0.296895 0.874357 0.710765
0.297993 0.873106 0.707744
0.29662 0.872633 0.703029
0.291524 0.872389 0.68809
0.281392 0.87097 0.648737
0.631846 0.911467 0.615564
0.936584 0.949126 0.711849
0.978943 0.959091 0.763729
0.972946 0.960006 0.773327
0.296971 0.874846 0.712276
0.298238 0.873747 0.709468
0.295918 0.872923 0.702373
0.288853 0.871931 0.678187
0.301213 0.875029 0.618357
0.80528 0.929717 0.667262
0.961898 0.954711 0.733471
0.97702 0.959747 0.763241
0.97116 0.960586 0.773266
0.024567 0.0471809 0.110338
0.0661173 0.0431373 0.105821
0.148043 0.0469215 0.117388
0.346166 0.0471809 0.137362
0.539864 0.0525063 0.16492
0.661112 0.0687266 0.221653
0.671138 0.0713512 0.235676
0.674281 0.0720226 0.242817
0.677684 0.0708019 0.262074
0.0262455 0.0547189 0.0863355
0.0245975 0.047425 0.107515
0.120851 0.0459449 0.108248
0.33521 0.045304 0.119432
0.538094 0.0512551 0.14873
0.657542 0.0681926 0.21091
0.663767 0.0695354 0.222126
0.666651 0.0699779 0.228687
0.67068 0.0687877 0.247898
0.0327459 0.123415 0.127977
0.0320592 0.118608 0.124056
0.0831159 0.108248 0.12221
0.327199 0.0790723 0.107713
0.525643 0.0501564 0.126787
0.650019 0.0676585 0.190265
0.655085 0.0686809 0.199252
0.65713 0.0690318 0.203021
0.660807 0.0679484 0.218982
0.0265965 0.310475 0.198856
0.0253758 0.313787 0.182361
0.0242466 0.310369 0.145403
0.259632 0.307317 0.0853132
0.60528 0.235096 0.118181
0.672267 0.0869001 0.153185
0.649546 0.0697185 0.164813
0.650965 0.0690623 0.174823
0.65536 0.0698863 0.175891
0.0575875 0.554101 0.336736
0.06009 0.562814 0.329732
0.0608988 0.56524 0.309606
0.059205 0.563867 0.237201
0.516609 0.573068 0.114717
0.844694 0.57554 0.259602
0.886458 0.530068 0.28159
0.883009 0.515587 0.277974
0.892241 0.553552 0.290898
0.22295 0.797742 0.582223
0.227985 0.804379 0.585855
0.229618 0.80737 0.581842
0.224735 0.80763 0.553491
0.236225 0.803464 0.453193
0.772839 0.8262 0.368566
0.946929 0.83122 0.443656
0.94316 0.826551 0.440223
0.948409 0.83949 0.464073
0.298558 0.873442 0.710674
0.298894 0.873228 0.708217
0.297307 0.873121 0.703975
0.291218 0.873152 0.690288
0.280766 0.87158 0.649546
0.642313 0.913314 0.617868
0.947997 0.952483 0.719005
0.975937 0.95729 0.753567
0.972213 0.957427 0.770916
0.298222 0.874891 0.716503
0.300252 0.873671 0.713878
0.299779 0.872724 0.709621
0.294072 0.872297 0.695369
0.281819 0.870817 0.649195
0.614984 0.909529 0.611872
0.93344 0.948592 0.710964
0.978882 0.959075 0.764065
0.972671 0.959869 0.775448
0.301045 0.874922 0.721218
0.301701 0.874311 0.718624
0.299641 0.87332 0.712352
0.292821 0.872282 0.690517
0.294087 0.873533 0.630518
0.782681 0.926558 0.658488
0.956252 0.953353 0.727413
0.976791 0.95967 0.764736
0.970459 0.960571 0.77554
0.0169985 0.0636912 0.252125
0.054612 0.0547494 0.264363
0.193271 0.0486305 0.250553
0.369772 0.0525673 0.250217
0.571923 0.0643778 0.262669
0.694484 0.0816358 0.286702
0.704753 0.0852522 0.29926
0.707378 0.0863355 0.306355
0.71223 0.0871138 0.333913
0.0167239 0.0731975 0.2448
0.0163119 0.064622 0.261006
0.114168 0.0509957 0.280262
0.367193 0.0527199 0.258183
0.576471 0.0643626 0.258732
0.695583 0.0813001 0.284123
0.702693 0.0842145 0.295003
0.705379 0.0852216 0.301946
0.710765 0.0862745 0.330678
0.0162356 0.136355 0.242542
0.0146487 0.124132 0.263066
0.0359045 0.0991989 0.288945
0.346349 0.0623636 0.262181
0.56788 0.0622416 0.238727
0.688594 0.078706 0.265126
0.694972 0.0811627 0.275227
0.69781 0.0824292 0.280644
0.703929 0.0836652 0.305165
0.0212406 0.309148 0.28806
0.0201114 0.313085 0.292042
0.020264 0.309087 0.290608
0.249226 0.303548 0.308644
0.631434 0.245197 0.270039
0.693462 0.0876631 0.235065
0.683192 0.0771496 0.24448
0.685832 0.0777905 0.2533
0.691875 0.0786755 0.270069
0.0601816 0.553323 0.401389
0.0626688 0.562173 0.403616
0.0629892 0.564034 0.394827
0.0593729 0.558984 0.344396
0.511681 0.581308 0.252644
0.871641 0.562676 0.326802
0.904234 0.507591 0.327291
0.900206 0.491814 0.323674
0.912993 0.533364 0.347799
0.224964 0.792996 0.606577
0.231662 0.799176 0.611322
0.233127 0.801709 0.608942
0.226642 0.801892 0.587076
0.230793 0.797864 0.468772
0.762768 0.826383 0.398398
0.956146 0.829816 0.473289
0.952193 0.82472 0.470039
0.956161 0.838834 0.51133
0.304173 0.87396 0.725368
0.307073 0.873533 0.724376
0.306233 0.873091 0.721309
0.29987 0.873274 0.710079
0.285512 0.871809 0.665553
0.61677 0.911665 0.624613
0.945418 0.951049 0.716731
0.978134 0.953857 0.748104
0.974655 0.956497 0.783276
0.304494 0.875593 0.732647
0.308949 0.874113 0.731228
0.307683 0.873457 0.727871
0.302602 0.872938 0.716045
0.287785 0.871489 0.672236
0.585443 0.90721 0.617227
0.928267 0.948211 0.720989
0.978866 0.960098 0.777798
0.973098 0.961379 0.795956
0.30898 0.876554 0.745892
0.313069 0.875105 0.745022
0.311421 0.874617 0.740307
0.304799 0.87335 0.723201
0.294041 0.873686 0.672389
0.747921 0.927062 0.693767
0.950378 0.955581 0.76144
0.977951 0.963043 0.800305
0.972107 0.963516 0.80737
0.00892653 0.103426 0.437507
0.0214084 0.0952316 0.460151
0.0930037 0.0747234 0.4925
0.376471 0.059678 0.478111
0.59736 0.0912337 0.452735
0.735515 0.104875 0.427527
0.746242 0.109224 0.437995
0.746929 0.10985 0.446036
0.745403 0.110597 0.479179
0.00921645 0.111116 0.443
0.00886549 0.108797 0.44802
0.039292 0.0939193 0.486229
0.334112 0.0621958 0.507958
0.606653 0.0961166 0.468193
0.742184 0.107637 0.437644
0.747463 0.110277 0.447257
0.747677 0.110567 0.45449
0.746136 0.111833 0.488334
0.00972 0.135088 0.437903
0.0089723 0.124926 0.448707
0.0091249 0.111101 0.452613
0.249531 0.0674907 0.524453
0.601877 0.0961318 0.470466
0.744564 0.108446 0.426596
0.748302 0.110323 0.43389
0.748882 0.11078 0.441352
0.747906 0.111666 0.474617
0.0141756 0.304707 0.448737
0.0133822 0.30164 0.460899
0.0129854 0.288502 0.469612
0.0974594 0.262654 0.553307
0.629358 0.198199 0.534371
0.737667 0.108507 0.407919
0.746014 0.108766 0.417029
0.746868 0.109224 0.421866
0.747341 0.110185 0.453086
0.0679179 0.550622 0.521004
0.0713207 0.559411 0.530358
0.0723278 0.561685 0.533639
0.0695048 0.556435 0.530739
0.500557 0.571618 0.577401
0.910262 0.534356 0.547906
0.960113 0.481483 0.533288
0.955215 0.466316 0.532723
0.96791 0.501213 0.567056
0.233036 0.78587 0.667491
0.240436 0.791867 0.672938
0.243137 0.794202 0.67332
0.238819 0.792676 0.662425
0.230015 0.785992 0.613687
0.76669 0.828733 0.608515
0.968383 0.829053 0.640848
0.967437 0.821698 0.639979
0.957397 0.840131 0.682658
0.316869 0.876875 0.764675
0.322972 0.875776 0.765118
0.323735 0.875303 0.763699
0.321096 0.874617 0.75668
0.306966 0.87425 0.729549
0.646052 0.920394 0.72488
0.952743 0.959075 0.82179
0.982025 0.959716 0.840528
0.979782 0.963302 0.872053
0.318212 0.878614 0.774411
0.325658 0.876677 0.77467
0.325689 0.876417 0.772625
0.321553 0.875761 0.764706
0.310689 0.873838 0.73637
0.604303 0.912718 0.719036
0.945602 0.962188 0.857969
0.985763 0.972778 0.893858
0.980468 0.974197 0.909133
0.324987 0.880262 0.797223
0.332372 0.878416 0.797208
0.333181 0.877699 0.794247
0.326879 0.877195 0.782986
0.31751 0.877241 0.754253
0.766339 0.935225 0.813764
0.961059 0.968978 0.897719
0.986099 0.975509 0.916365
0.981048 0.975647 0.919158
0.0167086 0.197498 0.563745
0.0169528 0.20174 0.567864
0.0202029 0.195422 0.576761
0.195468 0.164706 0.675196
0.585565 0.150866 0.682673
0.788449 0.1953 0.65893
0.799161 0.199832 0.670985
0.80676 0.211063 0.683879
0.818631 0.240116 0.725856
0.0177615 0.204059 0.570596
0.0178988 0.207691 0.574487
0.0185092 0.210941 0.578958
0.15671 0.192004 0.679347
0.582544 0.164996 0.708507
0.800015 0.207156 0.67689
0.811887 0.220508 0.695399
0.817548 0.230961 0.708827
0.827924 0.26009 0.751598
0.0183261 0.208667 0.568536
0.0181888 0.210117 0.576257
0.0183871 0.211124 0.578073
0.0882277 0.207996 0.653819
0.552102 0.170809 0.723339
0.805554 0.212375 0.678813
0.815213 0.220493 0.690532
0.82063 0.230533 0.7037
0.831342 0.2589 0.744869
0.0224765 0.283909 0.576516
0.0224613 0.283986 0.583856
0.0228275 0.276371 0.589593
0.0225834 0.257893 0.594614
0.467948 0.186206 0.73785
0.799298 0.214466 0.681865
0.802029 0.199298 0.665705
0.805737 0.205325 0.673518
0.816632 0.230488 0.710063
0.0701152 0.545205 0.632013
0.0728466 0.552422 0.639857
0.0738231 0.5523 0.644968
0.0720073 0.539742 0.651698
0.372992 0.568185 0.839597
0.904784 0.512901 0.823087
0.973861 0.46276 0.77789
0.968124 0.451148 0.773907
0.972854 0.490898 0.811048
0.239872 0.77467 0.749752
0.247517 0.781216 0.755474
0.249775 0.782864 0.757427
0.24799 0.781125 0.756283
0.235065 0.769375 0.747539
0.759854 0.811704 0.819211
0.963623 0.801297 0.812085
0.965377 0.79324 0.810208
0.955505 0.813855 0.831434
0.333837 0.881559 0.821286
0.340139 0.880796 0.822278
0.340993 0.880674 0.821897
0.338521 0.880598 0.818433
0.332311 0.879576 0.805005
0.615167 0.919127 0.83299
0.95172 0.956115 0.910628
0.980102 0.960952 0.925658
0.978912 0.964233 0.938949
0.337652 0.88304 0.832944
0.344274 0.882124 0.833097
0.344915 0.88191 0.832227
0.339742 0.882277 0.827726
0.332738 0.880354 0.810773
0.481086 0.917815 0.823896
0.947509 0.970016 0.942351
0.99321 0.981338 0.965362
0.991501 0.98381 0.97528
0.343175 0.886107 0.855344
0.350164 0.884291 0.854292
0.351934 0.883635 0.852094
0.346075 0.884199 0.845228
0.338109 0.882673 0.825864
0.681575 0.935699 0.880186
0.96466 0.974853 0.960189
0.990677 0.983047 0.972869
0.988067 0.985122 0.979767
0.0459754 0.358251 0.675074
0.0462959 0.361868 0.676982
0.0485237 0.370504 0.683146
0.0564126 0.384756 0.696742
0.432425 0.406104 0.90634
0.869856 0.409354 0.900999
0.909041 0.436622 0.908629
0.910491 0.436225 0.907454
0.905333 0.437644 0.910903
0.0464637 0.360296 0.676081
0.0463111 0.362524 0.676814
0.048661 0.372457 0.682567
0.0549172 0.395911 0.696941
0.433417 0.426993 0.916823
0.883192 0.427298 0.911574
0.909316 0.436576 0.907988
0.908919 0.436637 0.908949
0.90544 0.437613 0.910796
0.047425 0.365805 0.677913
0.0466011 0.364141 0.677455
0.0465553 0.364172 0.677546
0.0539101 0.392447 0.694423
0.41004 0.431739 0.91104
0.880461 0.429511 0.915114
0.912657 0.435721 0.904753
0.911742 0.43595 0.905592
0.906004 0.437491 0.910124
0.0449073 0.362081 0.666438
0.0472725 0.374411 0.674022
0.0490272 0.380606 0.679423
0.0507057 0.382406 0.68571
0.327733 0.434424 0.877272
0.853346 0.425086 0.922637
0.914946 0.435111 0.902953
0.914748 0.435233 0.902419
0.907256 0.437171 0.908858
0.090074 0.546014 0.712123
0.0930343 0.55404 0.717479
0.0946365 0.555734 0.721843
0.0966201 0.553903 0.731075
0.205997 0.585595 0.816083
0.76228 0.567285 0.983856
0.966751 0.538796 0.934279
0.96524 0.529854 0.9281
0.957809 0.562493 0.944717
0.20264 0.757412 0.786221
0.210117 0.762798 0.788495
0.211109 0.763851 0.790219
0.20853 0.760327 0.79118
0.198291 0.743358 0.792203
0.686946 0.806027 0.936538
0.957504 0.798672 0.926162
0.967086 0.793133 0.91664
0.954726 0.81529 0.922438
0.342092 0.882551 0.863478
0.35079 0.884489 0.864836
0.353017 0.884199 0.864607
0.350484 0.884947 0.863996
0.336065 0.874754 0.852567
0.555261 0.920134 0.907637
0.940932 0.946777 0.949905
0.981277 0.951019 0.949676
0.978729 0.955917 0.957351
0.343679 0.884962 0.873793
0.349172 0.884627 0.872419
0.352117 0.884031 0.871412
0.348226 0.8851 0.869673
0.34638 0.886366 0.863111
0.398291 0.910506 0.876722
0.937942 0.970718 0.964446
0.993881 0.984085 0.981323
0.998886 0.983474 0.98233
0.342855 0.884978 0.877012
0.348455 0.884657 0.875135
0.352438 0.88365 0.874388
0.348775 0.884703 0.87451
0.34638 0.886 0.867079
0.508339 0.935576 0.91078
0.956313 0.974838 0.972839
0.989548 0.98616 0.988037
0.998886 0.986252 0.985702
0.0469978 0.363699 0.67744
0.0470283 0.365988 0.678492
0.0507515 0.380545 0.687663
0.0591897 0.39942 0.702022
0.421744 0.431754 0.91458
0.865461 0.429297 0.919966
0.908812 0.436698 0.908507
0.90927 0.436561 0.908431
0.908339 0.436896 0.90782
0.0470893 0.363561 0.677485
0.0465858 0.364157 0.677455
0.0486305 0.37258 0.682353
0.0552987 0.397543 0.697581
0.430335 0.431098 0.917708
0.882429 0.431464 0.915251
0.908583 0.436774 0.908354
0.908339 0.43682 0.908949
0.904677 0.437812 0.911498
0.0480812 0.366659 0.67892
0.0466011 0.364141 0.67747
0.0465553 0.364172 0.677546
0.0536812 0.391653 0.693904
0.408072 0.4318 0.910323
0.879866 0.43003 0.916304
0.91165 0.435981 0.905745
0.911147 0.436133 0.905913
0.905715 0.437568 0.910338
0.0585641 0.415518 0.696132
0.0560159 0.408988 0.693049
0.052903 0.395361 0.688182
0.0498207 0.37847 0.684276
0.323812 0.434043 0.875242
0.848676 0.425772 0.925139
0.912871 0.43563 0.905211
0.913069 0.435645 0.904128
0.906996 0.437247 0.90898
0.107332 0.572488 0.746319
0.111376 0.582559 0.751049
0.111513 0.582742 0.751492
0.106508 0.571359 0.7476
0.189471 0.584375 0.807279
0.728664 0.580804 0.993515
0.958297 0.551904 0.952255
0.958114 0.544671 0.945922
0.952285 0.568444 0.951965
0.207965 0.757946 0.807904
0.214237 0.76289 0.809171
0.217136 0.764675 0.81091
0.214862 0.761547 0.811765
0.202747 0.744381 0.806149
0.641443 0.813504 0.956085
0.940185 0.802487 0.952941
0.962921 0.797406 0.942977
0.951431 0.817563 0.941588
0.338643 0.882567 0.874968
0.34844 0.884703 0.87512
0.350607 0.884169 0.874708
0.345861 0.883589 0.874281
0.325628 0.870161 0.865644
0.495033 0.910704 0.926101
0.914061 0.937057 0.958877
0.978073 0.950256 0.964004
0.977081 0.954818 0.966903
0.342641 0.885237 0.876951
0.34844 0.884703 0.87512
0.351202 0.883986 0.874647
0.346899 0.885176 0.875578
0.343328 0.886061 0.876356
0.37319 0.901396 0.88922
0.904799 0.965957 0.966201
0.989868 0.983001 0.984558
0.993515 0.984695 0.985122
0.342214 0.885695 0.87686
0.348455 0.884703 0.87512
0.351797 0.883833 0.874525
0.348623 0.884718 0.875044
0.343862 0.885969 0.876326
0.446693 0.924086 0.915068
0.929595 0.969421 0.970855
0.990356 0.986389 0.989349
0.99588 0.988861 0.990051
0.0469978 0.363684 0.67744
0.0469825 0.365789 0.678355
0.050782 0.380636 0.687709
0.0602731 0.400549 0.703548
0.434943 0.431739 0.919112
0.876036 0.430838 0.917052
0.908812 0.436698 0.908507
0.909056 0.436622 0.908598
0.908202 0.436927 0.907973
0.0470893 0.363561 0.677485
0.0465858 0.364157 0.677455
0.0486915 0.372808 0.68249
0.0555581 0.398215 0.698238
0.444923 0.430686 0.922515
0.895689 0.432944 0.910872
0.908568 0.43679 0.908354
0.908293 0.436835 0.908904
0.904234 0.437919 0.911955
0.0480812 0.366598 0.678904
0.0466011 0.364141 0.677455
0.0465553 0.364172 0.677546
0.0539559 0.392752 0.694408
0.423606 0.430671 0.915541
0.888685 0.43125 0.91397
0.911772 0.43595 0.905608
0.911162 0.436133 0.905882
0.905684 0.437568 0.910384
0.0588388 0.416648 0.696574
0.0567636 0.411872 0.694133
0.0539559 0.399969 0.68986
0.0510109 0.384375 0.686275
0.338338 0.434669 0.881743
0.856367 0.42742 0.923522
0.913039 0.435584 0.905089
0.913115 0.43563 0.904143
0.906996 0.437247 0.90898
0.113466 0.585321 0.753323
0.11487 0.590295 0.753994
0.11458 0.589609 0.753613
0.109285 0.57789 0.74963
0.205554 0.594446 0.817197
0.741955 0.587701 0.989532
0.964218 0.559213 0.951949
0.961837 0.553277 0.94844
0.953048 0.577539 0.952529
0.214435 0.765774 0.815976
0.220645 0.770413 0.816251
0.223713 0.771618 0.816403
0.221134 0.767346 0.814755
0.207706 0.749096 0.807874
0.657191 0.818753 0.951614
0.940902 0.810727 0.951629
0.964416 0.80473 0.943648
0.951949 0.82501 0.94139
0.341588 0.885847 0.877012
0.348363 0.884733 0.875135
0.351904 0.883803 0.87451
0.350332 0.882124 0.873335
0.334615 0.871443 0.866316
0.524437 0.912062 0.927047
0.915602 0.938964 0.960571
0.978347 0.951812 0.966445
0.97734 0.956237 0.968536
0.342489 0.885176 0.877043
0.348318 0.884733 0.875135
0.351904 0.883803 0.874495
0.352575 0.883619 0.874357
0.352575 0.883619 0.874357
0.388006 0.900862 0.890791
0.901122 0.964065 0.967788
0.991592 0.981567 0.981765
0.99675 0.983886 0.982589
0.337713 0.886717 0.878126
0.347585 0.884932 0.875334
0.351934 0.883787 0.874495
0.352575 0.883619 0.874357
0.352621 0.88365 0.874388
0.468193 0.921645 0.913619
0.921889 0.967514 0.971222
0.986862 0.986236 0.99086
0.998108 0.988266 0.988067
