luts/changyun_leica_like/std1.cube
TITLE "Generated by Resolve"
LUT_3D_SIZE 9
0.0087129 0.0087129 0.0087129
0.0645457 0.00817884 0.00991836
0.174151 0.00538643 0.023682
0.362142 0.00448615 0.055848
0.578622 0.0192569 0.125933
0.80351 0 0.21677
0.804791 0 0.231174
0.806348 0 0.238361
0.808255 0 0.241154
0.0103304 0.0345006 0.0150149
0.0212711 0.0208438 0.00972
0.132662 0.0179294 0.0139925
0.342535 0.00323491 0.0486152
0.56495 0.00445563 0.0955367
0.798993 0 0.188891
0.802045 0 0.204471
0.80293 0 0.2121
0.803326 0 0.214755
0.0122988 0.14815 0.0378729
0.01149 0.138705 0.0235294
0.124727 0.128908 0.0146181
0.347433 0.0775921 0.0293736
0.555947 0.00749218 0.088838
0.797223 0 0.182986
0.797223 0 0.182986
0.797223 0 0.182986
0.79736 0 0.183474
0 0.342 0.0960098
0 0.340093 0.0628672
0 0.332845 0.0267033
0.311162 0.321553 0.00334173
0.623667 0.250645 0.0973373
0.882856 0.0202792 0.127291
0.828885 0 0.168826
0.815152 0 0.174762
0.811887 0 0.176715
0.0487373 0.594186 0.278691
0.0480201 0.593729 0.246662
0.045304 0.59411 0.211765
0.0487526 0.586847 0.144533
0.561013 0.57705 0.0728923
0.884199 0.556481 0.183795
0.954864 0.484611 0.184253
0.955535 0.455406 0.17882
0.955917 0.443519 0.176684
0.142809 0.854963 0.534966
0.141878 0.85507 0.522622
0.140597 0.855467 0.50544
0.135882 0.858915 0.441978
0.341772 0.85391 0.325902
0.794629 0.819486 0.292592
0.938979 0.822492 0.354223
0.937316 0.812222 0.343084
0.937011 0.808331 0.339483
0.168307 0.943648 0.690074
0.168429 0.944137 0.684947
0.168704 0.944732 0.678523
0.168948 0.946563 0.657679
0.171145 0.951812 0.620905
0.728038 0.960952 0.635599
0.950042 0.965957 0.661631
0.971466 0.959136 0.658412
0.971389 0.956451 0.649241
0.168231 0.943069 0.697704
0.168261 0.94345 0.692714
0.168414 0.943984 0.686366
0.168795 0.945708 0.666773
0.169116 0.949203 0.630457
0.6365 0.960967 0.632517
0.921386 0.970184 0.708049
0.972732 0.976837 0.754559
0.972732 0.976837 0.754559
0.168185 0.942763 0.700465
0.168215 0.94316 0.695583
0.168307 0.943694 0.689281
0.168765 0.945464 0.66981
0.169116 0.949203 0.630457
0.610513 0.960281 0.627878
0.912413 0.96939 0.708217
0.972732 0.976837 0.754559
0.972732 0.976837 0.754559
0.00869764 0.00924697 0.0236362
0.0612039 0.0119631 0.0410773
0.180362 0.0175479 0.0680705
0.377356 0.0152132 0.104448
0.586206 0.013611 0.157275
0.811399 0 0.24625
0.817319 0 0.260334
0.81944 0 0.266651
0.820111 0 0.269017
0.010071 0.0247807 0.0229496
0.0087129 0.0087129 0.0087129
0.141985 0.0087129 0.0230716
0.345159 0.00862135 0.0592508
0.570611 0.0230716 0.129335
0.803891 0 0.220157
0.804898 0 0.234302
0.808728 0 0.242008
0.810575 0 0.244953
0.0179904 0.137682 0.0808118
0.0138857 0.129137 0.0404517
0.116991 0.120516 0.0150454
0.346731 0.0558328 0.0282597
0.553887 0.00517281 0.092958
0.800809 0 0.19646
0.802228 0 0.206409
0.802869 0 0.211292
0.803128 0 0.213001
0.00236515 0.335073 0.141054
0 0.331075 0.0997635
0 0.329397 0.0469825
0.305867 0.316197 0.00343328
0.619928 0.237339 0.092546
0.877791 0.0149081 0.132952
0.820233 0 0.171435
0.810407 0 0.177569
0.806653 0 0.179751
0.0478676 0.588861 0.305806
0.0466011 0.587854 0.277943
0.0455177 0.587091 0.235676
0.0407263 0.585702 0.172045
0.558389 0.574166 0.0713512
0.888045 0.54818 0.18439
0.954955 0.478325 0.183001
0.955642 0.448371 0.177523
0.956298 0.436484 0.175463
0.142458 0.850843 0.54377
0.141619 0.850813 0.532311
0.140429 0.851072 0.516381
0.136385 0.853895 0.459525
0.299992 0.852247 0.330678
0.792401 0.817548 0.288991
0.938537 0.819532 0.350835
0.937057 0.808667 0.339803
0.936431 0.804395 0.335485
0.168215 0.943145 0.695415
0.168292 0.943648 0.690471
0.168444 0.944244 0.684215
0.168811 0.945968 0.664515
0.170611 0.950973 0.625132
0.718502 0.960845 0.63154
0.948562 0.964691 0.655497
0.971435 0.957168 0.651682
0.971176 0.954482 0.642176
0.168139 0.942519 0.703059
0.168215 0.943023 0.698177
0.168261 0.943557 0.691966
0.168719 0.945113 0.673304
0.169116 0.949203 0.630457
0.623713 0.960693 0.630396
0.919127 0.970031 0.707851
0.972732 0.976837 0.754559
0.972732 0.976837 0.754559
0.168093 0.942275 0.705638
0.16817 0.942672 0.700984
0.168215 0.943252 0.694835
0.16875 0.944869 0.676249
0.169116 0.949203 0.630457
0.597543 0.960082 0.625666
0.910369 0.969146 0.708614
0.972732 0.976837 0.754559
0.972732 0.976837 0.754559
0.010132 0.0170901 0.113893
0.0982376 0.0129702 0.108278
0.19089 0.0220493 0.126497
0.391485 0.0207523 0.158831
0.599878 0.0182803 0.20177
0.828016 0 0.281682
0.837125 0.00015259 0.296803
0.841337 0.00111391 0.304219
0.842924 0.00154116 0.30692
0.00976577 0.033051 0.0784314
0.0100404 0.0160067 0.104829
0.15436 0.019501 0.105241
0.366705 0.017731 0.125841
0.58378 0.0157778 0.17113
0.816434 0 0.257725
0.820584 0 0.270436
0.825299 0 0.277577
0.827039 0 0.280079
0.0178683 0.131243 0.12221
0.0179751 0.121218 0.11339
0.112718 0.112703 0.112764
0.353597 0.0725261 0.104433
0.566781 0.0145876 0.147448
0.804837 0 0.232624
0.808667 0 0.24184
0.811887 0 0.247166
0.813703 0 0.25005
0.00590524 0.328038 0.188708
0.00541695 0.323415 0.162982
0.00151064 0.3187 0.110719
0.307179 0.312993 0.0617227
0.616526 0.22533 0.104662
0.869322 0.0101625 0.154711
0.812055 0 0.188113
0.807584 0 0.205921
0.804578 0 0.211963
0.0466773 0.581994 0.334401
0.045304 0.580758 0.312047
0.0439918 0.579889 0.277546
0.0352178 0.583017 0.186038
0.555184 0.570871 0.0696269
0.887938 0.542245 0.183917
0.955093 0.470802 0.181506
0.956313 0.439078 0.175998
0.956802 0.426139 0.173678
0.142153 0.845716 0.55433
0.141436 0.845548 0.543648
0.140566 0.845747 0.529366
0.136675 0.847669 0.478264
0.240497 0.851637 0.331533
0.790097 0.814801 0.284886
0.937942 0.815747 0.346914
0.936599 0.80499 0.336065
0.936156 0.80087 0.332204
0.168154 0.942626 0.7019
0.168246 0.942946 0.697307
0.168276 0.943542 0.691096
0.168734 0.945159 0.672633
0.16939 0.949584 0.629648
0.706554 0.960784 0.626902
0.946715 0.963134 0.648081
0.971222 0.954849 0.643458
0.971191 0.952209 0.63386
0.168017 0.941939 0.709361
0.168109 0.942382 0.704784
0.168215 0.942977 0.698802
0.168612 0.944472 0.681025
0.169116 0.949203 0.630457
0.608011 0.96025 0.627466
0.916045 0.969726 0.707805
0.972732 0.976837 0.754559
0.972732 0.976837 0.754559
0.167956 0.941802 0.712032
0.168063 0.942077 0.707439
0.168109 0.942672 0.70161
0.168521 0.944289 0.683757
0.169116 0.949203 0.630457
0.58024 0.959457 0.622904
0.907683 0.968887 0.70927
0.972732 0.976837 0.754559
0.972732 0.976837 0.754559
0.00895705 0.0354314 0.271305
0.0872206 0.0250706 0.278813
0.241474 0.0223087 0.270893
0.412345 0.0319982 0.289433
0.624964 0.0399786 0.318318
0.878035 0.0126192 0.3794
0.883177 0.0151827 0.392584
0.885161 0.0165103 0.398642
0.885817 0.0168612 0.400748
0.00814832 0.0505684 0.249607
0.00917067 0.0347448 0.264851
0.166033 0.0204776 0.2813
0.393439 0.0307622 0.274159
0.612879 0.0359808 0.295293
0.86981 0.00921645 0.359548
0.874998 0.0113375 0.372168
0.877592 0.0124208 0.378302
0.878492 0.0128328 0.380529
0.00216678 0.130816 0.250599
0.00474556 0.111818 0.263371
0.0749218 0.0870985 0.284001
0.369543 0.0469673 0.263722
0.598413 0.0314488 0.269978
0.856779 0.005066 0.332235
0.86331 0.00682078 0.345129
0.866087 0.00791943 0.351431
0.867201 0.00833143 0.353536
0.00393683 0.311498 0.291508
0.00445563 0.305745 0.286366
0.00491341 0.297963 0.279744
0.303029 0.303014 0.30309
0.629587 0.235538 0.269535
0.867796 0.00701915 0.274891
0.846204 0.00163272 0.30071
0.847181 0.00263981 0.314092
0.849836 0.00337224 0.319051
0.0467689 0.570382 0.40499
0.0452277 0.568093 0.391745
0.0433356 0.565652 0.372992
0.0384985 0.561868 0.2925
0.561898 0.566232 0.232334
0.882918 0.526543 0.277745
0.96257 0.435782 0.25211
0.962737 0.404044 0.241932
0.962707 0.391836 0.238499
0.1411 0.83418 0.58294
0.14049 0.833417 0.574304
0.139712 0.832654 0.562676
0.137301 0.832471 0.524483
0.207828 0.839979 0.389624
0.787839 0.808896 0.333822
0.943084 0.808209 0.383673
0.941482 0.795911 0.368872
0.940963 0.791623 0.363485
0.167819 0.941176 0.718715
0.16791 0.941558 0.714473
0.168017 0.941939 0.709239
0.168261 0.943343 0.692988
0.169085 0.948608 0.637369
0.687037 0.960388 0.617212
0.942229 0.958816 0.629831
0.97084 0.949508 0.624491
0.970596 0.946334 0.614908
0.167651 0.940536 0.726192
0.167758 0.940887 0.721828
0.167865 0.94136 0.716564
0.168185 0.942718 0.700633
0.169039 0.947677 0.645792
0.57847 0.959411 0.622538
0.910491 0.969146 0.708598
0.972732 0.976837 0.754559
0.972732 0.976837 0.754559
0.16759 0.940291 0.728771
0.167697 0.940688 0.724575
0.167803 0.941131 0.719295
0.168078 0.942428 0.703456
0.169009 0.947387 0.649973
0.54876 0.958495 0.617014
0.90251 0.968338 0.710567
0.972732 0.976837 0.754559
0.972732 0.976837 0.754559
0 0.0739147 0.46891
0.0473487 0.063508 0.484092
0.165026 0.0416419 0.499733
0.450538 0.0408942 0.492515
0.653178 0.0751202 0.507195
0.923064 0.0336309 0.552483
0.925277 0.0343328 0.564904
0.926223 0.0346838 0.570245
0.926604 0.0348211 0.572122
0 0.0814527 0.463844
0 0.0729381 0.466575
0.0944076 0.0556649 0.490257
0.420523 0.0349432 0.495308
0.643671 0.0734112 0.499962
0.920928 0.0331579 0.540963
0.923003 0.0336004 0.552148
0.923827 0.0339208 0.557122
0.924132 0.0339971 0.558938
0 0.107698 0.450828
0 0.0903334 0.457023
0.00148013 0.0691997 0.469459
0.360571 0.0307317 0.503105
0.631449 0.0711223 0.490745
0.917967 0.0324407 0.526207
0.919997 0.032929 0.535927
0.920806 0.0330816 0.540398
0.921065 0.0331121 0.541985
0 0.288991 0.462089
0 0.275715 0.467109
0 0.257908 0.474678
0.218921 0.238651 0.531579
0.634745 0.190082 0.516732
0.885847 0.0337224 0.487022
0.914244 0.0315862 0.508339
0.914916 0.0316625 0.510918
0.915099 0.0317082 0.512001
0.0472877 0.547021 0.525567
0.0460212 0.543664 0.522499
0.0444343 0.539605 0.518639
0.0404364 0.52845 0.50898
0.547387 0.547387 0.547387
0.89691 0.494621 0.518395
0.951003 0.424689 0.507622
0.947143 0.396124 0.504234
0.945464 0.385229 0.502693
0.138064 0.81326 0.651652
0.137697 0.811612 0.646128
0.137285 0.810132 0.6392
0.135592 0.805692 0.617243
0.270893 0.809934 0.558312
0.788312 0.796551 0.550607
0.964523 0.783566 0.572488
0.962554 0.770123 0.559365
0.961807 0.765209 0.554498
0.166339 0.937423 0.762066
0.166567 0.937591 0.758938
0.166751 0.938003 0.754604
0.167193 0.939086 0.742367
0.168032 0.942473 0.702525
0.667597 0.956466 0.704417
0.941497 0.954391 0.717968
0.971466 0.948837 0.723537
0.971298 0.946014 0.716304
0.165942 0.936614 0.769543
0.166094 0.937026 0.76614
0.166415 0.937407 0.761685
0.166964 0.938552 0.748898
0.168017 0.941939 0.70959
0.593561 0.960693 0.690059
0.926558 0.97293 0.816419
0.978149 0.980682 0.847227
0.978149 0.980682 0.847013
0.165789 0.936431 0.772412
0.165957 0.936767 0.768643
0.166217 0.937163 0.764294
0.166888 0.938293 0.751369
0.167956 0.941802 0.712032
0.555947 0.959686 0.679103
0.916548 0.971908 0.809659
0.977935 0.980545 0.8448
0.978012 0.980591 0.844724
0 0.156634 0.656092
0 0.157382 0.662852
0.0525521 0.148226 0.674525
0.31516 0.123522 0.707027
0.698207 0.132097 0.720546
0.94873 0.102007 0.772854
0.950332 0.121553 0.795743
0.950393 0.131106 0.803693
0.950347 0.134279 0.806195
0 0.155581 0.653696
0 0.155413 0.653315
0 0.152331 0.6645
0.274525 0.120485 0.700618
0.683955 0.127474 0.718059
0.947921 0.0951247 0.764538
0.949828 0.11136 0.785092
0.950301 0.118212 0.792813
0.950332 0.121263 0.795422
0 0.161456 0.638483
0 0.155337 0.64831
0 0.153918 0.649927
0.211154 0.132372 0.691814
0.664347 0.121843 0.715679
0.94168 0.0961471 0.755703
0.948577 0.10045 0.771023
0.949111 0.105776 0.777981
0.949294 0.107698 0.780118
0 0.258885 0.632059
0 0.246464 0.639078
0 0.231189 0.648753
0.0563821 0.210925 0.669642
0.597818 0.132677 0.71075
0.918822 0.100313 0.733974
0.946044 0.0724804 0.737774
0.946365 0.0748913 0.740871
0.946319 0.0755627 0.741711
0 0.534096 0.672023
0 0.528939 0.673426
0 0.520668 0.676081
0 0.495949 0.688258
0.479332 0.502098 0.784924
0.895811 0.464195 0.766415
0.955276 0.392554 0.743832
0.950545 0.365332 0.736996
0.948669 0.354803 0.734432
0.125185 0.781628 0.755489
0.124636 0.779416 0.753323
0.123995 0.776486 0.750973
0.121965 0.768917 0.743999
0.178119 0.757214 0.735927
0.773098 0.773098 0.773098
0.961822 0.744976 0.756359
0.962982 0.728542 0.751308
0.963378 0.722423 0.749432
0.161761 0.930724 0.830045
0.161913 0.930861 0.827817
0.161151 0.930373 0.824735
0.157778 0.927581 0.815625
0.150439 0.921294 0.785183
0.680949 0.935744 0.808209
0.936782 0.94168 0.845441
0.970672 0.944823 0.858854
0.969818 0.941588 0.854444
0.161227 0.929931 0.839887
0.161395 0.930098 0.837095
0.161532 0.930388 0.833875
0.162173 0.931151 0.824506
0.164172 0.933791 0.798321
0.486732 0.954559 0.796887
0.924865 0.976867 0.915022
0.985122 0.986236 0.950225
0.985611 0.986389 0.950896
0.161059 0.92958 0.843488
0.161196 0.929763 0.840635
0.16141 0.930159 0.836912
0.162005 0.930907 0.827176
0.16405 0.933761 0.799893
0.420951 0.94876 0.785718
0.908904 0.975601 0.90811
0.979568 0.984085 0.938827
0.985458 0.986282 0.949828
0 0.317571 0.842878
0 0.320226 0.845991
0 0.32076 0.850523
0.111009 0.335561 0.867918
0.540948 0.35668 0.916945
0.937133 0.374929 0.922011
0.934401 0.404868 0.933028
0.934401 0.404868 0.933028
0.934401 0.404868 0.933028
0 0.313298 0.840589
0 0.312673 0.840055
0 0.318746 0.847547
0.032105 0.331441 0.866636
0.522789 0.351781 0.913176
0.933501 0.365896 0.919829
0.934401 0.404868 0.933028
0.934401 0.404868 0.933028
0.934401 0.404868 0.933028
0 0.299504 0.829572
0 0.307897 0.837507
0 0.307073 0.837034
0 0.325902 0.858534
0.498756 0.346029 0.908415
0.928344 0.357122 0.917678
0.934905 0.401129 0.931167
0.934401 0.404868 0.933028
0.934401 0.404868 0.933028
0 0.307973 0.796704
0 0.306752 0.805692
0 0.30692 0.816663
0 0.301244 0.833387
0.434287 0.326635 0.892195
0.909712 0.334905 0.912108
0.943297 0.357473 0.915709
0.942153 0.364691 0.918242
0.941649 0.367407 0.919142
0 0.521782 0.814588
0 0.516381 0.818982
0 0.510109 0.824567
0 0.495583 0.844266
0.320027 0.509651 0.887694
0.861463 0.473289 0.929808
0.956619 0.455924 0.903838
0.953948 0.435782 0.899321
0.952819 0.428107 0.897475
0 0.768124 0.854292
0 0.765026 0.854597
0 0.760952 0.85536
0 0.749691 0.858183
0 0.722713 0.869474
0.723171 0.74287 0.913558
0.96318 0.733516 0.908263
0.963867 0.718318 0.90602
0.96434 0.713039 0.905379
0.140627 0.914122 0.892805
0.139193 0.912612 0.89131
0.137438 0.910552 0.889479
0.133455 0.905776 0.884978
0.124453 0.894041 0.874174
0.625818 0.909346 0.898253
0.929702 0.929686 0.929747
0.969039 0.927321 0.929335
0.96849 0.923293 0.927153
0.150179 0.9252 0.912367
0.150774 0.925322 0.910369
0.151476 0.925475 0.907942
0.153323 0.925841 0.901305
0.157641 0.927031 0.882918
0.284382 0.939437 0.875715
0.930175 0.977829 0.955856
0.98497 0.985687 0.976089
0.987228 0.985809 0.977127
0.148486 0.924697 0.917128
0.150652 0.924651 0.915007
0.150179 0.9252 0.912367
0.152392 0.925658 0.904723
0.157412 0.926894 0.884199
0.255161 0.939529 0.874113
0.911299 0.976883 0.950988
0.985275 0.988556 0.981384
0.991028 0.991135 0.986404
0 0.327581 0.847898
0 0.33193 0.851698
0 0.346456 0.864179
0.0333257 0.370535 0.885359
0.522118 0.394171 0.93196
0.932036 0.403922 0.933257
0.934401 0.404868 0.933028
0.934401 0.404868 0.933028
0.934401 0.404868 0.933028
0 0.327581 0.847898
0 0.327581 0.847898
0 0.340673 0.857694
0 0.365606 0.880217
0.501671 0.391089 0.929076
0.925017 0.401526 0.933791
0.934401 0.404868 0.933028
0.934401 0.404868 0.933028
0.934401 0.404868 0.933028
0 0.333303 0.849546
0 0.327581 0.847898
0 0.327581 0.847898
0 0.360891 0.873075
0.47361 0.389075 0.924468
0.915541 0.399069 0.934874
0.934401 0.404868 0.933028
0.934401 0.404868 0.933028
0.934401 0.404868 0.933028
0 0.389425 0.864164
0 0.376791 0.860914
0 0.359274 0.856031
0 0.341924 0.858991
0.392828 0.387091 0.909499
0.87715 0.394766 0.938903
0.934401 0.404868 0.933028
0.934401 0.404868 0.933028
0.934401 0.404868 0.933028
0 0.544549 0.884581
0 0.54461 0.889693
0 0.546578 0.89662
0 0.527626 0.893233
0.201541 0.532235 0.906722
0.749462 0.530663 0.971191
0.948684 0.500862 0.947692
0.946334 0.48748 0.94519
0.945495 0.482353 0.944305
0 0.759915 0.906905
0 0.756664 0.907988
0 0.752834 0.909499
0 0.742824 0.914549
0 0.719463 0.921324
0.647868 0.737179 0.960723
0.958267 0.742809 0.958099
0.960204 0.730785 0.958022
0.960113 0.72607 0.957931
0.0931411 0.907851 0.932464
0.0901045 0.905852 0.931716
0.0861982 0.903883 0.931151
0.0748913 0.897612 0.929351
0.0480812 0.881682 0.928786
0.531716 0.883818 0.943145
0.908446 0.916335 0.959045
0.970291 0.924361 0.963302
0.969619 0.920577 0.962112
0.125139 0.925719 0.940108
0.125139 0.925719 0.940108
0.125139 0.925719 0.940108
0.125139 0.925719 0.940108
0.132296 0.925277 0.932937
0.198383 0.934508 0.929229
0.904112 0.96907 0.966949
0.982849 0.982849 0.982849
0.985168 0.982818 0.985275
0.125139 0.925719 0.940108
0.125139 0.925719 0.940108
0.125139 0.925719 0.940108
0.125139 0.925719 0.940108
0.131304 0.925322 0.933898
0.179248 0.934447 0.926741
0.860517 0.970962 0.96202
0.987274 0.989075 0.989563
0.993606 0.993271 0.993866
0 0.327581 0.847898
0 0.331167 0.851011
0 0.346181 0.863981
0.0290379 0.370153 0.885237
0.521126 0.39408 0.931853
0.932296 0.403998 0.933211
0.934401 0.404868 0.933028
0.934401 0.404868 0.933028
0.934401 0.404868 0.933028
0 0.327581 0.847898
0 0.327581 0.847898
0 0.339757 0.857053
0 0.365286 0.879683
0.500328 0.391028 0.928939
0.925063 0.401465 0.933776
0.934401 0.404868 0.933028
0.934401 0.404868 0.933028
0.934401 0.404868 0.933028
0 0.332189 0.849256
0 0.327581 0.847898
0 0.327581 0.847898
0 0.360616 0.872755
0.471687 0.38912 0.924132
0.915145 0.398932 0.93492
0.934401 0.404868 0.933028
0.934401 0.404868 0.933028
0.934401 0.404868 0.933028
0 0.384115 0.862837
0 0.37084 0.859068
0 0.353307 0.854429
0 0.341863 0.85893
0.388876 0.386984 0.908721
0.874739 0.394659 0.939147
0.934401 0.404868 0.933028
0.934401 0.404868 0.933028
0.934401 0.404868 0.933028
0 0.556603 0.898909
0 0.551247 0.897841
0 0.544625 0.896635
0 0.524483 0.892714
0.188418 0.52784 0.906096
0.743374 0.52697 0.970916
0.947692 0.496834 0.946639
0.945647 0.483146 0.944442
0.945113 0.478202 0.943908
0 0.761303 0.925597
0 0.758236 0.925109
0 0.754345 0.924453
0 0.743694 0.922744
0 0.715908 0.920638
0.643275 0.733562 0.961089
0.956436 0.738231 0.958373
0.960098 0.727031 0.957916
0.960372 0.722438 0.958206
0.0872358 0.907805 0.936996
0.0831617 0.905806 0.93669
0.0779278 0.903548 0.93669
0.0646067 0.896819 0.936339
0.0369726 0.878828 0.935561
0.506035 0.876646 0.947204
0.893599 0.910018 0.962554
0.969635 0.919814 0.968139
0.969268 0.91574 0.967575
0.125139 0.925719 0.940108
0.125139 0.925719 0.940108
0.125139 0.925719 0.940108
0.125139 0.925719 0.940108
0.125139 0.925719 0.940108
0.144152 0.933684 0.94461
0.871397 0.960891 0.970169
0.979553 0.97998 0.983734
0.985061 0.982101 0.985611
0.125139 0.925719 0.940108
0.125139 0.925719 0.940108
0.125139 0.925719 0.940108
0.125139 0.925719 0.940108
0.125139 0.925719 0.940108
0.137987 0.93286 0.94435
0.80032 0.964462 0.967163
0.983963 0.988113 0.988571
0.994553 0.994553 0.994583
