luts/changyun_leica_like/std1.cube
TITLE "Generated by Resolve"
LUT_3D_SIZE 33
0.0087129 0.0087129 0.0087129
0.0087129 0.0087129 0.0087129
0.0087129 0.0087129 0.0087129
0.0340581 0.00891127 0.00865187
0.0645457 0.00817884 0.00991836
0.0949722 0.00755322 0.0122377
0.118715 0.00708019 0.0150454
0.143786 0.00654612 0.0187839
0.174151 0.00538643 0.023682
0.210376 0.00442512 0.0302129
0.25391 0.00407416 0.038117
0.305409 0.00492866 0.0481117
0.362142 0.00448615 0.055848
0.418021 0.00552377 0.0663157
0.472084 0.00939956 0.0843519
0.523659 0.0140993 0.103624
0.578622 0.0192569 0.125933
0.639124 0.0209354 0.149325
0.711482 0.00408942 0.169543
0.78349 0 0.201404
0.80351 0 0.21677
0.803952 0 0.221103
0.804334 0 0.224964
0.804578 0 0.228275
0.804791 0 0.231174
0.804898 0 0.233433
0.804959 0 0.235279
0.805447 0 0.236927
0.806348 0 0.238361
0.80705 0 0.239292
0.807614 0 0.240101
0.807965 0 0.240696
0.808255 0 0.241154
0.0087129 0.0087129 0.0087129
0.0087129 0.0087129 0.0087129
0.0087129 0.0087129 0.0087129
0.0216526 0.00926223 0.00865187
0.0530404 0.00831617 0.00918593
0.0845808 0.00764477 0.0112917
0.110475 0.00712596 0.0139315
0.136172 0.00666819 0.0176394
0.167361 0.00575265 0.0224765
0.204257 0.00450141 0.029099
0.248035 0.00361639 0.0364996
0.299336 0.00251774 0.0442969
0.356191 0.00143435 0.0512398
0.412161 0.00111391 0.0563363
0.4654 0.00303655 0.0698558
0.518044 0.00767529 0.0896773
0.574884 0.012253 0.114137
0.637217 0.015259 0.1393
0.706737 0.0061799 0.162509
0.780011 0 0.193698
0.80267 0 0.210056
0.80325 0 0.214603
0.803769 0 0.21857
0.804074 0 0.222171
0.804334 0 0.22501
0.804517 0 0.227405
0.804654 0 0.229221
0.804715 0 0.230777
0.804776 0 0.231937
0.804837 0 0.232853
0.804898 0 0.233433
0.804898 0 0.233906
0.804898 0 0.234302
0.0087129 0.0087129 0.0087129
0.0087129 0.0087129 0.0087129
0.0087129 0.0087129 0.0087129
0.0087129 0.0087129 0.0087129
0.0371099 0.0115358 0.00936904
0.0675975 0.0109407 0.0099031
0.0987106 0.00933852 0.0108644
0.127001 0.00831617 0.0142061
0.159625 0.00662242 0.0204929
0.198123 0.00488289 0.0281376
0.242283 0.00352483 0.0354314
0.294209 0.00247196 0.0434577
0.351888 0.00161746 0.0508888
0.40885 0.00114443 0.0558633
0.462043 0.00161746 0.0662852
0.514046 0.00369268 0.0800488
0.569635 0.00579843 0.0998856
0.635935 0.00735485 0.127611
0.703609 0.00598154 0.154894
0.776028 0.000244144 0.185794
0.801923 0 0.203281
0.802426 0 0.207797
0.802945 0 0.211963
0.803388 0 0.215503
0.803708 0 0.218448
0.803952 0 0.220981
0.80415 0 0.222934
0.804273 0 0.22443
0.80441 0 0.22562
0.804456 0 0.226551
0.804456 0 0.227283
0.804517 0 0.227832
0.804593 0 0.228122
0.0087129 0.0087129 0.0087129
0.0087129 0.0087129 0.0087129
0.0087129 0.0087129 0.0087129
0.0087129 0.0087129 0.0087129
0.0227054 0.012665 0.00917067
0.0490272 0.0159609 0.0101778
0.0788891 0.0170291 0.0108949
0.112276 0.0150912 0.011841
0.147707 0.0102846 0.0154726
0.187488 0.00798047 0.0242466
0.234699 0.00581369 0.0335241
0.288502 0.00280766 0.0425116
0.347555 0.00172427 0.0504921
0.405463 0.00108339 0.0554665
0.45977 0.00166323 0.0657816
0.511742 0.00360113 0.0793927
0.56701 0.00445563 0.0961624
0.633036 0 0.114397
0.702861 0 0.144259
0.771969 0.000701915 0.177935
0.800748 0 0.196155
0.801602 0 0.200717
0.802106 0 0.204852
0.802487 0 0.208453
0.802945 0 0.211688
0.803265 0 0.214176
0.803449 0 0.21622
0.803632 0 0.217716
0.803769 0 0.218982
0.803891 0 0.219974
0.803952 0 0.220722
0.804013 0 0.221256
0.804013 0 0.221714
0.0103304 0.0345006 0.0150149
0.00903334 0.0318608 0.0121157
0.00981155 0.0285801 0.0115663
0.0148013 0.0240787 0.0100099
0.0212711 0.0208438 0.00972
0.0373999 0.0262608 0.0108492
0.0618296 0.0246891 0.0116579
0.0946212 0.0209812 0.0119173
0.132662 0.0179294 0.0139925
0.17641 0.0116732 0.0188907
0.225162 0.00953689 0.0293736
0.280751 0.00677501 0.0394903
0.342535 0.00323491 0.0486152
0.401984 0.00109865 0.0549783
0.45716 0.00157168 0.0652171
0.509331 0.00354009 0.078706
0.56495 0.00445563 0.0955367
0.630625 0.000213626 0.113771
0.701717 0 0.138109
0.768063 0 0.168185
0.798993 0 0.188891
0.800137 0 0.193484
0.801068 0 0.197757
0.80174 0 0.201404
0.802045 0 0.204471
0.802289 0 0.207095
0.802609 0 0.209094
0.802808 0 0.210803
0.80293 0 0.2121
0.803128 0 0.213001
0.803189 0 0.213748
0.80325 0 0.214313
0.803326 0 0.214755
0.012192 0.0597848 0.0238956
0.00941482 0.0570077 0.0179751
0.0093843 0.0535744 0.0172885
0.017792 0.0487373 0.0148165
0.0293431 0.0428626 0.0131533
0.0438087 0.0441901 0.0122377
0.061799 0.0475013 0.0141756
0.0958877 0.0441291 0.0179141
0.1299 0.0379797 0.0170138
0.170153 0.0296178 0.0183566
0.218082 0.0144503 0.0221866
0.272541 0.0105898 0.0352178
0.336797 0.00642405 0.0444343
0.398489 0.00311284 0.0522316
0.454505 0.00149538 0.0645457
0.507103 0.00343328 0.0781109
0.562982 0.00442512 0.0948653
0.62829 0.000411994 0.1131
0.699504 0 0.137392
0.766232 0 0.16495
0.797223 0 0.182986
0.798169 0 0.186175
0.799329 0 0.190417
0.800259 0 0.19411
0.801007 0 0.197284
0.80148 0 0.199832
0.801801 0 0.201968
0.801923 0 0.203662
0.802106 0 0.204852
0.802167 0 0.205859
0.802304 0 0.206622
0.802365 0 0.207202
0.80235 0 0.20763
0.0130922 0.087602 0.0276951
0.00840772 0.0849012 0.0226596
0.00859083 0.0814069 0.022446
0.0135958 0.0767071 0.021973
0.0305028 0.0695964 0.0174716
0.044358 0.0666056 0.0162509
0.0669413 0.0680858 0.0150301
0.0943618 0.0704814 0.0178836
0.131075 0.0658122 0.0228428
0.173907 0.0553445 0.0235447
0.219883 0.0454871 0.023331
0.274769 0.026154 0.0253758
0.331777 0.0103914 0.0379187
0.394171 0.0059968 0.0478218
0.452049 0.00328069 0.0615854
0.504677 0.00337224 0.0774395
0.560876 0.00444038 0.0942092
0.625895 0.000656138 0.112459
0.697292 0 0.136629
0.764324 0 0.163806
0.797223 0 0.182986
0.797223 0 0.182986
0.797299 0 0.183169
0.798383 0 0.186816
0.799268 0 0.189975
0.799939 0 0.192508
0.800412 0 0.19472
0.800809 0 0.196353
0.801068 0 0.197665
0.801205 0 0.198688
0.801404 0 0.199435
0.801465 0 0.199908
0.801526 0 0.200366
0.0130007 0.115328 0.0316167
0.00656138 0.113237 0.0251164
0.00614939 0.110842 0.0239719
0.00726329 0.107866 0.0238956
0.0239719 0.103273 0.0215305
0.042649 0.0962692 0.0192569
0.0622263 0.0974441 0.0182345
0.0953078 0.0979171 0.0158846
0.128099 0.0989242 0.0197147
0.172183 0.0931868 0.0247807
0.229099 0.0730602 0.0277104
0.279057 0.0614176 0.0258183
0.339712 0.0396429 0.0275425
0.39649 0.0139467 0.0346532
0.448615 0.00671397 0.0558022
0.502495 0.00556954 0.0741131
0.558312 0.00444038 0.093431
0.62295 0.000961318 0.111681
0.694621 0 0.135698
0.761807 0 0.16228
0.797223 0 0.182986
0.797223 0 0.182986
0.797223 0 0.182986
0.797223 0 0.182986
0.797223 0 0.182986
0.797436 0 0.183719
0.798123 0 0.185733
0.798505 0 0.187442
0.798932 0 0.188724
0.799191 0 0.189746
0.799405 0 0.190509
0.799527 0 0.191119
0.799588 0 0.191546
0.0122988 0.14815 0.0378729
0.00462348 0.146365 0.0295262
0.00300603 0.144015 0.0253605
0.0033875 0.141527 0.025391
0.01149 0.138705 0.0235294
0.0324102 0.133654 0.0201724
0.0569467 0.129213 0.0201419
0.0851453 0.129656 0.01944
0.124727 0.128908 0.0146181
0.170993 0.127886 0.0198215
0.222644 0.120226 0.0263981
0.291829 0.0930953 0.0309148
0.347433 0.0775921 0.0293736
0.405219 0.0530251 0.0325017
0.456886 0.0246281 0.0399329
0.500404 0.0112154 0.0651408
0.555947 0.00749218 0.088838
0.619242 0.00129702 0.110704
0.691218 0 0.134493
0.758526 0 0.160281
0.797223 0 0.182986
0.797223 0 0.182986
0.797223 0 0.182986
0.797223 0 0.182986
0.797223 0 0.182986
0.797223 0 0.182986
0.797223 0 0.182986
0.797223 0 0.182986
0.797223 0 0.182986
0.797223 0 0.182986
0.797223 0 0.182986
0.797299 0 0.183215
0.79736 0 0.183474
0.0122377 0.187381 0.0476539
0.00450141 0.185702 0.0370031
0 0.184451 0.0281987
0 0.182467 0.0270237
9.15541e-05 0.17998 0.0269627
0.0142824 0.177432 0.0207065
0.0372168 0.17232 0.0182498
0.0752422 0.169192 0.0187228
0.109636 0.169039 0.0181582
0.161151 0.167025 0.0116579
0.221149 0.163195 0.0189059
0.280659 0.154116 0.0273899
0.360006 0.121172 0.0352941
0.415885 0.103593 0.0362707
0.468803 0.0782788 0.041474
0.515343 0.0448768 0.0515602
0.562158 0.0199893 0.0730907
0.616678 0.00776684 0.103532
0.687861 0 0.128069
0.754345 0 0.157702
0.797223 0 0.182986
0.797223 0 0.182986
0.797223 0 0.182986
0.797223 0 0.182986
0.797223 0 0.182986
0.797223 0 0.182986
0.797223 0 0.182986
0.797223 0 0.182986
0.797223 0 0.182986
0.797223 0 0.182986
0.797223 0 0.182986
0.797223 0 0.182986
0.797223 0 0.182986
0.00854505 0.232425 0.0619364
0.00492866 0.231327 0.0479744
0 0.229725 0.0402075
0 0.22945 0.0306706
0 0.227253 0.0304875
0 0.225299 0.0303197
0.00862135 0.223087 0.019028
0.0391852 0.217884 0.0157168
0.0944991 0.216068 0.0168154
0.136965 0.215137 0.0164187
0.204211 0.211521 0.00874342
0.278431 0.205432 0.0177157
0.345754 0.195926 0.0300755
0.427802 0.160189 0.043946
0.484215 0.140642 0.0486915
0.531014 0.117128 0.0560769
0.580575 0.0776837 0.0664988
0.637903 0.0277562 0.0784161
0.695384 0.00770581 0.116594
0.75787 0 0.150103
0.803021 0 0.181369
0.797864 0 0.182818
0.797223 0 0.182986
0.797223 0 0.182986
0.797223 0 0.182986
0.797223 0 0.182986
0.797223 0 0.182986
0.797223 0 0.182986
0.797223 0 0.182986
0.797223 0 0.182986
0.797223 0 0.182986
0.797223 0 0.182986
0.797223 0 0.182986
0.00277714 0.285206 0.0780041
0.000427253 0.283986 0.0650339
0 0.282445 0.0555428
0 0.282277 0.0476997
0 0.282002 0.0363165
0 0.280079 0.0361486
0 0.27834 0.0359197
0 0.275257 0.0193637
0.0408484 0.270024 0.0129091
0.114199 0.270039 0.0150607
0.169772 0.26804 0.0151369
0.253666 0.262669 0.00540169
0.341634 0.254902 0.0175631
0.409735 0.2477 0.0344701
0.49247 0.216068 0.0565652
0.552209 0.189273 0.0689403
0.599344 0.167697 0.0755932
0.653803 0.127932 0.084947
0.725414 0.0571603 0.0903792
0.791196 0.0111238 0.126757
0.832761 0 0.166491
0.815335 0 0.17464
0.810224 0 0.177707
0.805341 0 0.180514
0.801938 0 0.181796
0.798947 0 0.182574
0.797223 0 0.182986
0.797223 0 0.182986
0.797223 0 0.182986
0.797223 0 0.182986
0.797223 0 0.182986
0.797223 0 0.182986
0.797223 0 0.182986
0 0.342 0.0960098
0 0.34136 0.0851301
0 0.340215 0.0749828
0 0.339666 0.070222
0 0.340093 0.0628672
0 0.340291 0.0500954
0 0.338796 0.0496223
0 0.336767 0.049073
0 0.332845 0.0267033
0.0487373 0.330022 0.0113985
0.139071 0.330678 0.0142672
0.209873 0.327947 0.0154269
0.311162 0.321553 0.00334173
0.404089 0.313359 0.0195468
0.472557 0.310643 0.0412299
0.555093 0.286641 0.0735332
0.623667 0.250645 0.0973373
0.673487 0.228992 0.101137
0.740856 0.186252 0.105257
0.817212 0.114504 0.108278
0.882856 0.0202792 0.127291
0.880125 0.000701915 0.147311
0.864347 0 0.154253
0.846693 0 0.161685
0.828885 0 0.168826
0.821469 0 0.170657
0.818738 0 0.172305
0.816678 0 0.173678
0.815152 0 0.174762
0.814191 0 0.175296
0.813214 0 0.175891
0.812512 0 0.176364
0.811887 0 0.176715
0 0.400748 0.124453
0 0.399985 0.113649
0 0.399145 0.10309
0 0.39852 0.0937057
0 0.39884 0.090959
0 0.399435 0.0859998
0 0.400107 0.0756847
0 0.399084 0.0707713
0 0.397223 0.0701457
0 0.392676 0.0460365
0.0643168 0.391928 0.0151217
0.173632 0.39324 0.0186313
0.257862 0.389319 0.021149
0.371695 0.383398 0.00708019
0.467414 0.376394 0.0278172
0.535225 0.377005 0.0536507
0.616663 0.361501 0.0956283
0.696803 0.324086 0.126238
0.756695 0.296391 0.127718
0.830518 0.254078 0.125429
0.900435 0.185351 0.124666
0.919478 0.123339 0.12163
0.914641 0.0797589 0.118227
0.91014 0.0399939 0.115465
0.902647 0.0237583 0.125231
0.895003 0.0150607 0.134218
0.888808 0.00872816 0.140749
0.883558 0.00361639 0.144961
0.87921 0 0.147799
0.8757 0 0.149737
0.872938 0 0.150881
0.870802 0 0.151781
0.869123 0 0.152468
0.00608835 0.462333 0.164523
0.0059205 0.461799 0.154864
0.00575265 0.461326 0.144671
0.00540169 0.460883 0.135363
0.00491341 0.460716 0.12636
0.00375372 0.460807 0.122179
0.00199893 0.461509 0.120806
0.000717174 0.462318 0.111879
0.000106813 0.462165 0.101671
0 0.459693 0.100191
0.00428779 0.454932 0.0738537
0.0916609 0.456428 0.0280919
0.22092 0.458976 0.0324254
0.317281 0.454002 0.0356146
0.434516 0.447623 0.0193179
0.530373 0.441611 0.0447089
0.598703 0.444175 0.072755
0.680735 0.43508 0.116167
0.767163 0.401526 0.150881
0.841794 0.362768 0.151171
0.906905 0.324941 0.144793
0.941299 0.282902 0.140307
0.938247 0.259434 0.13666
0.935286 0.237369 0.13373
0.93254 0.216373 0.131151
0.929778 0.198154 0.129015
0.927489 0.182467 0.127352
0.925673 0.16965 0.126055
0.924239 0.159197 0.125063
0.922972 0.15082 0.124178
0.922072 0.143877 0.12343
0.921736 0.139132 0.12314
0.92105 0.134981 0.122621
0.0246128 0.526894 0.216876
0.0245212 0.526558 0.208698
0.0244755 0.526223 0.199741
0.0244144 0.525795 0.190448
0.0243992 0.525505 0.181521
0.0242008 0.525292 0.173007
0.0237583 0.525414 0.166323
0.0220951 0.526024 0.164309
0.0201724 0.527153 0.158434
0.019089 0.527855 0.146029
0.018204 0.525078 0.143847
0.0246281 0.519097 0.108095
0.135927 0.523934 0.0525216
0.281544 0.526116 0.0563973
0.382528 0.519951 0.059205
0.497658 0.512093 0.0432746
0.592844 0.507332 0.0678874
0.662821 0.510048 0.0987259
0.743618 0.506477 0.137636
0.834333 0.479789 0.167376
0.905547 0.442924 0.17319
0.955428 0.401785 0.167529
0.953414 0.385565 0.162615
0.951583 0.371466 0.158663
0.949981 0.358953 0.155306
0.94876 0.348211 0.152697
0.947723 0.339254 0.150668
0.946807 0.331731 0.14905
0.94612 0.325948 0.147799
0.945571 0.321019 0.146868
0.945174 0.317388 0.146197
0.944976 0.315053 0.145815
0.944778 0.312779 0.145403
0.0487373 0.594186 0.278691
0.0484627 0.593988 0.271214
0.0483101 0.59382 0.263493
0.0482185 0.593942 0.255451
0.0480201 0.593729 0.246662
0.047837 0.593622 0.237934
0.0475013 0.593561 0.22977
0.046891 0.593545 0.220142
0.045304 0.59411 0.211765
0.0417029 0.59585 0.209247
0.0396277 0.596704 0.19649
0.0385138 0.593423 0.194202
0.0487526 0.586847 0.144533
0.198016 0.593759 0.0882734
0.353948 0.593698 0.0940108
0.449928 0.585489 0.0920272
0.561013 0.57705 0.0728923
0.654063 0.572076 0.0968032
0.724392 0.575051 0.129686
0.804364 0.575219 0.155337
0.884199 0.556481 0.183795
0.945968 0.525933 0.194247
0.95523 0.509133 0.189822
0.954833 0.49604 0.186603
0.954864 0.484611 0.184253
0.95494 0.474891 0.182284
0.95523 0.467033 0.180789
0.9552 0.460456 0.179522
0.955535 0.455406 0.17882
0.955566 0.451301 0.178027
0.955688 0.44799 0.177478
0.955795 0.44538 0.17702
0.955917 0.443519 0.176684
0.0757305 0.663142 0.345876
0.0754253 0.663096 0.339757
0.0751049 0.662913 0.333501
0.0748608 0.662882 0.326909
0.0745708 0.662852 0.319799
0.0742657 0.66273 0.312016
0.0740215 0.662715 0.303914
0.0736706 0.662699 0.294301
0.0729992 0.662776 0.281727
0.0717784 0.663279 0.266773
0.0676127 0.664988 0.261967
0.0647135 0.665339 0.253285
0.0634928 0.661814 0.250019
0.0797742 0.654856 0.180072
0.276631 0.664652 0.130938
0.426352 0.66125 0.133837
0.51696 0.650935 0.12665
0.622492 0.640482 0.109606
0.712383 0.635111 0.131685
0.783978 0.637644 0.159411
0.852689 0.641093 0.17966
0.916716 0.630106 0.205402
0.949477 0.612711 0.214191
0.95082 0.602579 0.212131
0.951827 0.593362 0.210239
0.952712 0.585809 0.208759
0.953475 0.579538 0.207492
0.953887 0.574502 0.206577
0.954192 0.570825 0.205768
0.954269 0.568048 0.204974
0.954681 0.565927 0.204685
0.954772 0.56437 0.204273
0.954879 0.563104 0.203998
0.10486 0.731456 0.412222
0.104417 0.731411 0.407614
0.103975 0.731517 0.402594
0.103517 0.731411 0.397436
0.102998 0.731502 0.391989
0.10251 0.731594 0.386221
0.101976 0.731685 0.380301
0.10132 0.731762 0.372717
0.10045 0.732265 0.361837
0.0992142 0.732998 0.34667
0.0965744 0.734005 0.326772
0.090013 0.736675 0.311742
0.0859388 0.735485 0.308949
0.0888075 0.730251 0.298314
0.120775 0.727596 0.20557
0.369604 0.733211 0.182818
0.496651 0.726802 0.182269
0.581704 0.713741 0.167514
0.68162 0.702068 0.154223
0.768612 0.696406 0.172824
0.83299 0.698589 0.198184
0.88806 0.705165 0.226658
0.937652 0.699504 0.242298
0.941115 0.691981 0.239658
0.941787 0.685573 0.23682
0.942153 0.680049 0.234119
0.942596 0.675608 0.232197
0.942901 0.671778 0.230884
0.943175 0.668864 0.229725
0.943236 0.666606 0.228656
0.943664 0.664958 0.228275
0.943755 0.6636 0.227817
0.943893 0.662547 0.227436
0.125582 0.799588 0.475196
0.125246 0.799588 0.471412
0.12491 0.799725 0.467613
0.124498 0.799649 0.463478
0.124163 0.799802 0.459312
0.123751 0.799863 0.455009
0.123323 0.799924 0.450355
0.12282 0.800046 0.444633
0.122194 0.800351 0.43653
0.121386 0.801038 0.425162
0.119951 0.801877 0.40856
0.117754 0.803128 0.385183
0.112734 0.805478 0.359823
0.11104 0.801678 0.356359
0.12079 0.795361 0.345342
0.20914 0.798795 0.252049
0.460563 0.796948 0.247089
0.563821 0.789303 0.245304
0.643641 0.774884 0.220066
0.73814 0.761898 0.212116
0.818799 0.756024 0.234195
0.872572 0.758343 0.254917
0.914748 0.767315 0.286275
0.935409 0.766064 0.299077
0.935409 0.760693 0.294057
0.935546 0.755962 0.290303
0.935775 0.752438 0.287129
0.935836 0.749355 0.284413
0.935912 0.746914 0.282567
0.936004 0.745007 0.280919
0.936324 0.743877 0.279957
0.936202 0.74284 0.278843
0.936248 0.741985 0.27808
0.142809 0.854963 0.534966
0.14258 0.854917 0.532189
0.142412 0.854948 0.52903
0.142123 0.854978 0.526009
0.141878 0.85507 0.522622
0.141634 0.8551 0.519387
0.14139 0.855116 0.515816
0.141024 0.855268 0.511604
0.140597 0.855467 0.50544
0.139956 0.855787 0.497383
0.138994 0.856336 0.485481
0.137728 0.857252 0.468177
0.135882 0.858915 0.441978
0.134096 0.858946 0.421988
0.134997 0.854643 0.41355
0.161273 0.848569 0.386892
0.341772 0.85391 0.325902
0.543282 0.84947 0.325414
0.62829 0.84361 0.323949
0.704082 0.830625 0.294392
0.794629 0.819486 0.292592
0.865583 0.81268 0.317662
0.906249 0.816327 0.332097
0.937835 0.825483 0.356756
0.938979 0.822492 0.354223
0.938506 0.819272 0.350561
0.938079 0.816403 0.347631
0.937728 0.813947 0.34522
0.937316 0.812222 0.343084
0.937331 0.810941 0.342107
0.937194 0.809873 0.340978
0.937087 0.809003 0.340124
0.937011 0.808331 0.339483
0.1505 0.897948 0.592126
0.150515 0.897917 0.58967
0.150469 0.897963 0.587259
0.150484 0.897871 0.584909
0.1505 0.897978 0.582284
0.150454 0.898085 0.579828
0.150454 0.898116 0.577081
0.150362 0.898222 0.573693
0.150256 0.898314 0.569192
0.150042 0.898512 0.562936
0.149706 0.898772 0.554131
0.149172 0.899245 0.541817
0.14844 0.900343 0.523873
0.147402 0.902052 0.497017
0.1467 0.899123 0.490517
0.172869 0.89276 0.453025
0.219486 0.891585 0.424475
0.461524 0.896605 0.404639
0.617334 0.894835 0.411734
0.690211 0.89012 0.410468
0.762875 0.878767 0.387549
0.844938 0.868254 0.388098
0.90782 0.860136 0.411139
0.938842 0.862669 0.422217
0.951949 0.866941 0.426627
0.950835 0.864302 0.421225
0.949889 0.862119 0.416739
0.949096 0.860548 0.412894
0.948852 0.859297 0.410254
0.948455 0.858122 0.408148
0.948135 0.857374 0.406439
0.947906 0.856748 0.405081
0.947753 0.856214 0.40412
0.149798 0.929122 0.647456
0.149599 0.929046 0.645441
0.14934 0.92903 0.643534
0.149157 0.929015 0.641428
0.148959 0.929 0.639246
0.148775 0.928878 0.637247
0.148638 0.928847 0.634958
0.14847 0.928832 0.632181
0.148241 0.928862 0.628626
0.14786 0.928939 0.623484
0.147448 0.929 0.616785
0.147021 0.929397 0.60766
0.146349 0.929778 0.594507
0.146593 0.930632 0.575631
0.147723 0.929763 0.561456
0.157534 0.926452 0.547433
0.228443 0.92015 0.48719
0.357549 0.922927 0.490394
0.559106 0.930587 0.482872
0.691966 0.929366 0.500023
0.754864 0.926589 0.498451
0.820294 0.918013 0.476646
0.887633 0.908995 0.47805
0.940154 0.90135 0.496483
0.965805 0.902754 0.507256
0.966888 0.900938 0.50309
0.966445 0.898726 0.498543
0.966232 0.896742 0.495201
0.966094 0.895247 0.492454
0.96582 0.894133 0.490379
0.965438 0.893431 0.488655
0.965164 0.892851 0.487282
0.965057 0.892576 0.486397
0.168353 0.943938 0.686885
0.168414 0.944152 0.685634
0.168444 0.944183 0.684321
0.168521 0.944335 0.68307
0.168536 0.944381 0.681987
0.168627 0.944472 0.680568
0.168643 0.944625 0.679194
0.168734 0.944778 0.67744
0.16875 0.944976 0.675166
0.168734 0.945266 0.672068
0.16878 0.945617 0.667842
0.168902 0.946212 0.661814
0.168978 0.946975 0.653712
0.169055 0.948089 0.642359
0.169116 0.949203 0.630396
0.16585 0.947265 0.622248
0.195315 0.942626 0.577737
0.307561 0.940902 0.525246
0.484825 0.949905 0.557321
0.651072 0.954223 0.564752
0.771832 0.953338 0.590494
0.823545 0.952926 0.587106
0.872648 0.947616 0.565652
0.923217 0.941985 0.565774
0.958907 0.936965 0.58114
0.970047 0.935927 0.584329
0.96968 0.933989 0.578988
0.969589 0.932326 0.574685
0.969528 0.930907 0.57145
0.969451 0.929931 0.568795
0.96936 0.929152 0.566979
0.969482 0.928695 0.565545
0.969543 0.928237 0.564462
0.168307 0.943648 0.690074
0.168322 0.943801 0.688884
0.168338 0.943893 0.687633
0.168414 0.943984 0.68632
0.168429 0.944137 0.684947
0.168521 0.944228 0.683635
0.168536 0.944335 0.682322
0.168612 0.944533 0.680797
0.168704 0.944732 0.678523
0.16875 0.944976 0.675395
0.168811 0.945312 0.671275
0.168811 0.945861 0.665583
0.168948 0.946563 0.657679
0.169024 0.947677 0.646571
0.1691 0.949218 0.6309
0.169116 0.949203 0.630457
0.171145 0.951812 0.620905
0.261524 0.949599 0.591714
0.44683 0.952605 0.581231
0.576867 0.959411 0.617197
0.728038 0.960952 0.635599
0.836027 0.963241 0.664729
0.875746 0.965637 0.664439
0.917113 0.968658 0.660899
0.950042 0.965957 0.661631
0.971801 0.962936 0.674449
0.971618 0.961227 0.667979
0.971725 0.960143 0.662745
0.971466 0.959136 0.658412
0.971481 0.958175 0.65507
0.971435 0.957473 0.652674
0.97142 0.956924 0.650752
0.971389 0.956451 0.649241
0.168261 0.943404 0.692592
0.168276 0.943557 0.691386
0.168307 0.943587 0.690181
0.168307 0.943801 0.688991
0.168338 0.943954 0.687678
0.168414 0.943984 0.68632
0.168429 0.944137 0.685008
0.168521 0.944289 0.68336
0.168612 0.944427 0.6813
0.168719 0.944732 0.678233
0.168704 0.945129 0.674205
0.168841 0.945678 0.668406
0.168917 0.94638 0.660807
0.169009 0.947265 0.65008
0.1691 0.948745 0.634821
0.169116 0.949203 0.630457
0.170626 0.950912 0.625238
0.237736 0.950408 0.599237
0.406592 0.950622 0.572503
0.54934 0.958465 0.617151
0.69012 0.961425 0.642512
0.813581 0.962524 0.679667
0.881254 0.96672 0.708736
0.907942 0.968902 0.709224
0.940078 0.972335 0.715099
0.966812 0.975555 0.74168
0.973037 0.976623 0.751476
0.973297 0.976608 0.749386
0.973495 0.976547 0.747768
0.973632 0.976547 0.746502
0.973709 0.976547 0.745525
0.973831 0.97644 0.744823
0.973785 0.976181 0.743374
0.168215 0.943252 0.694774
0.168246 0.943358 0.693507
0.168261 0.943511 0.692256
0.168276 0.943603 0.69099
0.168307 0.943694 0.689845
0.168322 0.94374 0.688533
0.168338 0.943938 0.687175
0.168429 0.944152 0.685527
0.168521 0.944228 0.683299
0.168627 0.944533 0.680507
0.168734 0.944869 0.676356
0.168811 0.945418 0.670832
0.168826 0.946075 0.663218
0.168978 0.947066 0.652827
0.169085 0.948501 0.638086
0.169116 0.949203 0.630457
0.169863 0.950011 0.628229
0.218982 0.951003 0.605051
0.358907 0.948608 0.566369
0.530434 0.957916 0.612757
0.667018 0.961349 0.638163
0.797971 0.962386 0.673533
0.872999 0.966079 0.70515
0.903105 0.968399 0.710369
0.932769 0.971328 0.711666
0.960601 0.974716 0.732845
0.972732 0.976837 0.754559
0.972732 0.976837 0.754559
0.972732 0.976837 0.754559
0.972732 0.976837 0.754559
0.972732 0.976837 0.754559
0.972732 0.976837 0.754559
0.972732 0.976837 0.754559
0.168185 0.94316 0.696498
0.168215 0.943206 0.695232
0.168246 0.943252 0.693965
0.168261 0.94345 0.692714
0.168276 0.943557 0.691386
0.168292 0.943648 0.690135
0.168322 0.943801 0.688884
0.168338 0.943938 0.687221
0.168429 0.944137 0.685008
