luts/changyun_leica_like/std1.cube
TITLE "Generated by Resolve"
LUT_3D_SIZE 5
0.0087129 0.0087129 0.0087129
0.174151 0.00538643 0.023682
0.578622 0.0192569 0.125933
0.804791 0 0.231174
0.808255 0 0.241154
0.0122988 0.14815 0.0378729
0.124727 0.128908 0.0146181
0.555947 0.00749218 0.088838
0.797223 0 0.182986
0.79736 0 0.183474
0.0487373 0.594186 0.278691
0.045304 0.59411 0.211765
0.561013 0.57705 0.0728923
0.954864 0.484611 0.184253
0.955917 0.443519 0.176684
0.168307 0.943648 0.690074
0.168704 0.944732 0.678523
0.171145 0.951812 0.620905
0.950042 0.965957 0.661631
0.971389 0.956451 0.649241
0.168185 0.942763 0.700465
0.168307 0.943694 0.689281
0.169116 0.949203 0.630457
0.912413 0.96939 0.708217
0.972732 0.976837 0.754559
0.010132 0.0170901 0.113893
0.19089 0.0220493 0.126497
0.599878 0.0182803 0.20177
0.837125 0.00015259 0.296803
0.842924 0.00154116 0.30692
0.0178683 0.131243 0.12221
0.112718 0.112703 0.112764
0.566781 0.0145876 0.147448
0.808667 0 0.24184
0.813703 0 0.25005
0.0466773 0.581994 0.334401
0.0439918 0.579889 0.277546
0.555184 0.570871 0.0696269
0.955093 0.470802 0.181506
0.956802 0.426139 0.173678
0.168154 0.942626 0.7019
0.168276 0.943542 0.691096
0.16939 0.949584 0.629648
0.946715 0.963134 0.648081
0.971191 0.952209 0.63386
0.167956 0.941802 0.712032
0.168109 0.942672 0.70161
0.169116 0.949203 0.630457
0.907683 0.968887 0.70927
0.972732 0.976837 0.754559
0 0.0739147 0.46891
0.165026 0.0416419 0.499733
0.653178 0.0751202 0.507195
0.925277 0.0343328 0.564904
0.926604 0.0348211 0.572122
0 0.107698 0.450828
0.00148013 0.0691997 0.469459
0.631449 0.0711223 0.490745
0.919997 0.032929 0.535927
0.921065 0.0331121 0.541985
0.0472877 0.547021 0.525567
0.0444343 0.539605 0.518639
0.547387 0.547387 0.547387
0.951003 0.424689 0.507622
0.945464 0.385229 0.502693
0.166339 0.937423 0.762066
0.166751 0.938003 0.754604
0.168032 0.942473 0.702525
0.941497 0.954391 0.717968
0.971298 0.946014 0.716304
0.165789 0.936431 0.772412
0.166217 0.937163 0.764294
0.167956 0.941802 0.712032
0.916548 0.971908 0.809659
0.978012 0.980591 0.844724
0 0.317571 0.842878
0 0.32076 0.850523
0.540948 0.35668 0.916945
0.934401 0.404868 0.933028
0.934401 0.404868 0.933028
0 0.299504 0.829572
0 0.307073 0.837034
0.498756 0.346029 0.908415
0.934905 0.401129 0.931167
0.934401 0.404868 0.933028
0 0.521782 0.814588
0 0.510109 0.824567
0.320027 0.509651 0.887694
0.956619 0.455924 0.903838
0.952819 0.428107 0.897475
0.140627 0.914122 0.892805
0.137438 0.910552 0.889479
0.124453 0.894041 0.874174
0.929702 0.929686 0.929747
0.96849 0.923293 0.927153
0.148486 0.924697 0.917128
0.150179 0.9252 0.912367
0.157412 0.926894 0.884199
0.911299 0.976883 0.950988
0.991028 0.991135 0.986404
0 0.327581 0.847898
0 0.346181 0.863981
0.521126 0.39408 0.931853
0.934401 0.404868 0.933028
0.934401 0.404868 0.933028
0 0.332189 0.849256
0 0.327581 0.847898
0.471687 0.38912 0.924132
0.934401 0.404868 0.933028
0.934401 0.404868 0.933028
0 0.556603 0.898909
0 0.544625 0.896635
0.188418 0.52784 0.906096
0.947692 0.496834 0.946639
0.945113 0.478202 0.943908
0.0872358 0.907805 0.936996
0.0779278 0.903548 0.93669
0.0369726 0.878828 0.935561
0.893599 0.910018 0.962554
0.969268 0.91574 0.967575
0.125139 0.925719 0.940108
0.125139 0.925719 0.940108
0.125139 0.925719 0.940108
0.80032 0.964462 0.967163
0.994553 0.994553 0.994583
