luts/changyun_leica_like/std2.cube
TITLE "Generated by Resolve"
LUT_3D_SIZE 5
0.00746166 0.00784314 0.0142672
0.142321 0.00993362 0.0302281
0.551797 0.0382391 0.143359
0.693614 0.0452888 0.234012
0.697627 0.0467231 0.244419
0.0244602 0.137636 0.0619974
0.115267 0.122927 0.0321202
0.527932 0.0231785 0.108064
0.685405 0.044419 0.194965
0.687404 0.0450294 0.199939
0 0.495964 0.226734
0 0.494392 0.167163
0.576074 0.513893 0.0543832
0.93254 0.500816 0.256001
0.934081 0.506127 0.258152
0.164065 0.818036 0.630518
0.160723 0.816312 0.621424
0.141146 0.804654 0.556497
0.951049 0.923949 0.707973
0.966079 0.931533 0.729824
0.169177 0.821317 0.644572
0.163638 0.817899 0.629435
0.139422 0.803601 0.54995
0.933806 0.919295 0.696681
0.965728 0.935195 0.74374
0 0.0221103 0.10457
0.148135 0.0280919 0.113069
0.562493 0.0391546 0.204547
0.710933 0.0509651 0.283787
0.71545 0.053315 0.293675
0.0265354 0.128817 0.127871
0.0899367 0.114824 0.1205
0.538979 0.0321813 0.15874
0.69633 0.0461128 0.241794
0.699748 0.0472725 0.249805
0 0.497795 0.286748
0 0.495247 0.240574
0.573404 0.511833 0.0531014
0.932418 0.497826 0.256092
0.934249 0.503685 0.258366
0.168856 0.820905 0.64329
0.16556 0.819165 0.634791
0.142077 0.804761 0.560403
0.949828 0.923171 0.704372
0.965225 0.926574 0.71426
0.174273 0.824323 0.657816
0.16907 0.821057 0.643915
0.141344 0.804623 0.559396
0.926497 0.91664 0.689769
0.965698 0.935241 0.743816
0 0.106279 0.43209
0.102052 0.0761273 0.486061
0.601678 0.0952163 0.471595
0.77116 0.0938888 0.486015
0.772808 0.0955673 0.495995
0 0.142916 0.421332
0 0.106966 0.431662
0.585153 0.0915084 0.459327
0.769131 0.0918135 0.467643
0.770916 0.0934462 0.479713
0.0386358 0.53019 0.505226
0.0387427 0.532204 0.507713
0.553918 0.557061 0.545617
0.983703 0.469261 0.544518
0.984878 0.47393 0.559457
0.194263 0.83566 0.705882
0.193439 0.835401 0.704189
0.169879 0.821729 0.645762
0.953017 0.93611 0.771008
0.974548 0.938781 0.787015
0.206485 0.842649 0.733471
0.203265 0.840894 0.726558
0.173938 0.823865 0.656535
0.934462 0.947005 0.818067
0.979294 0.962478 0.856916
0.0284733 0.391775 0.733379
0.034226 0.404166 0.741512
0.531975 0.458854 0.999222
0.902159 0.427848 0.921431
0.901946 0.428229 0.922179
0.0268406 0.38883 0.730922
0.0272831 0.388357 0.731884
0.491432 0.461509 0.991653
0.902419 0.426612 0.919966
0.901976 0.428168 0.922057
0.0751812 0.570474 0.756878
0.0794385 0.571832 0.76495
0.311788 0.635309 0.928756
0.93463 0.500832 0.912764
0.936065 0.511009 0.920256
0.265599 0.872389 0.855085
0.269215 0.875502 0.859251
0.253971 0.863035 0.842298
0.947219 0.947921 0.945357
0.971557 0.949783 0.948943
0.277562 0.880888 0.878294
0.277745 0.881117 0.87776
0.267994 0.8757 0.854551
0.95491 0.978088 0.9691
0.992844 0.98851 0.987762
0.0299687 0.396109 0.735348
0.0378271 0.413764 0.745937
0.526146 0.485435 1
0.902129 0.427893 0.921508
0.901915 0.42829 0.922332
0.0314031 0.400656 0.73698
0.0300145 0.396216 0.73547
0.484123 0.485695 0.999557
0.902312 0.427497 0.920867
0.901976 0.428183 0.922072
0.108965 0.608026 0.802594
0.108049 0.605936 0.802182
0.253483 0.640558 0.911559
0.929702 0.53048 0.944488
0.931243 0.535927 0.94728
0.274189 0.877516 0.881056
0.278996 0.881773 0.883833
0.257404 0.862425 0.873472
0.923262 0.939895 0.963897
0.969223 0.946593 0.967895
0.279347 0.8822 0.883406
0.279835 0.882567 0.884215
0.279835 0.882567 0.884215
0.904952 0.971206 0.97116
0.994156 0.993393 0.992706
