luts/changyun_leica_like/std2.cube
TITLE "Generated by Resolve"
LUT_3D_SIZE 9
0.00746166 0.00784314 0.0142672
0.0297093 0.00816358 0.0145113
0.142321 0.00993362 0.0302281
0.334585 0.0145724 0.0684367
0.551797 0.0382391 0.143359
0.691661 0.0450294 0.222843
0.693614 0.0452888 0.234012
0.695232 0.0457618 0.239399
0.697627 0.0467231 0.244419
0.0149386 0.0355688 0.028748
0.0173037 0.0248722 0.0193942
0.107317 0.0217136 0.0231632
0.314748 0.0102541 0.0590524
0.534203 0.0213779 0.112032
0.687449 0.0446174 0.202594
0.69015 0.0449073 0.214496
0.691218 0.0450446 0.219715
0.693294 0.0458991 0.224567
0.0244602 0.137636 0.0619974
0.0132753 0.131991 0.0432898
0.115267 0.122927 0.0321202
0.338399 0.0811475 0.049073
0.527932 0.0231785 0.108064
0.685023 0.044358 0.193835
0.685405 0.044419 0.194965
0.686137 0.0445411 0.197269
0.687404 0.0450294 0.199939
0 0.296345 0.0957656
0 0.294331 0.0651408
0 0.289677 0.0339666
0.324132 0.28864 0.00128176
0.644083 0.252003 0.123262
0.713695 0.0673075 0.175204
0.692668 0.0487526 0.188937
0.690364 0.0472877 0.191073
0.691585 0.0478981 0.19202
0 0.495964 0.226734
0 0.496178 0.206455
0 0.494392 0.167163
0 0.489113 0.109026
0.576074 0.513893 0.0543832
0.899413 0.548333 0.236057
0.93254 0.500816 0.256001
0.931792 0.488258 0.255863
0.934081 0.506127 0.258152
0.08925 0.729656 0.474464
0.0890364 0.731792 0.472129
0.0872053 0.732754 0.461952
0.0768597 0.72813 0.413123
0.151888 0.708247 0.267826
0.801694 0.750896 0.296605
0.950179 0.787381 0.394751
0.949279 0.783902 0.389593
0.951141 0.790036 0.397894
0.164065 0.818036 0.630518
0.163149 0.817716 0.628244
0.160723 0.816312 0.621424
0.153201 0.811826 0.599481
0.141146 0.804654 0.556497
0.659083 0.851881 0.566674
0.951049 0.923949 0.707973
0.965988 0.929641 0.724819
0.966079 0.931533 0.729824
0.167498 0.820249 0.639963
0.165942 0.819211 0.635615
0.163287 0.817639 0.628321
0.155352 0.812833 0.605478
0.141558 0.804303 0.558145
0.604318 0.839551 0.547372
0.926146 0.916152 0.688121
0.966217 0.934371 0.742031
0.965835 0.934997 0.743328
0.169177 0.821317 0.644572
0.166934 0.819989 0.638529
0.163638 0.817899 0.629435
0.153948 0.812024 0.601419
0.139422 0.803601 0.54995
0.674617 0.855497 0.573327
0.933806 0.919295 0.696681
0.966049 0.934661 0.742626
0.965728 0.935195 0.74374
0.00573739 0.0103761 0.0307164
0.0284733 0.0106508 0.032105
0.143572 0.0220951 0.0674601
0.347799 0.0254368 0.109819
0.553933 0.0328832 0.167437
0.698177 0.0466926 0.24625
0.701396 0.0476387 0.257359
0.702617 0.0480507 0.26183
0.704021 0.048661 0.265538
0.0133822 0.028687 0.0339513
0.00962844 0.0166629 0.0240177
0.113512 0.0152743 0.0338445
0.321386 0.0184024 0.073106
0.547555 0.0398718 0.146899
0.693065 0.0455634 0.226658
0.694942 0.0458228 0.237888
0.697093 0.0463874 0.24361
0.698848 0.0470893 0.24741
0.0287938 0.131121 0.0959182
0.0264591 0.124559 0.072755
0.100328 0.117662 0.0345159
0.33489 0.0635233 0.0487984
0.528572 0.0247654 0.11635
0.689204 0.0450904 0.207782
0.690822 0.0452277 0.215641
0.691539 0.0452888 0.219211
0.692668 0.0457771 0.221744
0 0.295521 0.139116
0 0.292348 0.110994
0 0.287053 0.0532692
0.318853 0.285237 0.00140383
0.640711 0.241825 0.120394
0.711177 0.0645609 0.176196
0.691371 0.0478828 0.190478
0.689479 0.04654 0.193729
0.690532 0.0471962 0.193454
0 0.497154 0.25539
0 0.496925 0.237873
0 0.494057 0.198154
0 0.490562 0.12871
0.574914 0.512978 0.0538186
0.902678 0.545586 0.238132
0.932647 0.500313 0.256184
0.931991 0.4878 0.256138
0.934249 0.50631 0.258305
0.0914626 0.730327 0.484962
0.0915999 0.732723 0.483253
0.0899519 0.734005 0.474235
0.079942 0.729717 0.429297
0.136812 0.710094 0.280568
0.80206 0.751461 0.297536
0.950011 0.786908 0.394125
0.949157 0.783062 0.388113
0.950637 0.789425 0.396017
0.166247 0.819333 0.636378
0.165225 0.818921 0.63386
0.16289 0.817594 0.627558
0.155459 0.813107 0.606134
0.142107 0.804715 0.558801
0.651743 0.850263 0.564309
0.95079 0.923812 0.707042
0.965988 0.929152 0.722881
0.965591 0.929198 0.722866
0.169726 0.821576 0.645884
0.168032 0.820447 0.641093
0.165347 0.81883 0.633936
0.157519 0.81416 0.611917
0.141085 0.804425 0.558892
0.59559 0.837568 0.543755
0.924163 0.915511 0.686488
0.966217 0.934371 0.742031
0.965835 0.934997 0.743328
0.171191 0.822522 0.649775
0.168978 0.821134 0.643809
0.165835 0.819181 0.63534
0.156268 0.813397 0.608133
0.140291 0.804135 0.553994
0.663249 0.852827 0.568475
0.930938 0.918196 0.69424
0.966049 0.934661 0.742611
0.965728 0.935195 0.74374
0 0.0221103 0.10457
0.0480964 0.01738 0.109529
0.148135 0.0280919 0.113069
0.352255 0.0342412 0.155596
0.562493 0.0391546 0.204547
0.7066 0.049424 0.272465
0.710933 0.0509651 0.283787
0.713298 0.0522164 0.289052
0.71545 0.053315 0.293675
0.00660716 0.0396887 0.077821
0.00129702 0.0285801 0.0930648
0.11812 0.0247044 0.0986343
0.334951 0.0290837 0.128954
0.552438 0.0351568 0.179553
0.700679 0.0474403 0.254597
0.703395 0.0482643 0.26453
0.705394 0.0489967 0.269398
0.707317 0.049836 0.273732
0.0265354 0.128817 0.127871
0.0260014 0.121874 0.122469
0.0899367 0.114824 0.1205
0.342458 0.0820172 0.120363
0.538979 0.0321813 0.15874
0.693797 0.0454566 0.234287
0.69633 0.0461128 0.241794
0.697902 0.0465553 0.245747
0.699748 0.0472725 0.249805
0 0.295399 0.185992
0 0.292546 0.169238
0 0.285481 0.122332
0.318364 0.29073 0.0679332
0.640162 0.230259 0.13579
0.710231 0.0610361 0.188006
0.692775 0.0468299 0.206699
0.692607 0.0459754 0.216251
0.69395 0.0465553 0.217792
0 0.497795 0.286748
0 0.498177 0.273518
0 0.495247 0.240574
0 0.489265 0.141726
0.573404 0.511833 0.0531014
0.903868 0.543542 0.238911
0.932418 0.497826 0.256092
0.93167 0.484138 0.255985
0.934249 0.503685 0.258366
0.0944076 0.730755 0.497017
0.0945449 0.733562 0.496284
0.09337 0.73521 0.48838
0.0835584 0.730632 0.446571
0.117052 0.712352 0.294331
0.801724 0.751232 0.297398
0.949722 0.785824 0.392493
0.948608 0.781826 0.386084
0.950393 0.788449 0.393896
0.168856 0.820905 0.64329
0.167865 0.820493 0.640894
0.16556 0.819165 0.634791
0.158297 0.814862 0.614511
0.142077 0.804761 0.560403
0.639887 0.847852 0.560418
0.949828 0.923171 0.704372
0.965652 0.926787 0.71519
0.965225 0.926574 0.71426
0.172305 0.823117 0.652705
0.170825 0.822217 0.648692
0.168185 0.820493 0.641443
0.160449 0.815915 0.620386
0.141482 0.804608 0.560632
0.580499 0.834012 0.537881
0.921401 0.914412 0.683894
0.966217 0.934371 0.742031
0.965835 0.934997 0.743328
0.174273 0.824323 0.657816
0.172198 0.823117 0.652522
0.16907 0.821057 0.643915
0.159731 0.815518 0.618204
0.141344 0.804623 0.559396
0.643214 0.848066 0.560327
0.926497 0.91664 0.689769
0.966049 0.934661 0.742611
0.965698 0.935241 0.743816
0 0.0490425 0.241901
0.0296635 0.0413977 0.255955
0.191058 0.0311589 0.251331
0.362905 0.0471809 0.261372
0.573968 0.0626383 0.298848
0.73698 0.0666209 0.344579
0.740139 0.0688792 0.353094
0.741588 0.0699168 0.357153
0.744015 0.0716106 0.36321
0 0.0640269 0.222095
0 0.0490425 0.236103
0.110613 0.0332799 0.268299
0.346609 0.045655 0.249287
0.56492 0.0581216 0.280171
0.730739 0.062501 0.329335
0.734356 0.0649119 0.338201
0.73611 0.0660105 0.342443
0.738766 0.0677806 0.348943
0 0.143801 0.228489
0 0.132433 0.23859
0.0305333 0.108858 0.264256
0.330434 0.0655222 0.245441
0.554391 0.0530251 0.258793
0.721889 0.0570382 0.308141
0.725902 0.0594492 0.317159
0.72784 0.0607004 0.321782
0.730556 0.0623941 0.328145
0.00334173 0.300313 0.283787
0.00323491 0.298146 0.28217
0.00428779 0.292027 0.276173
0.297383 0.303044 0.300313
0.657176 0.243397 0.286473
0.725307 0.0597238 0.270176
0.714305 0.0528725 0.286046
0.716381 0.0540627 0.29482
0.720562 0.056199 0.300801
0.00517281 0.506111 0.362951
0.00318914 0.506828 0.35697
0 0.503868 0.339361
0 0.487648 0.252277
0.573892 0.526268 0.197635
0.926802 0.534386 0.309682
0.95668 0.477089 0.309819
0.953918 0.463966 0.307713
0.959426 0.486793 0.31899
0.101061 0.731365 0.52517
0.101823 0.734722 0.526009
0.100938 0.736339 0.520409
0.0919051 0.731701 0.487449
0.1084 0.71017 0.321904
0.798398 0.750469 0.321981
0.951629 0.786343 0.41268
0.950317 0.782223 0.405753
0.9523 0.789731 0.419638
0.175204 0.824643 0.659846
0.174716 0.824567 0.658869
0.172702 0.823346 0.653758
0.165988 0.819409 0.63595
0.14342 0.805936 0.567376
0.613916 0.84184 0.550713
0.945846 0.919173 0.690318
0.964279 0.919158 0.691539
0.964416 0.920211 0.696056
0.179263 0.827207 0.670146
0.17818 0.826566 0.667567
0.175723 0.824979 0.661219
0.168475 0.820676 0.642222
0.146059 0.80734 0.576593
0.546929 0.82678 0.526909
0.913832 0.911955 0.678523
0.966217 0.934371 0.742031
0.965988 0.935302 0.744411
0.18262 0.829236 0.678462
0.181018 0.82826 0.674601
0.178256 0.826581 0.667689
0.169436 0.82121 0.644785
0.145403 0.806897 0.574304
0.603632 0.840681 0.552605
0.916869 0.914321 0.686152
0.966415 0.935454 0.745571
0.966079 0.935943 0.746426
0 0.106279 0.43209
0 0.101411 0.445731
0.102052 0.0761273 0.486061
0.400122 0.0569009 0.464179
0.601678 0.0952163 0.471595
0.770642 0.0932174 0.479759
0.77116 0.0938888 0.486015
0.771603 0.0943008 0.488106
0.772808 0.0955673 0.495995
0 0.115785 0.429191
0 0.105653 0.430884
0.0292973 0.0927443 0.464866
0.372091 0.0519112 0.472007
0.594888 0.0937362 0.46685
0.769894 0.0925002 0.473045
0.770459 0.0930343 0.478492
0.770779 0.0933852 0.480766
0.772061 0.0947433 0.489448
0 0.142916 0.421332
0 0.130098 0.426291
0 0.106966 0.431662
0.313115 0.0496681 0.489097
0.585153 0.0915084 0.459327
0.768475 0.091249 0.462791
0.769131 0.0918135 0.467643
0.769451 0.0921035 0.470512
0.770916 0.0934462 0.479713
0 0.32137 0.450187
0 0.31519 0.456168
0 0.301396 0.463691
0.193591 0.282658 0.554391
0.614847 0.202319 0.502632
0.761761 0.0883497 0.440406
0.766995 0.0900282 0.450462
0.767452 0.0904097 0.45362
0.768948 0.0916152 0.463691
0.0386358 0.53019 0.505226
0.0388647 0.532464 0.508064
0.0387427 0.532204 0.507713
0.0353704 0.52433 0.499352
0.553918 0.557061 0.545617
0.959899 0.527031 0.554726
0.983703 0.469261 0.544518
0.979156 0.454841 0.544015
0.984878 0.47393 0.559457
0.123079 0.739406 0.600778
0.12488 0.743389 0.604334
0.125093 0.745556 0.603403
0.118914 0.741176 0.585382
0.15494 0.716793 0.493126
0.806653 0.781399 0.53846
0.962875 0.810849 0.594369
0.963134 0.805295 0.59057
0.962325 0.815061 0.605844
0.194263 0.83566 0.705882
0.194491 0.835996 0.70663
0.193439 0.835401 0.704189
0.187869 0.832181 0.691188
0.169879 0.821729 0.645762
0.623713 0.865003 0.658869
0.953017 0.93611 0.771008
0.973983 0.936477 0.778164
0.974548 0.938781 0.787015
0.199603 0.838788 0.718395
0.199191 0.838605 0.71754
0.197635 0.837751 0.713863
0.191485 0.834195 0.699382
0.172107 0.822828 0.651911
0.556085 0.846738 0.630121
0.930068 0.942596 0.801938
0.978988 0.960296 0.848997
0.979049 0.961807 0.854322
0.206485 0.842649 0.733471
0.205325 0.842008 0.731029
0.203265 0.840894 0.726558
0.195407 0.836362 0.70869
0.173938 0.823865 0.656535
0.615869 0.865461 0.670832
0.934462 0.947005 0.818067
0.979782 0.962295 0.857527
0.979294 0.962478 0.856916
0 0.219181 0.609354
0 0.220172 0.610574
0 0.215488 0.624674
0.257069 0.187366 0.734829
0.643442 0.159319 0.706706
0.81239 0.164385 0.690501
0.819089 0.175814 0.708659
0.822248 0.180728 0.714763
0.827924 0.190829 0.729488
0 0.218326 0.608377
0 0.218662 0.608927
0 0.219791 0.61297
0.213291 0.192966 0.723812
0.631144 0.156985 0.709377
0.810971 0.161944 0.686061
0.816464 0.171328 0.701946
0.818433 0.174868 0.707897
0.825742 0.186999 0.724086
0 0.221988 0.599878
0 0.219364 0.605295
0 0.21738 0.607233
0.146014 0.207263 0.703487
0.612238 0.153658 0.713054
0.810025 0.161044 0.682033
0.813672 0.166018 0.691707
0.816205 0.170306 0.698634
0.823468 0.182528 0.715969
0 0.312383 0.612024
0 0.305898 0.617166
0 0.293294 0.622721
0.00488289 0.274067 0.645655
0.552636 0.16025 0.723857
0.802808 0.154589 0.669718
0.80148 0.146807 0.662196
0.804288 0.15111 0.668894
0.811231 0.16257 0.687556
0.0360113 0.558846 0.655833
0.0375372 0.560693 0.661158
0.038529 0.559289 0.666346
0.0381323 0.546319 0.677378
0.489754 0.58854 0.861982
0.902464 0.488731 0.77908
0.933135 0.431266 0.75819
0.929335 0.418952 0.756741
0.933959 0.439872 0.773022
0.16582 0.75874 0.729854
0.168933 0.763104 0.735332
0.170977 0.765972 0.738125
0.169757 0.764309 0.736507
0.190234 0.759136 0.730831
0.800488 0.804303 0.794949
0.971725 0.797436 0.797742
0.973159 0.78909 0.798016
0.970443 0.798733 0.807996
0.23212 0.856352 0.786679
0.233341 0.85716 0.789181
0.233066 0.857008 0.788724
0.229648 0.855116 0.782162
0.217502 0.848524 0.757595
0.660426 0.887953 0.791775
0.955962 0.950591 0.886229
0.977737 0.956466 0.901274
0.977829 0.957595 0.906355
0.239704 0.860395 0.801205
0.240299 0.860899 0.802502
0.239384 0.860426 0.800717
0.234714 0.857923 0.79173
0.219883 0.849821 0.761975
0.513863 0.867796 0.757717
0.950362 0.972366 0.932754
0.987793 0.982971 0.95874
0.987869 0.984009 0.961639
0.249485 0.865843 0.819455
0.248692 0.865446 0.818097
0.247089 0.864607 0.815229
0.240909 0.861295 0.803662
0.223667 0.851881 0.769726
0.577249 0.883452 0.787976
0.950805 0.973617 0.938384
0.986847 0.983246 0.960021
0.987686 0.984497 0.96286
0.0284733 0.391775 0.733379
0.0285344 0.391852 0.733516
0.034226 0.404166 0.741512
0.0747845 0.429496 0.780118
0.531975 0.458854 0.999222
0.900465 0.409216 0.911589
0.902159 0.427848 0.921431
0.902251 0.427649 0.921111
0.901946 0.428229 0.922179
0.0278782 0.390066 0.732586
0.0279393 0.390188 0.732754
0.0311437 0.39791 0.737194
0.0471351 0.421256 0.756268
0.515068 0.459907 0.996582
0.897017 0.405676 0.910689
0.90219 0.427771 0.921309
0.902144 0.427878 0.921477
0.901854 0.428397 0.922545
0.0268406 0.38883 0.730922
0.0272984 0.388373 0.731899
0.0272831 0.388357 0.731884
0.0393378 0.416205 0.74818
0.491432 0.461509 0.991653
0.893965 0.403769 0.910796
0.902419 0.426612 0.919966
0.902358 0.427405 0.920714
0.901976 0.428168 0.922057
0.0196078 0.385107 0.717891
0.0222934 0.389166 0.722454
0.0263371 0.39527 0.728817
0.0311589 0.39884 0.737026
0.419821 0.460899 0.968124
0.882811 0.398825 0.911604
0.902907 0.409369 0.909682
0.902693 0.413886 0.912245
0.902296 0.423178 0.919326
0.0751812 0.570474 0.756878
0.077409 0.572198 0.760586
0.0794385 0.571832 0.76495
0.0839094 0.568139 0.775891
0.311788 0.635309 0.928756
0.865263 0.518318 0.949233
0.93463 0.500832 0.912764
0.933211 0.493599 0.911421
0.936065 0.511009 0.920256
0.160937 0.756741 0.797238
0.164492 0.760678 0.801312
0.166323 0.762661 0.803754
0.166903 0.760525 0.807248
0.168078 0.749828 0.816617
0.75996 0.81799 0.949035
0.948989 0.78204 0.913603
0.949401 0.774197 0.912825
0.948547 0.785519 0.916915
0.265599 0.872389 0.855085
0.268132 0.874434 0.858427
0.269215 0.875502 0.859251
0.268894 0.875837 0.857237
0.253971 0.863035 0.842298
0.634348 0.910552 0.896498
0.947219 0.947921 0.945357
0.971618 0.948531 0.945968
0.971557 0.949783 0.948943
0.275227 0.879393 0.870771
0.275624 0.879683 0.871595
0.275364 0.879545 0.870741
0.274327 0.87892 0.866728
0.265873 0.874617 0.85037
0.377249 0.900679 0.858274
0.955367 0.978027 0.968078
0.988663 0.987503 0.982681
0.9897 0.987884 0.984298
0.277562 0.880888 0.878294
0.278218 0.881422 0.87921
0.277745 0.881117 0.87776
0.276143 0.879988 0.872221
0.267994 0.8757 0.854551
0.392233 0.901595 0.862531
0.95491 0.978088 0.9691
0.987167 0.989136 0.985702
0.992844 0.98851 0.987762
0.0299687 0.396109 0.735348
0.0300145 0.396201 0.73547
0.0378729 0.413825 0.746014
0.0619669 0.441077 0.771511
0.52282 0.48571 1
0.900282 0.427329 0.922179
0.902129 0.427893 0.921508
0.902174 0.427802 0.921355
0.902113 0.427924 0.921553
0.0299382 0.396063 0.735286
0.0300145 0.396216 0.73547
0.0329747 0.403433 0.739406
0.0467689 0.433814 0.757443
0.505486 0.484764 1
0.896162 0.425818 0.923217
0.902129 0.427893 0.921508
0.902113 0.427939 0.921569
0.901915 0.428275 0.922286
0.0315709 0.401236 0.737163
0.0300145 0.396216 0.73547
0.0300145 0.396216 0.73547
0.0437171 0.428458 0.753353
0.480613 0.48539 0.998672
0.891386 0.424369 0.924437
0.902312 0.427497 0.920867
0.902281 0.427558 0.920974
0.901976 0.428183 0.922072
0.0483558 0.452445 0.755215
0.045655 0.444327 0.752651
0.0400092 0.427878 0.746715
0.0357824 0.410269 0.74313
0.40267 0.486885 0.970596
0.87483 0.422263 0.929213
0.902419 0.427314 0.920516
0.902419 0.427314 0.920516
0.902068 0.428016 0.921752
0.102785 0.598413 0.796002
0.105669 0.602716 0.799359
0.106752 0.603387 0.801114
0.101656 0.591226 0.797955
0.248417 0.637903 0.908507
0.812909 0.564477 1
0.929015 0.52871 0.944274
0.928023 0.522744 0.943236
0.930663 0.533822 0.946792
0.179721 0.763317 0.832471
0.18233 0.766751 0.835065
0.184436 0.769162 0.837415
0.18555 0.767681 0.84123
0.179309 0.753429 0.84062
0.71487 0.843 1
0.946853 0.787717 0.951049
0.947646 0.780224 0.949554
0.94728 0.789609 0.950576
0.272419 0.87599 0.879179
0.275074 0.878325 0.881315
0.277287 0.880308 0.882643
0.276768 0.879896 0.882353
0.257435 0.862486 0.872679
0.572961 0.925368 0.95227
0.929732 0.941375 0.962066
0.969451 0.947127 0.964614
0.969772 0.948119 0.965698
0.279377 0.882216 0.883436
0.279805 0.882551 0.884169
0.279835 0.882567 0.884215
0.279835 0.882567 0.884215
0.279561 0.882383 0.883406
0.322972 0.904997 0.897734
0.934401 0.973266 0.971008
0.986908 0.986206 0.985672
0.987823 0.987167 0.987381
0.279393 0.882216 0.883467
0.279805 0.882536 0.884153
0.279835 0.882567 0.884215
0.279835 0.882567 0.884215
0.279576 0.882399 0.883497
0.335714 0.909072 0.901946
0.929564 0.974151 0.970977
0.989807 0.990066 0.989944
0.993439 0.992508 0.992065
0.0299687 0.396109 0.735348
0.0300145 0.396201 0.73547
0.0378271 0.413764 0.745937
0.060914 0.440818 0.770657
0.526146 0.485435 1
0.900557 0.42742 0.922103
0.902129 0.427893 0.921508
0.902144 0.427863 0.921462
0.901915 0.42829 0.922332
0.0299382 0.396063 0.735286
0.0300145 0.396216 0.73547
0.0327916 0.402975 0.739178
0.0467536 0.433783 0.757412
0.509026 0.484886 1
0.896559 0.425788 0.922805
0.902129 0.427893 0.921508
0.902098 0.427955 0.921599
0.901869 0.428367 0.922454
0.0314031 0.400656 0.73698
0.0300145 0.396216 0.73547
0.0300145 0.396216 0.73547
0.0438087 0.428656 0.75346
0.484123 0.485695 0.999557
0.891875 0.424582 0.924361
0.902312 0.427497 0.920867
0.902281 0.427558 0.920974
0.901976 0.428183 0.922072
0.0474708 0.450095 0.754314
0.0444648 0.441337 0.751369
0.0389258 0.424353 0.745556
0.0360266 0.410941 0.74345
0.406149 0.487022 0.971984
0.876661 0.422827 0.928969
0.902388 0.427359 0.920623
0.902403 0.427344 0.920577
0.902068 0.428016 0.921752
0.108965 0.608026 0.802594
0.109163 0.608194 0.802945
0.108049 0.605936 0.802182
0.102144 0.592447 0.798276
0.253483 0.640558 0.911559
0.816098 0.565118 1
0.929702 0.53048 0.944488
0.928923 0.525017 0.943908
0.931243 0.535927 0.94728
0.187243 0.769375 0.843259
0.189334 0.772671 0.844816
0.190082 0.774151 0.845151
0.188251 0.770703 0.844343
0.179873 0.754376 0.840986
0.71725 0.844053 1
0.947265 0.7897 0.95137
0.94754 0.782315 0.949844
0.947478 0.791669 0.950698
0.274189 0.877516 0.881056
0.276829 0.879881 0.882826
0.278996 0.881773 0.883833
0.276722 0.879835 0.882704
0.257404 0.862425 0.873472
0.570169 0.92607 0.956313
0.923262 0.939895 0.963897
0.968917 0.945617 0.967254
0.969223 0.946593 0.967895
0.279469 0.882292 0.883619
0.279805 0.882551 0.884169
0.279835 0.882567 0.884215
0.279835 0.882567 0.884215
0.279835 0.882567 0.884215
0.318227 0.90425 0.903883
0.91725 0.970214 0.971786
0.985016 0.98497 0.985824
0.98761 0.986969 0.987274
0.279347 0.8822 0.883406
0.279805 0.882536 0.884153
0.279835 0.882567 0.884215
0.279835 0.882567 0.884215
0.279835 0.882567 0.884215
0.328374 0.908141 0.907637
0.904952 0.971206 0.97116
0.988617 0.989685 0.990097
0.994156 0.993393 0.992706
