luts/changyun_leica_like/std2.cube
TITLE "Generated by Resolve"
LUT_3D_SIZE 33
0.00746166 0.00784314 0.0142672
0.00746166 0.00776684 0.0140841
0.00749218 0.00756847 0.0136416
0.00927749 0.00733959 0.0129702
0.0297093 0.00816358 0.0145113
0.0590219 0.00866712 0.017319
0.0875563 0.00900282 0.0207828
0.112825 0.00946059 0.0248569
0.142321 0.00993362 0.0302281
0.178332 0.0104829 0.0375677
0.222599 0.0114137 0.0467384
0.275425 0.0129854 0.0576028
0.334585 0.0145724 0.0684367
0.391653 0.0177768 0.0814374
0.446082 0.0235904 0.10013
0.49807 0.0311589 0.120623
0.551797 0.0382391 0.143359
0.604883 0.0392157 0.164996
0.651881 0.0358892 0.187228
0.684169 0.0426032 0.21265
0.691661 0.0450294 0.222843
0.692195 0.0450752 0.2262
0.692622 0.0450904 0.229343
0.693111 0.0451972 0.231739
0.693614 0.0452888 0.234012
0.693965 0.0453498 0.235859
0.694347 0.0454566 0.237263
0.694789 0.0456245 0.2383
0.695232 0.0457618 0.239399
0.695735 0.0459144 0.240482
0.696254 0.0460975 0.241596
0.696956 0.0463874 0.243122
0.697627 0.0467231 0.244419
0.00749218 0.00758373 0.0136873
0.00746166 0.00776684 0.0140993
0.00746166 0.00776684 0.0140841
0.00749218 0.00756847 0.0136416
0.0201419 0.00840772 0.0140688
0.0492256 0.00852979 0.016022
0.078645 0.00831617 0.0187991
0.10544 0.00825513 0.021973
0.135348 0.00816358 0.0267643
0.17145 0.00802625 0.0337224
0.215747 0.0084535 0.0426032
0.268803 0.00970474 0.052903
0.328191 0.0105745 0.0624094
0.385595 0.0125429 0.0717937
0.439765 0.0178378 0.0886854
0.492027 0.0248569 0.1093
0.547127 0.0329747 0.13373
0.602426 0.0381323 0.158618
0.65008 0.0361486 0.182025
0.682628 0.0423285 0.207507
0.690837 0.0449683 0.218036
0.691463 0.0449989 0.221683
0.691966 0.0450752 0.224521
0.692348 0.0450752 0.227298
0.692638 0.0450904 0.22948
0.692836 0.0451057 0.231067
0.693187 0.0451972 0.232349
0.693492 0.0452735 0.233524
0.693782 0.0453498 0.234546
0.694163 0.0454871 0.23563
0.694591 0.045655 0.236667
0.695201 0.0459449 0.237888
0.695857 0.0462348 0.239322
0.00749218 0.00758373 0.0136873
0.00746166 0.00776684 0.0140993
0.00746166 0.00776684 0.0140841
0.00749218 0.00756847 0.0136416
0.0109407 0.0081178 0.0132906
0.0365301 0.0107424 0.0153811
0.0665446 0.0106966 0.0178378
0.0967117 0.0100252 0.0204013
0.127962 0.00921645 0.0251926
0.165255 0.00856031 0.0325017
0.209598 0.00794995 0.0409094
0.263157 0.00833143 0.0506752
0.323247 0.009308 0.0606088
0.38114 0.0107881 0.0681773
0.434577 0.0142367 0.08159
0.486168 0.0197604 0.0989242
0.541039 0.0264286 0.122454
0.598795 0.0335851 0.149981
0.648127 0.0363622 0.176516
0.680995 0.0421912 0.20206
0.689876 0.044892 0.213046
0.690562 0.0449378 0.216663
0.691157 0.0449836 0.219821
0.691615 0.0450141 0.222583
0.691951 0.0450599 0.224506
0.692226 0.0450752 0.226322
0.692409 0.0450752 0.227726
0.692592 0.0451057 0.22887
0.692775 0.0451514 0.229786
0.693065 0.0452735 0.230701
0.693431 0.0454108 0.231724
0.694072 0.0456855 0.233173
0.694713 0.0459754 0.234531
0.00929274 0.0139773 0.0175479
0.00926223 0.0141756 0.0178836
0.00877394 0.0132448 0.016434
0.00901808 0.0119326 0.0155947
0.0103304 0.0101472 0.0145113
0.0251011 0.0142214 0.0159152
0.0510262 0.0158236 0.0179294
0.0829938 0.0155032 0.0197299
0.117586 0.0131533 0.0231937
0.156924 0.0108339 0.0301823
0.203098 0.00939956 0.039292
0.257801 0.00889601 0.0496834
0.319356 0.009308 0.0601663
0.378012 0.0106508 0.0677958
0.431754 0.0132448 0.0795453
0.482811 0.0176394 0.0943923
0.536583 0.0223239 0.114397
0.593896 0.0269322 0.139513
0.645075 0.0343481 0.169314
0.679149 0.0420233 0.196246
0.688762 0.04477 0.20795
0.689555 0.0448615 0.211582
0.690211 0.0449073 0.214801
0.6907 0.0449378 0.217441
0.691142 0.0449836 0.219684
0.691447 0.0450141 0.2215
0.691661 0.0450294 0.222812
0.691859 0.0450599 0.223896
0.692073 0.0451209 0.22472
0.692409 0.0452277 0.225788
0.69279 0.0453803 0.22681
0.693446 0.045655 0.228229
0.694087 0.0459449 0.229648
0.0149386 0.0355688 0.028748
0.0148928 0.0357977 0.029099
0.0132143 0.0329595 0.0242161
0.0125124 0.0298924 0.0219425
0.0173037 0.0248722 0.0193942
0.0259709 0.0228275 0.0190127
0.0433204 0.0273747 0.0204471
0.0719768 0.025803 0.0220188
0.107317 0.0217136 0.0231632
0.148119 0.0171206 0.028748
0.195315 0.0125277 0.03682
0.251591 0.0110933 0.047776
0.314748 0.0102541 0.0590524
0.37464 0.0105745 0.0673228
0.429328 0.0130922 0.079057
0.481178 0.0176699 0.0941176
0.534203 0.0213779 0.112032
0.58967 0.0232548 0.132296
0.642084 0.0320745 0.162356
0.676631 0.0413825 0.189746
0.687449 0.0446174 0.202594
0.68835 0.0447395 0.20618
0.689113 0.0448157 0.209461
0.689708 0.044892 0.212161
0.69015 0.0449073 0.214496
0.690486 0.0449378 0.216281
0.690761 0.0449531 0.21767
0.691005 0.0449989 0.218723
0.691218 0.0450446 0.219715
0.6916 0.0451667 0.220783
0.691981 0.045304 0.221866
0.692622 0.045594 0.223133
0.693294 0.0458991 0.224567
0.0196994 0.0585184 0.0396735
0.0196384 0.0588235 0.0401312
0.0173342 0.0558938 0.0341497
0.0156252 0.0525216 0.030518
0.0210269 0.0480507 0.0280613
0.0345312 0.0434577 0.0245518
0.052018 0.0446479 0.0256504
0.0736706 0.0470588 0.026978
0.108736 0.0420081 0.0293431
0.147326 0.0337987 0.0300603
0.19263 0.0231022 0.0359503
0.247532 0.0154726 0.0446479
0.309895 0.0124819 0.0563668
0.371786 0.0114137 0.0661479
0.426932 0.0129549 0.0785077
0.479118 0.0175021 0.0937057
0.532387 0.0213169 0.111574
0.588113 0.0231785 0.131579
0.64036 0.0316625 0.158495
0.67483 0.0408942 0.185153
0.686046 0.044419 0.197604
0.686976 0.0445411 0.200824
0.687831 0.0446784 0.204089
0.688502 0.0447547 0.206806
0.689036 0.0448005 0.209186
0.689433 0.0448615 0.210941
0.689723 0.044892 0.212284
0.689982 0.0449073 0.213519
0.690227 0.0449683 0.214496
0.690593 0.0450752 0.215564
0.69099 0.045243 0.216434
0.691661 0.0455177 0.217914
0.692302 0.0458076 0.219364
0.0230564 0.0833448 0.047425
0.0229343 0.0837873 0.047837
0.0201419 0.0810254 0.0414435
0.0171206 0.0774701 0.0375982
0.0205081 0.0733349 0.0363165
0.0360723 0.0674754 0.031632
0.0546273 0.065568 0.0285954
0.0825971 0.067155 0.0312047
0.111604 0.0673075 0.0329137
0.152071 0.0598764 0.0353857
0.200137 0.0481727 0.0370947
0.253208 0.0310063 0.0393378
0.309438 0.0188754 0.0528115
0.370031 0.014435 0.0628519
0.424918 0.0135348 0.0772869
0.476829 0.0173495 0.0932021
0.53077 0.0212406 0.11107
0.586679 0.0232242 0.131426
0.639597 0.0315557 0.157916
0.673869 0.0407263 0.182696
0.685298 0.044358 0.194873
0.685969 0.0444648 0.196963
0.686595 0.0445716 0.199008
0.687404 0.0446784 0.201892
0.687984 0.0447852 0.204089
0.688472 0.0448463 0.205966
0.688807 0.0448768 0.20737
0.689067 0.044892 0.20856
0.689265 0.0449378 0.2094
0.689525 0.0450141 0.210193
0.68983 0.0451057 0.211032
0.690257 0.0452735 0.212009
0.690684 0.0454566 0.213031
0.0246891 0.1084 0.053666
0.0245212 0.108965 0.054551
0.0208438 0.106752 0.0465248
0.0165866 0.104509 0.0416571
0.0177157 0.101595 0.0407568
0.0316777 0.0975357 0.0382086
0.0521553 0.0937362 0.0345159
0.0821393 0.0938277 0.0319219
0.118822 0.0943313 0.0352636
0.154406 0.0928664 0.0369421
0.207507 0.0796979 0.0405127
0.264576 0.0648661 0.0423285
0.323964 0.0447089 0.0455482
0.375433 0.0236057 0.0562753
0.424155 0.0171054 0.0729992
0.475013 0.0181277 0.0916609
0.528786 0.0211337 0.11046
0.58526 0.0232548 0.131044
0.638193 0.03122 0.157168
0.673198 0.0405127 0.181994
0.685008 0.0443427 0.193805
0.685039 0.044358 0.193912
0.685405 0.0444038 0.19498
0.685924 0.0445106 0.196567
0.686366 0.0445563 0.198108
0.686839 0.0446479 0.199542
0.687266 0.0447089 0.201099
0.687572 0.0447395 0.202258
0.6878 0.0448005 0.202991
0.688045 0.0448615 0.2038
0.688319 0.0449531 0.204532
0.688746 0.0451209 0.205493
0.689189 0.045304 0.206424
0.0244602 0.137636 0.0619974
0.0242466 0.138277 0.0631266
0.0200809 0.136339 0.0530404
0.0142672 0.134096 0.045655
0.0132753 0.131991 0.0432898
0.0202335 0.129168 0.0411688
0.0434577 0.12546 0.0371557
0.0726329 0.123873 0.0350958
0.115267 0.122927 0.0321202
0.161563 0.122438 0.0362249
0.209033 0.118959 0.0393378
0.276921 0.0986801 0.0464637
0.338399 0.0811475 0.049073
0.393286 0.0586557 0.0543679
0.437293 0.0319982 0.0628061
0.475334 0.0223697 0.0862745
0.527932 0.0231785 0.108064
0.582696 0.0231479 0.130007
0.636149 0.0307622 0.155856
0.672129 0.040177 0.181033
0.685023 0.044358 0.193835
0.685023 0.044358 0.193835
0.685023 0.044358 0.193835
0.685191 0.0443732 0.194339
0.685405 0.044419 0.194965
0.685588 0.0444648 0.195468
0.685817 0.0444953 0.196216
0.686 0.0445258 0.196811
0.686137 0.0445411 0.197269
0.686336 0.0445869 0.197772
0.686549 0.0446632 0.198291
0.686976 0.0448463 0.199115
0.687404 0.0450294 0.199939
0.0216983 0.172061 0.0717479
0.0214237 0.172793 0.0729534
0.017792 0.170977 0.0608988
0.0107271 0.16907 0.0501106
0.00798047 0.167529 0.0439765
0.00888075 0.165164 0.0427405
0.0222019 0.162646 0.0376135
0.054963 0.159655 0.0338598
0.0969558 0.159487 0.0310063
0.154864 0.157168 0.0280613
0.214954 0.156222 0.0346685
0.271977 0.150973 0.0393378
0.354788 0.124346 0.0531777
0.412848 0.107347 0.0582132
0.462837 0.0832074 0.0666209
0.499748 0.0511482 0.0787976
0.536889 0.0332799 0.0995041
0.582849 0.0272526 0.125826
0.633448 0.0302739 0.151766
0.670817 0.0397803 0.179812
0.685023 0.044358 0.193835
0.685023 0.044358 0.193835
0.685023 0.044358 0.193835
0.685023 0.044358 0.193835
0.685023 0.044358 0.193835
0.685023 0.044358 0.193835
0.685115 0.0443732 0.19408
0.685206 0.0443885 0.194415
0.685298 0.0444038 0.194659
0.68545 0.0444495 0.194995
0.685679 0.0445563 0.195377
0.686122 0.0447242 0.196216
0.686595 0.0449226 0.197131
0.0132448 0.210208 0.0823682
0.0128634 0.211276 0.0840772
0.0104067 0.209842 0.0704051
0.00573739 0.20763 0.057145
0.00268559 0.20621 0.0478828
0.00274662 0.204929 0.0430152
0.00299077 0.202869 0.040238
0.0183108 0.200839 0.0311894
0.0678569 0.199603 0.0268864
0.123552 0.200198 0.0231174
0.203052 0.195865 0.0209659
0.27718 0.195026 0.0309911
0.344442 0.190478 0.0408331
0.431998 0.160952 0.0629587
0.489174 0.144259 0.072282
0.533669 0.120516 0.0844892
0.570947 0.0801862 0.0988479
0.602686 0.0434577 0.113756
0.638804 0.0351263 0.146059
0.671885 0.0404212 0.176623
0.685969 0.044831 0.1935
0.6851 0.0443885 0.19382
0.685023 0.044358 0.193835
0.685023 0.044358 0.193835
0.685023 0.044358 0.193835
0.685023 0.044358 0.193835
0.685023 0.044358 0.193835
0.685023 0.044358 0.193835
0.685023 0.044358 0.193835
0.685115 0.0443885 0.193973
0.685283 0.0444648 0.194263
0.685649 0.0446326 0.194888
0.686046 0.044831 0.195438
0 0.252522 0.0893721
0 0.253468 0.0910811
0 0.252079 0.078996
0 0.25037 0.0658427
0 0.249104 0.0552377
0 0.248463 0.0450141
0 0.247486 0.039826
0 0.245106 0.0360113
0.0102998 0.242069 0.0208896
0.0796368 0.243336 0.0149996
0.153689 0.244388 0.0105592
0.258656 0.239322 0.0110781
0.348623 0.240162 0.0271305
0.413184 0.239429 0.0415351
0.504555 0.213794 0.0751049
0.565179 0.192157 0.0938125
0.610819 0.168307 0.106584
0.650874 0.122255 0.120241
0.671275 0.0688334 0.137728
0.684993 0.0505074 0.167437
0.693233 0.0490272 0.188128
0.689464 0.0467994 0.191012
0.687861 0.0457923 0.19266
0.686534 0.0451209 0.193393
0.685481 0.0445716 0.193698
0.685084 0.0443885 0.19382
0.685023 0.044358 0.193835
0.685039 0.044358 0.193835
0.685039 0.044358 0.193851
0.68513 0.0444038 0.194003
0.685298 0.04448 0.194278
0.685664 0.0446326 0.194903
0.686046 0.044831 0.195453
0 0.296345 0.0957656
0 0.297322 0.097734
0 0.29633 0.0863508
0 0.29514 0.0745098
0 0.294331 0.0651408
0 0.293996 0.0577249
0 0.293538 0.0459144
0 0.292378 0.041001
0 0.289677 0.0339666
0.00315862 0.286213 0.00833143
0.0964065 0.290822 0
0.190051 0.292454 0
0.324132 0.28864 0.00128176
0.418982 0.291554 0.0262608
0.479606 0.297765 0.044892
0.571298 0.279774 0.0891432
0.644083 0.252003 0.123262
0.693217 0.225757 0.135775
0.734646 0.17612 0.150988
0.733455 0.110643 0.167315
0.713695 0.0673075 0.175204
0.70602 0.0578012 0.180529
0.701137 0.0539406 0.184955
0.695567 0.0504768 0.18732
0.692668 0.0487526 0.188937
0.691493 0.0480659 0.189563
0.690852 0.0476387 0.19028
0.690593 0.0474403 0.190723
0.690364 0.0472877 0.191073
0.690288 0.0472267 0.191348
0.690364 0.0472572 0.191546
0.6907 0.0474098 0.191882
0.691585 0.0478981 0.19202
0 0.340917 0.110338
0 0.341955 0.112734
0 0.340917 0.101686
0 0.339971 0.090074
0 0.338964 0.0786603
0 0.338567 0.0712139
0 0.338796 0.0659648
0 0.33872 0.054551
0 0.337606 0.0485847
0 0.335073 0.0392157
0.00265507 0.332113 0
0.12015 0.338613 0
0.235538 0.340612 0
0.386435 0.34049 0
0.487633 0.346517 0.0323491
0.54612 0.359228 0.0567636
0.636652 0.350301 0.110643
0.722988 0.321935 0.154849
0.77818 0.293019 0.16968
0.810086 0.246143 0.186481
0.797635 0.185336 0.191897
0.770092 0.137697 0.186145
0.742733 0.102113 0.174777
0.728206 0.0834669 0.173785
0.720317 0.0734875 0.176333
0.714946 0.0670787 0.177783
0.71107 0.0624552 0.178729
0.708598 0.0597543 0.179232
0.707897 0.0590677 0.179904
0.707698 0.0588998 0.180148
0.707866 0.0590066 0.180087
0.709606 0.0606699 0.180194
0.718105 0.0705577 0.182391
0 0.38793 0.135821
0 0.389044 0.138628
0 0.388693 0.129091
0 0.387732 0.118288
0 0.386816 0.10724
0 0.386053 0.0969863
0 0.385733 0.0899214
0 0.386374 0.0863661
0 0.386557 0.0751049
0 0.385382 0.067155
0 0.381826 0.0526894
0.0150149 0.380575 0
0.158572 0.388861 0
0.291264 0.392401 0
0.449317 0.395926 0.0031281
0.555718 0.40531 0.0491035
0.615213 0.421378 0.0791943
0.704128 0.419532 0.13434
0.797452 0.394354 0.184558
0.853422 0.364279 0.206378
0.871855 0.329519 0.21973
0.864408 0.296315 0.219516
0.850813 0.269657 0.214115
0.837827 0.245686 0.208911
0.827054 0.226734 0.205249
0.818677 0.212802 0.202304
0.811994 0.201877 0.2
0.807462 0.194797 0.198138
0.804395 0.190509 0.196307
0.803708 0.189487 0.195575
0.805417 0.192432 0.195453
0.81062 0.200244 0.198062
0.818235 0.212192 0.201587
0 0.439445 0.174975
0 0.441001 0.178698
0 0.44036 0.170352
0 0.439658 0.161044
0 0.438941 0.151034
0 0.438331 0.140887
0 0.438056 0.131579
0 0.437781 0.123262
0 0.438315 0.119509
0 0.438788 0.107897
0 0.437568 0.099733
0 0.432654 0.0770428
0.0440528 0.432959 0.00424201
0.206134 0.442405 0
0.351446 0.447074 0.000122072
0.511925 0.453513 0.0237278
0.622232 0.465537 0.0750286
0.68481 0.484306 0.111635
0.769604 0.490059 0.161257
0.859724 0.471244 0.211551
0.907637 0.443137 0.239429
0.916259 0.418891 0.246067
0.910552 0.403281 0.242405
0.905486 0.390646 0.239246
0.90074 0.379187 0.236225
0.89752 0.37084 0.234546
0.895232 0.365011 0.233433
0.893675 0.361639 0.232456
0.893355 0.360906 0.232303
0.894301 0.362921 0.232975
0.895979 0.366583 0.234089
0.898589 0.373098 0.235538
0.902281 0.382391 0.23801
0 0.495964 0.226734
0 0.497444 0.230106
0 0.497047 0.222995
0 0.49659 0.215091
0 0.496178 0.206455
0 0.495995 0.19762
0 0.49543 0.188174
0 0.494911 0.178744
0 0.494392 0.167163
0 0.494759 0.15906
0 0.496605 0.149401
0 0.495399 0.143435
0 0.489113 0.109026
0.0833143 0.489097 0.0272068
0.263355 0.498573 0.0110018
0.415106 0.50428 0.0256962
0.576074 0.513893 0.0543832
0.686946 0.527428 0.110109
0.751675 0.547936 0.150515
0.825162 0.559457 0.189654
0.899413 0.548333 0.236057
0.931899 0.531746 0.256886
0.934081 0.519905 0.257481
0.933303 0.509422 0.256672
0.93254 0.500816 0.256001
0.93193 0.494438 0.255512
0.93167 0.490303 0.255543
0.931731 0.488151 0.255741
0.931792 0.488258 0.255863
0.932036 0.489433 0.256077
0.932448 0.492561 0.256397
0.933227 0.498085 0.257206
0.934081 0.506127 0.258152
0.00422675 0.556756 0.286931
0.00488289 0.558373 0.291081
0.00378424 0.558251 0.285328
0.00277714 0.558129 0.279362
0.00215152 0.558175 0.273259
0.00131228 0.557778 0.266178
0.000320439 0.557336 0.25835
0 0.556878 0.24979
0 0.556222 0.238178
0 0.555474 0.222858
0 0.555657 0.208347
0 0.557 0.200275
0 0.555611 0.195941
0 0.547814 0.148058
0.127611 0.547402 0.0590677
0.326513 0.557702 0.0423743
0.481224 0.563897 0.0596323
0.637568 0.574472 0.0948196
0.747463 0.588571 0.152499
0.811734 0.609247 0.192081
0.868101 0.625498 0.225605
0.916167 0.624537 0.257328
0.931228 0.615122 0.265934
0.932433 0.607492 0.265476
0.933333 0.601221 0.265187
0.933959 0.596948 0.264988
0.934051 0.594781 0.264775
0.934356 0.5935 0.264851
0.934295 0.593576 0.264805
0.933898 0.594675 0.264637
0.933684 0.597482 0.264973
0.933181 0.602335 0.265538
0.932097 0.609384 0.266041
0.0333867 0.618387 0.349981
0.0341497 0.62002 0.353353
0.0331731 0.620142 0.34992
0.0321965 0.620493 0.345571
0.0311894 0.620539 0.340948
0.0301213 0.620523 0.335515
0.029099 0.620493 0.330159
0.0281987 0.62034 0.324453
0.0269932 0.620539 0.316732
0.0247044 0.619867 0.303914
0.0216068 0.618906 0.285496
0.0169833 0.61828 0.26363
0.0126192 0.618799 0.252171
0.0119326 0.616373 0.246326
0.0233768 0.60882 0.184787
0.189136 0.607996 0.0970626
0.397589 0.617166 0.0884413
0.545769 0.623117 0.104906
0.696559 0.634989 0.145815
0.80322 0.649851 0.203815
0.861494 0.669123 0.243549
0.904692 0.687922 0.276799
0.928054 0.691463 0.291051
0.928573 0.686351 0.288914
0.928359 0.682429 0.28687
0.928054 0.679957 0.285557
0.927901 0.677897 0.284642
0.928054 0.677058 0.284535
0.928176 0.677119 0.284779
0.927993 0.677852 0.285176
0.928191 0.679973 0.286595
0.928603 0.683864 0.289189
0.928817 0.688472 0.291966
0.0602121 0.679042 0.412055
0.0614939 0.680812 0.41593
0.060914 0.681117 0.413443
0.0601816 0.68127 0.410163
0.0594339 0.681376 0.406867
0.058732 0.681529 0.403357
0.0579995 0.681636 0.399619
0.0574655 0.682094 0.396124
0.0563668 0.681895 0.390402
0.0548714 0.681315 0.381674
0.052369 0.680476 0.368887
0.0488136 0.678935 0.348623
0.0440528 0.67744 0.321965
0.0409247 0.675822 0.306035
0.0418708 0.671962 0.298726
0.0751049 0.664851 0.225666
0.282078 0.662974 0.151827
0.467308 0.673396 0.153521
0.608011 0.68101 0.166262
0.751995 0.695293 0.212085
0.851499 0.710124 0.27126
0.901289 0.726802 0.306096
0.932357 0.743664 0.336385
0.93872 0.744411 0.340398
0.938109 0.741726 0.33756
0.937606 0.739712 0.335378
0.937194 0.738155 0.333913
0.937041 0.737484 0.333181
0.937102 0.73753 0.333349
0.937377 0.738705 0.334554
0.937804 0.740246 0.336126
0.938293 0.742626 0.338598
0.9393 0.746319 0.34258
0.08925 0.729656 0.474464
0.0902266 0.730983 0.477485
0.0899672 0.731365 0.476158
0.0895094 0.731579 0.474357
0.0890364 0.731792 0.472129
0.0885176 0.731991 0.469642
0.0882887 0.732525 0.467979
0.0878309 0.732738 0.465507
0.0872053 0.732754 0.461952
0.0859388 0.732372 0.456321
0.0839704 0.731533 0.447425
0.0810254 0.730373 0.434256
0.0768597 0.72813 0.413123
0.072282 0.72546 0.386969
0.0700389 0.722652 0.376059
0.077409 0.714839 0.342428
0.151888 0.708247 0.267826
0.381186 0.710857 0.227085
0.534905 0.724895 0.238117
0.665492 0.733959 0.248615
0.801694 0.750896 0.296605
0.892943 0.765484 0.355016
0.932296 0.779812 0.382315
0.9505 0.789517 0.398154
0.950179 0.787381 0.394751
0.949569 0.785519 0.392233
0.949233 0.784237 0.390265
0.949248 0.783749 0.389471
0.949279 0.783902 0.389593
0.949355 0.784375 0.390173
0.949676 0.785473 0.391653
0.950225 0.787289 0.394018
0.951141 0.790036 0.397894
0.116365 0.770672 0.536614
0.117403 0.771862 0.539788
0.117128 0.772091 0.53901
0.116808 0.77232 0.537926
0.116777 0.7729 0.537469
0.116564 0.773205 0.536355
0.116411 0.77348 0.535241
0.116121 0.773678 0.533806
0.115511 0.773678 0.531609
0.114488 0.773419 0.527825
0.113008 0.773053 0.522545
0.11043 0.77171 0.513115
0.106477 0.769512 0.498802
0.101518 0.766293 0.477089
0.0976272 0.763043 0.459739
0.0975509 0.75729 0.437629
0.121904 0.745266 0.370352
0.264286 0.738689 0.318944
0.475364 0.756771 0.31783
0.60943 0.7738 0.337087
0.727535 0.783902 0.348119
0.845396 0.800275 0.39144
0.926284 0.814221 0.444434
0.95729 0.824781 0.465461
0.962188 0.826017 0.465904
0.961807 0.824125 0.462028
0.961532 0.822828 0.459785
0.96173 0.822431 0.459205
0.961685 0.822309 0.459083
0.961822 0.822782 0.46006
0.962356 0.823972 0.462135
0.963165 0.825788 0.466072
0.96434 0.828672 0.471809
0.143359 0.801999 0.595483
0.144472 0.802853 0.597696
0.144701 0.803189 0.597543
0.144884 0.803525 0.597238
0.144961 0.803754 0.596658
0.145022 0.803952 0.595987
0.145113 0.804135 0.595575
0.145144 0.804288 0.594766
0.14493 0.804273 0.593133
0.14464 0.804273 0.590997
0.143542 0.803723 0.586969
0.141756 0.802777 0.580713
0.13904 0.80119 0.571435
0.13521 0.798825 0.557855
0.13077 0.796048 0.541573
0.127199 0.792477 0.530449
0.129793 0.778943 0.469352
0.203159 0.765789 0.400198
0.390936 0.775372 0.394354
0.584543 0.805631 0.428855
0.705318 0.825147 0.454765
0.797345 0.833539 0.460105
0.885527 0.846281 0.490761
0.945998 0.857542 0.531975
0.96495 0.862608 0.544854
0.96524 0.861082 0.540734
0.965255 0.859739 0.538018
0.965286 0.8589 0.536217
0.965331 0.85864 0.535607
0.965316 0.859052 0.536309
0.965225 0.860014 0.537987
0.965377 0.86183 0.541726
0.965103 0.864027 0.546197
0.162676 0.817197 0.626596
0.163073 0.817456 0.627756
0.162722 0.817334 0.626841
0.162295 0.817182 0.625803
0.161822 0.816922 0.624582
0.161318 0.816632 0.623194
0.160769 0.816327 0.621607
0.160296 0.816052 0.620233
0.159533 0.81561 0.618021
0.15845 0.814954 0.614984
0.157031 0.814084 0.610681
0.154879 0.812802 0.604395
0.151965 0.811078 0.595789
0.148028 0.808774 0.583597
0.142992 0.805676 0.56669
0.141253 0.804532 0.561807
0.13843 0.800992 0.541726
0.181842 0.787793 0.475959
0.329915 0.781643 0.447807
0.516793 0.814771 0.49044
0.698955 0.852262 0.545098
0.798688 0.870756 0.572396
0.86424 0.880491 0.581979
0.921538 0.889876 0.602914
0.959381 0.89807 0.632486
0.963287 0.897337 0.6309
0.963302 0.895628 0.62591
0.963119 0.894469 0.622675
0.963195 0.894026 0.621668
0.963134 0.894133 0.62182
0.962997 0.895171 0.623972
0.962936 0.896651 0.627344
0.963302 0.898848 0.63357
0.164065 0.818036 0.630518
0.164446 0.81825 0.631647
0.164019 0.818097 0.630472
0.163592 0.817929 0.629374
0.163149 0.817716 0.628244
0.162615 0.817426 0.626764
0.162066 0.81709 0.625376
0.161486 0.816739 0.623667
0.160723 0.816312 0.621424
0.159731 0.815732 0.61857
0.158175 0.814755 0.61416
0.156161 0.813535 0.608164
0.153201 0.811826 0.599481
0.14934 0.809537 0.587762
0.144305 0.80647 0.571145
0.141894 0.805005 0.563088
0.141146 0.804654 0.556497
0.170428 0.795453 0.50428
0.293431 0.780026 0.451652
0.467308 0.809934 0.502647
0.659083 0.851881 0.566674
0.801022 0.885969 0.629389
0.864347 0.899641 0.654704
0.910689 0.910246 0.671672
0.951049 0.923949 0.707973
0.965209 0.929839 0.726955
0.965743 0.929549 0.725567
0.965911 0.929366 0.724514
0.965988 0.929641 0.724819
0.966186 0.930449 0.72697
0.966201 0.931304 0.729137
0.966186 0.931609 0.729915
0.966079 0.931533 0.729824
0.165362 0.818967 0.634195
0.165713 0.819165 0.635126
0.165148 0.818845 0.63357
0.16463 0.81854 0.632319
0.164111 0.818265 0.63093
0.163653 0.818036 0.629648
0.163134 0.817731 0.628244
0.162524 0.81738 0.62652
0.161715 0.816892 0.624353
0.160647 0.816251 0.621286
0.159197 0.815351 0.617166
0.157107 0.814145 0.610849
0.154147 0.81236 0.602365
0.150286 0.810117 0.5906
0.145266 0.80705 0.574304
0.141939 0.805035 0.563226
0.141985 0.804761 0.55906
0.16025 0.797559 0.513771
0.258274 0.779416 0.451591
0.442527 0.804944 0.496315
0.632563 0.846448 0.558923
0.783398 0.882689 0.624659
0.859312 0.90045 0.661006
0.901717 0.90959 0.67483
0.942061 0.922744 0.706065
0.963607 0.93341 0.738354
0.965972 0.934752 0.742748
0.965957 0.934768 0.742748
0.965927 0.934844 0.742916
0.965866 0.934951 0.743221
0.96585 0.934997 0.743328
0.965835 0.935027 0.743374
0.965835 0.935027 0.743374
0.166354 0.819623 0.636927
0.166644 0.819821 0.637629
0.166094 0.81944 0.636271
0.16553 0.81912 0.634653
0.164965 0.818784 0.633188
0.164416 0.818463 0.631769
0.163836 0.818143 0.630228
0.163317 0.817838 0.628763
0.162493 0.817365 0.626413
0.161349 0.816663 0.623285
0.159915 0.815839 0.61915
0.157763 0.814542 0.612909
0.154864 0.812802 0.604349
0.151019 0.810544 0.592874
0.145907 0.807446 0.57644
0.141878 0.805005 0.563058
0.142168 0.804791 0.560571
0.154742 0.798993 0.519722
0.24332 0.781292 0.456931
0.426612 0.801816 0.491554
0.615976 0.84268 0.552621
0.771221 0.879942 0.618936
0.853162 0.89926 0.658946
0.894865 0.907774 0.671183
0.934112 0.9196 0.697505
0.962188 0.93286 0.736736
0.965942 0.934829 0.742962
0.965927 0.934859 0.743023
0.965896 0.934905 0.74313
0.96585 0.934981 0.743282
0.96582 0.935027 0.743389
