luts/changyun_leica_like/std3.cube
TITLE "Generated by Resolve"
LUT_3D_SIZE 5
0 0.0270237 0.0350347
0.1346 0.0162661 0.0314336
0.524483 0.0196078 0.0844129
0.701625 0.0225223 0.176104
0.709987 0.0211185 0.186435
0 0.14374 0.0343633
0.101396 0.121508 0.0333562
0.505364 0.0106661 0.0506294
0.696513 0.0208286 0.131945
0.700252 0.019913 0.133272
0 0.628275 0.251957
0.00466926 0.63447 0.172656
0.59733 0.566537 0.107576
0.925811 0.490135 0.228046
0.923598 0.453834 0.22092
0.117937 0.963378 0.698283
0.114305 0.965911 0.686275
0.126711 0.976867 0.621759
0.972061 0.952041 0.67274
0.991333 0.94136 0.664363
0.111955 0.962982 0.709331
0.115969 0.963897 0.697536
0.121004 0.973678 0.634379
0.938079 0.962371 0.716091
0.988144 0.966415 0.762081
0 0.0371557 0.114229
0.143999 0.0294041 0.120882
0.541344 0.0217899 0.157488
0.724651 0.025452 0.234867
0.734569 0.0257877 0.246677
0 0.126894 0.130098
0.077821 0.111284 0.120302
0.518929 0.0177157 0.106615
0.706218 0.0222934 0.185824
0.712795 0.021622 0.193912
0 0.61091 0.322637
0 0.615869 0.253971
0.592111 0.561502 0.104692
0.925017 0.478538 0.226001
0.922988 0.439673 0.218601
0.11667 0.96199 0.710277
0.113787 0.963989 0.699397
0.121141 0.974319 0.6318
0.969772 0.949157 0.661357
0.991104 0.936767 0.650919
0.111772 0.96141 0.721431
0.11635 0.962066 0.710231
0.120394 0.973129 0.636362
0.93373 0.962585 0.716304
0.987991 0.966445 0.762142
0 0.101732 0.439307
0.0414893 0.0691997 0.488716
0.573602 0.0837568 0.453056
0.781674 0.0750286 0.470054
0.789258 0.0738231 0.481178
0 0.138781 0.422446
0 0.100725 0.445487
0.560281 0.07953 0.441917
0.776486 0.0729992 0.447257
0.783459 0.0717021 0.456962
0 0.568689 0.53933
0 0.563058 0.533837
0.541772 0.558648 0.54876
0.931258 0.442451 0.484688
0.922438 0.408408 0.480705
0.115496 0.954086 0.768872
0.110903 0.955871 0.762203
0.113008 0.962127 0.707424
0.960464 0.944137 0.726009
0.985321 0.935393 0.727077
0.112703 0.953704 0.782071
0.110948 0.954986 0.774273
0.116976 0.960861 0.718471
0.933379 0.969406 0.810529
0.987961 0.974105 0.850202
0 0.343191 0.719707
0 0.35198 0.72665
0.45716 0.3617 0.891051
0.881498 0.416571 0.884062
0.880476 0.432654 0.894392
0 0.334524 0.711727
0 0.341863 0.719844
0.408042 0.364706 0.888808
0.881025 0.406058 0.876554
0.880796 0.419333 0.886809
0 0.566171 0.754055
0 0.559823 0.759915
0.219226 0.581598 0.856428
0.916793 0.483757 0.864759
0.907362 0.459556 0.857679
0.104143 0.927611 0.89308
0.0927138 0.926909 0.893111
0.0814984 0.911498 0.877363
0.930755 0.929458 0.924407
0.970947 0.924056 0.920256
0.112703 0.939284 0.917739
0.10605 0.941207 0.915862
0.111391 0.942794 0.888075
0.90663 0.979324 0.94696
0.990677 0.988724 0.983246
0 0.393347 0.742504
0 0.413687 0.756527
0.407141 0.451453 0.932311
0.881544 0.442527 0.899733
0.881209 0.442512 0.900084
0 0.397665 0.741894
0 0.39353 0.743511
0.355932 0.449943 0.921889
0.882307 0.442542 0.899016
0.880858 0.442512 0.900435
0 0.609979 0.826154
0 0.602121 0.825299
0.0694896 0.607462 0.849409
0.912749 0.533593 0.925597
0.906706 0.518273 0.922347
0.0653697 0.917571 0.932555
0.0519722 0.915587 0.934447
0.026566 0.889158 0.926863
0.874678 0.91809 0.960494
0.966888 0.917983 0.963027
0.0966812 0.938567 0.939834
0.0883345 0.940368 0.94255
0.0883345 0.940368 0.94255
0.789227 0.971771 0.97203
0.995041 0.991974 0.990555
