luts/changyun_leica_like/std3.cube
TITLE "Generated by Resolve"
LUT_3D_SIZE 33
0 0.0270237 0.0350347
0 0.0270085 0.0350042
0 0.0269627 0.0349737
0.0179446 0.0255283 0.0342107
0.0394446 0.0240787 0.0342412
0.0636912 0.0219425 0.0327459
0.0843366 0.0201114 0.031632
0.106996 0.0185702 0.0314183
0.1346 0.0162661 0.0314336
0.168383 0.0139773 0.0319982
0.209827 0.0117647 0.0333104
0.259739 0.0100862 0.0354162
0.315816 0.00823987 0.0366369
0.371664 0.00721752 0.0399786
0.425864 0.00936904 0.0506752
0.476036 0.0134585 0.065568
0.524483 0.0196078 0.0844129
0.573632 0.0246281 0.104265
0.622034 0.019852 0.119066
0.67155 0.019089 0.141146
0.696208 0.0214389 0.158968
0.700923 0.0222629 0.166232
0.701244 0.0223697 0.16994
0.701488 0.0224613 0.173129
0.701625 0.0225223 0.176104
0.701747 0.0225986 0.17821
0.701793 0.0226444 0.180087
0.70219 0.0226749 0.181796
0.702953 0.0226749 0.183261
0.704158 0.0225681 0.184497
0.705653 0.0223087 0.185214
0.707881 0.0217288 0.185748
0.709987 0.0211185 0.186435
0 0.0269627 0.0349737
0 0.0269932 0.0349889
0 0.0269627 0.0349737
0.00962844 0.0264591 0.0337377
0.031754 0.0243839 0.0347448
0.0552377 0.0225528 0.0331579
0.0771801 0.0205997 0.0318303
0.10013 0.0189975 0.0314183
0.128298 0.0167849 0.031281
0.162661 0.0142672 0.0319371
0.204273 0.0116884 0.0326085
0.254185 0.00880446 0.0330205
0.309773 0.00585946 0.0325933
0.365728 0.00418097 0.0321355
0.418677 0.00444038 0.0380407
0.469108 0.0080415 0.0516823
0.518563 0.0137179 0.0713512
0.569665 0.0196384 0.0933547
0.619379 0.0193484 0.11194
0.669581 0.0191958 0.134844
0.695064 0.0212253 0.15285
0.700282 0.0220951 0.160357
0.700755 0.0222171 0.163958
0.701045 0.0222934 0.167575
0.701289 0.022385 0.170321
0.701442 0.022446 0.172656
0.701564 0.0224918 0.174655
0.701762 0.0224918 0.176287
0.702068 0.0224308 0.177554
0.702922 0.0222324 0.178195
0.703853 0.0219577 0.179034
0.705791 0.0213626 0.179644
0.707805 0.0207218 0.180179
0 0.0269627 0.0349737
0 0.0270085 0.0350042
0 0.0270085 0.0350042
0 0.0269627 0.0349737
0.0204776 0.0268406 0.0347448
0.0422827 0.0252537 0.0339208
0.0675059 0.0228275 0.031632
0.0919966 0.0205997 0.0303197
0.121248 0.017792 0.0307164
0.157092 0.014786 0.0318456
0.19913 0.0118105 0.0322881
0.249439 0.00886549 0.0327459
0.306065 0.00610361 0.0327611
0.362814 0.00422675 0.0318914
0.415671 0.00358587 0.0356298
0.465156 0.00546273 0.0441749
0.512779 0.00886549 0.0586709
0.565179 0.013611 0.0803693
0.616571 0.0172885 0.103456
0.667277 0.0189364 0.128145
0.693935 0.021088 0.146563
0.699565 0.0219425 0.154162
0.700038 0.0220493 0.157992
0.700435 0.0221256 0.161624
0.700771 0.0222171 0.164248
0.700984 0.0222782 0.166857
0.701137 0.0223239 0.168948
0.701411 0.0223392 0.170291
0.701778 0.0222934 0.171435
0.702632 0.0220645 0.172473
0.703624 0.0217746 0.173327
0.705516 0.0211948 0.174029
0.707622 0.0205539 0.174517
0 0.0269627 0.0349737
0 0.0270085 0.0350042
0 0.0270085 0.0350042
0 0.0269627 0.0349737
0.0110018 0.0279698 0.0341039
0.0292668 0.0286412 0.0355993
0.0517891 0.0280461 0.0338598
0.0797284 0.0257115 0.03122
0.110933 0.0209964 0.0292821
0.147631 0.0174716 0.0306554
0.192416 0.0137789 0.0320287
0.244114 0.00952163 0.0326085
0.30251 0.00656138 0.0331426
0.360052 0.00422675 0.0317998
0.414069 0.0037232 0.0355383
0.463569 0.0052491 0.043534
0.510353 0.00775158 0.0554665
0.561181 0.00875868 0.0691386
0.613336 0.0124514 0.0917372
0.665263 0.0180362 0.120699
0.692638 0.0209812 0.13994
0.698726 0.0217899 0.14757
0.69926 0.0218662 0.151644
0.699702 0.021973 0.154879
0.700069 0.0220493 0.158083
0.700359 0.0221103 0.160739
0.700587 0.0221714 0.1626
0.700877 0.0221714 0.164096
0.701274 0.0221256 0.165408
0.702159 0.0218967 0.166491
0.703304 0.0215915 0.167346
0.70518 0.0210269 0.168032
0.707317 0.0203861 0.168536
0 0.0416876 0.0398413
0 0.0401465 0.0380102
0.000198367 0.037995 0.0379187
0.00497444 0.0348669 0.0367285
0.0107881 0.0325322 0.0360113
0.0221561 0.0351415 0.0364233
0.0392309 0.0336156 0.0362249
0.0654307 0.0305333 0.0337682
0.0986801 0.0268254 0.0310826
0.137987 0.0209506 0.0290532
0.184161 0.0168917 0.0308385
0.237812 0.0126345 0.0320745
0.298238 0.0080415 0.0324712
0.357 0.00448615 0.0316625
0.411978 0.0037995 0.035462
0.461845 0.00518807 0.0432136
0.509148 0.00758373 0.0548714
0.559762 0.0083772 0.0681773
0.612558 0.0121614 0.0872511
0.662837 0.0174258 0.112749
0.691386 0.0208743 0.133227
0.697627 0.0215152 0.140963
0.698314 0.0216678 0.145251
0.698894 0.0218204 0.148531
0.699275 0.0218814 0.151675
0.69955 0.0219272 0.154208
0.699825 0.0220035 0.156039
0.70016 0.0220035 0.157778
0.700572 0.0219425 0.159182
0.701503 0.0217288 0.16022
0.702693 0.0214084 0.160998
0.704616 0.0208438 0.161639
0.706844 0.0202182 0.161883
0 0.0610819 0.0430152
0 0.0592355 0.0383001
0 0.0564431 0.0382086
0.0037995 0.0522621 0.0366217
0.0142672 0.0474098 0.0359045
0.024567 0.0486915 0.0346075
0.0390936 0.0510262 0.0355535
0.06804 0.0474556 0.0404212
0.0986191 0.0417182 0.0369573
0.13579 0.0340734 0.0331579
0.179171 0.0218967 0.0285039
0.231571 0.0159762 0.0304417
0.29337 0.0104372 0.0305486
0.354528 0.00614939 0.0303502
0.410056 0.00399786 0.0349126
0.46041 0.005066 0.0428779
0.507958 0.0075227 0.0545815
0.55877 0.00833143 0.0678721
0.611688 0.0120699 0.0865187
0.661967 0.0172122 0.110109
0.690578 0.020798 0.128969
0.696132 0.0212406 0.134813
0.697047 0.0213626 0.138582
0.697887 0.0215152 0.141894
0.69836 0.0216526 0.14519
0.698772 0.0217746 0.147478
0.699092 0.0218204 0.149599
0.699413 0.0218204 0.151385
0.699825 0.0217594 0.152712
0.70074 0.0215457 0.153658
0.701946 0.0212558 0.154284
0.703929 0.0206912 0.154849
0.706127 0.0200351 0.155291
0 0.0854963 0.0402838
0 0.083238 0.0362249
0 0.0802777 0.0367132
0 0.0761273 0.037171
0.0116732 0.0699168 0.0336309
0.0230411 0.0674754 0.0329595
0.0428168 0.06804 0.0325628
0.068986 0.0685435 0.0402075
0.101793 0.0641947 0.0436255
0.142138 0.0544594 0.0413825
0.186587 0.0449531 0.0356451
0.238224 0.0282139 0.028336
0.291752 0.014786 0.0274968
0.352056 0.00863661 0.0280003
0.408515 0.00543221 0.0332952
0.458839 0.0052491 0.042298
0.506798 0.00746166 0.0542
0.557595 0.0083772 0.0676127
0.610819 0.0119478 0.086244
0.661524 0.0169528 0.109361
0.691035 0.0205844 0.128374
0.696162 0.0209659 0.132158
0.696269 0.0209812 0.132708
0.696925 0.0210727 0.135271
0.697688 0.0211795 0.138415
0.698222 0.0213169 0.140658
0.698573 0.0214084 0.142916
0.698924 0.0214389 0.144686
0.699275 0.0214542 0.146029
0.699916 0.0213626 0.146883
0.70074 0.0211795 0.147524
0.702159 0.0208133 0.148058
0.703517 0.0204166 0.148486
0 0.111498 0.0367437
0 0.110033 0.0308843
0 0.10782 0.0304417
0 0.104936 0.0310979
0.00331121 0.100267 0.0287938
0.0187228 0.0944076 0.028397
0.0358282 0.0956741 0.0283055
0.0706035 0.0936599 0.0331426
0.102373 0.0933242 0.0419928
0.142657 0.0877394 0.0441444
0.198581 0.0687877 0.0437629
0.248966 0.0568246 0.0370336
0.3066 0.0375219 0.028687
0.358557 0.0166629 0.0221561
0.407675 0.00843824 0.0290837
0.458122 0.00700389 0.0404822
0.505379 0.00773632 0.0536355
0.555962 0.00842298 0.0672313
0.609445 0.0118257 0.0858625
0.660365 0.0167391 0.108415
0.691234 0.0204929 0.128298
0.696452 0.0208286 0.131838
0.696452 0.0208286 0.131868
0.696529 0.0208438 0.132097
0.696651 0.0208743 0.132555
0.696818 0.0208896 0.133333
0.697261 0.0209354 0.134874
0.697673 0.0209964 0.136568
0.697948 0.0210422 0.137911
0.698451 0.0210269 0.138766
0.699214 0.0209049 0.139345
0.700603 0.0205539 0.13991
0.702068 0.0201572 0.140337
0 0.14374 0.0343633
0 0.142351 0.0265507
0 0.140108 0.0229496
0 0.137728 0.0234836
0 0.134844 0.0218509
0.00798047 0.129915 0.0199893
0.0284733 0.126467 0.0224155
0.0569314 0.125887 0.0247501
0.101396 0.121508 0.0333562
0.145037 0.119997 0.0414893
0.19527 0.112139 0.04477
0.26537 0.0857557 0.0459754
0.321447 0.0698711 0.0389868
0.375616 0.0483253 0.0302892
0.422309 0.0242618 0.0249485
0.460212 0.0129091 0.0351263
0.505364 0.0106661 0.0506294
0.554238 0.00900282 0.0661784
0.607538 0.0116426 0.0849622
0.658518 0.016495 0.107088
0.691127 0.0204623 0.128176
0.696483 0.0208286 0.131823
0.696483 0.0208286 0.131823
0.696483 0.0208286 0.131823
0.696513 0.0208286 0.131945
0.696574 0.0208286 0.132128
0.696635 0.0208438 0.132326
0.696681 0.0208438 0.132509
0.696727 0.0208591 0.132677
0.697032 0.0207675 0.132799
0.697597 0.0206302 0.132891
0.698787 0.0203098 0.133074
0.700252 0.019913 0.133272
0 0.1841 0.0347448
0 0.182315 0.0241245
0 0.181292 0.0159762
0 0.179339 0.0150607
0 0.176898 0.015198
0 0.173983 0.00978103
0.0103456 0.169299 0.00984207
0.0446784 0.166415 0.014023
0.0826429 0.164279 0.0198367
0.141131 0.157412 0.0323796
0.197345 0.154101 0.0404669
0.257176 0.14435 0.0450141
0.339025 0.11133 0.0499733
0.395544 0.0932784 0.0458076
0.444144 0.0706798 0.0399481
0.483604 0.0431983 0.0369726
0.517632 0.024155 0.0441444
0.556725 0.0149538 0.0613565
0.6065 0.0124056 0.079881
0.656291 0.0162051 0.104112
0.691051 0.0204471 0.127932
0.696483 0.0208286 0.131823
0.696483 0.0208286 0.131823
0.696483 0.0208286 0.131823
0.696483 0.0208286 0.131823
0.696483 0.0208286 0.131823
0.696483 0.0208286 0.131823
0.696498 0.0208286 0.131899
0.696529 0.0208286 0.131991
0.696849 0.0207523 0.132052
0.697429 0.0205997 0.132097
0.698573 0.0202792 0.132174
0.699977 0.0198825 0.132143
0 0.231937 0.0400854
0 0.230655 0.0252384
0 0.229313 0.0173953
0 0.228855 0.00857557
0 0.22681 0.00823987
0 0.224811 0.00790417
0 0.222004 0
0.0109865 0.217487 0
0.0638285 0.215045 0.00549325
0.113451 0.210681 0.0152132
0.189425 0.200763 0.0316167
0.258869 0.195422 0.0392767
0.327321 0.185306 0.0467384
0.412222 0.148775 0.0580911
0.468742 0.129107 0.0592203
0.512184 0.107866 0.0585946
0.548196 0.0755932 0.0567788
0.582406 0.0383917 0.0531167
0.618479 0.0215152 0.0719005
0.661219 0.0179294 0.0977798
0.695338 0.020798 0.125078
0.697963 0.0210269 0.131334
0.696925 0.0208743 0.131655
0.696712 0.0208591 0.131762
0.69662 0.0208286 0.131792
0.696498 0.0208286 0.131823
0.696483 0.0208286 0.131823
0.696483 0.0208286 0.131823
0.696483 0.0208286 0.131823
0.696757 0.020737 0.131807
0.697322 0.0205844 0.131792
0.698436 0.020264 0.131792
0.69984 0.019852 0.131716
0 0.289281 0.046891
0 0.28838 0.03299
0 0.286748 0.0229496
0 0.28661 0.0145266
0 0.286168 0.00390631
0 0.284367 0.00328069
0 0.282521 0.00259403
0 0.278981 0
0.0123903 0.274159 0
0.0859846 0.272923 0
0.152636 0.265599 0.0128176
0.246326 0.251591 0.0311894
0.328313 0.244877 0.039765
0.396445 0.238193 0.0505226
0.481788 0.205417 0.0706493
0.541314 0.178943 0.0804303
0.582284 0.159579 0.084596
0.620417 0.127489 0.0839246
0.658763 0.0723125 0.0733196
0.693187 0.0359197 0.0856336
0.718273 0.0255741 0.112276
0.712779 0.0230564 0.122835
0.707637 0.0223392 0.126162
0.704097 0.0218051 0.128893
0.701076 0.0214084 0.130388
0.698833 0.0211185 0.13109
0.697704 0.0209201 0.13135
0.697353 0.0208743 0.131441
0.697337 0.0208896 0.131456
0.697597 0.0208133 0.131456
0.698009 0.0206912 0.131472
0.699245 0.0203403 0.131426
0.700648 0.0199435 0.131334
0 0.352804 0.0570687
0 0.352255 0.0445563
0 0.351339 0.0336614
0 0.350988 0.0284581
0 0.351522 0.0205386
0 0.351644 0.00810254
0 0.350317 0.00668345
0 0.34815 0.00546273
0 0.343374 0
0.0199435 0.341375 0
0.116075 0.339208 0
0.202075 0.328054 0.013611
0.313451 0.311055 0.0325017
0.399771 0.30428 0.0440223
0.464195 0.303685 0.0573434
0.547494 0.279011 0.0865187
0.613397 0.244373 0.110887
0.656443 0.223728 0.117281
0.703258 0.189731 0.117708
0.744366 0.133654 0.104219
0.764492 0.0598001 0.0977493
0.756741 0.0345464 0.10251
0.746853 0.029572 0.107454
0.735637 0.0266728 0.112306
0.724056 0.0245212 0.11722
0.718303 0.0237736 0.120073
0.715709 0.0231937 0.12134
0.714076 0.0228275 0.122408
0.712963 0.0225986 0.123201
0.712352 0.0224613 0.123812
0.712108 0.0222782 0.124224
0.712627 0.0219425 0.124453
0.713603 0.0215152 0.124529
0 0.419196 0.0809339
0 0.418738 0.0682689
0 0.418051 0.0563058
0 0.417563 0.0460212
0 0.418128 0.0423896
0 0.418982 0.0365606
0 0.419745 0.0260166
0 0.418936 0.0202335
0 0.416846 0.0183108
0 0.411933 0
0.0373999 0.412146 0
0.160082 0.407813 0
0.26247 0.392386 0.0223392
0.384421 0.373831 0.0382544
0.471717 0.368032 0.0536812
0.532204 0.372122 0.0703136
0.609476 0.358236 0.10724
0.684535 0.322423 0.142473
0.736507 0.296559 0.151858
0.788327 0.26186 0.152285
0.827039 0.206577 0.142824
0.828428 0.152026 0.127398
0.8121 0.111284 0.111589
0.794308 0.0762646 0.0981308
0.783108 0.059144 0.0973983
0.775189 0.0500954 0.100511
0.769131 0.0439918 0.103136
0.763592 0.0390326 0.104158
0.759686 0.0361028 0.105303
0.757259 0.0350347 0.106249
0.755886 0.0348974 0.107179
0.755611 0.034638 0.107607
0.756497 0.0342565 0.107652
0 0.488106 0.120867
0 0.48806 0.109224
0 0.488014 0.0971389
0 0.487922 0.0861524
0 0.48809 0.0760967
0 0.488502 0.0709544
0 0.489525 0.0683299
0 0.490669 0.0583505
0 0.490669 0.0471046
0 0.48835 0.0440223
0 0.483421 0.016495
0.0690929 0.485512 0
0.221012 0.477836 0.00741588
0.335943 0.457832 0.0413977
0.457572 0.438804 0.0508583
0.542962 0.433906 0.0710918
0.599512 0.440055 0.0921035
0.671778 0.434623 0.1308
0.751095 0.402945 0.170413
0.813596 0.367895 0.182284
0.862333 0.335454 0.183459
0.883833 0.299123 0.178531
0.880201 0.275898 0.17203
0.872938 0.255375 0.165118
0.865583 0.236271 0.158465
0.85864 0.219364 0.151919
0.852735 0.205188 0.146441
0.847822 0.193576 0.141802
0.843946 0.184253 0.138033
0.840253 0.176455 0.134661
0.837873 0.170871 0.132479
0.836515 0.166278 0.130388
0.836866 0.163149 0.128908
0 0.558022 0.17879
0 0.558358 0.168917
0 0.558831 0.158511
0 0.559167 0.147585
0 0.559457 0.137011
0 0.559701 0.127275
0 0.560204 0.119265
0 0.56109 0.116091
0 0.562539 0.108751
0 0.563378 0.0950179
0 0.560479 0.0899367
0.00421149 0.555261 0.0512703
0.122759 0.559747 0.00430304
0.29839 0.546502 0.0348363
0.414252 0.522881 0.0686656
0.528389 0.502892 0.0743877
0.610468 0.498833 0.0984817
0.665858 0.505821 0.123217
0.733227 0.506035 0.157687
0.813626 0.482368 0.192874
0.874403 0.448798 0.209171
0.913161 0.412741 0.211643
0.914351 0.395453 0.207752
0.910994 0.382055 0.203586
0.907866 0.370443 0.200229
0.905165 0.360418 0.197147
0.902983 0.352056 0.194629
0.901289 0.345342 0.192767
0.899428 0.339788 0.190967
0.898497 0.335744 0.190143
0.89752 0.332479 0.189166
0.897185 0.330266 0.188251
0.897581 0.328756 0.187442
0 0.628275 0.251957
0 0.628916 0.243305
0 0.629602 0.234195
0 0.630503 0.224567
0 0.631144 0.214176
0 0.631861 0.20383
0.00166323 0.632639 0.194064
0.00357061 0.633433 0.182757
0.00466926 0.63447 0.172656
0.0037232 0.636194 0.167742
0.00517281 0.637293 0.153719
0.00541695 0.634043 0.147341
0.0290227 0.629664 0.0928817
0.199039 0.632136 0.0420539
0.38735 0.611078 0.0787518
0.491539 0.586084 0.104753
0.59733 0.566537 0.107576
0.6748 0.561837 0.131975
0.728862 0.568826 0.15906
0.793484 0.572839 0.184283
0.861952 0.557839 0.214572
0.915953 0.530358 0.232914
0.927092 0.513161 0.232883
0.92694 0.500526 0.230442
0.925811 0.490135 0.228046
0.925124 0.48127 0.226352
0.924697 0.474052 0.225284
0.924163 0.467918 0.224186
0.92398 0.463447 0.223514
0.923735 0.459922 0.222919
0.923354 0.457053 0.222248
0.923339 0.454948 0.221607
0.923598 0.453834 0.22092
0.0149081 0.696803 0.330678
0.0153506 0.69752 0.323903
0.0158694 0.698161 0.316838
0.0167849 0.699046 0.308949
0.017792 0.699901 0.30071
0.0190585 0.700786 0.291722
0.0205997 0.701762 0.282017
0.0225528 0.702876 0.270085
0.0248569 0.704173 0.254978
0.0271153 0.705867 0.237903
0.025742 0.707759 0.230365
0.0251774 0.708385 0.221057
0.0264591 0.705379 0.212787
0.065156 0.701701 0.134325
0.295003 0.701549 0.0901045
0.473289 0.673762 0.127932
0.565332 0.647639 0.145068
0.661646 0.627543 0.147112
0.735515 0.622477 0.171008
0.789563 0.628489 0.195132
0.843992 0.634668 0.215183
0.896574 0.627863 0.239689
0.927184 0.612909 0.252338
0.930999 0.602869 0.252399
0.931075 0.594232 0.250706
0.931426 0.587289 0.2495
0.931365 0.581567 0.248386
0.931807 0.577295 0.248081
0.931594 0.573816 0.247227
0.931533 0.571344 0.246662
0.931914 0.569833 0.246632
0.931914 0.568704 0.246143
0.931716 0.567971 0.245319
0.0427558 0.762463 0.405066
0.0425574 0.763088 0.40029
0.0425879 0.764004 0.39472
0.0427863 0.764767 0.389258
0.043122 0.765728 0.383154
0.0436713 0.766674 0.376776
0.0443732 0.767636 0.36994
0.0454261 0.768811 0.360861
0.0469825 0.770687 0.347646
0.0491798 0.773053 0.329534
0.0511482 0.775891 0.307012
0.0496529 0.779019 0.289631
0.0466011 0.777981 0.286305
0.053315 0.77467 0.268269
0.117372 0.775402 0.164218
0.405676 0.764446 0.150134
0.551034 0.734752 0.183047
0.633265 0.706706 0.19028
0.72221 0.686656 0.19379
0.79295 0.680812 0.215137
0.841535 0.685725 0.237644
0.884657 0.694301 0.262684
0.924346 0.692378 0.278965
0.930282 0.686442 0.278676
0.930068 0.680613 0.275807
0.929992 0.675853 0.273732
0.929656 0.671839 0.271778
0.929381 0.668467 0.27039
0.929397 0.666224 0.26952
0.929335 0.664347 0.268788
0.929366 0.662898 0.268345
0.929274 0.661891 0.267933
0.929152 0.661128 0.267536
0.0661631 0.826703 0.47274
0.0657969 0.827344 0.468971
0.0654002 0.828107 0.464866
0.0652476 0.828672 0.460716
0.0652171 0.82948 0.456214
0.0653544 0.830198 0.451835
0.0656596 0.831067 0.44654
0.0661326 0.832105 0.44007
0.0669871 0.833631 0.430762
0.0683604 0.835889 0.417426
0.0702983 0.838849 0.398032
0.0728008 0.842649 0.371466
0.0741131 0.846387 0.344503
0.0735943 0.843091 0.339605
0.0894942 0.840085 0.319417
0.215152 0.846448 0.211414
0.507195 0.822507 0.22266
0.620447 0.79469 0.248997
0.69604 0.765118 0.245075
0.778149 0.744106 0.250736
0.843717 0.737636 0.274571
0.885328 0.74197 0.294331
0.918471 0.752178 0.320974
0.935592 0.753277 0.333227
0.936263 0.748943 0.330266
0.935912 0.745098 0.32697
0.935302 0.741894 0.323857
0.934798 0.739162 0.321538
0.934508 0.737102 0.319768
0.93463 0.735882 0.318715
0.934524 0.734905 0.317708
0.934325 0.734173 0.316884
0.934218 0.733593 0.316365
0.0851606 0.879194 0.534981
0.0847486 0.879652 0.532235
0.0841382 0.880278 0.529076
0.0835584 0.880888 0.525902
0.0831311 0.881498 0.522667
0.0830701 0.882078 0.519249
0.0832074 0.882658 0.515435
0.0834516 0.883375 0.510933
0.0839246 0.884352 0.504234
0.0845502 0.88574 0.494987
0.0854658 0.887846 0.481361
0.0873274 0.891096 0.46157
0.0902876 0.895506 0.433112
0.0924239 0.897124 0.411933
0.0958877 0.893812 0.402411
0.137606 0.894011 0.364462
0.359472 0.899657 0.286259
0.59205 0.872343 0.306462
0.682383 0.848981 0.327535
0.753887 0.819989 0.317723
0.832227 0.800565 0.326909
0.89012 0.792905 0.352178
0.923125 0.797147 0.366812
0.948531 0.806897 0.388449
0.951034 0.805508 0.38822
0.95024 0.802716 0.385321
0.949416 0.800397 0.382605
0.948653 0.798169 0.380316
0.948043 0.796643 0.37879
0.947692 0.795529 0.377707
0.947494 0.794675 0.376867
0.947311 0.794018 0.376104
0.947326 0.793591 0.375647
0.0972915 0.919142 0.593729
0.0970016 0.919509 0.591531
0.0960861 0.920058 0.589136
0.0953384 0.920501 0.586786
0.094789 0.921065 0.5841
0.0946212 0.921523 0.581857
0.0946822 0.921981 0.579004
0.0948653 0.92253 0.575357
0.0951247 0.923156 0.570596
0.0954757 0.924102 0.563821
0.0959945 0.925383 0.554131
0.0968185 0.927275 0.540291
0.0984512 0.930388 0.520256
0.101427 0.934279 0.493523
0.103487 0.932311 0.483833
0.135958 0.932418 0.44271
0.206409 0.938445 0.403525
0.489067 0.93962 0.368887
0.66421 0.916136 0.397086
0.740276 0.895659 0.414755
0.808194 0.868879 0.407034
0.879332 0.849348 0.415457
0.93077 0.840116 0.437781
0.956573 0.842939 0.448692
0.968322 0.847303 0.453803
0.968414 0.845685 0.45008
0.967468 0.843687 0.446464
0.966659 0.84213 0.443214
0.966033 0.84094 0.441154
0.965377 0.839948 0.439429
0.964935 0.839292 0.438056
0.964782 0.838758 0.437064
0.964843 0.838392 0.436408
0.0997787 0.947051 0.649668
0.0991226 0.947326 0.647776
0.0978256 0.947768 0.645869
0.0966049 0.94818 0.6439
0.0955978 0.948577 0.641825
0.0950942 0.948791 0.640101
0.0948653 0.949065 0.637827
0.0947738 0.949355 0.634974
0.094667 0.949722 0.631357
0.0945602 0.950286 0.625879
0.0945296 0.951034 0.61886
0.0947433 0.952316 0.609079
0.0952621 0.95404 0.595056
0.0971389 0.956512 0.575402
0.0997177 0.956817 0.560891
0.114107 0.955947 0.542229
0.197223 0.962203 0.476509
0.352148 0.973281 0.463478
0.589715 0.969345 0.452445
0.734081 0.947341 0.489937
0.799054 0.930571 0.504524
0.859648 0.907652 0.495201
0.918318 0.891066 0.500587
0.961898 0.88188 0.517388
0.983383 0.883345 0.52665
0.98558 0.881941 0.523705
0.985016 0.879911 0.519615
0.984863 0.878416 0.51693
0.984329 0.876936 0.514778
0.983688 0.875929 0.513161
0.9832 0.875273 0.511833
0.982986 0.874876 0.510857
0.983001 0.874647 0.510185
0.115877 0.962127 0.690837
0.115618 0.962478 0.689616
0.114519 0.962905 0.688365
0.113649 0.963333 0.687083
0.112764 0.963699 0.686015
0.112535 0.964004 0.684718
0.112444 0.964309 0.683421
0.112612 0.964614 0.681682
0.112779 0.965026 0.67924
0.112932 0.965591 0.675807
0.11313 0.966278 0.671336
0.113481 0.967315 0.664988
0.113939 0.968719 0.656168
0.114687 0.970718 0.643809
0.115206 0.972396 0.631266
0.115404 0.970977 0.62034
0.152941 0.973053 0.57171
0.285252 0.986831 0.511879
0.490471 0.99707 0.527794
0.680446 0.986267 0.540063
0.807446 0.964691 0.584451
0.859525 0.952575 0.593622
0.905119 0.936797 0.580774
0.949859 0.925277 0.583673
0.980224 0.919142 0.59765
0.990265 0.917662 0.600855
0.990738 0.915923 0.596719
0.990646 0.914412 0.59321
0.990265 0.913161 0.590173
0.989944 0.912139 0.588006
0.989715 0.911452 0.58674
0.989746 0.910994 0.585595
0.989929 0.910613 0.584695
0.117937 0.963378 0.698283
0.117617 0.963699 0.697078
0.116503 0.96408 0.695766
0.115419 0.964446 0.694484
0.114473 0.964828 0.693126
0.114244 0.965042 0.691783
0.114107 0.965255 0.690547
0.114183 0.965545 0.688792
0.114305 0.965911 0.686275
0.114397 0.966354 0.68304
0.114534 0.96698 0.678508
0.114733 0.967895 0.672435
0.115114 0.969177 0.66392
0.115679 0.971099 0.651881
0.11664 0.973373 0.637781
0.116762 0.973678 0.635477
0.126711 0.976867 0.621759
0.225086 0.984497 0.58468
0.435798 0.99852 0.560403
0.588251 0.998428 0.591012
0.754055 0.98497 0.615427
0.865064 0.967391 0.662226
0.903761 0.961532 0.669291
0.942275 0.958022 0.670024
0.972061 0.952041 0.67274
0.990585 0.948089 0.684108
0.99144 0.946181 0.679606
0.991547 0.944839 0.674937
0.991577 0.944015 0.671611
0.991501 0.943099 0.668894
0.991363 0.942321 0.66685
0.991287 0.941802 0.66537
0.991333 0.94136 0.664363
0.115587 0.96347 0.700908
0.115877 0.963623 0.699763
0.115572 0.963775 0.698634
0.115068 0.964096 0.697368
0.114366 0.964462 0.69601
0.114107 0.964645 0.694621
0.114 0.964889 0.693172
0.114076 0.965164 0.691478
0.114168 0.965438 0.689235
0.114321 0.965927 0.685832
0.114427 0.966552 0.681544
0.114672 0.967514 0.675212
0.114977 0.968765 0.666987
0.115496 0.970489 0.655604
0.116442 0.972793 0.641047
0.116854 0.973678 0.636332
0.123796 0.976013 0.62855
0.198611 0.982803 0.596551
0.390326 0.997421 0.557733
0.553689 0.999023 0.595041
0.710185 0.991592 0.62002
0.84033 0.972702 0.671473
0.905501 0.964858 0.710719
0.930938 0.962676 0.714824
0.96054 0.962539 0.722316
0.983612 0.964233 0.746609
0.989609 0.965393 0.756817
0.990158 0.965362 0.755688
0.99028 0.965316 0.754467
0.990234 0.965377 0.753658
0.990234 0.965423 0.75314
0.990234 0.96524 0.752102
0.990265 0.964904 0.750637
0.113893 0.963439 0.703227
0.114092 0.963607 0.701961
0.114275 0.963775 0.700679
0.114366 0.963912 0.699565
0.114183 0.964111 0.698375
0.114015 0.964263 0.697017
0.113893 0.964553 0.695521
0.113985 0.964858 0.693675
0.114076 0.965118 0.691432
0.114214 0.965576 0.688273
0.114382 0.966232 0.683696
0.114565 0.967132 0.677745
0.114839 0.968338 0.66952
0.115373 0.970092 0.658137
0.116228 0.972351 0.6439
0.116762 0.973571 0.636637
0.122072 0.975082 0.631815
0.178012 0.981231 0.60238
0.337865 0.994583 0.555627
0.532769 0.999176 0.591623
0.68545 0.993881 0.615641
0.824475 0.975708 0.663905
0.898268 0.965499 0.707668
0.926513 0.963058 0.716487
0.953902 0.962249 0.720027
0.978576 0.963867 0.740475
0.988922 0.966064 0.760693
0.989273 0.966171 0.761593
0.98912 0.966217 0.761639
0.988861 0.966278 0.761746
0.988708 0.966308 0.761822
0.988647 0.966323 0.761883
0.988769 0.966308 0.761837
0.114733 0.963058 0.705119
0.115999 0.963027 0.703761
0.116869 0.962982 0.702434
