luts/changyun_leica_like/std3.cube
TITLE "Generated by Resolve"
LUT_3D_SIZE 9
0 0.0270237 0.0350347
0.0394446 0.0240787 0.0342412
0.1346 0.0162661 0.0314336
0.315816 0.00823987 0.0366369
0.524483 0.0196078 0.0844129
0.696208 0.0214389 0.158968
0.701625 0.0225223 0.176104
0.702953 0.0226749 0.183261
0.709987 0.0211185 0.186435
0 0.0416876 0.0398413
0.0107881 0.0325322 0.0360113
0.0986801 0.0268254 0.0310826
0.298238 0.0080415 0.0324712
0.509148 0.00758373 0.0548714
0.691386 0.0208743 0.133227
0.699275 0.0218814 0.151675
0.700572 0.0219425 0.159182
0.706844 0.0202182 0.161883
0 0.14374 0.0343633
0 0.134844 0.0218509
0.101396 0.121508 0.0333562
0.321447 0.0698711 0.0389868
0.505364 0.0106661 0.0506294
0.691127 0.0204623 0.128176
0.696513 0.0208286 0.131945
0.696727 0.0208591 0.132677
0.700252 0.019913 0.133272
0 0.352804 0.0570687
0 0.351522 0.0205386
0 0.343374 0
0.313451 0.311055 0.0325017
0.613397 0.244373 0.110887
0.764492 0.0598001 0.0977493
0.724056 0.0245212 0.11722
0.712963 0.0225986 0.123201
0.713603 0.0215152 0.124529
0 0.628275 0.251957
0 0.631144 0.214176
0.00466926 0.63447 0.172656
0.0290227 0.629664 0.0928817
0.59733 0.566537 0.107576
0.861952 0.557839 0.214572
0.925811 0.490135 0.228046
0.92398 0.463447 0.223514
0.923598 0.453834 0.22092
0.0851606 0.879194 0.534981
0.0831311 0.881498 0.522667
0.0839246 0.884352 0.504234
0.0902876 0.895506 0.433112
0.359472 0.899657 0.286259
0.832227 0.800565 0.326909
0.951034 0.805508 0.38822
0.948043 0.796643 0.37879
0.947326 0.793591 0.375647
0.117937 0.963378 0.698283
0.114473 0.964828 0.693126
0.114305 0.965911 0.686275
0.115114 0.969177 0.66392
0.126711 0.976867 0.621759
0.754055 0.98497 0.615427
0.972061 0.952041 0.67274
0.991577 0.944015 0.671611
0.991333 0.94136 0.664363
0.114748 0.962905 0.706462
0.11664 0.963256 0.701244
0.117403 0.964065 0.694423
0.118196 0.967147 0.673136
0.122911 0.973648 0.634485
0.65716 0.995926 0.609644
0.94551 0.961669 0.715862
0.990616 0.965896 0.761166
0.988769 0.966308 0.761837
0.111955 0.962982 0.709331
0.113436 0.963363 0.704417
0.115969 0.963897 0.697536
0.118105 0.966751 0.675868
0.121004 0.973678 0.634379
0.63592 0.996948 0.606592
0.938079 0.962371 0.716091
0.989868 0.966049 0.76144
0.988144 0.966415 0.762081
0 0.0284276 0.0427253
0.0324102 0.0270237 0.0579538
0.138933 0.0252537 0.0690929
0.332601 0.0169375 0.0806439
0.529686 0.0168612 0.114061
0.70399 0.0216068 0.186313
0.713024 0.022858 0.202564
0.714839 0.0231632 0.20911
0.719585 0.0219577 0.212207
0 0.0360876 0.0450599
0 0.0271 0.0350347
0.105837 0.0201572 0.0351568
0.301946 0.0120394 0.042359
0.521141 0.0224308 0.0899519
0.699229 0.0204776 0.162005
0.705104 0.0215457 0.178912
0.707897 0.0217899 0.186358
0.713039 0.0205997 0.1897
0 0.133318 0.0848249
0 0.126101 0.0417334
0.0934005 0.114366 0.0336004
0.318013 0.0521248 0.0329595
0.50312 0.00851453 0.0541238
0.694911 0.0203555 0.140795
0.701976 0.0211795 0.153658
0.702541 0.0213169 0.15845
0.706004 0.0203708 0.160418
0 0.344213 0.113039
0 0.342184 0.0638437
0 0.34078 0.00527962
0.30782 0.306325 0.0323949
0.610376 0.231479 0.107103
0.75938 0.0536202 0.0987259
0.719142 0.0240482 0.120195
0.710033 0.0221561 0.125444
0.709957 0.021088 0.127184
0 0.620295 0.286259
0 0.62298 0.25388
0 0.626596 0.201282
0.0150912 0.628687 0.121553
0.594919 0.564294 0.106126
0.864958 0.550683 0.215518
0.925612 0.485008 0.227283
0.92343 0.457877 0.2224
0.923354 0.448295 0.219959
0.0838483 0.874693 0.545541
0.0818494 0.87686 0.534142
0.0822461 0.879499 0.517098
0.0872969 0.889235 0.451896
0.312139 0.900862 0.293233
0.830777 0.799054 0.324086
0.95021 0.803067 0.385718
0.947021 0.793729 0.375677
0.946517 0.790631 0.372488
0.117586 0.962722 0.703578
0.11429 0.964004 0.698863
0.114046 0.965087 0.691997
0.114778 0.968139 0.670832
0.124605 0.975921 0.626535
0.744839 0.986114 0.611185
0.971237 0.950759 0.667765
0.991653 0.942046 0.665995
0.991135 0.939345 0.658259
0.114107 0.962264 0.711757
0.117098 0.962417 0.706874
0.117235 0.963333 0.700038
0.117952 0.966186 0.679713
0.121035 0.97351 0.634958
0.644541 0.996506 0.607813
0.943618 0.961837 0.715663
0.990616 0.965896 0.761166
0.988769 0.966308 0.761837
0.111864 0.96228 0.714717
0.114168 0.962493 0.709789
0.115953 0.963104 0.703029
0.117906 0.965774 0.682536
0.120714 0.97348 0.635233
0.623194 0.997436 0.604517
0.936278 0.962448 0.716197
0.989868 0.966049 0.76144
0.988144 0.966415 0.762081
0 0.0371557 0.114229
0.0509194 0.0278935 0.112673
0.143999 0.0294041 0.120882
0.344121 0.0224308 0.132036
0.541344 0.0217899 0.157488
0.715221 0.0240024 0.218967
0.724651 0.025452 0.234867
0.728573 0.0266575 0.242924
0.734569 0.0257877 0.246677
0 0.0452888 0.0821241
0 0.0364233 0.107195
0.111528 0.0285649 0.104799
0.323293 0.0195773 0.102434
0.530404 0.0186313 0.128328
0.707057 0.021912 0.196551
0.714916 0.0234379 0.211749
0.718303 0.0239261 0.218692
0.723842 0.0228122 0.22208
0 0.126894 0.130098
0 0.117922 0.121828
0.077821 0.111284 0.120302
0.325795 0.0683604 0.0924086
0.518929 0.0177157 0.106615
0.699092 0.0212253 0.174395
0.706218 0.0222934 0.185824
0.70811 0.0223545 0.190829
0.712795 0.021622 0.193912
0 0.33434 0.173785
0 0.331868 0.143114
0 0.32987 0.0773175
0.306859 0.306462 0.076463
0.607813 0.219623 0.116976
0.752987 0.0446479 0.11136
0.713085 0.0229648 0.134234
0.708705 0.0220493 0.150301
0.70869 0.0210575 0.155474
0 0.61091 0.322637
0 0.612345 0.296925
0 0.615869 0.253971
0.00550851 0.625483 0.137316
0.592111 0.561502 0.104692
0.865385 0.545663 0.215625
0.925017 0.478538 0.226001
0.923201 0.45008 0.22121
0.922988 0.439673 0.218601
0.0823682 0.869215 0.55787
0.0801709 0.870954 0.547539
0.0803998 0.873213 0.532403
0.0836347 0.881071 0.474403
0.246006 0.90161 0.297734
0.828962 0.796689 0.320928
0.94934 0.800214 0.382498
0.946303 0.790906 0.372656
0.945266 0.787671 0.369635
0.11667 0.96199 0.710277
0.114031 0.963043 0.705867
0.113787 0.963989 0.699397
0.114412 0.966766 0.679271
0.121141 0.974319 0.6318
0.73312 0.987915 0.606012
0.969772 0.949157 0.661357
0.991424 0.939513 0.65861
0.991104 0.936767 0.650919
0.113527 0.961471 0.718318
0.115511 0.96173 0.713756
0.117144 0.962356 0.707378
0.117708 0.965011 0.687892
0.120546 0.973281 0.635874
0.62826 0.997269 0.605142
0.941115 0.962188 0.715694
0.990616 0.965896 0.761166
0.988769 0.966308 0.761837
0.111772 0.96141 0.721431
0.112413 0.961837 0.716838
0.11635 0.962066 0.710231
0.117601 0.964675 0.690654
0.120394 0.973129 0.636362
0.604562 0.998016 0.601953
0.93373 0.962585 0.716304
0.989868 0.966049 0.76144
0.987991 0.966445 0.762142
0 0.0581216 0.254459
0.00216678 0.0474556 0.271443
0.17464 0.0329595 0.254154
0.353124 0.0356603 0.253941
0.557168 0.0447547 0.270649
0.74786 0.0413977 0.308202
0.757015 0.0445869 0.323095
0.759472 0.0462654 0.330205
0.765499 0.0451972 0.334127
0 0.0688945 0.233204
0 0.0576638 0.251514
0.0924697 0.0373083 0.272496
0.337133 0.0347906 0.242145
0.550774 0.0399176 0.24979
0.742184 0.037171 0.290089
0.751263 0.040177 0.304753
0.754162 0.0417182 0.311772
0.759976 0.0405585 0.315496
0 0.140597 0.230152
0 0.126589 0.242618
0 0.106279 0.280095
0.322438 0.0535439 0.241306
0.542489 0.0345464 0.22678
0.73254 0.0322728 0.265461
0.741558 0.0349737 0.279484
0.74403 0.0365454 0.286137
0.748821 0.0355993 0.28925
0 0.315206 0.29575
0 0.310063 0.290623
0 0.302968 0.282948
0.278492 0.306096 0.307393
0.615991 0.237476 0.252857
0.757748 0.049485 0.223514
0.732555 0.0286717 0.236423
0.731579 0.0297856 0.249393
0.736431 0.029572 0.254841
0 0.594217 0.407004
0 0.593286 0.393057
0 0.593042 0.371344
0 0.598413 0.271229
0.586801 0.563851 0.245853
0.869841 0.529366 0.296971
0.934066 0.446815 0.284459
0.929976 0.418891 0.274754
0.928649 0.409308 0.271336
0.0794232 0.856199 0.589349
0.0767834 0.857084 0.581445
0.0764935 0.857984 0.569589
0.0767529 0.861784 0.527016
0.193011 0.889799 0.367773
0.823026 0.793683 0.362722
0.949737 0.795132 0.412665
0.946853 0.784405 0.399969
0.945891 0.780926 0.396201
0.116243 0.959747 0.726925
0.112154 0.960906 0.723049
0.113191 0.961349 0.717449
0.113481 0.963561 0.69987
0.118608 0.972625 0.641123
0.714199 0.990021 0.596811
0.966735 0.944427 0.646494
0.991699 0.933776 0.643381
0.991104 0.930724 0.63566
0.113252 0.95935 0.735378
0.112154 0.960037 0.731395
0.116457 0.960006 0.725536
0.117128 0.962158 0.708339
0.11928 0.970611 0.65124
0.596674 0.998276 0.60238
0.936385 0.962386 0.71725
0.990585 0.966049 0.762829
0.988739 0.966476 0.763607
0.111894 0.959182 0.73872
0.111681 0.959762 0.734539
0.114092 0.960037 0.728786
0.117052 0.96173 0.71133
0.119036 0.970062 0.65481
0.569345 0.998718 0.598672
0.928893 0.962829 0.718349
0.989837 0.966217 0.76318
0.988113 0.966598 0.763867
0 0.101732 0.439307
0 0.0927749 0.463035
0.0414893 0.0691997 0.488716
0.37641 0.0506752 0.457816
0.573602 0.0837568 0.453056
0.772747 0.0724498 0.457679
0.781674 0.0750286 0.470054
0.782879 0.0757 0.475853
0.789258 0.0738231 0.481178
0 0.109361 0.434867
0 0.101808 0.439597
0 0.084947 0.47863
0.344884 0.0475013 0.46537
0.567956 0.0821241 0.448676
0.772442 0.0716106 0.450141
0.780819 0.0736248 0.460853
0.781949 0.0742199 0.466529
0.788251 0.0723278 0.471778
0 0.138781 0.422446
0 0.122621 0.431434
0 0.100725 0.445487
0.281971 0.0470436 0.478889
0.560281 0.07953 0.441917
0.769543 0.0711376 0.438056
0.776486 0.0729992 0.447257
0.777432 0.0735332 0.452216
0.783459 0.0717021 0.456962
0 0.314015 0.441459
0 0.304372 0.442527
0 0.290471 0.445258
0.12166 0.27715 0.531853
0.596658 0.207156 0.495369
0.758618 0.0768139 0.414694
0.774594 0.0700847 0.424796
0.775051 0.0707103 0.428565
0.779812 0.0692454 0.432151
0 0.568689 0.53933
0 0.566217 0.537499
0 0.563058 0.533837
0 0.553506 0.522927
0.541772 0.558648 0.54876
0.881468 0.5066 0.503212
0.931258 0.442451 0.484688
0.925322 0.417472 0.481407
0.922438 0.408408 0.480705
0.0761425 0.833326 0.660502
0.0729076 0.833005 0.656611
0.0722362 0.832639 0.649851
0.0704662 0.830182 0.627222
0.219059 0.846616 0.554208
0.806073 0.790982 0.561898
0.96318 0.779293 0.578698
0.961715 0.76672 0.567697
0.960433 0.762554 0.56434
0.115496 0.954086 0.768872
0.111101 0.9552 0.766613
0.110903 0.955871 0.762203
0.11249 0.957153 0.749157
0.113008 0.962127 0.707424
0.673762 0.988128 0.682017
0.960464 0.944137 0.726009
0.986252 0.938048 0.732952
0.985321 0.935393 0.727077
0.113695 0.953918 0.778164
0.111482 0.954757 0.775402
0.111223 0.955383 0.770825
0.115511 0.956268 0.756832
0.116991 0.961089 0.716426
0.595178 0.996979 0.676509
0.942626 0.969055 0.815976
0.989792 0.97377 0.849653
0.988098 0.974136 0.850721
0.112703 0.953704 0.782071
0.111421 0.954345 0.778653
0.110948 0.954986 0.774273
0.115129 0.955947 0.759762
0.116976 0.960861 0.718471
0.56141 0.99733 0.670344
0.933379 0.969406 0.810529
0.989502 0.973678 0.848798
0.987961 0.974105 0.850202
0 0.188296 0.577096
0 0.187778 0.584024
0 0.181048 0.613825
0.195575 0.142931 0.674723
0.606622 0.147921 0.651011
0.801999 0.136873 0.651118
0.813138 0.144732 0.670314
0.816266 0.154177 0.680858
0.82266 0.155932 0.690303
0 0.188556 0.577356
0 0.188876 0.578058
0 0.185657 0.590494
0.147509 0.145357 0.671489
0.59646 0.145296 0.65272
0.800351 0.132403 0.64567
0.810285 0.138415 0.661799
0.81416 0.14551 0.672526
0.820813 0.146502 0.681926
0 0.196185 0.566751
0 0.190387 0.575982
0 0.189059 0.578302
0.0748913 0.157702 0.663722
0.580575 0.141222 0.654932
0.795132 0.133257 0.638865
0.803388 0.132387 0.647547
0.806882 0.138125 0.656748
0.813581 0.137957 0.66537
0 0.303578 0.563592
0 0.292317 0.569451
0 0.277638 0.577111
0 0.262821 0.619058
0.532494 0.164416 0.67335
0.784924 0.136507 0.629541
0.795117 0.114672 0.618433
0.796338 0.116976 0.62237
0.802029 0.115862 0.628351
0 0.559396 0.659648
0 0.556161 0.661662
0 0.550637 0.663066
0 0.532158 0.665904
0.417319 0.552102 0.77966
0.862989 0.490135 0.733318
0.915663 0.42388 0.702937
0.906874 0.399786 0.695323
0.902602 0.391424 0.693904
0.0699016 0.80209 0.763088
0.0659037 0.801251 0.763058
0.0648508 0.79939 0.761166
0.0630198 0.79295 0.754757
0.134279 0.786206 0.748501
0.772122 0.777981 0.765515
0.956634 0.750973 0.740017
0.958312 0.736156 0.73402
0.957748 0.730999 0.732372
0.114672 0.9449 0.834241
0.109392 0.946334 0.833692
0.108019 0.946227 0.830915
0.10544 0.943923 0.821607
0.0985428 0.938399 0.790463
0.661067 0.95491 0.796399
0.9458 0.937652 0.842878
0.975128 0.941619 0.856046
0.973816 0.938643 0.852552
0.116411 0.945159 0.845518
0.110658 0.946502 0.844221
0.109895 0.946944 0.841398
0.110597 0.947829 0.831693
0.115694 0.950271 0.803754
0.462226 0.976715 0.79498
0.928237 0.977951 0.902144
0.989914 0.982406 0.94551
0.989242 0.982864 0.947219
0.112016 0.945571 0.850996
0.110674 0.946059 0.848798
0.109926 0.946578 0.845289
0.110414 0.947494 0.834943
0.115633 0.950134 0.805768
0.403525 0.972717 0.789044
0.911391 0.978393 0.895338
0.98468 0.980606 0.936675
0.987549 0.983154 0.948135
0 0.343191 0.719707
0 0.347127 0.72369
0 0.35198 0.72665
0 0.368246 0.781796
0.45716 0.3617 0.891051
0.865721 0.373709 0.862089
0.881498 0.416571 0.884062
0.881834 0.428397 0.890471
0.880476 0.432654 0.894392
0 0.34258 0.718853
0 0.343191 0.720531
0 0.350378 0.725841
0 0.368826 0.761624
0.435813 0.363714 0.890593
0.862593 0.370153 0.86041
0.8813 0.412711 0.881971
0.881682 0.422385 0.887587
0.880552 0.426078 0.89131
0 0.334524 0.711727
0 0.341695 0.719768
0 0.341863 0.719844
0 0.363424 0.74313
0.408042 0.364706 0.888808
0.858656 0.366293 0.858854
0.881025 0.406058 0.876554
0.881865 0.416358 0.883146
0.880796 0.419333 0.886809
0 0.356054 0.689693
0 0.355215 0.698817
0 0.355306 0.707729
0 0.349676 0.719753
0.333669 0.351644 0.872007
0.839353 0.349523 0.853605
0.877272 0.368093 0.853239
0.878096 0.375097 0.857816
0.877821 0.378271 0.862303
0 0.566171 0.754055
0 0.563745 0.757839
0 0.559823 0.759915
0 0.548989 0.766735
0.219226 0.581598 0.856428
0.826841 0.506096 0.907637
0.916793 0.483757 0.864759
0.910719 0.465431 0.858351
0.907362 0.459556 0.857679
0 0.782406 0.839078
0 0.782483 0.843122
0 0.779675 0.843503
0 0.770306 0.844541
0 0.751369 0.852659
0.686458 0.772976 0.910628
0.948287 0.745098 0.886656
0.950179 0.731777 0.883497
0.949279 0.727825 0.883467
0.104143 0.927611 0.89308
0.0947585 0.928466 0.894545
0.0927138 0.926909 0.893111
0.0887007 0.922408 0.888609
0.0814984 0.911498 0.877363
0.598749 0.922576 0.900771
0.930755 0.929458 0.924407
0.97232 0.927687 0.922271
0.970947 0.924056 0.920256
0.113741 0.939757 0.91281
0.107332 0.941192 0.913268
0.106905 0.941558 0.911223
0.107973 0.941939 0.904799
0.11165 0.942901 0.886412
0.263783 0.958206 0.882567
0.925917 0.979095 0.949798
0.987579 0.983383 0.971832
0.988571 0.983703 0.973419
0.112703 0.939284 0.917739
0.106813 0.940734 0.918273
0.10605 0.941207 0.915862
0.107362 0.941711 0.908507
0.111391 0.942794 0.888075
0.242863 0.958221 0.881941
0.90663 0.979324 0.94696
0.986358 0.986191 0.977996
0.990677 0.988724 0.983246
0 0.393317 0.742275
0 0.398337 0.74638
0 0.413977 0.75668
0 0.441154 0.780041
0.407721 0.451484 0.932387
0.860731 0.439796 0.905562
0.881544 0.442527 0.899733
0.881834 0.442527 0.899428
0.881437 0.442527 0.899855
0 0.39324 0.741787
0 0.39353 0.743511
0 0.407401 0.751446
0 0.434241 0.769787
0.387228 0.449882 0.928603
0.85568 0.438621 0.906554
0.881544 0.442527 0.899733
0.881468 0.442527 0.899809
0.880537 0.442512 0.900771
0 0.398917 0.742214
0 0.39353 0.743511
0 0.39353 0.743511
0 0.428962 0.764294
0.357671 0.449866 0.922301
0.848219 0.437293 0.908492
0.882322 0.442542 0.899001
0.882216 0.442542 0.899092
0.881025 0.442512 0.900282
0 0.454887 0.757977
0 0.445747 0.758053
0 0.428611 0.752499
0 0.411627 0.753445
0.262104 0.453864 0.89662
0.810819 0.43534 0.918303
0.882597 0.442542 0.898756
0.882643 0.442542 0.898726
0.881239 0.442527 0.900053
0 0.593301 0.808209
0 0.595132 0.814527
0 0.597116 0.819364
0 0.587625 0.817411
0.0834974 0.611856 0.852171
0.692058 0.579049 0.979782
0.914214 0.537377 0.926863
0.910948 0.525887 0.922942
0.907622 0.521859 0.923156
0 0.778058 0.882048
0 0.777569 0.885954
0 0.775113 0.887053
0 0.767208 0.889433
0 0.750591 0.893538
0.586419 0.786389 0.956847
0.941009 0.757931 0.94818
0.947387 0.747539 0.944533
0.945357 0.743816 0.945373
0.0720378 0.918242 0.926207
0.0617685 0.918441 0.928283
0.0587472 0.916808 0.927718
0.0511025 0.910643 0.925032
0.034287 0.894102 0.920226
0.504616 0.907164 0.952316
0.89839 0.922332 0.956115
0.970336 0.925277 0.955856
0.968353 0.922026 0.955077
0.0998093 0.937896 0.938781
0.0890364 0.940215 0.942321
0.088365 0.940352 0.942519
0.0892805 0.940368 0.941573
0.0969406 0.939849 0.933242
0.170657 0.951492 0.932815
0.898283 0.971359 0.966125
0.985519 0.980179 0.978927
0.989807 0.980316 0.97937
0.0960403 0.938704 0.940078
0.0890516 0.940215 0.942321
0.0883345 0.940368 0.94255
0.0883345 0.940368 0.942535
0.0961166 0.93991 0.934066
0.157412 0.951156 0.930602
0.855665 0.975204 0.962783
0.987533 0.98677 0.986252
0.994278 0.990662 0.989822
0 0.393347 0.742504
0 0.397345 0.745724
0 0.413687 0.756527
0 0.440253 0.778912
0.407141 0.451453 0.932311
0.861723 0.439933 0.905303
0.881544 0.442527 0.899733
0.881559 0.442527 0.899718
0.881209 0.442512 0.900084
0 0.39324 0.741863
0 0.39353 0.743511
0 0.406317 0.750668
0 0.433829 0.769299
0.386252 0.449851 0.928466
0.856672 0.438682 0.906035
0.881544 0.442527 0.899733
0.881407 0.442527 0.899886
0.880339 0.442512 0.900984
0 0.397665 0.741894
0 0.39353 0.743511
0 0.39353 0.743511
0 0.428702 0.76405
0.355932 0.449943 0.921889
0.848478 0.437186 0.908415
0.882307 0.442542 0.899016
0.8822 0.442542 0.899107
0.880858 0.442512 0.900435
0 0.450904 0.757061
0 0.438972 0.755627
0 0.422049 0.750805
0 0.410773 0.753124
0.25774 0.453895 0.895247
0.808728 0.435264 0.918807
0.882521 0.442542 0.898848
0.882597 0.442542 0.898756
0.881239 0.442527 0.900053
0 0.609979 0.826154
0 0.60705 0.827436
0 0.602121 0.825299
0 0.584848 0.815915
0.0694896 0.607462 0.849409
0.68542 0.576196 0.979858
0.912749 0.533593 0.925597
0.908995 0.521767 0.922087
0.906706 0.518273 0.922347
0 0.780194 0.897139
0 0.780438 0.901366
0 0.777966 0.901137
0 0.769299 0.898177
0 0.747875 0.892958
0.580179 0.783825 0.957076
0.937148 0.754833 0.950454
0.945724 0.745373 0.9467
0.944213 0.742123 0.947723
0.0653697 0.917571 0.932555
0.0555734 0.917494 0.934615
0.0519722 0.915587 0.934447
0.0433509 0.908492 0.932357
0.026566 0.889158 0.926863
0.465721 0.901625 0.960098
0.874678 0.91809 0.960494
0.967758 0.921477 0.963378
0.966888 0.917983 0.963027
0.099321 0.938003 0.938933
0.0890364 0.940215 0.942321
0.0883345 0.940368 0.94255
0.0883345 0.940368 0.94255
0.0883345 0.940368 0.94255
0.118929 0.949584 0.948882
0.857893 0.965103 0.973083
0.979553 0.978317 0.980758
0.985733 0.980377 0.982315
0.0966812 0.938567 0.939834
0.0890516 0.940215 0.942321
0.0883345 0.940368 0.94255
0.0883345 0.940368 0.94255
0.0883345 0.940368 0.94255
0.115389 0.948898 0.948562
0.789227 0.971771 0.97203
0.982742 0.98674 0.987152
0.995041 0.991974 0.990555
