luts/changyun_leica_like/warm.cube
TITLE "Generated by Resolve"
LUT_3D_SIZE 9
0.00825513 0.0293278 0.00825513
0.0548409 0.0292058 0.00805676
0.167666 0.0279088 0.0169985
0.359487 0.0271763 0.0409247
0.557824 0.0397803 0.1028
0.641032 0.0600748 0.186053
0.644434 0.0599527 0.197543
0.645991 0.0599374 0.202869
0.64651 0.0601511 0.203876
0.00936904 0.0473487 0.0173037
0.020325 0.037644 0.0101472
0.123705 0.0360266 0.0122835
0.338674 0.027512 0.0349432
0.542092 0.0329137 0.0779583
0.634211 0.0601053 0.165164
0.638361 0.0603037 0.177081
0.64004 0.0601663 0.182605
0.640391 0.0601358 0.183658
0.00672923 0.154086 0.0437476
0.00167849 0.144823 0.0266575
0.120195 0.127718 0.0196841
0.348592 0.0807965 0.0307469
0.535607 0.0344396 0.0713512
0.633127 0.0599374 0.162325
0.632868 0.0598917 0.161654
0.632547 0.0598764 0.160784
0.632547 0.0598764 0.160693
0 0.364416 0.116533
0 0.363638 0.0811475
0 0.357305 0.0471351
0.311315 0.322957 0.0143282
0.637095 0.255879 0.114733
0.650339 0.0921798 0.140459
0.635111 0.0660868 0.154879
0.634119 0.0634165 0.157977
0.633951 0.0628214 0.158679
0.0824903 0.641428 0.33875
0.0793164 0.641779 0.306111
0.0783093 0.642206 0.271473
0.080705 0.636484 0.216281
0.590692 0.591531 0.114488
0.889021 0.579767 0.273869
0.908949 0.51368 0.292775
0.897765 0.483223 0.285985
0.891478 0.469306 0.282124
0.289113 0.890669 0.651041
0.287984 0.891371 0.639231
0.287282 0.892149 0.625757
0.290257 0.896712 0.582437
0.398062 0.927947 0.466224
0.8383 0.844846 0.376043
0.967712 0.851331 0.453742
0.964752 0.839887 0.442008
0.96463 0.83476 0.438132
0.382132 0.950271 0.797223
0.382055 0.951461 0.792477
0.38201 0.952544 0.788602
0.38233 0.955871 0.777569
0.385901 0.963943 0.756848
0.753613 0.998932 0.732799
0.975021 0.979706 0.73077
0.997757 0.975952 0.734905
0.997635 0.974227 0.726619
0.382864 0.949905 0.800961
0.381933 0.949798 0.797833
0.381674 0.950561 0.7944
0.381781 0.953613 0.784222
0.383124 0.960815 0.759335
0.668009 0.998932 0.734142
0.952483 0.979477 0.765423
0.995468 0.983825 0.809812
0.992523 0.985122 0.807324
0.383551 0.950439 0.801648
0.382315 0.950011 0.798276
0.381933 0.950454 0.795651
0.381765 0.953277 0.785428
0.383017 0.960739 0.759182
0.653117 0.998932 0.728603
0.947158 0.980163 0.764553
0.994232 0.98439 0.808606
0.991409 0.985656 0.805997
0.00816358 0.0297246 0.0177157
0.0518044 0.0305028 0.0349889
0.175326 0.0336004 0.0565042
0.378485 0.0330053 0.085008
0.568231 0.0376745 0.132387
0.647883 0.0605173 0.207752
0.652003 0.0615854 0.219364
0.653498 0.0618753 0.224231
0.653895 0.0619364 0.225193
0.0103914 0.0408179 0.0252842
0.00834669 0.0311894 0.00914015
0.133501 0.0296178 0.0155642
0.33994 0.0286412 0.0426947
0.553384 0.041062 0.10457
0.64152 0.0600595 0.187533
0.644816 0.0598917 0.198718
0.646723 0.0601968 0.204303
0.647303 0.0603189 0.205661
0.0155642 0.142107 0.0858015
0.00836194 0.134493 0.0430152
0.108202 0.12076 0.0194553
0.346929 0.063508 0.0265965
0.534447 0.0328527 0.0744488
0.63592 0.0602121 0.169848
0.638529 0.0602731 0.177569
0.639658 0.0602121 0.181201
0.639948 0.0601663 0.182055
0 0.355352 0.160342
0 0.352651 0.115908
0 0.351446 0.0636912
0.30312 0.318471 0.0137636
0.632914 0.241184 0.110552
0.647379 0.0872053 0.14168
0.63415 0.0644388 0.155917
0.634089 0.062623 0.159518
0.633906 0.0618601 0.160525
0.0804913 0.634546 0.361822
0.076524 0.634806 0.333104
0.0748608 0.634119 0.292424
0.0738079 0.634165 0.234607
0.58706 0.588602 0.112459
0.890837 0.571725 0.274754
0.907012 0.507912 0.291554
0.895247 0.476677 0.284657
0.888685 0.462715 0.280629
0.286076 0.886732 0.655955
0.284749 0.887404 0.644511
0.283619 0.887953 0.631586
0.285313 0.892226 0.591714
0.37258 0.922011 0.474159
0.836103 0.842939 0.372793
0.966964 0.8486 0.450752
0.964157 0.836667 0.439048
0.963439 0.831022 0.434409
0.382101 0.949325 0.800046
0.381933 0.950347 0.795697
0.382025 0.951614 0.791836
0.381994 0.954559 0.781292
0.38497 0.962875 0.757855
0.744106 0.998932 0.732128
0.97406 0.979065 0.727077
0.998138 0.975006 0.730282
0.997848 0.973053 0.720104
0.382681 0.948882 0.803479
0.381888 0.948684 0.801114
0.381781 0.949676 0.797604
0.381872 0.952651 0.788022
0.383124 0.960815 0.759335
0.656626 0.998932 0.732998
0.950805 0.979492 0.765484
0.995468 0.983825 0.809827
0.992523 0.985122 0.807324
0.383337 0.949279 0.804532
0.381933 0.948516 0.80148
0.381964 0.949477 0.798825
0.381903 0.952255 0.789502
0.382971 0.960555 0.759915
0.642725 0.998932 0.727398
0.945464 0.980148 0.764675
0.994232 0.98439 0.808606
0.991409 0.985656 0.805997
0.00842298 0.0339361 0.0982834
0.0805219 0.0317235 0.100114
0.185122 0.035584 0.120195
0.398093 0.034699 0.139544
0.584726 0.0396582 0.171954
0.65626 0.062562 0.233082
0.660548 0.0641642 0.24477
0.66273 0.0651713 0.250294
0.66331 0.0654612 0.251331
0.0108339 0.0451667 0.0670939
0.00852979 0.0345617 0.0855726
0.146883 0.0342718 0.095079
0.36875 0.0334783 0.103792
0.56878 0.038056 0.142351
0.650324 0.0611887 0.214588
0.653696 0.0619211 0.224903
0.655314 0.0623484 0.229694
0.65565 0.0624094 0.230518
0.0184329 0.134112 0.122789
0.0182193 0.124041 0.109606
0.0986648 0.114244 0.097322
0.352102 0.0685588 0.0773022
0.553994 0.0387427 0.121111
0.643732 0.059968 0.195041
0.646006 0.0601663 0.202213
0.647303 0.0604257 0.206012
0.647761 0.060502 0.207233
0.00328069 0.344854 0.203677
0 0.341268 0.174136
0 0.337575 0.118547
0.298512 0.314565 0.0507515
0.628626 0.229389 0.114183
0.644892 0.0810864 0.147265
0.63566 0.0627604 0.163699
0.638453 0.0612497 0.175204
0.639307 0.0606851 0.179019
0.0782788 0.625422 0.385183
0.0738689 0.625711 0.361273
0.0712291 0.625544 0.327138
0.0680858 0.629465 0.247669
0.582773 0.585489 0.110277
0.890394 0.565591 0.27396
0.904402 0.500877 0.28986
0.891585 0.467582 0.28275
0.885084 0.454047 0.27892
0.282322 0.881773 0.661036
0.281193 0.88275 0.650492
0.279988 0.883314 0.638666
0.279042 0.886061 0.600778
0.342092 0.913146 0.482078
0.833738 0.840543 0.3691
0.966155 0.845182 0.447456
0.963302 0.832822 0.435477
0.962264 0.827604 0.430854
0.382208 0.948363 0.80322
0.381918 0.949248 0.799084
0.381994 0.950423 0.79556
0.381949 0.953368 0.785443
0.384375 0.962142 0.758679
0.733577 0.998932 0.73138
0.972869 0.978332 0.721645
0.998398 0.973632 0.723949
0.998016 0.971786 0.713191
0.382742 0.947906 0.806531
0.381842 0.947692 0.803662
0.381811 0.948547 0.80119
0.381903 0.951537 0.791959
0.382986 0.960143 0.76199
0.644388 0.998932 0.730922
0.949111 0.979568 0.765576
0.995468 0.983825 0.809827
0.992523 0.985122 0.807324
0.383337 0.948211 0.807706
0.38201 0.947646 0.804059
0.381903 0.948257 0.80238
0.381857 0.951049 0.793393
0.382803 0.959838 0.76257
0.629114 0.998932 0.72491
0.943282 0.980163 0.764721
0.994232 0.98439 0.808621
0.99115 0.985763 0.805798
0.00564584 0.0446632 0.238941
0.0709697 0.0395972 0.245853
0.221241 0.0373083 0.254856
0.415503 0.0393835 0.277531
0.614786 0.0498665 0.278508
0.68394 0.0766766 0.302464
0.688029 0.0791943 0.313375
0.689754 0.0802777 0.317998
0.689937 0.0804761 0.318212
0.00679026 0.0560616 0.214878
0.00601205 0.0446021 0.231266
0.148836 0.0373083 0.253361
0.395315 0.0387579 0.258869
0.603983 0.0466926 0.253193
0.676982 0.0726482 0.284794
0.681254 0.0751202 0.295537
0.68307 0.0762188 0.300069
0.683284 0.0764172 0.300267
0.00520333 0.132891 0.226963
0.00546273 0.115206 0.233783
0.0640269 0.0925307 0.249851
0.371283 0.0559091 0.247227
0.591012 0.0436713 0.226932
0.667521 0.0674907 0.262165
0.67158 0.0697032 0.27158
0.673808 0.0709392 0.276783
0.674113 0.0711833 0.277165
0.00534066 0.323537 0.291508
0.00479133 0.317922 0.280903
0.00546273 0.310246 0.267826
0.289342 0.306645 0.26598
0.64477 0.233936 0.230961
0.664118 0.0753338 0.218036
0.658885 0.0647898 0.235538
0.661082 0.0646372 0.245258
0.662104 0.0651255 0.247623
0.0768292 0.607233 0.441215
0.0722515 0.607004 0.424674
0.068986 0.605646 0.403738
0.0617685 0.606409 0.318944
0.582208 0.58381 0.207294
0.90631 0.545052 0.310216
0.910109 0.463401 0.309102
0.893263 0.431647 0.298863
0.885481 0.418753 0.29398
0.274922 0.87039 0.675029
0.273121 0.87097 0.665507
0.27126 0.871077 0.655039
0.26836 0.872999 0.624018
0.308629 0.897902 0.498405
0.829862 0.836286 0.375113
0.966628 0.838987 0.448325
0.963958 0.826261 0.435554
0.962631 0.820569 0.429801
0.382116 0.945617 0.81088
0.381979 0.946761 0.806607
0.381933 0.947677 0.80383
0.381979 0.95053 0.795209
0.383413 0.960113 0.76405
0.713863 0.998932 0.728099
0.971038 0.976394 0.709331
0.999756 0.97052 0.710277
0.998825 0.96849 0.699382
0.382528 0.945083 0.813779
0.38204 0.94548 0.81033
0.381765 0.945861 0.80885
0.381826 0.948653 0.800916
0.382406 0.957732 0.770443
0.618692 0.998932 0.725475
0.945312 0.979599 0.765713
0.995468 0.983825 0.809827
0.992523 0.985122 0.807324
0.382971 0.94522 0.815091
0.38201 0.944915 0.811765
0.381903 0.945739 0.809369
0.381765 0.948119 0.802304
0.382269 0.957244 0.771954
0.594034 0.998932 0.721584
0.938277 0.980346 0.764569
0.993927 0.984329 0.807553
0.991409 0.985656 0.805997
0 0.0680552 0.425711
0.0358129 0.0610361 0.438392
0.144884 0.0480659 0.458351
0.427588 0.0480507 0.479347
0.629801 0.0726635 0.484321
0.717983 0.102602 0.442329
0.71841 0.103777 0.451972
0.7187 0.104234 0.455543
0.718517 0.104189 0.454109
0 0.0767681 0.419745
0 0.0672618 0.422583
0.0797284 0.055314 0.44564
0.39791 0.0450752 0.479164
0.623255 0.0703441 0.476768
0.717266 0.101427 0.431373
0.717815 0.102373 0.440146
0.717952 0.1028 0.443153
0.717723 0.10277 0.441657
0 0.108232 0.413031
0 0.0912642 0.41503
0 0.0681163 0.422461
0.343023 0.0427863 0.478981
0.614237 0.0673991 0.466682
0.71606 0.0999008 0.417258
0.716823 0.100771 0.424964
0.716976 0.10103 0.427512
0.716823 0.100938 0.426383
0.000518807 0.293507 0.438453
0 0.280583 0.439673
0 0.262028 0.444221
0.205066 0.24419 0.491386
0.652186 0.190753 0.504982
0.709453 0.0941329 0.38529
0.713939 0.0979782 0.398474
0.714366 0.0983444 0.40087
0.714168 0.0983139 0.39971
0.0766308 0.569665 0.53962
0.0725414 0.56762 0.532174
0.0692149 0.563272 0.524758
0.062089 0.552682 0.505608
0.555108 0.561532 0.51107
0.931899 0.517571 0.493721
0.956939 0.449287 0.474907
0.945922 0.421622 0.466361
0.93991 0.408865 0.46096
0.264759 0.845243 0.715251
0.261997 0.845548 0.706752
0.259434 0.844816 0.699397
0.253666 0.843656 0.679438
0.311162 0.875319 0.617517
0.819699 0.82536 0.543389
0.990509 0.818647 0.594888
0.991226 0.802655 0.581521
0.989944 0.796185 0.575372
0.38233 0.937865 0.830839
0.3823 0.939269 0.826856
0.382223 0.940307 0.824155
0.38204 0.942641 0.81799
0.381979 0.950454 0.795483
0.702419 0.998932 0.770108
0.966125 0.970596 0.754635
0.995956 0.965759 0.758862
0.995315 0.963516 0.748791
0.382681 0.937377 0.833127
0.382391 0.938064 0.829862
0.382284 0.939055 0.827283
0.382116 0.94107 0.822339
0.381826 0.948638 0.800931
0.592432 0.998932 0.764218
0.945052 0.978775 0.821927
0.993545 0.983413 0.859266
0.990753 0.984649 0.856229
0.382803 0.936996 0.834974
0.382528 0.937346 0.831876
0.382391 0.93846 0.82887
0.382116 0.940536 0.823636
0.38175 0.948119 0.802243
0.567834 0.998932 0.761776
0.937713 0.979812 0.818769
0.992279 0.983368 0.856153
0.990753 0.984665 0.855695
0.00492866 0.137514 0.565667
0.0053254 0.1364 0.567987
0.0611887 0.127916 0.589258
0.283192 0.106783 0.643793
0.638209 0.13373 0.669657
0.725002 0.143038 0.615702
0.732601 0.155428 0.635111
0.735759 0.160189 0.642252
0.735836 0.159976 0.640574
0.00479133 0.13698 0.564569
0.00436408 0.136385 0.563272
0.00936904 0.132265 0.569574
0.245258 0.105379 0.63447
0.627573 0.129732 0.667887
0.72192 0.138094 0.607752
0.727947 0.148074 0.623987
0.729747 0.151202 0.628199
0.729931 0.151217 0.626749
0.00395209 0.14432 0.557153
0.00373846 0.138033 0.55964
0.00384527 0.134752 0.560723
0.189807 0.109987 0.621851
0.612116 0.124422 0.665644
0.721141 0.136355 0.602975
0.722881 0.139712 0.610925
0.723949 0.141665 0.61413
0.723781 0.141253 0.612192
0.0104524 0.251804 0.574502
0.00918593 0.23888 0.574258
0.00926223 0.22237 0.57673
0.0662547 0.20032 0.60322
0.576379 0.142489 0.678218
0.721538 0.136233 0.596674
0.71841 0.128237 0.585382
0.71809 0.127993 0.585412
0.717678 0.127184 0.583078
0.0623484 0.52813 0.639689
0.0589303 0.52369 0.636194
0.0564584 0.515587 0.635386
0.0513924 0.491478 0.63653
0.475166 0.506416 0.747799
0.937057 0.469947 0.767819
0.969696 0.399069 0.733608
0.95436 0.369512 0.720867
0.946426 0.357183 0.7122
0.254017 0.799283 0.774029
0.250828 0.79884 0.768063
0.247272 0.796078 0.76376
0.240345 0.790433 0.755352
0.255421 0.794217 0.746212
0.792996 0.79556 0.753262
0.976577 0.781277 0.750439
0.978637 0.763638 0.741634
0.978515 0.757229 0.736629
0.3841 0.922911 0.863844
0.38378 0.924254 0.860441
0.383612 0.925185 0.858412
0.382849 0.92665 0.854124
0.375051 0.927077 0.835477
0.684382 0.986252 0.845731
0.954253 0.957885 0.857939
0.985916 0.95964 0.87039
0.985 0.957565 0.863722
0.384176 0.921355 0.867658
0.384039 0.922698 0.863691
0.383749 0.923629 0.861448
0.383612 0.925856 0.857221
0.383108 0.931777 0.845579
0.513497 0.996323 0.858076
0.935363 0.981399 0.914717
0.992721 0.9832 0.948989
0.991165 0.98436 0.94902
0.383902 0.921126 0.867918
0.384222 0.921782 0.865614
0.384009 0.922744 0.863493
0.383658 0.925017 0.858793
0.383261 0.931258 0.84683
0.49572 0.993561 0.856092
0.92343 0.982025 0.91133
0.988693 0.982605 0.941039
0.989654 0.985 0.947723
0.057023 0.265782 0.665019
0.0572213 0.266545 0.665293
0.0584421 0.269444 0.666743
0.155322 0.282994 0.739071
0.520775 0.300587 0.856062
0.884978 0.352361 0.889662
0.904128 0.388739 0.922316
0.907561 0.400061 0.93106
0.907378 0.404166 0.932601
0.0560311 0.262959 0.663691
0.0550546 0.261921 0.66273
0.0571908 0.265705 0.66508
0.10779 0.278752 0.708003
0.498909 0.299321 0.850965
0.878996 0.346044 0.884367
0.900664 0.380362 0.91548
0.904387 0.389853 0.923033
0.904143 0.39292 0.923613
0.050782 0.252537 0.657618
0.0537728 0.258137 0.661006
0.0534524 0.25716 0.660563
0.0705272 0.272007 0.677134
0.471901 0.296162 0.843458
0.871458 0.338766 0.878553
0.895903 0.369375 0.906706
0.899641 0.37702 0.913237
0.899748 0.379232 0.913405
0.047776 0.27892 0.659754
0.0482643 0.275166 0.65977
0.0507668 0.271595 0.661387
0.0526741 0.261402 0.660914
0.406912 0.277043 0.818906
0.849332 0.319936 0.863264
0.873121 0.333181 0.87042
0.875959 0.337011 0.874495
0.876173 0.337346 0.873762
0.102174 0.496941 0.71397
0.099794 0.491447 0.712123
0.0986648 0.483162 0.712169
0.0988174 0.46305 0.714839
0.321645 0.487541 0.845289
0.881895 0.467613 0.933364
0.950668 0.44123 0.919158
0.940352 0.418128 0.90782
0.934264 0.408789 0.900404
0.236728 0.742168 0.79852
0.232593 0.739605 0.793835
0.22887 0.734737 0.791531
0.220249 0.722942 0.78674
0.207614 0.696651 0.783642
0.737957 0.759045 0.893568
0.9794 0.74966 0.91812
0.981384 0.732509 0.916365
0.98117 0.726131 0.914199
0.380987 0.899413 0.892409
0.378988 0.899977 0.88777
0.377188 0.899062 0.885649
0.373327 0.896696 0.881682
0.362005 0.889311 0.870375
0.610727 0.946654 0.915068
0.941161 0.944442 0.93225
0.982254 0.94432 0.940276
0.980606 0.941115 0.935424
0.389303 0.904005 0.901671
0.388693 0.905501 0.898161
0.38854 0.906325 0.896788
0.387961 0.907881 0.89366
0.386801 0.912077 0.885725
0.417594 0.945037 0.900282
0.9355 0.980911 0.96199
0.992645 0.985031 0.983963
0.993988 0.985519 0.984329
0.389166 0.902892 0.903029
0.388907 0.904143 0.900328
0.388693 0.905013 0.898787
0.388342 0.906889 0.895689
0.38703 0.911559 0.8869
0.415137 0.94284 0.899153
0.923537 0.981109 0.958663
0.989242 0.986267 0.983474
0.992294 0.988602 0.986374
0.0719005 0.306127 0.68365
0.0726329 0.308934 0.684642
0.0790723 0.32285 0.691737
0.103166 0.346334 0.716304
0.48336 0.38378 0.892256
0.90695 0.416571 0.942473
0.910979 0.417884 0.942901
0.911192 0.417777 0.94316
0.911269 0.417731 0.943252
0.071809 0.306188 0.683589
0.0714275 0.306401 0.683314
0.0757153 0.316213 0.688167
0.0870832 0.339757 0.700435
0.46331 0.38085 0.887114
0.900557 0.41384 0.941802
0.910979 0.417884 0.942901
0.910964 0.417884 0.942885
0.910643 0.418036 0.942489
0.0738842 0.312764 0.686275
0.0714427 0.306432 0.68333
0.0714275 0.306401 0.683314
0.0840925 0.334874 0.697414
0.435492 0.3785 0.879347
0.891707 0.411032 0.941848
0.911437 0.417624 0.943603
0.911376 0.41767 0.943481
0.910735 0.418006 0.942596
0.0891127 0.364172 0.70515
0.0857557 0.355138 0.701411
0.0809033 0.339178 0.695613
0.0767681 0.319402 0.689464
0.356985 0.375311 0.85594
0.855848 0.404028 0.942229
0.911574 0.417548 0.943877
0.911559 0.417548 0.943862
0.910811 0.41796 0.942702
0.133165 0.507683 0.746502
0.132876 0.506081 0.746319
0.134325 0.504692 0.748119
0.13312 0.495201 0.747814
0.217197 0.514809 0.833021
0.735729 0.527504 0.965011
0.946944 0.506767 0.974578
0.94313 0.492027 0.971374
0.939361 0.487221 0.968002
0.236698 0.724132 0.819059
0.233921 0.720943 0.816617
0.231571 0.716365 0.815473
0.226581 0.705516 0.813855
0.217304 0.681941 0.812268
0.636957 0.738445 0.944625
0.963546 0.759915 0.971557
0.968612 0.743481 0.975036
0.966125 0.738399 0.972641
0.369223 0.878431 0.900084
0.367132 0.878004 0.897215
0.364889 0.876173 0.895567
0.359365 0.87129 0.891844
0.341009 0.854276 0.880903
0.504799 0.906096 0.949401
0.924514 0.932937 0.960113
0.981048 0.937926 0.972854
0.979156 0.934157 0.970199
0.386984 0.892134 0.91426
0.385962 0.893462 0.911284
0.385962 0.893599 0.911055
0.386252 0.894133 0.91046
0.387518 0.896925 0.90782
0.40589 0.915099 0.917601
0.904738 0.975875 0.973373
0.990997 0.982422 0.990448
0.997925 0.98175 0.993057
0.386496 0.89247 0.913252
0.385824 0.893248 0.911452
0.385824 0.893355 0.911299
0.385901 0.893492 0.911162
0.387243 0.896391 0.908171
0.403616 0.913405 0.915312
0.877974 0.977951 0.973053
0.990814 0.987396 0.99176
0.998077 0.989181 0.99704
0.0716869 0.306249 0.683497
0.0724651 0.308507 0.684459
0.0789502 0.322591 0.6916
0.100725 0.345525 0.713909
0.481407 0.383581 0.891752
0.906783 0.416587 0.942504
0.910979 0.417884 0.942901
0.910994 0.417868 0.942916
0.91107 0.417838 0.943008
0.0717937 0.306203 0.683574
0.0714275 0.306401 0.683314
0.0752117 0.315251 0.687602
0.0867933 0.33933 0.700145
0.461128 0.380575 0.886473
0.900267 0.413626 0.942107
0.910994 0.417884 0.942901
0.910918 0.417914 0.942809
0.910353 0.418189 0.942107
0.0735027 0.311543 0.685786
0.0714275 0.306401 0.683314
0.0714275 0.306401 0.683314
0.0838941 0.334462 0.697215
0.432364 0.378439 0.878523
0.890547 0.410788 0.941772
0.911391 0.41767 0.943496
0.911345 0.4177 0.943389
0.910613 0.418067 0.942428
0.088014 0.360372 0.703853
0.0837568 0.348684 0.699077
0.0786908 0.332097 0.692897
0.0765545 0.318441 0.689158
0.351995 0.375006 0.854231
0.851987 0.403677 0.942351
0.911452 0.417624 0.943648
0.911513 0.417578 0.943755
0.910811 0.41796 0.942702
0.145846 0.523293 0.758953
0.142473 0.518059 0.755734
0.139498 0.510887 0.753231
0.131853 0.491493 0.746792
0.207965 0.508263 0.826017
0.726284 0.522087 0.963424
0.945068 0.502129 0.972747
0.940658 0.487266 0.969345
0.937499 0.481621 0.966445
0.240116 0.722087 0.828763
0.237644 0.719173 0.826642
0.235599 0.71545 0.82536
0.229908 0.705211 0.821286
0.21561 0.67837 0.811368
0.629206 0.7337 0.94519
0.957824 0.756054 0.972183
0.964462 0.741756 0.976104
0.963119 0.736171 0.975418
0.365911 0.874983 0.901564
0.363043 0.873594 0.899046
0.360098 0.871168 0.897444
0.351965 0.864134 0.893217
0.329885 0.844205 0.881971
0.444282 0.88751 0.951629
0.897795 0.921782 0.963684
0.977127 0.935653 0.977905
0.976379 0.931243 0.977203
0.386664 0.892271 0.91371
0.385824 0.893248 0.911452
0.385779 0.893309 0.91133
0.385779 0.893309 0.91133
0.385779 0.893309 0.91133
0.394278 0.90016 0.916793
0.857725 0.968551 0.977615
0.985885 0.981888 0.988312
0.990417 0.983841 0.990372
0.386435 0.892531 0.9131
0.385824 0.893248 0.911452
0.385779 0.893309 0.91133
0.385779 0.893309 0.91133
0.385779 0.893309 0.91133
0.39324 0.899474 0.916014
0.805493 0.974716 0.97995
0.987091 0.987732 0.989944
0.998108 0.99086 0.997055
