luts/changyun_leica_like/warm.cube
TITLE "Generated by Resolve"
LUT_3D_SIZE 5
0.00825513 0.0293278 0.00825513
0.167666 0.0279088 0.0169985
0.557824 0.0397803 0.1028
0.644434 0.0599527 0.197543
0.64651 0.0601511 0.203876
0.00672923 0.154086 0.0437476
0.120195 0.127718 0.0196841
0.535607 0.0344396 0.0713512
0.632868 0.0598917 0.161654
0.632547 0.0598764 0.160693
0.0824903 0.641428 0.33875
0.0783093 0.642206 0.271473
0.590692 0.591531 0.114488
0.908949 0.51368 0.292775
0.891478 0.469306 0.282124
0.382132 0.950271 0.797223
0.38201 0.952544 0.788602
0.385901 0.963943 0.756848
0.975021 0.979706 0.73077
0.997635 0.974227 0.726619
0.383551 0.950439 0.801648
0.381933 0.950454 0.795651
0.383017 0.960739 0.759182
0.947158 0.980163 0.764553
0.991409 0.985656 0.805997
0.00842298 0.0339361 0.0982834
0.185122 0.035584 0.120195
0.584726 0.0396582 0.171954
0.660548 0.0641642 0.24477
0.66331 0.0654612 0.251331
0.0184329 0.134112 0.122789
0.0986648 0.114244 0.097322
0.553994 0.0387427 0.121111
0.646006 0.0601663 0.202213
0.647761 0.060502 0.207233
0.0782788 0.625422 0.385183
0.0712291 0.625544 0.327138
0.582773 0.585489 0.110277
0.904402 0.500877 0.28986
0.885084 0.454047 0.27892
0.382208 0.948363 0.80322
0.381994 0.950423 0.79556
0.384375 0.962142 0.758679
0.972869 0.978332 0.721645
0.998016 0.971786 0.713191
0.383337 0.948211 0.807706
0.381903 0.948257 0.80238
0.382803 0.959838 0.76257
0.943282 0.980163 0.764721
0.99115 0.985763 0.805798
0 0.0680552 0.425711
0.144884 0.0480659 0.458351
0.629801 0.0726635 0.484321
0.71841 0.103777 0.451972
0.718517 0.104189 0.454109
0 0.108232 0.413031
0 0.0681163 0.422461
0.614237 0.0673991 0.466682
0.716823 0.100771 0.424964
0.716823 0.100938 0.426383
0.0766308 0.569665 0.53962
0.0692149 0.563272 0.524758
0.555108 0.561532 0.51107
0.956939 0.449287 0.474907
0.93991 0.408865 0.46096
0.38233 0.937865 0.830839
0.382223 0.940307 0.824155
0.381979 0.950454 0.795483
0.966125 0.970596 0.754635
0.995315 0.963516 0.748791
0.382803 0.936996 0.834974
0.382391 0.93846 0.82887
0.38175 0.948119 0.802243
0.937713 0.979812 0.818769
0.990753 0.984665 0.855695
0.057023 0.265782 0.665019
0.0584421 0.269444 0.666743
0.520775 0.300587 0.856062
0.904128 0.388739 0.922316
0.907378 0.404166 0.932601
0.050782 0.252537 0.657618
0.0534524 0.25716 0.660563
0.471901 0.296162 0.843458
0.895903 0.369375 0.906706
0.899748 0.379232 0.913405
0.102174 0.496941 0.71397
0.0986648 0.483162 0.712169
0.321645 0.487541 0.845289
0.950668 0.44123 0.919158
0.934264 0.408789 0.900404
0.380987 0.899413 0.892409
0.377188 0.899062 0.885649
0.362005 0.889311 0.870375
0.941161 0.944442 0.93225
0.980606 0.941115 0.935424
0.389166 0.902892 0.903029
0.388693 0.905013 0.898787
0.38703 0.911559 0.8869
0.923537 0.981109 0.958663
0.992294 0.988602 0.986374
0.0716869 0.306249 0.683497
0.0789502 0.322591 0.6916
0.481407 0.383581 0.891752
0.910979 0.417884 0.942901
0.91107 0.417838 0.943008
0.0735027 0.311543 0.685786
0.0714275 0.306401 0.683314
0.432364 0.378439 0.878523
0.911391 0.41767 0.943496
0.910613 0.418067 0.942428
0.145846 0.523293 0.758953
0.139498 0.510887 0.753231
0.207965 0.508263 0.826017
0.945068 0.502129 0.972747
0.937499 0.481621 0.966445
0.365911 0.874983 0.901564
0.360098 0.871168 0.897444
0.329885 0.844205 0.881971
0.897795 0.921782 0.963684
0.976379 0.931243 0.977203
0.386435 0.892531 0.9131
0.385779 0.893309 0.91133
0.385779 0.893309 0.91133
0.805493 0.974716 0.97995
0.998108 0.99086 0.997055
