luts/changyun_leica_like/warm.cube
TITLE "Generated by Resolve"
LUT_3D_SIZE 33
0.00825513 0.0293278 0.00825513
0.00822461 0.0292973 0.00822461
0.00819409 0.0292668 0.00817884
0.0256809 0.0294194 0.00782788
0.0548409 0.0292058 0.00805676
0.0858167 0.0289006 0.0091249
0.111727 0.0286107 0.0108492
0.137392 0.0284581 0.0134127
0.167666 0.0279088 0.0169985
0.204257 0.0273594 0.0216373
0.248142 0.0269932 0.0273747
0.30074 0.0270542 0.0347295
0.359487 0.0271763 0.0409247
0.415961 0.027863 0.0477455
0.468421 0.0303655 0.0623331
0.514595 0.0343481 0.0808881
0.557824 0.0397803 0.1028
0.596735 0.0463264 0.126192
0.617945 0.0474861 0.14548
0.634302 0.0565194 0.173037
0.641032 0.0600748 0.186053
0.6421 0.0600443 0.189532
0.643015 0.060029 0.192599
0.643763 0.0599832 0.195193
0.644434 0.0599527 0.197543
0.644907 0.0599222 0.199161
0.645228 0.0598306 0.200565
0.645609 0.0598459 0.201846
0.645991 0.0599374 0.202869
0.64622 0.060029 0.203433
0.646403 0.06009 0.203815
0.646479 0.0601205 0.203922
0.64651 0.0601511 0.203876
0.00819409 0.0292668 0.00817884
0.00820935 0.0292821 0.00820935
0.00819409 0.0292668 0.00817884
0.0166323 0.0294652 0.0080415
0.0424353 0.0295872 0.00779736
0.0740063 0.0293126 0.00851453
0.102434 0.0290074 0.00979629
0.129458 0.0287022 0.0122072
0.160601 0.0281376 0.0158999
0.198245 0.0274205 0.020798
0.242481 0.0270085 0.0267338
0.295491 0.0265965 0.0326848
0.354665 0.0261845 0.0377813
0.410559 0.0258335 0.0389258
0.461219 0.0272526 0.0492409
0.50782 0.0310216 0.0679026
0.552087 0.0360113 0.0918593
0.59173 0.0431525 0.117082
0.616602 0.0481727 0.140215
0.632288 0.05626 0.167483
0.639612 0.0602121 0.181201
0.64065 0.0601053 0.184726
0.641581 0.06009 0.187778
0.642435 0.0600443 0.190631
0.643091 0.0600443 0.192782
0.64361 0.0600137 0.194629
0.643946 0.0599069 0.195987
0.644205 0.0598154 0.197131
0.644419 0.0597696 0.197925
0.644511 0.0597391 0.198322
0.644572 0.0597086 0.19855
0.644587 0.059678 0.198566
0.644556 0.059678 0.198444
0.00819409 0.0292668 0.00817884
0.00822461 0.0292973 0.00822461
0.00822461 0.0292973 0.00822461
0.00819409 0.0292668 0.00817884
0.0277256 0.030518 0.00857557
0.0574197 0.0310674 0.00854505
0.0885176 0.0307774 0.00852979
0.118364 0.0300908 0.0104067
0.151522 0.0289464 0.0136416
0.190433 0.027985 0.0195621
0.235874 0.0272831 0.0256504
0.289937 0.0265965 0.0319219
0.349798 0.0262455 0.0374762
0.408164 0.0265507 0.0416266
0.458854 0.0272526 0.0491188
0.503471 0.0293278 0.0601205
0.544259 0.0326848 0.0778973
0.584939 0.0384222 0.105348
0.613413 0.0474098 0.133471
0.630045 0.0559091 0.161318
0.638056 0.0603189 0.17612
0.63917 0.0602579 0.17969
0.64007 0.0601663 0.182712
0.640848 0.06009 0.185443
0.641535 0.06009 0.187671
0.642145 0.0600595 0.18967
0.642588 0.0600443 0.19118
0.642924 0.060029 0.192279
0.643168 0.060029 0.193088
0.643351 0.0600137 0.193698
0.643458 0.0599832 0.19408
0.643488 0.0599832 0.194125
0.643458 0.0599832 0.193957
0.00846876 0.031281 0.0100557
0.00794995 0.0305943 0.00828565
0.00854505 0.0303197 0.00860609
0.00929274 0.0301061 0.00830091
0.0191043 0.0314183 0.00872816
0.0413977 0.033402 0.00987259
0.0700999 0.0344244 0.0104829
0.102495 0.0336461 0.0102083
0.138415 0.0315404 0.0116579
0.178927 0.0296635 0.0160372
0.2271 0.0286412 0.0235294
0.283024 0.0272831 0.0308385
0.344625 0.0264439 0.0367132
0.404211 0.0265049 0.0412757
0.456825 0.027512 0.0499123
0.502571 0.0298924 0.0623026
0.543252 0.0327764 0.0776379
0.577386 0.0347448 0.0928054
0.605783 0.0433051 0.122652
0.627909 0.0557107 0.155261
0.63624 0.0602884 0.170718
0.637446 0.0603189 0.174273
0.638468 0.0603037 0.177386
0.639323 0.0602426 0.180194
0.639994 0.0601816 0.182467
0.640543 0.0601205 0.18439
0.64097 0.06009 0.185855
0.641321 0.06009 0.186923
0.641611 0.06009 0.187869
0.64181 0.0600748 0.18851
0.641947 0.0600595 0.188952
0.641993 0.0600443 0.189075
0.641993 0.060029 0.189014
0.00936904 0.0473487 0.0173037
0.00741588 0.0456703 0.012665
0.00822461 0.0433967 0.0124514
0.0138247 0.0404059 0.0100404
0.020325 0.037644 0.0101472
0.0339971 0.0394141 0.0113375
0.055787 0.0396582 0.012253
0.0868086 0.0378882 0.012665
0.123705 0.0360266 0.0122835
0.167254 0.0330205 0.0142824
0.217136 0.0307622 0.0195315
0.27393 0.0293736 0.027985
0.338674 0.027512 0.0349432
0.400336 0.0265354 0.04065
0.45417 0.0274052 0.0493172
0.500328 0.0297856 0.0616007
0.542092 0.0329137 0.0779583
0.578393 0.0358129 0.0960098
0.605371 0.0443275 0.119112
0.624033 0.0545968 0.146929
0.634211 0.0601053 0.165164
0.635538 0.0602274 0.168765
0.636698 0.0603037 0.17203
0.637598 0.0603342 0.174716
0.638361 0.0603037 0.177081
0.638972 0.0602731 0.179049
0.639414 0.0602426 0.180514
0.63978 0.0601968 0.18172
0.64004 0.0601663 0.182605
0.640208 0.0601511 0.183169
0.64033 0.0601358 0.183566
0.640391 0.0601358 0.183703
0.640391 0.0601358 0.183658
0.0104372 0.0666819 0.0264286
0.00683604 0.0644846 0.0203708
0.00703441 0.0619821 0.0188144
0.0138857 0.0581216 0.0163882
0.0267796 0.053254 0.0133059
0.041474 0.0521706 0.0137179
0.0586862 0.0540017 0.0154574
0.0883497 0.052842 0.0186313
0.122667 0.049546 0.0184787
0.162905 0.0440223 0.0178683
0.21001 0.0357977 0.0173037
0.265522 0.0327153 0.0251164
0.332097 0.0294194 0.030808
0.396521 0.027924 0.0375372
0.45156 0.0277409 0.0478828
0.498283 0.0296941 0.0610361
0.540566 0.0327764 0.0773022
0.577249 0.0356756 0.0953841
0.605158 0.0438849 0.119936
0.623819 0.0546426 0.146151
0.632502 0.0598764 0.160693
0.633433 0.0600137 0.163104
0.634668 0.0601358 0.16643
0.635691 0.0602426 0.169177
0.636561 0.0603037 0.171633
0.637247 0.0603189 0.173632
0.637736 0.0603342 0.175113
0.638132 0.0603189 0.176333
0.638422 0.0603037 0.177234
0.638621 0.0602884 0.17789
0.638773 0.0602884 0.178302
0.638834 0.0602579 0.17847
0.638834 0.0602426 0.178439
0.00985733 0.0912947 0.0307164
0.00483711 0.0893111 0.0247501
0.00477607 0.0858778 0.0239261
0.00833143 0.0816205 0.02327
0.0243992 0.0756542 0.0186618
0.0417182 0.0707713 0.0164645
0.0634775 0.0703288 0.0173037
0.0897993 0.0719768 0.0199893
0.124559 0.0696727 0.0239872
0.166278 0.0627146 0.0248875
0.214435 0.0544137 0.0235142
0.268223 0.0429389 0.0200656
0.32813 0.033341 0.0267338
0.392004 0.0296941 0.0328679
0.448661 0.028748 0.0449073
0.4963 0.0297093 0.0603037
0.538903 0.032639 0.0765393
0.576074 0.0355535 0.0946059
0.604486 0.043595 0.119127
0.623362 0.0542458 0.145586
0.632807 0.0598917 0.161501
0.632441 0.0598611 0.16051
0.632593 0.0598917 0.160891
0.633631 0.060029 0.163592
0.634546 0.0601205 0.166064
0.635264 0.0601816 0.168032
0.635828 0.0602579 0.169558
0.636286 0.0602884 0.170825
0.636622 0.0602884 0.171786
0.636851 0.0603037 0.172488
0.637018 0.0603037 0.172915
0.637095 0.0603037 0.173144
0.63714 0.0603037 0.17322
0.00885023 0.119707 0.0360113
0.00199893 0.117891 0.0278935
0.000320439 0.115312 0.0253452
0.00187686 0.112245 0.0260319
0.0155032 0.107774 0.0228275
0.0358282 0.100557 0.0193942
0.0585641 0.0977951 0.0185092
0.090837 0.0969406 0.0195315
0.123491 0.0976425 0.0225376
0.166278 0.0935073 0.0272374
0.221637 0.0784924 0.0291142
0.276524 0.0668803 0.0267796
0.337575 0.052018 0.0232242
0.395117 0.0362707 0.0247501
0.446128 0.0316777 0.0406195
0.49395 0.0311284 0.0565499
0.537285 0.0325933 0.0757153
0.574807 0.0354467 0.093843
0.60354 0.0431983 0.118029
0.622522 0.0537881 0.144076
0.633127 0.0599374 0.162325
0.633097 0.0599374 0.162264
0.632883 0.0598917 0.1617
0.632593 0.0598764 0.160937
0.632471 0.0598764 0.160586
0.632761 0.0599069 0.161318
0.633295 0.0599985 0.162722
0.633783 0.060029 0.164019
0.63415 0.0600748 0.164996
0.634424 0.06009 0.165728
0.634623 0.0601205 0.166262
0.634745 0.0601053 0.166552
0.634775 0.0601053 0.166659
0.00672923 0.154086 0.0437476
0 0.152575 0.0334325
0 0.150469 0.0274052
0 0.14786 0.0278935
0.00167849 0.144823 0.0266575
0.0223697 0.139864 0.0211185
0.0482338 0.133577 0.0192416
0.0807355 0.130175 0.0197757
0.120195 0.127718 0.0196841
0.165438 0.126909 0.0234836
0.218204 0.120409 0.029099
0.286931 0.0975357 0.0327916
0.348592 0.0807965 0.0307469
0.406653 0.062211 0.0288548
0.455039 0.0436866 0.0311131
0.493446 0.0358892 0.0499123
0.535607 0.0344396 0.0713512
0.573007 0.0353246 0.0926833
0.60238 0.0426947 0.116732
0.62153 0.053193 0.142214
0.633127 0.0599374 0.162325
0.633127 0.0599374 0.162325
0.633127 0.0599374 0.162325
0.633021 0.0599222 0.162081
0.632868 0.0598917 0.161654
0.632731 0.0598764 0.161273
0.632639 0.0598764 0.161044
0.632593 0.0598764 0.160906
0.632547 0.0598764 0.160784
0.632502 0.0598611 0.160678
0.632502 0.0598764 0.160647
0.632532 0.0598764 0.160693
0.632547 0.0598764 0.160693
0.00488289 0.195422 0.0550088
0 0.1944 0.042298
0 0.193301 0.0343328
0 0.192126 0.0289464
0 0.188708 0.0308232
0.000671397 0.185763 0.0258183
0.0241398 0.180591 0.0184176
0.0626688 0.174487 0.0171206
0.104753 0.170336 0.0183261
0.156603 0.166155 0.0179141
0.215671 0.162676 0.0234379
0.279454 0.154177 0.0311894
0.359945 0.125399 0.0379492
0.421973 0.105715 0.0393225
0.473671 0.0835584 0.0412757
0.510414 0.0588998 0.0456092
0.540673 0.0432746 0.0594797
0.572808 0.0391546 0.0869459
0.599908 0.0424659 0.111208
0.620218 0.0525368 0.140108
0.633127 0.0599374 0.162325
0.633127 0.0599374 0.162325
0.633127 0.0599374 0.162325
0.633127 0.0599374 0.162325
0.633127 0.0599374 0.162325
0.633127 0.0599374 0.162325
0.633066 0.0599222 0.162188
0.63299 0.0599069 0.162005
0.632929 0.0599069 0.161837
0.632868 0.0598917 0.161654
0.632807 0.0598917 0.161456
0.632731 0.0598764 0.161227
0.632685 0.0598764 0.161059
0.000488289 0.244129 0.0720073
0 0.243854 0.0578012
0 0.242481 0.047776
0 0.242206 0.0388647
0 0.240711 0.0336919
0 0.237766 0.035996
0 0.235538 0.0272984
0.0197299 0.230488 0.016495
0.0775464 0.224155 0.0146181
0.131655 0.217899 0.0162661
0.199359 0.210925 0.0158083
0.27512 0.204852 0.0234989
0.349172 0.195819 0.0349737
0.434562 0.163912 0.0480812
0.494957 0.143114 0.0548257
0.536614 0.121096 0.0610361
0.567285 0.0892653 0.0654154
0.585168 0.0554513 0.0723125
0.603357 0.0489662 0.104265
0.618769 0.0534524 0.134493
0.633738 0.0611276 0.161654
0.633188 0.0600595 0.16228
0.633127 0.0599374 0.162325
0.633127 0.0599374 0.162325
0.633127 0.0599374 0.162325
0.633127 0.0599374 0.162325
0.633127 0.0599374 0.162325
0.633127 0.0599374 0.162325
0.633127 0.0599374 0.162325
0.633112 0.0599374 0.162295
0.633097 0.0599222 0.162249
0.633066 0.0599222 0.162127
0.633036 0.0599222 0.16199
0 0.30164 0.0919966
0 0.301427 0.0793927
0 0.300191 0.0676738
0 0.299596 0.0602121
0 0.300069 0.0487068
0 0.298863 0.042237
0 0.296605 0.0452888
0 0.293873 0.0328679
0.0187076 0.287816 0.0163272
0.0950027 0.282231 0.0132448
0.164233 0.272816 0.0151369
0.250843 0.262745 0.0140688
0.342718 0.255268 0.0250706
0.420157 0.247517 0.0419165
0.505638 0.218616 0.0638743
0.564462 0.192309 0.0793469
0.60296 0.172702 0.0888228
0.631144 0.141283 0.0969863
0.630396 0.0908064 0.100175
0.624949 0.0678569 0.124315
0.635538 0.0670481 0.153826
0.63415 0.0635386 0.157809
0.634089 0.0625925 0.159609
0.633921 0.0615549 0.161257
0.633646 0.0608835 0.161883
0.633295 0.0602274 0.162234
0.633127 0.0599374 0.162325
0.633127 0.0599374 0.162325
0.633127 0.0599374 0.162325
0.633112 0.0599374 0.162295
0.633097 0.0599222 0.162249
0.633066 0.0599222 0.162127
0.633036 0.0599222 0.16199
0 0.364416 0.116533
0 0.364279 0.104814
0 0.363638 0.0932937
0 0.36289 0.0859083
0 0.363638 0.0811475
0 0.364294 0.0692912
0 0.363516 0.0627298
0 0.360784 0.0644694
0 0.357305 0.0471351
0.0266575 0.35346 0.0217441
0.119646 0.349111 0.0144961
0.206073 0.335866 0.0164492
0.311315 0.322957 0.0143282
0.411337 0.314473 0.0302739
0.489235 0.31043 0.0534524
0.573327 0.288716 0.0863966
0.637095 0.255879 0.114733
0.673945 0.236423 0.126268
0.698039 0.204593 0.137224
0.683696 0.157153 0.141131
0.650339 0.0921798 0.140459
0.643107 0.0765393 0.146654
0.639689 0.0730449 0.148455
0.637461 0.0696269 0.15227
0.635111 0.0660868 0.154879
0.63418 0.0646525 0.15552
0.634058 0.0640574 0.156451
0.634089 0.0636606 0.157366
0.634119 0.0634165 0.157977
0.634104 0.0632334 0.158282
0.634058 0.0630808 0.158511
0.634028 0.0629435 0.158663
0.633951 0.0628214 0.158679
0 0.429297 0.15285
0 0.429221 0.141878
0 0.428794 0.1299
0 0.428733 0.120012
0 0.428794 0.11397
0 0.429236 0.110887
0 0.430198 0.103029
0 0.430121 0.0940871
0 0.427863 0.0928206
0 0.424445 0.0749523
0.0437018 0.422889 0.0360723
0.15523 0.418235 0.0226749
0.256825 0.400656 0.0245212
0.376608 0.386557 0.0221866
0.48127 0.378943 0.0438392
0.557443 0.378912 0.0733349
0.639597 0.365301 0.116716
0.710292 0.33164 0.15436
0.747204 0.308705 0.170001
0.762951 0.27953 0.185229
0.74432 0.233463 0.189837
0.714458 0.184222 0.17528
0.688426 0.146456 0.15819
0.665644 0.11252 0.143496
0.656794 0.0977646 0.143206
0.651759 0.0894636 0.1449
0.647898 0.0834516 0.14612
0.64445 0.0785687 0.146532
0.642084 0.0754559 0.14699
0.641443 0.0747234 0.147738
0.640894 0.0741588 0.14815
0.640436 0.0737316 0.148363
0.640116 0.0734417 0.148486
0.0128939 0.497154 0.201862
0.0118257 0.497246 0.192218
0.0109407 0.497658 0.181628
0.010132 0.497246 0.171008
0.00921645 0.497002 0.161532
0.0081178 0.496803 0.155047
0.00666819 0.497261 0.15317
0.00556954 0.49865 0.148943
0.0053254 0.499596 0.13843
0.00503548 0.497444 0.134493
0.00735485 0.492805 0.113558
0.074052 0.49482 0.0603952
0.206668 0.490501 0.0416876
0.322072 0.469123 0.0435798
0.447272 0.454047 0.0410468
0.551553 0.447639 0.0693828
0.625528 0.449866 0.1028
0.706935 0.442817 0.150317
0.780346 0.413886 0.195438
0.816632 0.382971 0.21828
0.82295 0.35729 0.233753
0.809171 0.324804 0.233707
0.794369 0.302159 0.224918
0.779812 0.280476 0.215976
0.766629 0.260853 0.207935
0.755718 0.24506 0.200992
0.745647 0.230533 0.194476
0.737667 0.218784 0.189441
0.7308 0.208927 0.185016
0.725063 0.201038 0.181048
0.721294 0.195315 0.178882
0.718517 0.191485 0.176989
0.715434 0.188022 0.174243
0.0430304 0.568261 0.264759
0.0421759 0.568765 0.256748
0.0411688 0.568658 0.247211
0.040589 0.568368 0.237522
0.0399786 0.568017 0.227634
0.0395819 0.567788 0.218555
0.0393988 0.568109 0.211551
0.0386358 0.568673 0.207996
0.0373999 0.569711 0.204776
0.0370031 0.571084 0.195789
0.0357671 0.56817 0.190311
0.0393835 0.563119 0.161303
0.124804 0.570886 0.0972152
0.276234 0.564553 0.0739757
0.395651 0.539284 0.0738994
0.519097 0.522484 0.0731365
0.619547 0.517601 0.104036
0.692851 0.520592 0.141512
0.770703 0.51989 0.188495
0.843183 0.49839 0.235111
0.875547 0.468788 0.263371
0.877119 0.436667 0.274739
0.867491 0.419913 0.268666
0.859617 0.406455 0.263767
0.851942 0.393591 0.259144
0.845167 0.382345 0.255085
0.839368 0.372702 0.251667
0.834409 0.36463 0.248768
0.830228 0.3579 0.246311
0.827298 0.353292 0.244541
0.824872 0.349218 0.243259
0.822583 0.345846 0.241764
0.820325 0.342519 0.240269
0.0824903 0.641428 0.33875
0.0816052 0.641703 0.331594
0.0805524 0.641733 0.323339
0.0799115 0.64184 0.315114
0.0793164 0.641779 0.306111
0.0792401 0.642115 0.297642
0.0790112 0.642084 0.289067
0.0787213 0.641962 0.279896
0.0783093 0.642206 0.271473
0.0767681 0.643168 0.268177
0.0760662 0.644633 0.261753
0.0747387 0.641932 0.256458
0.080705 0.636484 0.216281
0.194018 0.649592 0.144244
0.360006 0.636576 0.11873
0.473854 0.608423 0.115084
0.590692 0.591531 0.114488
0.686061 0.586694 0.147616
0.75668 0.590723 0.18819
0.827893 0.593835 0.230091
0.889021 0.579767 0.273869
0.919432 0.555047 0.300481
0.917861 0.539681 0.299504
0.913176 0.525734 0.295811
0.908949 0.51368 0.292775
0.905379 0.503456 0.290501
0.902388 0.495201 0.288685
0.899641 0.488075 0.287053
0.897765 0.483223 0.285985
0.89604 0.478645 0.285115
0.89427 0.474693 0.284031
0.89276 0.471519 0.28307
0.891478 0.469306 0.282124
0.128481 0.713146 0.418357
0.127657 0.713527 0.412543
0.126665 0.713695 0.405905
0.125948 0.713726 0.399344
0.125612 0.714168 0.392782
0.125078 0.713939 0.385107
0.124819 0.713909 0.377264
0.124865 0.713954 0.368307
0.125032 0.714275 0.357336
0.125444 0.7149 0.344244
0.124651 0.715816 0.338323
0.123613 0.716228 0.333516
0.121279 0.712642 0.328298
0.132082 0.70808 0.272084
0.281056 0.728511 0.197131
0.447456 0.706477 0.169345
0.551629 0.676844 0.161944
0.658961 0.657893 0.164691
0.747494 0.65275 0.198901
0.81503 0.657069 0.238682
0.873335 0.663554 0.276707
0.922057 0.657023 0.313283
0.940108 0.642145 0.326345
0.939025 0.631205 0.323751
0.937789 0.621515 0.32137
0.93666 0.613138 0.319463
0.93547 0.606546 0.317723
0.934524 0.601221 0.316396
0.933562 0.596643 0.315129
0.932906 0.593439 0.314229
0.932494 0.590555 0.313634
0.93164 0.588312 0.312581
0.930877 0.587198 0.311681
0.181567 0.781308 0.499611
0.180896 0.781643 0.495018
0.180117 0.781918 0.490013
0.179736 0.782361 0.485298
0.17908 0.782376 0.479866
0.178576 0.782345 0.474189
0.178119 0.782223 0.46833
0.177966 0.782315 0.461769
0.178408 0.783261 0.45333
0.178866 0.78407 0.440848
0.179507 0.784848 0.424781
0.179385 0.785687 0.411887
0.177554 0.784588 0.408164
0.175906 0.780941 0.398688
0.199893 0.78265 0.328557
0.38526 0.80441 0.26009
0.532631 0.773281 0.2309
0.624414 0.741482 0.217746
0.723095 0.721981 0.223758
0.80531 0.717083 0.257084
0.863844 0.721599 0.293523
0.910994 0.730617 0.329763
0.946517 0.728298 0.354696
0.947738 0.720485 0.352712
0.947417 0.713542 0.350042
0.946731 0.707607 0.347448
0.946426 0.703014 0.345724
0.94609 0.698299 0.344076
0.945541 0.694652 0.342519
0.945571 0.692088 0.34168
0.945418 0.68986 0.34081
0.945083 0.688533 0.339971
0.944549 0.68716 0.33904
0.237629 0.843397 0.579217
0.237675 0.844083 0.576471
0.237201 0.844343 0.57232
0.236667 0.844373 0.56849
0.236225 0.84445 0.564431
0.235874 0.84448 0.560357
0.235431 0.844388 0.556115
0.235554 0.844831 0.551736
0.235538 0.845136 0.545266
0.235889 0.845914 0.536767
0.236591 0.846937 0.524056
0.237888 0.847974 0.506554
0.239918 0.848981 0.487037
0.238361 0.847089 0.480858
0.238804 0.844739 0.467826
0.292622 0.860151 0.394705
0.488365 0.873228 0.334356
0.611414 0.838254 0.306264
0.692851 0.804608 0.284642
0.782422 0.784726 0.291768
0.857191 0.779797 0.324712
0.904906 0.783475 0.354986
0.940871 0.794507 0.3888
0.956863 0.794736 0.402152
0.955856 0.789425 0.397559
0.955428 0.784497 0.393957
0.954787 0.780453 0.390661
0.954513 0.776898 0.388174
0.953948 0.773877 0.385779
0.953857 0.771801 0.384344
0.953811 0.770581 0.383368
0.953536 0.769009 0.382086
0.953353 0.767971 0.381186
0.289113 0.890669 0.651041
0.288945 0.890883 0.648707
0.288594 0.891066 0.645502
0.288243 0.891173 0.642435
0.287984 0.891371 0.639231
0.287724 0.891478 0.636423
0.287724 0.891798 0.633753
0.287434 0.891859 0.630426
0.287282 0.892149 0.625757
0.287312 0.892668 0.619867
0.287663 0.893538 0.611749
0.288609 0.894972 0.600183
0.290257 0.896712 0.582437
0.291417 0.897307 0.565026
0.289586 0.895262 0.555657
0.296971 0.897429 0.529931
0.398062 0.927947 0.466224
0.58648 0.927764 0.422065
0.684886 0.894713 0.396643
0.755886 0.862745 0.369467
0.8383 0.844846 0.376043
0.903563 0.838849 0.405951
0.940475 0.843076 0.428763
0.966674 0.853864 0.455299
0.967712 0.851331 0.453742
0.966812 0.847669 0.450065
0.966033 0.844694 0.446952
0.965393 0.84184 0.444144
0.964752 0.839887 0.442008
0.964462 0.838621 0.440925
0.964462 0.837354 0.439857
0.964446 0.83592 0.438819
0.96463 0.83476 0.438132
0.331487 0.921813 0.714778
0.331228 0.921965 0.712779
0.331014 0.92221 0.710384
0.33077 0.922454 0.707881
0.330755 0.922789 0.705959
0.330602 0.923018 0.703883
0.330373 0.923201 0.701518
0.330144 0.9234 0.699062
0.329854 0.923659 0.695644
0.329671 0.924132 0.691432
0.329809 0.924987 0.686091
0.330159 0.926238 0.678294
0.330648 0.927825 0.66685
0.331991 0.930129 0.649912
0.330449 0.92932 0.639521
0.33431 0.932036 0.613413
0.356344 0.942794 0.58085
0.503166 0.977035 0.543236
0.670115 0.970748 0.513176
0.750957 0.940764 0.490654
0.814496 0.911788 0.46595
0.8869 0.89485 0.467796
0.944762 0.888243 0.493156
0.973068 0.890806 0.510567
0.984146 0.895491 0.518593
0.98352 0.893156 0.514153
0.982666 0.890715 0.509697
0.981765 0.889158 0.506462
0.981094 0.887678 0.503609
0.980102 0.886442 0.501106
0.979324 0.885405 0.499199
0.979019 0.884504 0.497841
0.97911 0.883604 0.497032
0.363638 0.940368 0.766567
0.363546 0.940551 0.765393
0.363149 0.940688 0.763226
0.363058 0.941009 0.761547
0.362875 0.941192 0.75996
0.36257 0.941344 0.758114
0.362219 0.941405 0.75639
0.361913 0.941543 0.754635
0.361517 0.941726 0.752285
0.361334 0.942184 0.749462
0.360906 0.942641 0.745525
0.360754 0.943618 0.74023
0.360708 0.944976 0.732891
0.360815 0.946883 0.722179
0.360784 0.948302 0.712306
0.359945 0.949004 0.701213
0.373983 0.960998 0.66244
0.440848 0.986893 0.63447
0.599619 0.998932 0.619791
0.744183 0.998932 0.601785
0.814466 0.971786 0.583139
0.867567 0.948959 0.559396
0.925612 0.935424 0.557366
0.971618 0.929305 0.575723
0.994263 0.930617 0.591241
0.998596 0.929519 0.590341
0.998245 0.927428 0.586282
0.997742 0.92546 0.582223
0.997024 0.923858 0.579049
0.996368 0.923018 0.576501
0.995605 0.92221 0.574426
0.995117 0.921523 0.573297
0.995529 0.921111 0.573068
0.38204 0.950713 0.795331
0.381964 0.950912 0.794293
0.381933 0.951247 0.79295
0.381918 0.951614 0.791623
0.382071 0.952026 0.790646
0.38201 0.952239 0.789685
0.381994 0.952499 0.788678
0.38201 0.952804 0.787717
0.381979 0.953155 0.786343
0.381918 0.953567 0.78468
0.381964 0.954223 0.782422
0.382162 0.955245 0.779355
0.382483 0.956695 0.774914
0.383169 0.958785 0.768994
0.383886 0.961105 0.761486
0.382803 0.96112 0.756298
0.383597 0.965057 0.737514
0.41503 0.987106 0.697124
0.532326 0.998932 0.686366
0.685023 0.998932 0.687968
0.810742 0.998932 0.678676
0.873091 0.983841 0.666575
0.913664 0.971237 0.648554
0.956161 0.963943 0.645457
0.986389 0.960403 0.658259
0.999313 0.959381 0.666896
1 0.957778 0.663035
1 0.95642 0.658244
1 0.955383 0.654521
1 0.95462 0.651041
0.999557 0.954116 0.649454
0.999542 0.953567 0.647913
0.999802 0.95285 0.646876
0.382132 0.950271 0.797223
0.381918 0.950317 0.796124
0.381796 0.950515 0.794888
0.381949 0.951019 0.793683
0.382055 0.951461 0.792477
0.382025 0.951736 0.791409
0.382071 0.951995 0.790692
0.382055 0.952255 0.789761
0.38201 0.952544 0.788602
0.382025 0.953063 0.786801
0.382025 0.953658 0.784726
0.382101 0.954589 0.781598
0.38233 0.955871 0.777569
0.38265 0.957656 0.771649
0.38349 0.960327 0.763394
0.384161 0.961837 0.759228
0.385901 0.963943 0.756848
0.402121 0.97969 0.741665
0.488975 0.998932 0.72047
0.624048 0.998932 0.727703
0.753613 0.998932 0.732799
0.861265 0.998932 0.730495
0.913573 0.983719 0.730831
0.946334 0.981048 0.728359
0.975021 0.979706 0.73077
0.992889 0.978378 0.743725
0.99733 0.977142 0.74406
0.997818 0.976562 0.739208
0.997757 0.975952 0.734905
0.997559 0.975479 0.731533
0.997421 0.975082 0.728862
0.997467 0.974731 0.72781
0.997635 0.974227 0.726619
0.382483 0.950256 0.798489
0.382086 0.950118 0.797314
0.381949 0.950271 0.796139
0.381888 0.950515 0.795102
0.381979 0.950881 0.794141
0.381979 0.951186 0.793057
0.382055 0.951537 0.792142
0.382132 0.951873 0.791272
0.38204 0.952117 0.790188
0.382025 0.95256 0.788617
0.38201 0.953185 0.786328
0.38204 0.954009 0.783475
0.382177 0.95523 0.779416
0.382467 0.956893 0.773968
0.383093 0.95935 0.766064
0.38381 0.961273 0.760296
0.385183 0.963073 0.757885
0.396399 0.974792 0.747234
0.458228 0.998932 0.721599
0.589441 0.998932 0.725719
0.719646 0.998932 0.74136
0.833906 0.998932 0.7458
0.904601 0.98587 0.755367
0.938537 0.980758 0.763287
0.963119 0.98117 0.767498
0.984329 0.983291 0.787243
0.992645 0.984527 0.803235
0.993851 0.984833 0.804746
0.993851 0.984985 0.803204
0.993667 0.985199 0.801831
0.99353 0.985367 0.800778
0.993515 0.985397 0.800137
0.993576 0.985275 0.799176
0.382818 0.950469 0.798795
0.382391 0.950286 0.797742
0.381949 0.950118 0.796643
0.382055 0.950378 0.796094
0.381964 0.950545 0.795148
0.381933 0.950759 0.794324
0.382025 0.95111 0.793484
0.382025 0.9514 0.792493
0.382116 0.951827 0.791394
0.38204 0.952163 0.78999
0.382025 0.952789 0.787778
0.381994 0.953597 0.784817
0.382193 0.954833 0.780926
0.382315 0.95639 0.775402
0.382818 0.958663 0.767849
0.383444 0.960723 0.761227
0.384222 0.962005 0.758587
0.392294 0.970916 0.750622
0.433219 0.996857 0.7234
0.556603 0.998932 0.722011
0.69659 0.998932 0.739712
0.815839 0.998932 0.744595
