luts/changyun_fujilike/fujiP400.cube
TITLE "Generated by Resolve"
LUT_3D_SIZE 5
0.0234989 0.0234989 0.0234989
0.209857 0.0242008 0.0512398
0.44213 0.03888 0.0631571
0.602625 0.0729381 0.063859
0.711604 0.141436 0.101213
0.049485 0.192355 0.0913252
0.235035 0.226261 0.0837262
0.480522 0.293645 0.111757
0.689754 0.356786 0.132113
0.799878 0.372625 0.14931
0.145815 0.426184 0.238514
0.329213 0.489952 0.222019
0.583032 0.588449 0.23415
0.797375 0.643549 0.233051
0.867536 0.627649 0.244739
0.281559 0.646159 0.401419
0.494713 0.677928 0.449882
0.655528 0.742092 0.445533
0.820127 0.814923 0.37763
0.897902 0.826108 0.341405
0.420417 0.805707 0.451179
0.628687 0.818616 0.519142
0.755673 0.849012 0.517861
0.833326 0.888701 0.462928
0.885954 0.925261 0.410513
0.00146487 0.0117494 0.133089
0.131441 0.0114748 0.133928
0.330571 0.0333562 0.162005
0.515587 0.0727855 0.187701
0.629801 0.112413 0.213153
0.0395972 0.165774 0.192721
0.188647 0.181582 0.23209
0.610147 0.16463 0.122011
0.845197 0.174762 0.108019
0.773617 0.308064 0.270481
0.131762 0.404822 0.32398
0.230472 0.585809 0.364553
0.679667 0.634852 0.172
0.939483 0.591058 0.178759
0.890166 0.58732 0.352483
0.238849 0.615122 0.484199
0.355383 0.850172 0.441886
0.665522 0.863294 0.411154
0.931655 0.899748 0.338918
0.915953 0.834501 0.473747
0.26772 0.861708 0.526879
0.475914 0.868009 0.554376
0.678569 0.882399 0.563226
0.828168 0.914809 0.563378
0.899443 0.940139 0.556435
0 0 0.289509
0.0519722 0 0.237568
0.224811 0.00688182 0.238087
0.414603 0.0569009 0.268666
0.558129 0.104036 0.297047
0.00767529 0.117021 0.35996
0.024979 0.0584421 0.52256
0.37528 0.0662699 0.422293
0.662089 0.100816 0.346944
0.73518 0.247578 0.395193
0.0788128 0.35201 0.45742
0.0952468 0.484215 0.599756
0.45417 0.475227 0.530037
0.848737 0.436759 0.419196
0.878874 0.544198 0.537224
0.1841 0.654169 0.59295
0.176699 0.890013 0.676692
0.498238 0.876432 0.622095
0.873198 0.849943 0.55317
0.924651 0.828031 0.683513
0.227314 0.924544 0.74052
0.356542 0.93434 0.735332
0.600259 0.930617 0.715175
0.820401 0.936309 0.736263
0.917601 0.950179 0.76585
0 0 0.457084
0 0 0.379721
0.103426 0 0.337682
0.311055 0.0347295 0.334783
0.522179 0.0953078 0.35053
0 0.1019 0.531441
0 0.0180362 0.700008
0.121584 0 0.644526
0.479011 0.0513313 0.536324
0.68014 0.222538 0.502449
0.0746777 0.334997 0.628977
0 0.356268 0.824201
0.214176 0.330907 0.828382
0.634562 0.322759 0.754528
0.852064 0.50985 0.712978
0.191867 0.642039 0.760327
0.136721 0.762417 0.903258
0.337026 0.786526 0.891386
0.721386 0.769802 0.842557
0.922576 0.817487 0.849226
0.269688 0.911376 0.92932
0.332113 0.93135 0.913512
0.554101 0.945632 0.885069
0.806516 0.951232 0.884993
0.938109 0.956832 0.904509
0 0.00282292 0.589685
0 0.00436408 0.56611
0 0 0.516548
0.190539 0.0122835 0.439536
0.475563 0.0831464 0.402426
0.00903334 0.120165 0.6589
0.0202182 0.113451 0.690806
0.084596 0.105837 0.728588
0.31133 0.133745 0.674662
0.61944 0.206012 0.620661
0.0825818 0.332601 0.744274
0.100969 0.327321 0.783536
0.229129 0.358221 0.826215
0.48687 0.425162 0.832471
0.758526 0.487785 0.811032
0.190372 0.59707 0.836332
0.239918 0.624277 0.84802
0.39675 0.682033 0.883986
0.656123 0.744335 0.907286
0.886229 0.783551 0.91516
0.290074 0.792676 0.898268
0.346365 0.857359 0.91989
0.530907 0.91722 0.943832
0.783825 0.950393 0.955154
0.964706 0.964706 0.956893
