luts/changyun_fujilike/fujiP400.cube
TITLE "Generated by Resolve"
LUT_3D_SIZE 33
0.0234989 0.0234989 0.0234989
0.043473 0.0232548 0.0277104
0.0638285 0.0230259 0.0318303
0.0849317 0.0228885 0.0357977
0.107149 0.0228428 0.0394903
0.130678 0.0229191 0.0429236
0.155642 0.0231632 0.0461128
0.182071 0.0235752 0.0488289
0.209857 0.0242008 0.0512398
0.238788 0.0250706 0.0533608
0.268559 0.0261692 0.0552071
0.298802 0.0275578 0.0569009
0.329061 0.0292668 0.0584421
0.358907 0.0312963 0.0599069
0.387915 0.0336156 0.0612192
0.415747 0.0361791 0.0623484
0.44213 0.03888 0.0631571
0.466957 0.0416266 0.063447
0.490227 0.0443732 0.0633097
0.512062 0.0471046 0.0625772
0.532647 0.049897 0.0613107
0.552117 0.0527962 0.0597238
0.570581 0.0562448 0.0582132
0.587457 0.0630655 0.0596017
0.602625 0.0729381 0.063859
0.616953 0.0830243 0.068574
0.631296 0.091371 0.0718242
0.645258 0.100206 0.0759289
0.658946 0.109071 0.0805676
0.67245 0.117586 0.08542
0.68571 0.125734 0.0904707
0.698726 0.133654 0.0957656
0.711604 0.141436 0.101213
0.0245518 0.0417639 0.0281682
0.0440223 0.0411078 0.0300298
0.0638132 0.0404364 0.0319982
0.0845655 0.0400854 0.0341344
0.106401 0.0398413 0.0364233
0.128985 0.0390021 0.0378882
0.152987 0.0381628 0.0392157
0.179187 0.038529 0.0412909
0.206867 0.0391852 0.0432288
0.235767 0.040177 0.0449836
0.265675 0.0414893 0.0466621
0.296178 0.0432746 0.0482032
0.326909 0.0454566 0.0497749
0.357427 0.0480659 0.0512856
0.38732 0.0510872 0.0528267
0.416251 0.054963 0.0546731
0.444083 0.0607614 0.0580453
0.470283 0.0673991 0.0618143
0.494697 0.0746166 0.0657511
0.517372 0.0821241 0.0695659
0.538552 0.087892 0.0712902
0.558495 0.0932479 0.0722057
0.577325 0.0986191 0.0729229
0.594949 0.104433 0.0737163
0.611337 0.110704 0.0749371
0.626841 0.117693 0.0769665
0.641581 0.125277 0.0799573
0.655848 0.133318 0.0837415
0.669657 0.141192 0.087953
0.683116 0.148791 0.0924392
0.696178 0.156008 0.0971542
0.708995 0.163088 0.102159
0.721614 0.169986 0.107317
0.025864 0.0603647 0.0334173
0.0446479 0.0592355 0.0330663
0.0648356 0.0591897 0.0341192
0.0857252 0.0591745 0.0354772
0.107652 0.0593729 0.0371862
0.130907 0.0597696 0.0390631
0.155627 0.0605325 0.0410468
0.181827 0.0616007 0.043122
0.209506 0.0632181 0.0452735
0.238422 0.0652323 0.0475013
0.268345 0.0678569 0.0498207
0.298924 0.0709087 0.0522164
0.329747 0.0745861 0.0547494
0.360403 0.0786755 0.0573129
0.390463 0.083299 0.0599527
0.419608 0.0882582 0.0625315
0.447547 0.0936294 0.065095
0.474083 0.0992142 0.0675212
0.499184 0.10518 0.0698253
0.522789 0.111269 0.0720226
0.545052 0.117708 0.0741283
0.565972 0.124224 0.0761273
0.585702 0.130938 0.0780957
0.604028 0.137621 0.0800336
0.620996 0.144579 0.0821698
0.636942 0.151583 0.0846876
0.65211 0.158877 0.0877546
0.66656 0.166018 0.0912642
0.680491 0.173098 0.09514
0.693858 0.179736 0.0992752
0.706813 0.186191 0.103716
0.719356 0.192294 0.1084
0.731746 0.198367 0.113283
0.0276493 0.0795911 0.0397192
0.0454719 0.0780652 0.0370794
0.0657206 0.0783093 0.0372625
0.0869764 0.0790875 0.0382086
0.10927 0.0800183 0.0396429
0.13283 0.0812085 0.0413214
0.157626 0.0824903 0.043122
0.183764 0.0841535 0.0450294
0.211261 0.086183 0.0470283
0.240009 0.088716 0.0491798
0.26978 0.0917678 0.0514534
0.300298 0.0955215 0.0539101
0.331182 0.0998093 0.0565347
0.362036 0.104707 0.0592813
0.392462 0.110033 0.06215
0.422141 0.115953 0.0650492
0.450721 0.122148 0.0679637
0.47805 0.128679 0.0708019
0.504005 0.135378 0.0735943
0.528588 0.142428 0.0763256
0.551797 0.149615 0.0790112
0.573678 0.156878 0.0816815
0.594278 0.164111 0.0842756
0.613443 0.17142 0.0868696
0.631037 0.178531 0.0895094
0.647471 0.185473 0.0923018
0.662898 0.192172 0.0953536
0.677577 0.198734 0.0986648
0.691539 0.204913 0.102235
0.704875 0.210758 0.106065
0.717586 0.21619 0.110201
0.729931 0.221515 0.114611
0.742061 0.226658 0.119188
0.0300908 0.0997177 0.0472114
0.0466316 0.0976883 0.0424048
0.0666819 0.0982223 0.0417487
0.0882277 0.0996719 0.042298
0.111192 0.101717 0.0436561
0.135286 0.10396 0.0453803
0.160479 0.106279 0.0472419
0.186831 0.108766 0.0491646
0.214374 0.111574 0.051194
0.243046 0.114809 0.0533761
0.272725 0.118608 0.0557412
0.303136 0.122988 0.0582895
0.33402 0.128008 0.0610361
0.364965 0.133608 0.0639811
0.395636 0.139788 0.0670481
0.425681 0.146426 0.0702068
0.45478 0.153414 0.0734112
0.482765 0.160723 0.0766155
0.509483 0.168215 0.0797742
0.534874 0.17586 0.0828717
0.558968 0.183536 0.0859236
0.581735 0.191196 0.0888991
0.60322 0.198764 0.091783
0.623133 0.206088 0.0945907
0.641352 0.213031 0.0973526
0.658305 0.219608 0.10016
0.674083 0.225772 0.103059
0.68893 0.231525 0.106096
0.702861 0.236835 0.109361
0.71606 0.241764 0.112871
0.728634 0.246372 0.116686
0.74078 0.250736 0.120775
0.752682 0.254994 0.125048
0.0333715 0.120958 0.0561837
0.0474556 0.117525 0.0480659
0.0682231 0.119188 0.0475776
0.0897993 0.121202 0.0476539
0.113252 0.124208 0.0489662
0.138033 0.127687 0.0508736
0.163867 0.131228 0.0529488
0.190692 0.134936 0.0551003
0.218494 0.138781 0.0573129
0.247257 0.142947 0.0596475
0.276921 0.147524 0.06215
0.307286 0.152743 0.0648966
0.33814 0.158541 0.0678111
0.369131 0.164889 0.0709239
0.399954 0.171756 0.0741741
0.430274 0.179156 0.0775769
0.459815 0.186862 0.0809949
0.488319 0.194766 0.0844282
0.515663 0.202762 0.0877852
0.541833 0.210925 0.0911116
0.566705 0.218936 0.094316
0.590311 0.22681 0.0973831
0.612619 0.234333 0.100298
0.633356 0.241611 0.103105
0.652201 0.248219 0.105745
0.669657 0.254246 0.108324
0.68574 0.259617 0.110903
0.700771 0.264622 0.113603
0.714702 0.269047 0.116503
0.727718 0.27303 0.119677
0.740093 0.276646 0.12314
0.752041 0.280186 0.126925
0.763714 0.283558 0.130907
0.0376287 0.143435 0.0664836
0.05066 0.139864 0.0570687
0.0706493 0.141543 0.0550546
0.0918593 0.143694 0.0543832
0.115587 0.147524 0.0554971
0.141054 0.152117 0.0575418
0.167666 0.157122 0.0599527
0.195087 0.162051 0.0623789
0.223331 0.167147 0.0648661
0.252369 0.172366 0.0674296
0.282124 0.177996 0.0701762
0.31252 0.183993 0.0730755
0.343343 0.1906 0.0762036
0.37438 0.197665 0.0794842
0.405341 0.205341 0.0829633
0.435874 0.213291 0.0864881
0.465766 0.221653 0.0900893
0.494728 0.23003 0.0936446
0.522698 0.238605 0.0971389
0.549493 0.246952 0.100496
0.575158 0.255283 0.103731
0.599557 0.263157 0.106737
0.622736 0.270802 0.10956
0.644205 0.277699 0.112123
0.663752 0.283909 0.114473
0.681666 0.289265 0.116686
0.698054 0.294011 0.118883
0.713115 0.297993 0.121141
0.727031 0.301564 0.123659
0.739956 0.304601 0.126452
0.752178 0.307454 0.129625
0.763882 0.309987 0.133059
0.775357 0.312535 0.136721
0.0429694 0.167239 0.0782177
0.0550851 0.16376 0.0678416
0.0741131 0.165225 0.0640879
0.0948348 0.167559 0.0626535
0.118532 0.171832 0.0633402
0.144533 0.177478 0.0654459
0.171847 0.183612 0.0680858
0.200015 0.190005 0.0708782
0.22884 0.196384 0.0736553
0.258244 0.202792 0.0765087
0.288228 0.209384 0.0794385
0.31873 0.216388 0.0825818
0.34963 0.223789 0.085893
0.380713 0.231632 0.0893721
0.411749 0.239826 0.0929732
0.442496 0.248508 0.0966812
0.472663 0.257328 0.100374
0.502052 0.266239 0.104005
0.53051 0.275013 0.1075
0.557992 0.283787 0.110842
0.584375 0.292195 0.113924
0.609613 0.300206 0.116747
0.6336 0.307622 0.119249
0.655955 0.314412 0.121477
0.676173 0.320119 0.123369
0.694697 0.324941 0.125078
0.711269 0.328756 0.126741
0.726436 0.332021 0.128588
0.740261 0.334661 0.130724
0.753063 0.336873 0.133196
0.764996 0.33872 0.136065
0.776425 0.340505 0.139284
0.787472 0.342153 0.142748
0.049485 0.192355 0.0913252
0.0607919 0.189059 0.0802167
0.0773022 0.189319 0.0735027
0.0989242 0.192782 0.0725719
0.122408 0.19736 0.072694
0.148699 0.203723 0.0746624
0.176699 0.211032 0.0775158
0.205585 0.218616 0.0806287
0.235035 0.226261 0.0837262
0.264958 0.233936 0.0868238
0.295262 0.241657 0.090013
0.325963 0.249577 0.0933089
0.356954 0.257801 0.0968032
0.388113 0.266346 0.10045
0.419242 0.275242 0.104204
0.450111 0.284367 0.108003
0.480522 0.293645 0.111757
0.510262 0.302907 0.115389
0.539223 0.312062 0.118807
0.567315 0.320974 0.12195
0.594461 0.329519 0.124743
0.6206 0.337575 0.127169
0.645563 0.345037 0.129213
0.668772 0.351522 0.130846
0.689754 0.356786 0.132113
0.70869 0.360983 0.133257
0.725597 0.364172 0.134432
0.74081 0.366583 0.135866
0.754482 0.368399 0.137728
0.766934 0.369802 0.140078
0.7785 0.370886 0.142824
0.789425 0.371786 0.145907
0.799878 0.372625 0.14931
0.0572519 0.218738 0.105837
0.0679637 0.215854 0.0943465
0.0805829 0.214008 0.083711
0.104417 0.219562 0.0842756
0.12752 0.224308 0.0836957
0.153887 0.231128 0.085359
0.182376 0.239231 0.0883192
0.211978 0.24799 0.0917372
0.2421 0.25684 0.0951553
0.272557 0.265675 0.0985275
0.303288 0.274464 0.101884
0.334249 0.283421 0.105394
0.365393 0.29247 0.10901
0.396612 0.301717 0.112779
0.427787 0.311086 0.116609
0.458762 0.320745 0.1205
0.489342 0.330373 0.124254
0.519387 0.33994 0.127764
0.548791 0.349248 0.130938
0.577523 0.358419 0.133715
0.605478 0.367102 0.135988
0.632563 0.375219 0.137758
0.658549 0.382589 0.13904
0.682841 0.389029 0.13994
0.70457 0.393942 0.14052
0.724041 0.397635 0.1411
0.741054 0.400122 0.141955
0.756146 0.401892 0.143252
0.769467 0.402945 0.145068
0.781369 0.403571 0.147478
0.792126 0.403815 0.150378
0.802045 0.404013 0.15378
0.811399 0.404105 0.157488
0.0663005 0.246296 0.121706
0.0766155 0.243977 0.110033
0.0882734 0.24239 0.0986954
0.111406 0.247807 0.0977951
0.134096 0.252735 0.0965133
0.160327 0.2598 0.0976577
0.189227 0.268635 0.100679
0.219409 0.278157 0.104326
0.250202 0.288106 0.10811
0.281209 0.297963 0.111727
0.312383 0.307897 0.115343
0.343633 0.317693 0.118929
0.37496 0.327611 0.122683
0.406226 0.337423 0.126482
0.437446 0.347448 0.130404
0.468421 0.357351 0.134203
0.499153 0.367361 0.13785
0.529442 0.377096 0.14107
0.55935 0.38677 0.143832
0.588769 0.396002 0.145907
0.617731 0.404944 0.147372
0.64596 0.413184 0.148165
0.673228 0.420798 0.148547
0.698558 0.42707 0.148592
0.720989 0.4318 0.148699
0.740627 0.434913 0.148959
0.757473 0.436912 0.149844
0.771923 0.437873 0.151385
0.784314 0.438285 0.153689
0.795026 0.438071 0.156603
0.804471 0.437705 0.160113
0.812818 0.437018 0.164111
0.820508 0.436393 0.168566
0.0766308 0.274861 0.138903
0.0867781 0.273411 0.127275
0.0978866 0.272312 0.115541
0.117723 0.276265 0.111055
0.142153 0.282597 0.111086
0.168231 0.289921 0.111742
0.197391 0.299092 0.114595
0.228153 0.309407 0.118547
0.259525 0.320104 0.122683
0.291081 0.330922 0.126665
0.322637 0.341634 0.130449
0.354192 0.352377 0.134234
0.385657 0.362982 0.137987
0.416983 0.373465 0.141802
0.448142 0.383795 0.145571
0.479149 0.394186 0.149233
0.509941 0.404395 0.152499
0.540551 0.414466 0.1552
0.570993 0.424277 0.157107
0.601389 0.433951 0.158221
0.631525 0.443168 0.158495
0.661128 0.451789 0.15819
0.689525 0.459449 0.157687
0.715724 0.465797 0.157198
0.738201 0.470069 0.157259
0.757321 0.472724 0.158022
0.772976 0.473884 0.15967
0.785946 0.474205 0.162264
0.796765 0.473793 0.165408
0.806165 0.472923 0.168887
0.81413 0.471656 0.1729
0.820798 0.470344 0.177661
0.826764 0.468803 0.182818
0.0882124 0.30425 0.157214
0.0983597 0.303792 0.145846
0.109285 0.303655 0.134112
0.123598 0.305196 0.124056
0.151827 0.313848 0.127306
0.177813 0.321416 0.12755
0.207111 0.330892 0.130266
0.238361 0.341619 0.134432
0.270283 0.35288 0.138979
0.302296 0.364324 0.143359
0.334203 0.375784 0.147463
0.365927 0.387121 0.151369
0.397467 0.398291 0.155138
0.428779 0.409293 0.158801
0.459892 0.420127 0.162295
0.490852 0.430808 0.165454
0.521798 0.441352 0.168002
0.55285 0.451804 0.169711
0.584146 0.462135 0.170413
0.615686 0.472236 0.170138
0.647211 0.481926 0.169177
0.678035 0.490867 0.167987
0.707149 0.498634 0.167193
0.733043 0.50457 0.167147
0.754406 0.508186 0.168185
0.77171 0.510018 0.170443
0.785107 0.510292 0.1738
0.796582 0.509758 0.177157
0.806317 0.508827 0.18024
0.816587 0.507439 0.18172
0.825757 0.505623 0.183612
0.832685 0.503594 0.187152
0.838972 0.501442 0.191028
0.100999 0.334295 0.176532
0.11133 0.334997 0.165515
0.122316 0.335912 0.154055
0.135714 0.338018 0.143175
0.163577 0.346639 0.145495
0.189227 0.354345 0.145113
0.21854 0.363851 0.147601
0.250217 0.374838 0.152071
0.282628 0.386404 0.157061
0.315007 0.398199 0.161929
0.347082 0.409934 0.166369
0.378897 0.421744 0.170489
0.410376 0.433326 0.174212
0.441566 0.444739 0.177554
0.472557 0.455909 0.180392
0.503594 0.467124 0.18265
0.534874 0.478218 0.183963
0.56669 0.489311 0.184161
0.599115 0.500267 0.18323
0.631983 0.511086 0.181659
0.664576 0.521157 0.17995
0.695705 0.530053 0.178882
0.723995 0.537209 0.179065
0.747448 0.542046 0.181323
0.766552 0.54464 0.183841
0.78265 0.545769 0.186099
0.794827 0.545327 0.189578
0.810651 0.545007 0.187533
0.820981 0.543511 0.18967
0.828885 0.541421 0.193057
0.835904 0.538994 0.196277
0.842191 0.536507 0.199619
0.848096 0.533883 0.202945
0.114931 0.364767 0.196689
0.125582 0.366735 0.186114
0.136919 0.3691 0.175174
0.150149 0.372152 0.164263
0.176791 0.380514 0.164965
0.202487 0.388449 0.164385
0.23183 0.398123 0.166735
0.263783 0.408957 0.171405
0.29662 0.420569 0.176974
0.329229 0.432303 0.182361
0.36141 0.444236 0.187304
0.393042 0.456031 0.191516
0.424323 0.467872 0.195117
0.455268 0.479545 0.197848
0.486244 0.491341 0.199756
0.517479 0.50309 0.200458
0.549493 0.515129 0.199985
0.582376 0.527123 0.198276
0.616129 0.539055 0.195941
0.649744 0.550118 0.193729
0.682033 0.559915 0.192676
0.710887 0.567498 0.193881
0.736751 0.573388 0.195758
0.758129 0.576883 0.198764
0.77554 0.578561 0.201953
0.795956 0.580301 0.198932
0.810529 0.580209 0.199603
0.82063 0.578607 0.202701
0.828992 0.576623 0.206073
0.836133 0.574182 0.209323
0.842725 0.571618 0.212192
0.848951 0.568765 0.214649
0.854963 0.565942 0.216983
0.1299 0.395468 0.217411
0.1411 0.398947 0.207553
0.152834 0.40264 0.197131
0.166155 0.407141 0.186465
0.18819 0.414389 0.182376
0.217395 0.423636 0.185122
0.24686 0.433219 0.187503
0.279133 0.443961 0.192554
0.31223 0.455177 0.198672
0.344976 0.466667 0.204685
0.376974 0.478202 0.209964
0.408347 0.489967 0.214374
0.439216 0.501823 0.217578
0.469947 0.513893 0.219455
0.500938 0.526223 0.219791
0.532799 0.539101 0.218631
0.565759 0.552209 0.216159
0.599817 0.565225 0.213016
0.634028 0.577356 0.210208
0.666636 0.587808 0.209369
0.696315 0.595941 0.210407
0.722454 0.601785 0.213046
0.745312 0.605859 0.216373
0.767575 0.6094 0.216938
0.792004 0.613504 0.212055
0.805783 0.61323 0.215396
0.816724 0.611933 0.218769
0.825757 0.610193 0.222232
0.833768 0.608072 0.225025
0.841199 0.605676 0.2271
0.848188 0.602991 0.228672
0.854856 0.600214 0.229969
0.861311 0.597269 0.231098
0.145815 0.426184 0.238514
0.157656 0.431174 0.22948
0.170047 0.436484 0.219898
0.183658 0.442435 0.209705
0.201328 0.449638 0.201297
0.233906 0.459495 0.207233
0.2636 0.469123 0.209949
0.295949 0.479347 0.21532
0.329213 0.489952 0.222019
0.361929 0.500786 0.228611
0.393652 0.511849 0.234272
0.424521 0.523232 0.23856
0.454948 0.535103 0.241154
0.485496 0.547616 0.241825
0.516762 0.56083 0.240574
0.549264 0.574594 0.237766
0.583032 0.588449 0.23415
0.617029 0.60145 0.231144
0.649363 0.612467 0.230228
0.679255 0.62089 0.230869
0.70547 0.626886 0.233677
0.729549 0.631632 0.236225
0.758251 0.638849 0.231388
0.782147 0.643336 0.229603
0.797375 0.643549 0.233051
0.809583 0.64271 0.236759
0.819791 0.641306 0.239963
0.82919 0.639689 0.242069
0.837919 0.637827 0.243336
0.846052 0.63566 0.244022
0.85362 0.633204 0.244388
0.860716 0.630488 0.244587
0.867536 0.627649 0.244739
0.162554 0.456611 0.259922
0.175143 0.463188 0.251804
0.188235 0.470054 0.243153
0.202502 0.477699 0.23389
0.21976 0.486152 0.225376
0.252171 0.495674 0.231067
0.281651 0.505089 0.23386
0.313954 0.514733 0.239628
0.347189 0.524407 0.246891
0.379721 0.534295 0.253956
0.410986 0.544533 0.259754
0.441367 0.55555 0.263844
0.471366 0.567391 0.265721
0.501808 0.580224 0.2654
0.533196 0.593759 0.263264
0.565728 0.607523 0.260426
0.597986 0.620264 0.258564
0.630091 0.631556 0.256641
0.659205 0.640314 0.257069
0.686076 0.64744 0.258335
0.710994 0.653162 0.25948
0.745602 0.66566 0.248707
0.769375 0.670268 0.248402
0.786328 0.671046 0.25214
0.799802 0.670558 0.255833
0.811597 0.669657 0.25864
0.822599 0.66865 0.259983
0.832929 0.667567 0.260426
0.842451 0.666117 0.260197
0.851179 0.664286 0.259678
0.859144 0.662043 0.259052
0.866514 0.659617 0.258503
0.873487 0.656977 0.257969
0.179934 0.486534 0.281392
0.193362 0.494575 0.274388
0.207401 0.503151 0.267033
0.222339 0.512276 0.258869
0.239979 0.522255 0.25124
0.271626 0.531304 0.256275
0.300999 0.540566 0.259556
0.332906 0.549233 0.265568
0.365942 0.557748 0.273365
0.398123 0.566308 0.280735
0.428946 0.575677 0.286748
0.458732 0.58587 0.290578
0.488304 0.597253 0.292378
0.518273 0.609354 0.292226
0.548638 0.621592 0.291585
0.579507 0.633814 0.289799
0.610101 0.645502 0.287892
0.638712 0.65507 0.287098
0.664973 0.662486 0.287282
0.693217 0.671977 0.28307
0.730617 0.689235 0.269245
0.75314 0.693401 0.270039
0.772244 0.695354 0.272419
0.787701 0.695384 0.275807
0.801343 0.695201 0.278019
0.81413 0.694957 0.278614
0.826108 0.694697 0.278141
0.837217 0.694057 0.276982
0.847318 0.69308 0.275639
0.856397 0.691539 0.274235
0.864591 0.689723 0.272999
0.872007 0.687465 0.271855
0.879026 0.685145 0.270863
0.197711 0.515648 0.302846
0.212192 0.525139 0.297292
0.227161 0.534951 0.291356
0.243137 0.545571 0.284901
0.261128 0.556817 0.278309
0.290455 0.566003 0.2813
0.321706 0.5738 0.28716
0.353277 0.581445 0.293782
0.385748 0.588296 0.301961
0.417533 0.595254 0.309758
0.447669 0.603021 0.315999
0.476905 0.612299 0.319997
0.505714 0.622965 0.321828
0.533974 0.63328 0.323629
0.562188 0.642512 0.324498
0.589853 0.65275 0.323644
0.622217 0.670619 0.31371
0.655833 0.688106 0.303517
0.688365 0.702647 0.295247
0.713649 0.709041 0.294118
0.733806 0.711208 0.296178
0.754818 0.714946 0.296117
0.77261 0.716487 0.297627
0.788724 0.717556 0.298528
0.803616 0.718456 0.298054
0.817563 0.719188 0.29659
0.830289 0.719448 0.294469
0.841886 0.719371 0.292241
0.852293 0.718761 0.290059
0.861448 0.717601 0.288106
0.869612 0.715984 0.286336
0.877028 0.714153 0.284855
0.88394 0.712077 0.283482
0.215641 0.543694 0.324178
0.231235 0.554238 0.320302
0.24744 0.565072 0.316228
0.264607 0.576501 0.311681
0.283284 0.588617 0.306615
0.308324 0.599191 0.305745
0.3449 0.60264 0.317418
0.376242 0.608408 0.32488
0.407813 0.613397 0.333394
0.438468 0.618967 0.341176
0.467658 0.625269 0.347784
0.494942 0.63238 0.353414
0.523033 0.646159 0.350301
0.550805 0.660349 0.347631
0.57789 0.67187 0.346899
0.604898 0.683223 0.345052
0.632792 0.695491 0.340749
0.66154 0.708171 0.334554
0.69015 0.719799 0.328115
0.716884 0.728908 0.322927
0.737102 0.731579 0.322271
0.75404 0.732204 0.323125
0.772717 0.735271 0.321599
0.790448 0.738186 0.319249
0.806699 0.740475 0.316228
0.8215 0.742153 0.312917
0.834714 0.743114 0.309621
0.846494 0.74342 0.306554
0.856931 0.74316 0.303792
0.86598 0.742306 0.301411
0.874037 0.741039 0.299336
0.8813 0.739467 0.297505
0.888121 0.737728 0.295842
0.233295 0.570535 0.345174
0.250217 0.581613 0.343175
0.267781 0.592828 0.341039
0.286488 0.604532 0.338674
0.306676 0.616617 0.335805
0.331212 0.627115 0.334585
0.372076 0.623835 0.350561
0.402441 0.627894 0.358618
0.432364 0.631403 0.367086
0.45919 0.638315 0.373236
0.486244 0.647257 0.376486
0.512383 0.655543 0.380453
0.537255 0.664164 0.383276
0.561471 0.673915 0.384039
0.585672 0.684428 0.38291
0.610346 0.695567 0.380056
0.635691 0.707042 0.375372
0.661616 0.718486 0.36939
0.687724 0.729397 0.362615
0.713512 0.739452 0.355764
0.73785 0.747723 0.349416
0.756542 0.75053 0.346059
0.773724 0.752728 0.342992
0.792584 0.757259 0.338125
0.809934 0.761059 0.333013
0.825422 0.763775 0.328237
0.838926 0.765362 0.323934
0.850706 0.766155 0.320241
0.861021 0.766217 0.317052
0.869886 0.765652 0.314336
0.87776 0.764645 0.31194
0.884886 0.763424 0.30985
0.891554 0.762005 0.307912
0.250324 0.596246 0.365515
0.268757 0.607233 0.365347
0.287968 0.618479 0.365209
0.308614 0.629679 0.36463
0.332647 0.639216 0.365148
0.363058 0.643702 0.370077
0.401205 0.636957 0.386007
0.4262 0.643778 0.391577
0.452537 0.650614 0.397223
0.479194 0.656474 0.403082
0.504311 0.661967 0.409064
0.527611 0.668101 0.413565
0.549828 0.675578 0.41619
0.571572 0.684413 0.41648
0.593545 0.694484 0.414679
0.616053 0.705272 0.410849
0.639292 0.716472 0.405539
0.663157 0.727672 0.398871
0.68751 0.738705 0.391424
0.712077 0.749294 0.383291
0.73666 0.759426 0.374945
0.760174 0.768215 0.366735
0.778119 0.771679 0.361044
0.795041 0.774929 0.355413
0.812772 0.779797 0.348974
0.828748 0.783581 0.342977
0.842496 0.786053 0.337896
0.854276 0.78732 0.333547
0.864469 0.787823 0.3299
0.873167 0.787564 0.326802
0.880858 0.786954 0.324163
0.887785 0.785946 0.321752
0.894286 0.784878 0.319554
0.266423 0.621164 0.384619
0.286732 0.631815 0.385962
0.307973 0.642573 0.386999
0.332937 0.650919 0.389212
0.369558 0.647303 0.399725
0.396796 0.650309 0.406744
0.421958 0.65594 0.413077
0.448478 0.661585 0.41857
0.474281 0.665385 0.425772
0.498665 0.668849 0.43267
0.521248 0.673457 0.437812
0.542489 0.679805 0.440955
0.562951 0.687724 0.441993
0.583169 0.696834 0.441093
0.603571 0.706783 0.438361
0.624475 0.717342 0.434119
0.646006 0.728161 0.428412
0.668193 0.739071 0.4215
0.690944 0.749889 0.413596
0.714137 0.760586 0.405081
0.73756 0.771008 0.396048
0.761013 0.781155 0.386694
0.783475 0.790173 0.377462
0.800061 0.793713 0.37055
0.815106 0.796689 0.364187
0.830976 0.80119 0.357488
0.845045 0.804608 0.351537
0.857038 0.80676 0.346548
0.867185 0.807797 0.342367
0.875822 0.808026 0.338857
0.883314 0.807675 0.335851
0.890089 0.807095 0.333196
0.896406 0.806287 0.330709
0.281559 0.646159 0.401419
0.304585 0.655863 0.403738
0.329885 0.66421 0.406378
0.369772 0.655863 0.418326
0.393317 0.662455 0.424262
0.419348 0.668559 0.428794
0.445274 0.672679 0.435477
0.470726 0.675288 0.442969
0.494713 0.677928 0.449882
0.51696 0.681865 0.455283
0.53782 0.687495 0.458793
0.557748 0.694652 0.460456
0.577173 0.702983 0.460426
0.596399 0.712108 0.458824
0.615732 0.721782 0.455741
0.635386 0.731823 0.451286
0.655528 0.742092 0.445533
0.676204 0.752453 0.438666
0.697368 0.762798 0.430869
0.718929 0.773037 0.42237
0.740749 0.783123 0.413352
0.762692 0.793027 0.403967
0.784512 0.802731 0.394385
0.805173 0.811399 0.384985
0.820127 0.814923 0.37763
0.832441 0.816739 0.371481
0.846174 0.820661 0.365026
0.858427 0.823774 0.35935
0.868849 0.825696 0.354528
0.877516 0.826551 0.350545
0.885023 0.826749 0.347143
0.891691 0.82652 0.344167
0.897902 0.826108 0.341405
0.297185 0.671153 0.415015
0.326116 0.676539 0.419211
0.363104 0.670497 0.429114
0.388983 0.676493 0.434333
0.415045 0.682094 0.439643
0.441459 0.685298 0.446693
0.467002 0.687266 0.454231
0.491096 0.689616 0.461143
0.513436 0.693202 0.466743
0.534356 0.698314 0.470787
0.554223 0.704723 0.473259
0.573495 0.712245 0.474266
0.592309 0.72047 0.473808
0.610895 0.729213 0.471962
0.629358 0.738262 0.468803
0.64799 0.747646 0.464454
0.66685 0.757168 0.45893
0.686061 0.766781 0.452338
0.705608 0.776364 0.444846
0.725475 0.785885 0.436698
0.74551 0.795285 0.428
0.765621 0.804532 0.418936
0.785626 0.813596 0.409613
0.805249 0.822492 0.400229
0.823621 0.830503 0.391104
0.837812 0.834882 0.383459
0.846632 0.834699 0.377951
0.858579 0.8383 0.371832
0.869139 0.841047 0.366461
0.87805 0.842756 0.361959
0.88571 0.843656 0.358053
0.892439 0.844068 0.354711
0.898665 0.844175 0.351583
0.321492 0.688151 0.427756
0.353826 0.686671 0.435645
0.381689 0.692317 0.439857
0.408713 0.697032 0.44567
0.435859 0.699718 0.452918
0.462043 0.701381 0.460426
0.486686 0.703548 0.467399
0.509544 0.706783 0.473335
0.530968 0.711406 0.478126
0.551186 0.717083 0.481605
0.570703 0.723705 0.483803
0.589563 0.730907 0.484642
0.608011 0.738674 0.484199
0.626001 0.746715 0.482429
0.643778 0.755077 0.479469
0.661387 0.763592 0.475334
0.679057 0.77229 0.470161
0.696834 0.781003 0.463935
0.714855 0.789792 0.45687
0.733028 0.798489 0.449042
0.751339 0.807111 0.440711
0.769589 0.815564 0.431983
0.787717 0.823911 0.423072
0.805463 0.832059 0.414008
0.822568 0.839994 0.405035
0.838712 0.847379 0.396338
