luts/changyun_fujilike/fujiP400.cube
TITLE "Generated by Resolve"
LUT_3D_SIZE 9
0.0234989 0.0234989 0.0234989
0.107149 0.0228428 0.0394903
0.209857 0.0242008 0.0512398
0.329061 0.0292668 0.0584421
0.44213 0.03888 0.0631571
0.532647 0.049897 0.0613107
0.602625 0.0729381 0.063859
0.658946 0.109071 0.0805676
0.711604 0.141436 0.101213
0.0300908 0.0997177 0.0472114
0.111192 0.101717 0.0436561
0.214374 0.111574 0.051194
0.33402 0.128008 0.0610361
0.45478 0.153414 0.0734112
0.558968 0.183536 0.0859236
0.641352 0.213031 0.0973526
0.702861 0.236835 0.109361
0.752682 0.254994 0.125048
0.049485 0.192355 0.0913252
0.122408 0.19736 0.072694
0.235035 0.226261 0.0837262
0.356954 0.257801 0.0968032
0.480522 0.293645 0.111757
0.594461 0.329519 0.124743
0.689754 0.356786 0.132113
0.754482 0.368399 0.137728
0.799878 0.372625 0.14931
0.0882124 0.30425 0.157214
0.151827 0.313848 0.127306
0.270283 0.35288 0.138979
0.397467 0.398291 0.155138
0.521798 0.441352 0.168002
0.647211 0.481926 0.169177
0.754406 0.508186 0.168185
0.806317 0.508827 0.18024
0.838972 0.501442 0.191028
0.145815 0.426184 0.238514
0.201328 0.449638 0.201297
0.329213 0.489952 0.222019
0.454948 0.535103 0.241154
0.583032 0.588449 0.23415
0.70547 0.626886 0.233677
0.797375 0.643549 0.233051
0.837919 0.637827 0.243336
0.867536 0.627649 0.244739
0.215641 0.543694 0.324178
0.283284 0.588617 0.306615
0.407813 0.613397 0.333394
0.523033 0.646159 0.350301
0.632792 0.695491 0.340749
0.737102 0.731579 0.322271
0.806699 0.740475 0.316228
0.856931 0.74316 0.303792
0.888121 0.737728 0.295842
0.281559 0.646159 0.401419
0.393317 0.662455 0.424262
0.494713 0.677928 0.449882
0.577173 0.702983 0.460426
0.655528 0.742092 0.445533
0.740749 0.783123 0.413352
0.820127 0.814923 0.37763
0.868849 0.825696 0.354528
0.897902 0.826108 0.341405
0.358892 0.728786 0.439582
0.472862 0.735393 0.46952
0.564263 0.750057 0.493462
0.639506 0.773175 0.501213
0.70428 0.800427 0.48893
0.765057 0.82919 0.46183
0.822553 0.856489 0.428733
0.870222 0.879942 0.398489
0.895445 0.886473 0.3794
0.420417 0.805707 0.451179
0.534356 0.809506 0.488884
0.628687 0.818616 0.519142
0.701534 0.831601 0.529809
0.755673 0.849012 0.517861
0.797482 0.86862 0.49279
0.833326 0.888701 0.462928
0.86247 0.907866 0.434409
0.885954 0.925261 0.410513
0.0128939 0.0179904 0.0744335
0.0842603 0.0181125 0.0799725
0.170916 0.0209812 0.0930953
0.275608 0.0270085 0.105287
0.385748 0.0384375 0.115328
0.48426 0.0552071 0.123354
0.564324 0.0758526 0.129641
0.625422 0.0976577 0.138308
0.675883 0.119173 0.154177
0.031632 0.0963912 0.0982528
0.0919814 0.0868696 0.111055
0.234089 0.0771954 0.0855879
0.385 0.080705 0.0730449
0.515068 0.0956436 0.0736553
0.619333 0.118593 0.0814832
0.695094 0.14551 0.096025
0.731807 0.177325 0.12546
0.741115 0.218219 0.172244
0.0576181 0.190021 0.140902
0.0967269 0.21709 0.168109
0.243565 0.228397 0.114961
0.433616 0.239872 0.0803235
0.587366 0.244038 0.0690929
0.707088 0.25687 0.0737621
0.787961 0.273289 0.0907454
0.808682 0.29865 0.134203
0.802976 0.331044 0.194034
0.0995804 0.302724 0.208576
0.124804 0.355596 0.248539
0.234363 0.391135 0.185473
0.440406 0.427604 0.136782
0.61825 0.438941 0.108461
0.759335 0.445914 0.102083
0.842786 0.451194 0.124773
0.853056 0.457694 0.178729
0.850217 0.466423 0.232868
0.155871 0.420386 0.296361
0.179904 0.493172 0.323766
0.259556 0.562295 0.261006
0.457877 0.600443 0.224598
0.651179 0.628397 0.185168
0.784955 0.630533 0.185595
0.870375 0.627131 0.196094
0.889448 0.617441 0.234852
0.882933 0.60885 0.287114
0.218738 0.523934 0.386633
0.249317 0.616495 0.395285
0.356649 0.677913 0.373465
0.507897 0.709545 0.354498
0.660945 0.742855 0.326131
0.788479 0.761883 0.297002
0.876265 0.765591 0.280095
0.907164 0.753536 0.298009
0.901457 0.73518 0.343877
0.264714 0.617212 0.454429
0.327794 0.711299 0.445502
0.438712 0.757961 0.438209
0.559075 0.770199 0.441657
0.672511 0.799924 0.425895
0.786282 0.837674 0.388983
0.87747 0.859754 0.35259
0.914061 0.855039 0.356222
0.907927 0.83238 0.396307
0.288808 0.737774 0.467582
0.389059 0.793973 0.465278
0.502266 0.809735 0.477699
0.605646 0.821164 0.488609
0.699504 0.842557 0.482429
0.784604 0.870634 0.460121
0.858488 0.897993 0.431037
0.904845 0.912932 0.417014
0.903319 0.895445 0.439231
0.3411 0.831662 0.477073
0.453544 0.832761 0.503166
0.55378 0.83769 0.525719
0.642405 0.84712 0.537118
0.718975 0.862791 0.533867
0.7823 0.882582 0.521294
0.831601 0.902235 0.505211
0.866423 0.91931 0.487938
0.892149 0.933455 0.473167
0.00146487 0.0117494 0.133089
0.0549325 0.00633249 0.126574
0.131441 0.0114748 0.133928
0.225757 0.0197452 0.146883
0.330571 0.0333562 0.162005
0.430838 0.0517128 0.176272
0.515587 0.0727855 0.187701
0.578363 0.0935225 0.198642
0.629801 0.112413 0.213153
0.0168765 0.0796826 0.15787
0.0539406 0.0601205 0.212619
0.18735 0.0557259 0.206958
0.342199 0.0572519 0.180636
0.479423 0.0611887 0.158602
0.59324 0.0747082 0.148425
0.676524 0.096376 0.151965
0.707439 0.136568 0.182666
0.714992 0.187457 0.229908
0.0395972 0.165774 0.192721
0.0766766 0.198199 0.266499
0.188647 0.181582 0.23209
0.406897 0.177218 0.169055
0.610147 0.16463 0.122011
0.764996 0.157473 0.0952163
0.845197 0.174762 0.108019
0.8112 0.239948 0.184207
0.773617 0.308064 0.270481
0.0775921 0.278645 0.245716
0.115999 0.352483 0.329625
0.202686 0.385473 0.301488
0.419028 0.402487 0.200153
0.665644 0.387381 0.115129
0.849561 0.364981 0.0825666
0.899107 0.373602 0.137148
0.86566 0.402121 0.220539
0.853315 0.43154 0.292729
0.131762 0.404822 0.32398
0.171359 0.495216 0.397406
0.230472 0.585809 0.364553
0.418067 0.632303 0.261234
0.679667 0.634852 0.172
0.868971 0.613977 0.140322
0.939483 0.591058 0.178759
0.915206 0.581857 0.266636
0.890166 0.58732 0.352483
0.194842 0.517586 0.41352
0.226734 0.619394 0.456123
0.297093 0.734905 0.418769
0.460456 0.776135 0.366201
0.665232 0.789776 0.313344
0.84564 0.796246 0.258961
0.946563 0.778775 0.25124
0.934676 0.744442 0.330755
0.910109 0.727993 0.415305
0.238849 0.615122 0.484199
0.266545 0.744579 0.477501
0.355383 0.850172 0.441886
0.509163 0.856336 0.430381
0.665522 0.863294 0.411154
0.821729 0.893034 0.366415
0.931655 0.899748 0.338918
0.937865 0.864866 0.396704
0.915953 0.834501 0.473747
0.228458 0.756237 0.507103
0.305348 0.836439 0.498619
0.421927 0.8645 0.498955
0.547662 0.863935 0.505821
0.667964 0.87396 0.501762
0.77937 0.897383 0.485023
0.871611 0.921492 0.465934
0.918349 0.92694 0.474479
0.909911 0.900236 0.520485
0.26772 0.861708 0.526879
0.371572 0.865141 0.54226
0.475914 0.868009 0.554376
0.580056 0.87248 0.561242
0.678569 0.882399 0.563226
0.763806 0.898024 0.563592
0.828168 0.914809 0.563378
0.869993 0.929061 0.560082
0.899443 0.940139 0.556435
0 0.00502022 0.205158
0.0247807 0 0.185245
0.0910048 0 0.180789
0.178698 0.00715648 0.187121
0.278767 0.0225071 0.200732
0.377157 0.0424353 0.217792
0.462242 0.0658579 0.234394
0.529747 0.0885023 0.248203
0.588479 0.107836 0.26067
0.00225834 0.0626535 0.235508
0.00929274 0.0258488 0.307393
0.108995 0.0134737 0.306615
0.259266 0.0287022 0.278477
0.394781 0.0434882 0.25452
0.507576 0.062501 0.243656
0.596414 0.0867628 0.244419
0.644053 0.128191 0.264576
0.670848 0.179965 0.298466
0.0206912 0.13817 0.269459
0.0284123 0.145174 0.368734
0.111131 0.123003 0.387411
0.308034 0.122377 0.345251
0.5075 0.115175 0.288426
0.672038 0.104204 0.240513
0.764492 0.126543 0.231617
0.759793 0.199802 0.275441
0.749691 0.282048 0.337667
0.051667 0.244099 0.31342
0.0702831 0.304784 0.405905
0.151369 0.337255 0.436988
0.325978 0.324819 0.372717
0.581537 0.301228 0.282872
0.779141 0.281834 0.236469
0.842145 0.305318 0.256413
0.83444 0.351278 0.309331
0.842893 0.400885 0.371893
0.0995499 0.378607 0.37293
0.128969 0.468727 0.450446
0.190356 0.544579 0.478813
0.340414 0.581186 0.410788
0.606836 0.570169 0.300328
0.83801 0.540429 0.238758
0.920806 0.521798 0.266239
0.90161 0.533837 0.353033
0.887907 0.564675 0.440726
0.159213 0.515435 0.446128
0.183108 0.616114 0.504555
0.217685 0.742733 0.509468
0.367605 0.792981 0.458488
0.594034 0.781476 0.395972
0.825422 0.775738 0.321828
0.938048 0.739696 0.326162
0.929747 0.713741 0.417197
0.913298 0.716731 0.511727
0.205035 0.634409 0.518471
0.207279 0.766217 0.542916
0.256703 0.890196 0.529381
0.413077 0.897749 0.50753
0.596231 0.87744 0.482612
0.783627 0.890547 0.438422
0.918257 0.887388 0.419394
0.935439 0.852079 0.487511
0.921675 0.832242 0.575235
0.204883 0.774746 0.570352
0.23859 0.868528 0.581704
0.337072 0.904173 0.580102
0.47155 0.898344 0.575662
0.611627 0.894286 0.567269
0.745617 0.905608 0.55584
0.856901 0.923049 0.548852
0.917708 0.927214 0.569558
0.918502 0.904036 0.624094
0.225422 0.894881 0.616281
0.306523 0.901946 0.62475
0.403265 0.905577 0.625895
0.51809 0.905577 0.622644
0.636744 0.907271 0.623178
0.742641 0.914702 0.631083
0.822522 0.926024 0.643168
0.873182 0.936919 0.652979
0.90808 0.945632 0.660471
0 0 0.289509
0 0 0.256565
0.0519722 0 0.237568
0.129595 0 0.231418
0.224811 0.00688182 0.238087
0.323812 0.0297856 0.251728
0.414603 0.0569009 0.268666
0.490272 0.0823682 0.284276
0.558129 0.104036 0.297047
0 0.0490578 0.324056
0 0.00375372 0.391455
0.0356909 0 0.391867
0.162875 0 0.355886
0.299535 0.0178683 0.324575
0.422919 0.0445258 0.30901
0.527596 0.0718547 0.307088
0.594537 0.115053 0.321126
0.637736 0.171191 0.348196
0.00767529 0.117021 0.35996
0 0.0962387 0.467658
0.024979 0.0584421 0.52256
0.178256 0.0475776 0.486686
0.37528 0.0662699 0.422293
0.542855 0.0760967 0.372229
0.662089 0.100816 0.346944
0.694514 0.179049 0.363821
0.73518 0.247578 0.395193
0.0346075 0.215503 0.403586
0.0240482 0.245609 0.50457
0.0562905 0.255818 0.575372
0.191119 0.2318 0.569696
0.422217 0.218601 0.499046
0.638163 0.199847 0.426291
0.767422 0.224155 0.387793
0.790158 0.304448 0.408133
0.82388 0.376013 0.454948
0.0788128 0.35201 0.45742
0.0778821 0.424002 0.539117
0.0952468 0.484215 0.599756
0.217029 0.499931 0.599252
0.45417 0.475227 0.530037
0.702235 0.442145 0.450446
0.848737 0.436759 0.419196
0.871366 0.481163 0.463249
0.878874 0.544198 0.537224
0.137697 0.508049 0.519112
0.132326 0.605264 0.587106
0.133471 0.713664 0.634806
0.241428 0.766247 0.625086
0.466514 0.73312 0.572717
0.717769 0.701381 0.498497
0.878096 0.671 0.470909
0.90985 0.672618 0.529564
0.911406 0.705013 0.617792
0.1841 0.654169 0.59295
0.177111 0.766384 0.644511
0.176699 0.890013 0.676692
0.303288 0.910887 0.659083
0.498238 0.876432 0.622095
0.701946 0.858473 0.580987
0.873198 0.849943 0.55317
0.923217 0.828489 0.60061
0.924651 0.828031 0.683513
0.193683 0.806012 0.675227
0.204257 0.889586 0.706371
0.273259 0.927993 0.707973
0.397147 0.927047 0.691997
0.548257 0.915724 0.673793
0.700725 0.910582 0.661387
0.83386 0.917037 0.658396
0.913741 0.921691 0.680491
0.926329 0.905867 0.731762
0.227314 0.924544 0.74052
0.27921 0.931502 0.743755
0.356542 0.93434 0.735332
0.468528 0.932845 0.721248
0.600259 0.930617 0.715175
0.7243 0.931289 0.72137
0.820401 0.936309 0.736263
0.878782 0.943511 0.752316
0.917601 0.950179 0.76585
0 0 0.376883
0 0 0.335317
0.0119326 0 0.303777
0.0769665 0 0.284489
0.165454 0 0.280262
0.266041 0.016495 0.287343
0.365286 0.0466926 0.299657
0.455528 0.0746929 0.312428
0.538827 0.0996719 0.324804
0 0.0404517 0.413046
0 0 0.468956
0 0 0.469245
0.0745556 0 0.430625
0.202228 0 0.393729
0.336797 0.0251774 0.370703
0.461784 0.055436 0.360662
0.553491 0.0997024 0.365164
0.615579 0.160281 0.384512
9.15541e-05 0.105058 0.450614
0 0.0692454 0.55314
0 0.0213474 0.631266
0.0556954 0 0.611933
0.237232 0.0145266 0.541344
0.424002 0.0382544 0.479973
0.576883 0.0689555 0.438102
0.646891 0.154345 0.430213
0.704387 0.235813 0.451987
0.0284123 0.201785 0.495247
0 0.205356 0.596826
0 0.185473 0.703441
0.0591592 0.148272 0.735851
0.256794 0.122942 0.679225
0.495979 0.123903 0.592279
0.674495 0.158938 0.525277
0.746212 0.263416 0.505013
0.802594 0.355261 0.532372
0.0720836 0.338231 0.549233
0.048127 0.382254 0.640635
0.0150912 0.41178 0.740887
0.0810864 0.407324 0.783536
0.302113 0.379416 0.729381
0.559762 0.339086 0.66508
0.753796 0.359396 0.598184
0.831586 0.433692 0.588312
0.866682 0.52639 0.629297
0.125399 0.500969 0.612985
0.0988785 0.577996 0.700633
0.0681773 0.654612 0.782834
0.142519 0.68217 0.801434
0.338781 0.6645 0.766888
0.590021 0.625376 0.699718
0.786801 0.60499 0.648142
0.875349 0.633494 0.658396
0.905821 0.694606 0.715984
0.180591 0.659785 0.689738
0.169818 0.740246 0.754925
0.145052 0.835309 0.816602
0.218463 0.877546 0.826307
0.402136 0.855894 0.785122
0.61294 0.825071 0.744213
0.811154 0.815152 0.71516
0.898497 0.80267 0.720913
0.924727 0.823285 0.777996
0.200793 0.817044 0.790921
0.199878 0.882902 0.831388
0.237186 0.923476 0.842481
0.338308 0.931517 0.824109
0.48748 0.925383 0.800641
0.652674 0.914824 0.784588
0.800839 0.909316 0.777234
0.901198 0.912612 0.787869
0.932235 0.905837 0.82089
0.249683 0.937682 0.86389
0.27985 0.942931 0.861173
0.337469 0.944533 0.845167
0.438743 0.94374 0.823957
0.57348 0.943404 0.811902
0.708919 0.943801 0.812375
0.816297 0.945281 0.822019
0.883055 0.948882 0.835981
0.927337 0.953674 0.850309
0 0 0.457084
0 0 0.417227
0 0 0.379721
0.0254673 0 0.353033
0.103426 0 0.337682
0.202792 0.00369268 0.332876
0.311055 0.0347295 0.334783
0.418647 0.06598 0.341253
0.522179 0.0953078 0.35053
0 0.0374304 0.493324
0 0 0.54139
0 0 0.543374
0.00889601 0 0.510658
0.114855 0 0.474678
0.249577 0.00834669 0.444129
0.389883 0.0407111 0.423606
0.507561 0.0867018 0.414633
0.596246 0.149477 0.418891
0 0.1019 0.531441
0 0.0623026 0.623438
0 0.0180362 0.700008
0 0 0.691325
0.121584 0 0.644526
0.302953 0.0172885 0.586633
0.479011 0.0513313 0.536324
0.595926 0.132326 0.503273
0.68014 0.222538 0.502449
0.0303807 0.200229 0.575433
0 0.186633 0.670283
0 0.154208 0.772107
0.0122072 0.128283 0.797406
0.139925 0.0987259 0.782879
0.350256 0.0988174 0.723857
0.55964 0.130465 0.658701
0.692149 0.232929 0.609461
0.780377 0.33698 0.60621
0.0746777 0.334997 0.628977
0.0376898 0.354269 0.721828
0 0.356268 0.824201
0.045182 0.34081 0.860777
0.214176 0.330907 0.828382
0.419242 0.312276 0.795163
0.634562 0.322759 0.754528
0.771725 0.405905 0.712734
0.852064 0.50985 0.712978
0.120821 0.494911 0.697932
0.0885176 0.545296 0.78822
0.0534829 0.584085 0.872175
0.113222 0.588129 0.893141
0.269322 0.575738 0.8692
0.474647 0.561028 0.830442
0.680095 0.563226 0.800839
0.821591 0.607019 0.782803
0.897688 0.684047 0.797696
0.191867 0.642039 0.760327
0.159426 0.705318 0.842741
0.136721 0.762417 0.903258
0.200076 0.783352 0.90779
0.337026 0.786526 0.891386
0.529976 0.775616 0.864057
0.721386 0.769802 0.842557
0.854612 0.779568 0.829099
0.922576 0.817487 0.849226
0.235157 0.773098 0.841993
0.225101 0.826078 0.886107
0.236744 0.870069 0.91165
0.308598 0.896712 0.911727
0.44123 0.903639 0.895079
0.605707 0.901869 0.881056
0.760113 0.899535 0.874708
0.875822 0.901061 0.873487
0.935882 0.903746 0.881407
0.269688 0.911376 0.92932
0.286244 0.927001 0.931685
0.332113 0.93135 0.913512
0.422599 0.940581 0.897917
0.554101 0.945632 0.885069
0.693843 0.949035 0.881468
0.806516 0.951232 0.884993
0.883482 0.95346 0.893034
0.938109 0.956832 0.904509
0 0 0.526558
0 0 0.498589
0 0 0.470054
0 0 0.443061
0.0462959 0 0.418402
0.137926 0 0.396612
0.252247 0.0224765 0.381231
0.377157 0.0561685 0.375174
0.501549 0.0899214 0.376349
0 0.0425574 0.561959
0 0.0187381 0.594156
0 0.00779736 0.595148
0 0 0.580041
0.0573739 0 0.556313
0.174578 0.0119783 0.522454
0.316167 0.0413977 0.490715
0.455344 0.0824292 0.469993
0.572396 0.141634 0.458991
0.00204471 0.109453 0.599359
0 0.0821393 0.658335
0 0.0651713 0.690196
0.0134279 0.0560311 0.693782
0.0776532 0.0394293 0.688075
0.215457 0.0543221 0.652674
0.382055 0.0839399 0.610178
0.534051 0.134539 0.578225
0.653437 0.212894 0.55964
0.0371405 0.207095 0.641398
0.011841 0.190845 0.70489
0.00950637 0.175402 0.749325
0.051133 0.167071 0.769329
0.126085 0.15433 0.78616
0.267552 0.154314 0.771817
0.453712 0.183703 0.730266
0.617609 0.248112 0.690288
0.75021 0.325704 0.6813
0.0792096 0.33492 0.6925
0.0542458 0.336751 0.757183
0.0507057 0.332601 0.805844
0.0966812 0.326711 0.832105
0.209842 0.335668 0.829709
0.356527 0.341955 0.82919
0.533852 0.364034 0.810132
0.694179 0.414603 0.789364
0.824842 0.495659 0.782696
0.121859 0.484504 0.758221
0.104799 0.506447 0.818067
0.114519 0.51838 0.854109
0.173419 0.524239 0.867308
0.275944 0.533288 0.87863
0.430488 0.543969 0.876692
0.6047 0.560708 0.862943
0.759365 0.597223 0.855024
0.877592 0.667903 0.853468
0.185977 0.622812 0.813169
0.181521 0.652918 0.855787
0.195529 0.678889 0.881621
0.250584 0.699672 0.894377
0.351492 0.718135 0.903899
0.502205 0.730129 0.902663
0.665736 0.740642 0.897246
0.809216 0.761135 0.895384
0.913619 0.805966 0.894667
0.2607 0.72105 0.843244
0.252384 0.760937 0.880049
0.268284 0.794675 0.901823
0.328206 0.823758 0.912963
0.434607 0.848829 0.920226
0.579019 0.865507 0.922301
0.725277 0.875639 0.922011
0.848524 0.884184 0.921569
0.937652 0.899657 0.918868
0.289403 0.840757 0.913939
0.303853 0.867735 0.923156
0.3393 0.896345 0.929473
0.419532 0.924971 0.934432
0.542 0.938186 0.9281
0.679133 0.948135 0.926497
0.797147 0.953033 0.925902
0.884413 0.956374 0.928206
0.950713 0.960433 0.935622
0 0.00282292 0.589685
0 0.00474556 0.578943
0 0.00436408 0.56611
0 0 0.546746
0 0 0.516548
0.0739757 0 0.476814
0.190539 0.0122835 0.439536
0.330602 0.0457465 0.414939
0.475563 0.0831464 0.402426
0 0.0525826 0.623117
0 0.051957 0.626398
0 0.052491 0.632273
0.0108492 0.0493019 0.63653
0.031632 0.0276493 0.631479
0.119097 0.0365301 0.597391
0.248081 0.0614939 0.554437
0.395422 0.0959487 0.521859
0.542687 0.133837 0.502937
0.00903334 0.120165 0.6589
0.0112612 0.116411 0.671458
0.0202182 0.113451 0.690806
0.0461738 0.114168 0.712673
0.084596 0.105837 0.728588
0.169711 0.105119 0.715511
0.31133 0.133745 0.674662
0.46685 0.168536 0.640909
0.61944 0.206012 0.620661
0.0436408 0.213886 0.698009
0.045716 0.20824 0.714473
0.0557412 0.203357 0.739269
0.0870527 0.204593 0.77052
0.147341 0.214725 0.795392
0.258991 0.24126 0.783185
0.395712 0.266392 0.764202
0.547005 0.298497 0.743282
0.690547 0.330694 0.733486
0.0825818 0.332601 0.744274
0.0863508 0.329015 0.760357
0.100969 0.327321 0.783536
0.143404 0.334585 0.812329
0.229129 0.358221 0.826215
0.342687 0.386847 0.839124
0.48687 0.425162 0.832471
0.629129 0.459968 0.81973
0.758526 0.487785 0.811032
0.124804 0.4692 0.799725
0.136248 0.471321 0.809735
0.166354 0.477897 0.819333
0.22472 0.49543 0.835966
0.311757 0.523018 0.859449
0.435004 0.558419 0.873991
0.575326 0.594095 0.87921
0.710323 0.62295 0.87866
0.830274 0.6439 0.875074
0.190372 0.59707 0.836332
0.207691 0.607431 0.840421
0.239918 0.624277 0.84802
0.301503 0.650538 0.864332
0.39675 0.682033 0.883986
0.522179 0.714626 0.899046
0.656123 0.744335 0.907286
0.7794 0.767529 0.911711
0.886229 0.783551 0.91516
0.252705 0.699306 0.860685
0.267491 0.721096 0.869368
0.299687 0.746487 0.879606
0.36672 0.776013 0.892851
0.468742 0.806271 0.907118
0.595453 0.833249 0.918029
0.722408 0.855879 0.925185
0.834211 0.874067 0.931411
0.930419 0.889586 0.941848
0.290074 0.792676 0.898268
0.310094 0.822492 0.906325
0.346365 0.857359 0.91989
0.420462 0.889799 0.932845
0.530907 0.91722 0.943832
0.661555 0.937072 0.951003
0.783825 0.950393 0.955154
0.882963 0.958846 0.957061
0.964706 0.964706 0.956893
