luts/booz_kodak5219/koda5219.cube
TITLE "Custom LUT"
LUT_3D_SIZE 5
# S-Log3/Sony S-Gamut3.cine (Venice) -> LA - koda5219/LA - koda5219, CineEI Shift 0.00, Black Level 3.90% IRE, Input 109% -> Output 100% - Created with LUTCalc v4.03 by Ben Turley January 2022
0.03104158 0.03909315 0.03914718
0.13645468 0.04481189 0.02616779
0.59758320 0.09041184 0.05625713
0.64240226 0.07477225 0.06131029
0.64240226 0.07477225 0.06131029
0.03523106 0.08063679 0.06548805
0.14974771 0.11189603 0.05287350
0.58741465 0.09368522 0.05545358
0.64240226 0.07477225 0.06131029
0.64240226 0.07477225 0.06131029
0.04263716 0.33789750 0.36821802
0.04170081 0.33036604 0.33179036
0.88376552 0.66016651 0.26580489
0.89063523 0.44060031 0.11482912
0.64240226 0.07477225 0.06131029
0.33414468 0.66334167 0.49779970
0.46533863 0.74816545 0.51942902
0.90329292 0.88038257 0.72346404
0.94434590 0.88167585 0.72219439
0.94645878 0.87839107 0.68708388
0.94591668 0.88553605 0.75193216
0.94575628 0.88530461 0.75226239
0.94462860 0.88344873 0.75448616
0.94393407 0.88229880 0.73710446
0.94393407 0.88229880 0.73710446
0.02978866 0.03256311 0.04848928
0.11665577 0.04017784 0.05167591
0.59807572 0.09113443 0.06023131
0.64240226 0.07477225 0.06131029
0.64240226 0.07477225 0.06131029
0.02181882 0.07041661 0.11217451
0.09949377 0.09721761 0.09382071
0.58788440 0.09442707 0.06373828
0.64240226 0.07477225 0.06131029
0.64240226 0.07477225 0.06131029
0.04573553 0.35128860 0.43057768
0.04372973 0.33497103 0.39518752
0.86450744 0.66667831 0.30872920
0.88983337 0.43985696 0.11374871
0.64240226 0.07477225 0.06131029
0.30010429 0.65338130 0.50352070
0.44788817 0.74248074 0.51662792
0.90901476 0.87951989 0.69538714
0.94434664 0.88167430 0.72537489
0.94647070 0.87837298 0.68806248
0.94591463 0.88553305 0.75007083
0.94575429 0.88530169 0.75042990
0.94462693 0.88344573 0.75283907
0.94393407 0.88229880 0.73710446
0.94393407 0.88229880 0.73710446
0.02062219 0.02062219 0.13850090
0.06853144 0.02267238 0.16022743
0.42808552 0.04720991 0.23393552
0.49479409 0.04936944 0.18998920
0.64240226 0.07477225 0.06131029
0.02294811 0.02294811 0.15920163
0.03670372 0.02323857 0.16454978
0.41062953 0.04613701 0.23234033
0.48757213 0.04937788 0.18752586
0.64240226 0.07477225 0.06131029
0.05037829 0.34126343 0.53241801
0.04852813 0.30142889 0.50335575
0.64213960 0.62017153 0.58143301
0.76943690 0.38802151 0.31616639
0.64240226 0.07477225 0.06131029
0.09964192 0.53756378 0.69903362
0.15993308 0.61255634 0.73958857
0.81078271 0.86465890 0.83211041
0.94094149 0.88343747 0.76568713
0.94656421 0.87822681 0.69586760
0.94601637 0.88547128 0.72885275
0.94573877 0.88527891 0.73011690
0.94461397 0.88342224 0.73420380
0.94393407 0.88229880 0.73710446
0.94393407 0.88229880 0.73710446
0.02699296 0.02699296 0.17074284
0.87598895 0.88204619 0.22447647
0.37768633 0.05171816 0.18884057
0.39734175 0.04463080 0.15864818
0.43842152 0.04486769 0.11046177
0.02693245 0.02693245 0.17231025
0.82597787 0.71122719 0.21657136
0.36607439 0.05019366 0.19150931
0.39353016 0.04463086 0.16099533
0.43617703 0.04486769 0.11271356
0.03871965 0.11931875 0.29664091
0.03990333 0.11952424 0.30149907
0.27306829 0.05188134 0.23304015
0.36505634 0.04463133 0.18404194
0.41700356 0.04486769 0.13121198
0.15502607 0.61076738 0.74028516
0.30274404 0.66991434 0.76751493
0.74526394 0.83603243 0.84589345
0.90577364 0.86618943 0.85219993
0.91125148 0.84620619 0.82579864
0.85723913 0.86443145 0.86018734
0.86033726 0.86517684 0.86048465
0.87336097 0.86813211 0.86196013
0.91126010 0.88062081 0.86232608
0.92164071 0.88203679 0.85387869
0.86929331 0.88533229 0.15966978
0.87993386 0.88130804 0.19652419
0.66960491 0.04302734 0.13603722
0.36092589 0.04461394 0.06543275
0.46100036 0.04461394 0.05209999
0.87375913 0.88574393 0.17512488
0.87939855 0.88025054 0.19646734
0.66563779 0.04303548 0.13681627
0.36092610 0.04461394 0.06638199
0.46003069 0.04461394 0.05256782
0.86781049 0.87983141 0.19720637
0.86834474 0.83874395 0.19603299
0.63606122 0.04309849 0.14291997
0.36092778 0.04461394 0.07403687
0.45228518 0.04461394 0.05703736
0.68418922 0.77936010 0.81475493
0.71928639 0.78644834 0.81848703
0.81827840 0.80186425 0.82445890
0.86915565 0.77577873 0.79893211
0.36258870 0.04461394 0.18690833
0.86713475 0.86631693 0.86409151
0.86810375 0.86651651 0.86432255
0.87712599 0.86836451 0.86510220
0.90581083 0.87736109 0.86742677
0.91335413 0.87985561 0.86763894
