luts/booz_kodak5219/koda5219.cube
TITLE "Custom LUT"
LUT_3D_SIZE 33
# S-Log3/Sony S-Gamut3.cine (Venice) -> LA - koda5219/LA - koda5219, CineEI Shift 0.00, Black Level 3.90% IRE, Input 109% -> Output 100% - Created with LUTCalc v4.03 by Ben Turley January 2022
0.03104158 0.03909315 0.03914718
0.03239782 0.03908799 0.03908500
0.03519532 0.03908286 0.03886219
0.03855325 0.03912605 0.03863439
0.04442144 0.03928782 0.03610886
0.05124991 0.03949068 0.03255339
0.06651900 0.04038328 0.02894323
0.09354574 0.04200116 0.02583780
0.13645468 0.04481189 0.02616779
0.19649433 0.04918175 0.03069508
0.26226914 0.05493603 0.03701153
0.32674688 0.06467147 0.04120072
0.39301466 0.07437111 0.04467858
0.45669943 0.08412747 0.04801081
0.51449732 0.09182695 0.05108488
0.55733986 0.09108263 0.05369412
0.59758320 0.09041184 0.05625713
0.62263455 0.09067027 0.05986245
0.64516603 0.09098215 0.06310827
0.64496713 0.08399765 0.06230950
0.64425618 0.07651954 0.06164359
0.64345009 0.07598040 0.06144751
0.64262864 0.07503200 0.06133989
0.64240226 0.07477225 0.06131029
0.64240226 0.07477225 0.06131029
0.64240226 0.07477225 0.06131029
0.64240226 0.07477225 0.06131029
0.64240226 0.07477225 0.06131029
0.64240226 0.07477225 0.06131029
0.64240226 0.07477225 0.06131029
0.64240226 0.07477225 0.06131029
0.64240226 0.07477225 0.06131029
0.64240226 0.07477225 0.06131029
0.03169541 0.03940498 0.03919801
0.03205509 0.03932864 0.03917849
0.03459012 0.03929176 0.03902952
0.03725483 0.03928585 0.03862917
0.04424684 0.03945568 0.03659238
0.05118810 0.03965698 0.03298700
0.06711656 0.04049996 0.02917016
0.09357965 0.04207436 0.02606070
0.13478811 0.04463135 0.02618810
0.19464593 0.04898509 0.03064609
0.25984156 0.05478900 0.03684455
0.32456583 0.06445709 0.04110099
0.39126565 0.07408667 0.04458130
0.45517061 0.08383101 0.04799663
0.51258924 0.09150265 0.05109303
0.55658786 0.09108073 0.05359708
0.59699715 0.09042959 0.05614411
0.62243477 0.09077533 0.05976221
0.64495772 0.09108817 0.06299566
0.64496654 0.08410210 0.06230894
0.64425574 0.07662827 0.06164318
0.64344970 0.07597996 0.06144746
0.64262835 0.07503166 0.06133985
0.64240226 0.07477225 0.06131029
0.64240226 0.07477225 0.06131029
0.64240226 0.07477225 0.06131029
0.64240226 0.07477225 0.06131029
0.64240226 0.07477225 0.06131029
0.64240226 0.07477225 0.06131029
0.64240226 0.07477225 0.06131029
0.64240226 0.07477225 0.06131029
0.64240226 0.07477225 0.06131029
0.64240226 0.07477225 0.06131029
0.03306986 0.04000783 0.03919257
0.03337478 0.03991106 0.03918169
0.03306860 0.03959362 0.03926925
0.03507345 0.03952370 0.03913779
0.04405932 0.03970737 0.03719516
0.05139700 0.03989837 0.03345536
0.06787918 0.04076618 0.02966238
0.09336187 0.04234574 0.02632619
0.13418076 0.04479668 0.02642462
0.19113243 0.04868192 0.03037459
0.25708403 0.05449232 0.03668708
0.32249279 0.06408686 0.04100444
0.38926472 0.07375901 0.04448294
0.45339858 0.08351981 0.04789760
0.51076275 0.09121488 0.05109220
0.55506789 0.09089811 0.05355899
0.59633029 0.09043059 0.05603180
0.62223420 0.09088080 0.05966245
0.64474954 0.09119454 0.06288352
0.64496595 0.08420699 0.06230838
0.64425529 0.07673728 0.06164277
0.64344931 0.07597951 0.06144741
0.64262805 0.07503133 0.06133982
0.64240226 0.07477225 0.06131029
0.64240226 0.07477225 0.06131029
0.64240226 0.07477225 0.06131029
0.64240226 0.07477225 0.06131029
0.64240226 0.07477225 0.06131029
0.64240226 0.07477225 0.06131029
0.64240226 0.07477225 0.06131029
0.64240226 0.07477225 0.06131029
0.64240226 0.07477225 0.06131029
0.64240226 0.07477225 0.06131029
0.03687593 0.04133672 0.03907560
0.03660489 0.04110397 0.03908821
0.03616750 0.04071450 0.03917826
0.03589583 0.04040812 0.03927438
0.04418843 0.04078067 0.03826964
0.05179999 0.04090999 0.03457054
0.06912387 0.04153063 0.03051271
0.09413766 0.04297470 0.02696588
0.13460113 0.04525009 0.02647237
0.19010710 0.04876189 0.03030811
0.25375198 0.05424635 0.03653372
0.31994334 0.06373994 0.04090865
0.38720696 0.07335759 0.04438542
0.45149732 0.08328926 0.04779693
0.50864843 0.09103382 0.05098647
0.55362034 0.09084978 0.05349983
0.59563440 0.09044795 0.05592643
0.62184182 0.09095271 0.05956175
0.64454003 0.09130127 0.06277187
0.64496536 0.08431231 0.06230782
0.64425485 0.07684657 0.06164236
0.64344892 0.07597906 0.06144736
0.64262776 0.07503099 0.06133978
0.64240226 0.07477225 0.06131029
0.64240226 0.07477225 0.06131029
0.64240226 0.07477225 0.06131029
0.64240226 0.07477225 0.06131029
0.64240226 0.07477225 0.06131029
0.64240226 0.07477225 0.06131029
0.64240226 0.07477225 0.06131029
0.64240226 0.07477225 0.06131029
0.64240226 0.07477225 0.06131029
0.64240226 0.07477225 0.06131029
0.04034059 0.04388848 0.03869433
0.04027365 0.04373262 0.03871206
0.04029837 0.04365907 0.03873120
0.04037591 0.04342157 0.03891003
0.04707330 0.04459621 0.03844888
0.05423253 0.04517382 0.03733382
0.07144630 0.04519480 0.03313601
0.09593996 0.04571221 0.02920722
0.13533803 0.04782586 0.02761850
0.18856422 0.05100703 0.02970488
0.25180838 0.05550043 0.03603384
0.31755689 0.06372259 0.04073255
0.38476789 0.07307472 0.04422478
0.44911251 0.08286729 0.04765967
0.50645442 0.09082307 0.05088134
0.55194640 0.09081070 0.05340383
0.59465035 0.09055604 0.05581757
0.62117583 0.09104150 0.05949035
0.64433232 0.09140835 0.06266072
0.64496477 0.08442154 0.06230726
0.64425441 0.07695614 0.06164195
0.64344853 0.07597862 0.06144731
0.64262747 0.07503066 0.06133974
0.64240226 0.07477225 0.06131029
0.64240226 0.07477225 0.06131029
0.64240226 0.07477225 0.06131029
0.64240226 0.07477225 0.06131029
0.64240226 0.07477225 0.06131029
0.64240226 0.07477225 0.06131029
0.64240226 0.07477225 0.06131029
0.64240226 0.07477225 0.06131029
0.64240226 0.07477225 0.06131029
0.64240226 0.07477225 0.06131029
0.04262862 0.04753094 0.03870717
0.04287484 0.04719508 0.03844953
0.04291923 0.04701973 0.03846227
0.04346702 0.04713544 0.03848977
0.05003323 0.04827614 0.03864319
0.05685373 0.04931473 0.03818189
0.07442627 0.04975311 0.03563498
0.09864407 0.04926813 0.03129307
0.13808668 0.05049884 0.02967139
0.18920921 0.05347163 0.03036183
0.25023725 0.05803106 0.03547011
0.31568502 0.06452931 0.04051175
0.38252945 0.07303719 0.04401929
0.44591449 0.08235366 0.04744279
0.50337088 0.09046811 0.05068938
0.54987279 0.09087610 0.05330874
0.59369881 0.09066135 0.05570753
0.62070266 0.09131650 0.05947291
0.64407488 0.09156524 0.06257880
0.64495279 0.08498517 0.06230129
0.64425396 0.07706600 0.06164154
0.64344814 0.07597817 0.06144726
0.64262718 0.07503032 0.06133970
0.64240226 0.07477225 0.06131029
0.64240226 0.07477225 0.06131029
0.64240226 0.07477225 0.06131029
0.64240226 0.07477225 0.06131029
0.64240226 0.07477225 0.06131029
0.64240226 0.07477225 0.06131029
0.64240226 0.07477225 0.06131029
0.64240226 0.07477225 0.06131029
0.64240226 0.07477225 0.06131029
0.64240226 0.07477225 0.06131029
0.04349134 0.05523386 0.04380200
0.04424117 0.05478166 0.04308350
0.04507930 0.05439436 0.04241451
0.04594059 0.05469863 0.04230727
0.05045868 0.05730911 0.04191180
0.05699894 0.05873418 0.04152526
0.07634315 0.06233089 0.04094827
0.10153998 0.06420239 0.03909409
0.14695666 0.06501640 0.03785265
0.20270448 0.06713150 0.03615908
0.26090472 0.06857606 0.03803967
0.32312925 0.07232606 0.04088281
0.38412536 0.07632439 0.04400514
0.44367462 0.08316007 0.04718599
0.49943713 0.08997003 0.05044473
0.54657012 0.09077776 0.05308911
0.59179257 0.09104451 0.05557951
0.61958551 0.09154071 0.05939134
0.64366930 0.09197116 0.06258334
0.64470601 0.08513962 0.06217605
0.64425341 0.07778580 0.06164103
0.64344766 0.07597761 0.06144719
0.64262681 0.07502990 0.06133965
0.64240226 0.07477225 0.06131029
0.64240226 0.07477225 0.06131029
0.64240226 0.07477225 0.06131029
0.64240226 0.07477225 0.06131029
0.64240226 0.07477225 0.06131029
0.64240226 0.07477225 0.06131029
0.64240226 0.07477225 0.06131029
0.64240226 0.07477225 0.06131029
0.64240226 0.07477225 0.06131029
0.64240226 0.07477225 0.06131029
0.04398430 0.06427430 0.04864300
0.04517911 0.06359136 0.04753524
0.04645106 0.06301071 0.04648533
0.04838059 0.06311716 0.04557882
0.05309462 0.06580798 0.04509631
0.05787917 0.06841940 0.04468974
0.07734765 0.07275816 0.04403817
0.10396754 0.07806937 0.04331472
0.15131035 0.08127953 0.04184391
0.21349468 0.08335200 0.03963383
0.27718922 0.08487323 0.03999895
0.33769204 0.08503830 0.04210442
0.39737930 0.08705955 0.04472293
0.44565066 0.08823715 0.04717603
0.49770300 0.09253264 0.05018979
0.54346834 0.09167914 0.05300952
0.58923657 0.09192764 0.05547649
0.61718924 0.09208155 0.05928624
0.64281688 0.09254007 0.06258526
0.64446791 0.08565238 0.06217524
0.64422702 0.07808966 0.06162327
0.64344698 0.07597682 0.06144710
0.64262630 0.07502931 0.06133959
0.64240226 0.07477225 0.06131029
0.64240226 0.07477225 0.06131029
0.64240226 0.07477225 0.06131029
0.64240226 0.07477225 0.06131029
0.64240226 0.07477225 0.06131029
0.64240226 0.07477225 0.06131029
0.64240226 0.07477225 0.06131029
0.64240226 0.07477225 0.06131029
0.64240226 0.07477225 0.06131029
0.64240226 0.07477225 0.06131029
0.03523106 0.08063679 0.06548805
0.03632329 0.07967664 0.06320515
0.03831403 0.07894977 0.06164509
0.03864874 0.07865014 0.06018492
0.04060962 0.07884288 0.05739281
0.04554830 0.08135394 0.05698496
0.05975066 0.09116839 0.05570689
0.08388414 0.09835293 0.05462329
0.14974771 0.11189603 0.05287350
0.22338614 0.12044240 0.05087225
0.29556498 0.12049270 0.04679799
0.36174043 0.11928321 0.04504423
0.42253419 0.11553738 0.04679297
0.46908092 0.11132935 0.04859829
0.50949536 0.10726023 0.05065394
0.54823063 0.09993213 0.05294456
0.58741465 0.09368522 0.05545358
0.61326031 0.09250378 0.05919031
0.63965092 0.09262234 0.06246609
0.64382905 0.08622853 0.06228214
0.64442836 0.07858828 0.06165623
0.64344607 0.07612537 0.06144698
0.64262562 0.07502853 0.06133950
0.64240226 0.07477225 0.06131029
0.64240226 0.07477225 0.06131029
0.64240226 0.07477225 0.06131029
0.64240226 0.07477225 0.06131029
0.64240226 0.07477225 0.06131029
0.64240226 0.07477225 0.06131029
0.64240226 0.07477225 0.06131029
0.64240226 0.07477225 0.06131029
0.64240226 0.07477225 0.06131029
0.64240226 0.07477225 0.06131029
0.01367036 0.09611829 0.07969110
0.01439204 0.09509031 0.07725461
0.01521880 0.09411168 0.07507979
0.01714636 0.09366228 0.07275513
0.01985888 0.09364062 0.06978131
0.02352364 0.09397846 0.06797862
0.04852159 0.10523943 0.06669823
0.06679975 0.11796483 0.06581214
0.13406374 0.13490462 0.06394604
0.22393913 0.15327063 0.06156987
0.30600309 0.15956467 0.05741637
0.38393352 0.15826750 0.05142617
0.45087447 0.15484960 0.04984065
0.49690158 0.14667086 0.05092552
0.54043872 0.13984880 0.05255189
0.57513950 0.12591487 0.05389850
0.61040740 0.11729217 0.05601693
0.62237022 0.10274601 0.05813786
0.64252586 0.09793606 0.06179096
0.64156148 0.08678940 0.06225955
0.64514509 0.07964750 0.06195039
0.64468948 0.07644169 0.06146395
0.64262472 0.07505359 0.06133938
0.64240226 0.07477225 0.06131029
0.64240226 0.07477225 0.06131029
0.64240226 0.07477225 0.06131029
0.64240226 0.07477225 0.06131029
0.64240226 0.07477225 0.06131029
0.64240226 0.07477225 0.06131029
0.64240226 0.07477225 0.06131029
0.64240226 0.07477225 0.06131029
0.64240226 0.07477225 0.06131029
0.64240226 0.07477225 0.06131029
0.01722449 0.12631966 0.10909118
0.01693461 0.12424932 0.10570658
0.01764499 0.12322191 0.10379783
0.01768368 0.12143516 0.10017382
0.01902800 0.12045803 0.09626950
0.02186691 0.12158531 0.09381020
0.02289746 0.12705669 0.08956934
0.05050303 0.13942609 0.08880183
0.09940895 0.16937590 0.08628232
0.18212354 0.19249513 0.08390392
0.30001154 0.21224780 0.07489387
0.39951412 0.21878352 0.06617793
0.47419111 0.21312094 0.05936844
0.52834300 0.20300115 0.05671947
0.57757388 0.19181798 0.05742034
0.61403603 0.17592463 0.05826058
0.64192312 0.15696394 0.05884479
0.64928877 0.13420763 0.05940426
0.65563137 0.11064324 0.06058201
0.65144494 0.09460601 0.06112390
0.64894258 0.08247734 0.06147569
0.64664432 0.07961535 0.06171635
0.64422953 0.07513092 0.06134767
0.64240226 0.07477225 0.06131029
0.64240226 0.07477225 0.06131029
0.64240226 0.07477225 0.06131029
0.64240226 0.07477225 0.06131029
0.64240226 0.07477225 0.06131029
0.64240226 0.07477225 0.06131029
0.64240226 0.07477225 0.06131029
0.64240226 0.07477225 0.06131029
0.64240226 0.07477225 0.06131029
0.64240226 0.07477225 0.06131029
0.02080995 0.15532572 0.13889098
0.02050581 0.15340630 0.13534197
0.02030915 0.15156523 0.13204443
0.02004794 0.14962425 0.12767172
0.01975224 0.14770744 0.12301211
0.02032931 0.14903947 0.11887418
0.02086224 0.15393644 0.11450168
0.02331307 0.16006597 0.11101449
0.08481239 0.19322583 0.10775388
0.14893692 0.23225153 0.10550483
0.26296702 0.25721564 0.09621226
0.39496915 0.27765075 0.08301625
0.48981758 0.28166277 0.07362600
0.55536875 0.27087001 0.06691611
0.61295768 0.25958738 0.06434834
0.65306382 0.24395483 0.06495286
0.68734924 0.22540101 0.06549843
0.69631024 0.19722201 0.06410153
0.70422861 0.17313095 0.06458825
0.68628961 0.13659859 0.06186050
0.67208247 0.10733742 0.06109888
0.65349118 0.08535293 0.06099238
0.64810291 0.08197546 0.06129292
0.64257850 0.07480037 0.06131029
0.64240226 0.07477225 0.06131029
0.64240226 0.07477225 0.06131029
0.64240226 0.07477225 0.06131029
0.64240226 0.07477225 0.06131029
0.64240226 0.07477225 0.06131029
0.64240226 0.07477225 0.06131029
0.64240226 0.07477225 0.06131029
0.64240226 0.07477225 0.06131029
0.64240226 0.07477225 0.06131029
0.02713047 0.18974871 0.19008396
0.02675180 0.18754898 0.18579046
0.02635300 0.18506887 0.18112155
0.02583471 0.18203818 0.17499251
0.02552596 0.18016149 0.17059391
0.02524937 0.17927411 0.16470825
0.02549330 0.18216557 0.16069427
0.02764077 0.18917020 0.15716373
0.03845225 0.21267044 0.15169599
0.10417774 0.25162618 0.14976982
0.23666043 0.31004083 0.14128504
0.37141387 0.33882635 0.12836813
0.49566910 0.34888089 0.10895865
0.57915919 0.34233603 0.09661096
0.64180745 0.33027823 0.08624491
0.68695182 0.31301286 0.07900015
0.72929287 0.29729567 0.07773191
0.74345639 0.27178607 0.07357046
0.75242267 0.24234954 0.07133944
0.73954960 0.20264863 0.06695517
0.71870184 0.16257298 0.06350258
0.69953357 0.13488458 0.06221097
0.67441366 0.10615646 0.06115598
0.64360722 0.07569106 0.06117687
0.64246504 0.07480757 0.06131029
0.64240226 0.07477225 0.06131029
0.64240226 0.07477225 0.06131029
0.64240226 0.07477225 0.06131029
0.64240226 0.07477225 0.06131029
0.64240226 0.07477225 0.06131029
0.64240226 0.07477225 0.06131029
0.64240226 0.07477225 0.06131029
0.64240226 0.07477225 0.06131029
0.03383582 0.22605662 0.24703391
0.03325927 0.22351173 0.24274581
0.03273567 0.22030456 0.23684283
0.03215125 0.21687011 0.23048789
0.03172357 0.21469980 0.22424636
0.03147410 0.21427959 0.21739559
0.03121172 0.21395080 0.20987867
0.03482701 0.22209962 0.20444993
0.04420248 0.24480926 0.19915356
0.05496959 0.27096015 0.19522117
0.18859198 0.33020416 0.18600323
0.34732154 0.40065144 0.17575635
0.47656821 0.42031845 0.15918290
0.58763727 0.42026864 0.13819525
0.66390577 0.41036648 0.12236490
0.71800711 0.38893121 0.10503060
0.76247162 0.36993655 0.09591654
0.78059007 0.34582168 0.08909203
0.79505535 0.31920160 0.08458724
0.79066150 0.29089037 0.07856620
0.77758962 0.25227412 0.07423735
0.75939839 0.21139070 0.07054859
0.72242930 0.16571722 0.06558676
0.68247864 0.11432653 0.06082549
0.65589565 0.08480113 0.06071283
0.64240226 0.07477225 0.06131029
0.64240226 0.07477225 0.06131029
0.64240226 0.07477225 0.06131029
0.64240226 0.07477225 0.06131029
0.64240226 0.07477225 0.06131029
0.64240226 0.07477225 0.06131029
0.64240226 0.07477225 0.06131029
0.64240226 0.07477225 0.06131029
0.03866388 0.26674006 0.29179918
0.03858267 0.26391595 0.28799983
0.03828698 0.26050448 0.28318586
0.03785590 0.25712154 0.27684152
0.03742767 0.25407448 0.27169079
0.03720830 0.25319593 0.26632666
0.03700767 0.25293062 0.26010939
0.03717777 0.25486493 0.25445071
0.04219071 0.27056020 0.24988761
0.04984109 0.29342212 0.24574288
0.12330009 0.36156526 0.24123759
0.28245899 0.43363942 0.23081461
0.46786265 0.49294604 0.21346092
0.59125580 0.50225144 0.19131502
0.69143103 0.49857470 0.17089064
0.76045633 0.48395668 0.15469949
0.80256938 0.46276982 0.13633222
0.82205475 0.43907031 0.12201630
0.84036503 0.41221139 0.11122446
0.83850549 0.38197327 0.09973567
0.83350870 0.34193612 0.08993988
0.82009648 0.30493435 0.08238356
0.79504502 0.26531512 0.07730715
0.76670652 0.21586508 0.07111496
0.72211755 0.16107145 0.06450227
0.66952314 0.10059095 0.06006619
0.64240226 0.07477225 0.06131029
0.64240226 0.07477225 0.06131029
0.64240226 0.07477225 0.06131029
0.64240226 0.07477225 0.06131029
0.64240226 0.07477225 0.06131029
0.64240226 0.07477225 0.06131029
0.64240226 0.07477225 0.06131029
0.04064527 0.30536103 0.33143122
0.04045088 0.30247671 0.32765130
0.04033988 0.29959674 0.32384301
0.04015451 0.29666020 0.31856570
0.04000020 0.29415807 0.31424923
0.03986405 0.29213904 0.31046414
0.03981256 0.29201414 0.30598737
0.03998039 0.29460436 0.30188216
0.04024364 0.29852078 0.29734599
0.05223375 0.32267744 0.29357859
0.12421319 0.39521206 0.29071329
0.20492645 0.46964810 0.28658513
0.39140514 0.52721436 0.26904948
0.59280148 0.58622811 0.24910534
0.70596947 0.59404801 0.22942745
0.78551814 0.58399053 0.21243689
0.85206087 0.56602122 0.19385511
0.88207032 0.54248732 0.17400856
0.88472038 0.51946448 0.15932349
0.88904654 0.49907950 0.14217046
0.89045250 0.47226860 0.12876685
0.88824455 0.44050112 0.11506033
0.86514224 0.39530689 0.10529515
0.83733568 0.33970098 0.09423640
0.80901875 0.28602326 0.08388190
0.76617804 0.21700788 0.07146419
0.70384789 0.14215544 0.06150414
0.64531134 0.07730335 0.06079097
0.64240226 0.07477225 0.06131029
0.64240226 0.07477225 0.06131029
0.64240226 0.07477225 0.06131029
0.64240226 0.07477225 0.06131029
0.64240226 0.07477225 0.06131029
0.04263716 0.33789750 0.36821802
0.04253423 0.33488168 0.36437065
0.04207399 0.33118288 0.35826063
0.04187097 0.32848094 0.35379080
0.04173563 0.32629943 0.34957403
0.04159957 0.32459440 0.34576317
0.04136012 0.32419539 0.34051566
0.04147431 0.32672884 0.33625992
0.04170081 0.33036604 0.33179036
0.05023422 0.35323449 0.32337857
0.10088218 0.41455657 0.31825243
0.16764403 0.48493075 0.31494951
0.36048149 0.57793170 0.32111325
0.56380243 0.63379807 0.30253763
0.71808248 0.67303193 0.29174308
0.81149638 0.67021541 0.27892702
0.88376552 0.66016651 0.26580489
0.89455706 0.64240026 0.25089642
0.91121419 0.62324155 0.22756828
0.91556622 0.60762678 0.20286272
0.92005039 0.58659187 0.17900381
0.91900550 0.55880940 0.15976601
0.91703794 0.52828999 0.14298542
0.90588954 0.49000805 0.12817479
0.89063523 0.44060031 0.11482912
0.86596511 0.37569997 0.10043486
0.82084967 0.29346844 0.08509871
0.75274632 0.19497353 0.07306665
0.65639372 0.08673295 0.06006291
0.64240226 0.07477225 0.06131029
0.64240226 0.07477225 0.06131029
0.64240226 0.07477225 0.06131029
0.64240226 0.07477225 0.06131029
0.04423800 0.36800563 0.39926425
0.04375245 0.36438465 0.39259114
0.04335551 0.36139830 0.38722367
0.04312193 0.35906682 0.38312706
0.04296121 0.35803414 0.37928018
0.04282328 0.35790919 0.37540263
0.04266789 0.35776458 0.37108525
0.04248269 0.35757879 0.36582872
0.04354134 0.36299216 0.36097362
0.05823962 0.39801518 0.35127203
0.07543648 0.43703976 0.33960348
0.13977560 0.49655487 0.33588538
0.34257393 0.59519350 0.34889260
0.56124962 0.68674012 0.35646769
0.70226382 0.72531464 0.34784817
0.82844978 0.75273573 0.34166406
0.89198926 0.74841441 0.33201294
0.91038061 0.73367221 0.33107228
0.92712950 0.71752314 0.31703489
0.93121040 0.70628165 0.29123953
0.93563824 0.68914083 0.26592313
0.93449881 0.66481548 0.24028776
0.93303503 0.64222078 0.21700449
0.92724517 0.61090156 0.17774358
0.91898635 0.57068773 0.15396012
0.91627452 0.53351365 0.14517403
0.90124576 0.47511781 0.12235800
0.88582448 0.38672832 0.10258312
0.80633193 0.26726890 0.07968982
0.67598024 0.11233110 0.06395959
0.64240226 0.07477225 0.06131029
0.64240226 0.07477225 0.06131029
0.64240226 0.07477225 0.06131029
0.04541316 0.38773949 0.42202766
0.04503998 0.38505534 0.41731303
0.04488494 0.38443472 0.41504525
0.04492812 0.38573959 0.41495563
0.04479663 0.38564241 0.41133919
0.04467759 0.38555308 0.40802804
0.04454084 0.38544979 0.40425658
0.04436878 0.38531762 0.39955447
0.04958205 0.41122801 0.39627390
0.06197566 0.44192673 0.38762953
0.07691464 0.47686671 0.37733414
0.15275040 0.52989065 0.37649214
0.34924192 0.62259361 0.38842934
0.54831688 0.71642458 0.40143727
0.69956447 0.76397171 0.42338480
0.81706561 0.78834708 0.41685009
0.90024065 0.80669701 0.41569736
0.92077414 0.79886615 0.41634461
0.93766254 0.78862729 0.41433723
0.94145020 0.77943927 0.39374832
0.94607138 0.77091523 0.36248053
0.94642820 0.76053189 0.33417669
0.94547719 0.74108287 0.30743130
0.94193482 0.71918514 0.27081139
0.93846393 0.69366983 0.22179512
0.93911062 0.66727700 0.21598917
0.93358458 0.63023322 0.18614795
0.92275082 0.57990739 0.16055609
0.90756991 0.49842058 0.12657022
0.77844221 0.36298998 0.09650207
0.70452734 0.16615112 0.07137030
0.64240226 0.07477225 0.06131029
0.64240226 0.07477225 0.06131029
0.04703521 0.40577828 0.44368877
0.04709065 0.40716239 0.44382362
0.04712512 0.40833398 0.44388235
0.04715626 0.40940247 0.44392819
0.04712605 0.40990534 0.44287662
0.04703188 0.40983089 0.44067374
0.04852564 0.41775510 0.43854703
0.05315476 0.43790453 0.43633247
0.05766733 0.46086580 0.43413931
0.06283304 0.48597387 0.43149121
0.07569496 0.51731669 0.42313205
0.22522584 0.58726453 0.43331612
0.37963083 0.66121652 0.44005779
0.57276081 0.75321925 0.45108921
0.68923206 0.78240544 0.48045292
0.83346122 0.82009118 0.50668475
0.89598481 0.83411373 0.50782127
0.92432917 0.83880265 0.51006699
0.94168977 0.83297336 0.50902136
0.94450735 0.82843068 0.50536130
0.94859799 0.81981121 0.48714383
0.95011269 0.81302930 0.46593520
0.95026083 0.79755934 0.44364222
0.94955229 0.78513470 0.41025717
0.94853301 0.77095322 0.37267862
0.94738632 0.75951064 0.35436028
0.94594482 0.74283108 0.31368268
0.94421433 0.71498720 0.26111835
0.94188466 0.67473132 0.20880384
0.92949974 0.60070121 0.16747150
0.90476557 0.47689374 0.11015950
0.77350721 0.21543989 0.06752153
0.64240226 0.07477225 0.06131029
0.04854788 0.42171669 0.46379879
0.04857938 0.42265262 0.46382945
0.04860847 0.42351735 0.46385091
0.05041453 0.43132375 0.46470977
0.05318555 0.44098128 0.46586785
0.05604729 0.45132539 0.46542229
0.05850848 0.46430645 0.46413972
0.06192166 0.48029692 0.46245281
0.06592488 0.49823559 0.46038587
0.07054860 0.52077246 0.45788405
0.14226664 0.56816421 0.45859412
0.28693536 0.63231138 0.46404802
0.43604531 0.70384712 0.47023318
0.58249473 0.76789367 0.49463119
0.69754936 0.80242066 0.53719232
0.84067451 0.83593317 0.57076240
0.89257871 0.85594262 0.59364221
0.92000517 0.86165111 0.59646639
0.94263360 0.86510793 0.59543717
0.94700195 0.86138571 0.58814963
0.95021199 0.85533802 0.58405966
0.95154873 0.84793868 0.56533262
0.95326029 0.84250811 0.55028492
0.95367178 0.83767517 0.53208736
0.95341448 0.82986813 0.50991962
0.95322703 0.82418874 0.49869909
0.95194321 0.81564074 0.47428760
0.95071570 0.79565571 0.43007645
0.94918595 0.77391893 0.37517866
0.94693750 0.74512580 0.31112554
0.94358638 0.69596018 0.21443316
0.92788757 0.57052496 0.15330854
0.72563592 0.31127408 0.08071349
0.05575464 0.44781857 0.47124837
0.05821829 0.45692069 0.47229006
0.06016804 0.46524748 0.47330910
0.06220810 0.47286789 0.47419789
0.06400444 0.47964697 0.47529307
0.06580792 0.48569654 0.47632099
0.06801806 0.49419124 0.47596039
0.07057202 0.50742797 0.47449702
0.07903725 0.52650187 0.47302458
0.15385040 0.56266959 0.47276704
0.24907793 0.61471355 0.47412588
0.33999804 0.66818403 0.47602045
0.48418884 0.73890970 0.48113135
0.59079399 0.77802255 0.53725204
0.73826132 0.82192756 0.59195416
0.83822607 0.85360847 0.62868764
0.89195789 0.86624923 0.64949706
0.92032712 0.87170733 0.66299212
0.94060239 0.87601732 0.65769676
0.94669730 0.87661561 0.65354865
0.95004628 0.87094913 0.64947385
0.95009585 0.86636871 0.63707175
0.95106244 0.86112597 0.62235824
0.95227054 0.85865427 0.61251628
0.95304097 0.84804746 0.58832879
0.95739525 0.83813229 0.52511504
0.95955334 0.83283337 0.51506425
