luts/booz_kodak5219/koda5219.cube
TITLE "Custom LUT"
LUT_3D_SIZE 9
# S-Log3/Sony S-Gamut3.cine (Venice) -> LA - koda5219/LA - koda5219, CineEI Shift 0.00, Black Level 3.90% IRE, Input 109% -> Output 100% - Created with LUTCalc v4.03 by Ben Turley January 2022
0.03104158 0.03909315 0.03914718
0.04442144 0.03928782 0.03610886
0.13645468 0.04481189 0.02616779
0.39301466 0.07437111 0.04467858
0.59758320 0.09041184 0.05625713
0.64425618 0.07651954 0.06164359
0.64240226 0.07477225 0.06131029
0.64240226 0.07477225 0.06131029
0.64240226 0.07477225 0.06131029
0.04034059 0.04388848 0.03869433
0.04707330 0.04459621 0.03844888
0.13533803 0.04782586 0.02761850
0.38476789 0.07307472 0.04422478
0.59465035 0.09055604 0.05581757
0.64425441 0.07695614 0.06164195
0.64240226 0.07477225 0.06131029
0.64240226 0.07477225 0.06131029
0.64240226 0.07477225 0.06131029
0.03523106 0.08063679 0.06548805
0.04060962 0.07884288 0.05739281
0.14974771 0.11189603 0.05287350
0.42253419 0.11553738 0.04679297
0.58741465 0.09368522 0.05545358
0.64442836 0.07858828 0.06165623
0.64240226 0.07477225 0.06131029
0.64240226 0.07477225 0.06131029
0.64240226 0.07477225 0.06131029
0.02713047 0.18974871 0.19008396
0.02552596 0.18016149 0.17059391
0.03845225 0.21267044 0.15169599
0.49566910 0.34888089 0.10895865
0.72929287 0.29729567 0.07773191
0.71870184 0.16257298 0.06350258
0.64246504 0.07480757 0.06131029
0.64240226 0.07477225 0.06131029
0.64240226 0.07477225 0.06131029
0.04263716 0.33789750 0.36821802
0.04173563 0.32629943 0.34957403
0.04170081 0.33036604 0.33179036
0.36048149 0.57793170 0.32111325
0.88376552 0.66016651 0.26580489
0.92005039 0.58659187 0.17900381
0.89063523 0.44060031 0.11482912
0.65639372 0.08673295 0.06006291
0.64240226 0.07477225 0.06131029
0.04854788 0.42171669 0.46379879
0.05318555 0.44098128 0.46586785
0.06592488 0.49823559 0.46038587
0.43604531 0.70384712 0.47023318
0.89257871 0.85594262 0.59364221
0.95021199 0.85533802 0.58405966
0.95341448 0.82986813 0.50991962
0.94918595 0.77391893 0.37517866
0.72563592 0.31127408 0.08071349
0.33414468 0.66334167 0.49779970
0.39154779 0.70263835 0.49860457
0.46533863 0.74816545 0.51942902
0.66489191 0.81734493 0.62892322
0.90329292 0.88038257 0.72346404
0.94662530 0.88816717 0.73196976
0.94434590 0.88167585 0.72219439
0.94455462 0.88107231 0.71307898
0.94645878 0.87839107 0.68708388
0.88857804 0.88098462 0.76638464
0.89066897 0.88183826 0.76722041
0.89424619 0.88398344 0.76834799
0.91681526 0.88756754 0.76938873
0.93023397 0.88978541 0.76691176
0.94577259 0.88532528 0.73766903
0.94393407 0.88229880 0.73710446
0.94393407 0.88229880 0.73710446
0.94393407 0.88229880 0.73710446
0.94591668 0.88553605 0.75193216
0.94585409 0.88544611 0.75206146
0.94575628 0.88530461 0.75226239
0.94546072 0.88487625 0.75286131
0.94462860 0.88344873 0.75448616
0.94406151 0.88244830 0.73598485
0.94393407 0.88229880 0.73710446
0.94393407 0.88229880 0.73710446
0.94393407 0.88229880 0.73710446
0.03142389 0.03907920 0.03981189
0.04346188 0.03918082 0.03817625
0.13714179 0.04479807 0.02779305
0.39370399 0.07450896 0.04476206
0.59777007 0.09039360 0.05630273
0.64425572 0.07690429 0.06164316
0.64240226 0.07477225 0.06131029
0.64240226 0.07477225 0.06131029
0.64240226 0.07477225 0.06131029
0.03611773 0.04303190 0.04307446
0.04237304 0.04360285 0.04184812
0.13197043 0.04679476 0.03054254
0.38591307 0.07310973 0.04420833
0.59478078 0.09052417 0.05586227
0.64425395 0.07734482 0.06164153
0.64240226 0.07477225 0.06131029
0.64240226 0.07477225 0.06131029
0.64240226 0.07477225 0.06131029
0.03206353 0.07832221 0.08145738
0.03767388 0.07636102 0.07105754
0.13946048 0.10770551 0.05914230
0.41748070 0.11065611 0.04720868
0.58733797 0.09319870 0.05549872
0.64439622 0.07854433 0.06162213
0.64240226 0.07477225 0.06131029
0.64240226 0.07477225 0.06131029
0.64240226 0.07477225 0.06131029
0.02814884 0.19305862 0.21360423
0.02650980 0.18305432 0.19563774
0.03858228 0.21008610 0.16978264
0.48786315 0.34548461 0.11565761
0.72641843 0.29495976 0.07841351
0.71741822 0.16125668 0.06383512
0.64244739 0.07477225 0.06131029
0.64240226 0.07477225 0.06131029
0.64240226 0.07477225 0.06131029
0.04357931 0.34183113 0.38506182
0.04242272 0.32966846 0.36616422
0.04197205 0.33028341 0.34856785
0.32890708 0.56839124 0.33543245
0.88103674 0.66007471 0.26839712
0.91995789 0.58599479 0.17912221
0.89032963 0.44028119 0.11437685
0.65593016 0.08649937 0.06010360
0.64240226 0.07477225 0.06131029
0.04913220 0.42207501 0.47710845
0.05211736 0.43648866 0.47900816
0.06293771 0.48939162 0.47485017
0.42547276 0.70531381 0.48118090
0.89380012 0.85634326 0.58844132
0.95020804 0.85571010 0.58481968
0.95329533 0.83050036 0.51308894
0.94915806 0.77395473 0.37606016
0.73135744 0.31021172 0.08074879
0.31962709 0.65980328 0.49941131
0.37257324 0.69796421 0.50022812
0.45989269 0.74674805 0.51803291
0.67159733 0.81803679 0.62097750
0.90550657 0.88009854 0.71287199
0.94680100 0.88797415 0.73065913
0.94434619 0.88167525 0.72342008
0.94455792 0.88106847 0.71386162
0.94646339 0.87838408 0.68746192
0.88995314 0.88061685 0.76088828
0.89244936 0.88128094 0.76202208
0.89662383 0.88337067 0.76366223
0.91918511 0.88733613 0.76549546
0.93178168 0.88940096 0.76340800
0.94577187 0.88532416 0.73692371
0.94393407 0.88229880 0.73710446
0.94393407 0.88229880 0.73710446
0.94393407 0.88229880 0.73710446
0.94591589 0.88553489 0.75123010
0.94585331 0.88544499 0.75136361
0.94575551 0.88530348 0.75157104
0.94545998 0.88487523 0.75218908
0.94462795 0.88344757 0.75386333
0.94406148 0.88244827 0.73598506
0.94393407 0.88229880 0.73710446
0.94393407 0.88229880 0.73710446
0.94393407 0.88229880 0.73710446
0.02978866 0.03256311 0.04848928
0.04006451 0.03450088 0.04817839
0.11665577 0.04017784 0.05167591
0.38313135 0.06753868 0.05706330
0.59807572 0.09113443 0.06023131
0.64425500 0.07807315 0.06164250
0.64240226 0.07477225 0.06131029
0.64240226 0.07477225 0.06131029
0.64240226 0.07477225 0.06131029
0.02809310 0.03742441 0.05737731
0.03866376 0.03822110 0.05401725
0.10957655 0.04043886 0.05576518
0.37184300 0.06455783 0.05816326
0.59530526 0.09148114 0.06094122
0.64425323 0.07805631 0.06164086
0.64240226 0.07477225 0.06131029
0.64240226 0.07477225 0.06131029
0.64240226 0.07477225 0.06131029
0.02181882 0.07041661 0.11217451
0.02861654 0.06918881 0.10183407
0.09949377 0.09721761 0.09382071
0.38540965 0.10403973 0.07197596
0.58788440 0.09442707 0.06373828
0.64440247 0.07840571 0.06162157
0.64240226 0.07477225 0.06131029
0.64240226 0.07477225 0.06131029
0.64240226 0.07477225 0.06131029
0.03204971 0.19874246 0.26718657
0.03008911 0.18829758 0.25044222
0.03725963 0.20458294 0.23338782
0.43763142 0.34011005 0.17210226
0.71041878 0.28091615 0.08616937
0.71558877 0.15926676 0.06418406
0.64244735 0.07477225 0.06131029
0.64240226 0.07477225 0.06131029
0.64240226 0.07477225 0.06131029
0.04573553 0.35128860 0.43057768
0.04455825 0.33857305 0.41274151
0.04372973 0.33497103 0.39518752
0.27729306 0.54641257 0.38222397
0.86450744 0.66667831 0.30872920
0.91986092 0.58535158 0.17906800
0.88983337 0.43985696 0.11374871
0.65523473 0.08597749 0.06016954
0.64240226 0.07477225 0.06131029
0.05054341 0.42146086 0.51393814
0.05135356 0.43091652 0.51428493
0.05557784 0.46566038 0.51632667
0.37469376 0.69073327 0.50295545
0.89372758 0.85916032 0.59480994
0.95020099 0.85628657 0.58581377
0.95312007 0.83148051 0.51817522
0.94911381 0.77400734 0.37748348
0.73958522 0.30858634 0.08080376
0.30010429 0.65338130 0.50352070
0.34627815 0.69025044 0.50336275
0.44788817 0.74248074 0.51662792
0.68257260 0.81900264 0.60648130
0.90901476 0.87951989 0.69538714
0.94707011 0.88767232 0.72862277
0.94434664 0.88167430 0.72537489
0.94456316 0.88106239 0.71509544
0.94647070 0.87837298 0.68806248
0.89215201 0.88003364 0.74955082
0.89528879 0.88059709 0.75126158
0.90038762 0.88218454 0.75353963
0.92293658 0.88696793 0.75685999
0.93423173 0.88879236 0.75670713
0.94577071 0.88532237 0.73572674
0.94393407 0.88229880 0.73710446
0.94393407 0.88229880 0.73710446
0.94393407 0.88229880 0.73710446
0.94591463 0.88553305 0.75007083
0.94585207 0.88544322 0.75021145
0.94575429 0.88530169 0.75042990
0.94545882 0.88487361 0.75108038
0.94462693 0.88344573 0.75283907
0.94406144 0.88244822 0.73598541
0.94393407 0.88229880 0.73710446
0.94393407 0.88229880 0.73710446
0.94393407 0.88229880 0.73710446
0.01811610 0.01692985 0.07928779
0.02168164 0.01734457 0.08319562
0.06725315 0.02323291 0.10467854
0.31253270 0.04439561 0.13746227
0.55012407 0.06432854 0.18101511
0.60081510 0.06244254 0.12874636
0.64240226 0.07477225 0.06131029
0.64240226 0.07477225 0.06131029
0.64240226 0.07477225 0.06131029
0.01747431 0.01776374 0.09183829
0.02008035 0.01816352 0.09091772
0.05926687 0.02168621 0.10581281
0.30363880 0.04361077 0.13881636
0.54046032 0.06352017 0.18257748
0.59433938 0.06155681 0.13442862
0.64240226 0.07477225 0.06131029
0.64240226 0.07477225 0.06131029
0.64240226 0.07477225 0.06131029
0.01986756 0.04501829 0.15284662
0.01960005 0.04540225 0.14812848
0.05163875 0.05951649 0.14933221
0.29832801 0.05707398 0.16328439
0.51862883 0.06064310 0.18995741
0.58428184 0.06027962 0.14358359
0.64240226 0.07477225 0.06131029
0.64240226 0.07477225 0.06131029
0.64240226 0.07477225 0.06131029
0.03767041 0.19455153 0.30617474
0.03603060 0.18317903 0.29333560
0.03961646 0.19021644 0.28895265
0.32884938 0.32165073 0.30178698
0.60820439 0.25425649 0.24239575
0.63216080 0.10761913 0.16864181
0.64240226 0.07477225 0.06131029
0.64240226 0.07477225 0.06131029
0.64240226 0.07477225 0.06131029
0.04836195 0.35304940 0.49095468
0.04727905 0.34310721 0.47461225
0.04649868 0.33602936 0.46337079
0.16980239 0.51693784 0.48021564
0.80173117 0.66143551 0.40277699
0.90042676 0.56478758 0.25786321
0.88752611 0.43752713 0.11269884
0.65346052 0.08390948 0.06038831
0.64240226 0.07477225 0.06131029
0.05244686 0.41895550 0.56846350
0.05343943 0.42650328 0.57543166
0.05791935 0.45742571 0.60698478
0.24356171 0.66832122 0.63402522
0.86764627 0.86654616 0.68876107
0.95250397 0.86668568 0.61108091
0.95274978 0.83488441 0.53314690
0.94897401 0.77412767 0.38216261
0.75603872 0.30387230 0.08096774
0.16204258 0.61118509 0.62817323
0.19535511 0.64805907 0.62899661
0.28529404 0.69681397 0.63552313
0.60412474 0.79567325 0.66976639
0.90638596 0.87881653 0.69561640
0.95387214 0.88570314 0.66770892
0.94434804 0.88167134 0.73151745
0.94457951 0.88104351 0.71899809
0.94649351 0.87833805 0.68995050
0.89942073 0.87544753 0.68072363
0.90454820 0.87678177 0.68307337
0.91219469 0.87867549 0.68678602
0.93463603 0.88468000 0.69959829
0.94187269 0.88689434 0.71632132
0.94576712 0.88531679 0.73187799
0.94393407 0.88229880 0.73710446
0.94393407 0.88229880 0.73710446
0.94393407 0.88229880 0.73710446
0.94591073 0.88552734 0.74602955
0.94584820 0.88543770 0.74619621
0.94575048 0.88529612 0.74645481
0.94545519 0.88486857 0.74722360
0.94462375 0.88343998 0.74929462
0.94406130 0.88244807 0.73598647
0.94393407 0.88229880 0.73710446
0.94393407 0.88229880 0.73710446
0.94393407 0.88229880 0.73710446
0.02062219 0.02062219 0.13850090
0.01946871 0.01946871 0.14300681
0.06853144 0.02267238 0.16022743
0.23437930 0.03512208 0.19915303
0.42808552 0.04720991 0.23393552
0.44883494 0.04929062 0.18349561
0.49479409 0.04936944 0.18998920
0.70112327 0.08945593 0.03860312
0.64240226 0.07477225 0.06131029
0.02088439 0.02088439 0.14448362
0.02085265 0.02085265 0.14752454
0.03866338 0.02273786 0.16007371
0.22341618 0.03426547 0.19755537
0.42180659 0.04679064 0.23353013
0.44622916 0.04888160 0.18274284
0.49198244 0.04937270 0.18902957
0.69586219 0.08824738 0.03866575
0.64240226 0.07477225 0.06131029
0.02294811 0.02294811 0.15920163
0.02282088 0.02290701 0.15910299
0.03670372 0.02323857 0.16454978
0.20404181 0.03221653 0.19583916
0.41062953 0.04613701 0.23234033
0.44200232 0.04822324 0.18154994
0.48757213 0.04937788 0.18752586
0.68787098 0.08645685 0.03850731
0.64240226 0.07477225 0.06131029
0.03845310 0.16204398 0.30981585
0.03862108 0.14923160 0.29706729
0.03849326 0.14995142 0.29700400
0.17165443 0.20941669 0.31572692
0.44315372 0.10606525 0.27161237
0.43192326 0.04873974 0.18404670
0.47287534 0.04936791 0.18317192
0.66768456 0.08148325 0.04117559
0.64240226 0.07477225 0.06131029
0.05037829 0.34126343 0.53241801
0.04940046 0.32742332 0.51551039
0.04852813 0.30142889 0.50335575
0.11846476 0.44387174 0.56279237
0.64213960 0.62017153 0.58143301
0.80204329 0.52023212 0.43879096
0.76943690 0.38802151 0.31616639
0.62448186 0.06628274 0.09332719
0.64240226 0.07477225 0.06131029
0.05447660 0.41251447 0.61017371
0.05492982 0.41697647 0.61577022
0.05618998 0.42752282 0.62864455
0.13369977 0.60776352 0.72684985
0.71875182 0.83804257 0.79243587
0.92660088 0.84765574 0.69804566
0.94463356 0.83923429 0.65143644
0.94903935 0.77872247 0.41631154
0.77540374 0.29095679 0.08137476
0.09964192 0.53756378 0.69903362
0.10862324 0.56319468 0.71492779
0.15993308 0.61255634 0.73958857
0.44627609 0.74470253 0.78868876
0.81078271 0.86465890 0.83211041
0.93169852 0.88675072 0.80520980
0.94094149 0.88343747 0.76568713
0.94637509 0.88151797 0.71486591
0.94656421 0.87822681 0.69586760
0.80245957 0.86608441 0.81993540
0.81930368 0.86697410 0.81944405
0.85680006 0.86960255 0.81858517
0.89624214 0.88152265 0.81620812
0.92275544 0.88683753 0.80195909
0.93969626 0.88608948 0.77732037
0.94635308 0.88357180 0.72208754
0.94393407 0.88229880 0.73710446
0.94393407 0.88229880 0.73710446
0.94601637 0.88547128 0.72885275
0.94589570 0.88540114 0.72941841
0.94573877 0.88527891 0.73011690
0.94544401 0.88485292 0.73118998
0.94461397 0.88342224 0.73420380
0.94406089 0.88244758 0.73598976
0.94393407 0.88229880 0.73710446
0.94393407 0.88229880 0.73710446
0.94393407 0.88229880 0.73710446
0.02655048 0.02655048 0.17714951
0.02655000 0.02655000 0.18114744
0.02596548 0.02102791 0.17737896
0.22399711 0.03781510 0.21600948
0.35731035 0.04496690 0.20317670
0.38522300 0.04508404 0.16358769
0.40028902 0.04545960 0.15317772
0.45115151 0.04600386 0.15308765
0.76648957 0.12739072 0.14534867
0.02655029 0.02655029 0.17995766
0.02654981 0.02654981 0.18142737
0.02594737 0.02183447 0.17789790
0.20630079 0.03662047 0.21331195
0.35202029 0.04454860 0.20406886
0.38421137 0.04508472 0.16458512
0.39879674 0.04545997 0.15406361
0.44923172 0.04600438 0.15353356
0.76529473 0.12686072 0.14501236
0.02654999 0.02654999 0.18128655
0.02654951 0.02654951 0.18187427
0.02591927 0.02311827 0.17872662
0.18332343 0.03472771 0.20927212
0.34420372 0.04393465 0.20549112
0.38261079 0.04508579 0.16621205
0.39645131 0.04546055 0.15545801
0.44614364 0.04600519 0.15423672
0.76304848 0.12588929 0.14454164
0.02648576 0.02726356 0.18812529
0.02583470 0.02642554 0.18659071
0.02637147 0.02809013 0.18750101
0.11490046 0.02902018 0.19405651
0.31945639 0.04205731 0.21020979
0.37766183 0.04508911 0.17173896
0.38931767 0.04546235 0.15982475
0.43607480 0.04600774 0.15641842
0.75494374 0.12180312 0.14355601
0.05169490 0.33960166 0.54708808
0.05183684 0.33428312 0.54745702
0.05213418 0.32842345 0.55142104
0.08119261 0.37793755 0.58355318
0.47203617 0.48687629 0.59962897
0.65765850 0.37448025 0.48904964
0.50048582 0.14806724 0.30072266
0.40017797 0.04601561 0.16332030
0.69982072 0.10122333 0.14512006
0.05485914 0.40852656 0.61621841
0.05521397 0.41363566 0.62196864
0.05566177 0.41986625 0.62840653
0.12867274 0.60732431 0.73312625
0.56884344 0.77694873 0.80191689
0.84117837 0.80669334 0.78095569
0.90360765 0.79002829 0.76067141
0.89567449 0.74694505 0.70425858
0.65769416 0.17546063 0.20324099
0.10708697 0.55601459 0.71101919
0.11619451 0.58192930 0.72577102
0.19516371 0.62855222 0.74867763
0.44891873 0.74215200 0.79453636
0.76258697 0.84319523 0.84702069
0.88317777 0.87471431 0.84932946
0.92241828 0.87539572 0.82382106
0.92807820 0.86817978 0.80974097
0.94795530 0.88149365 0.70150381
0.72562901 0.83457092 0.84231081
0.73945857 0.83800131 0.84431257
0.76046143 0.84314068 0.84729296
0.81794688 0.85803475 0.85563852
0.84900533 0.86639658 0.85550884
0.89741836 0.88131516 0.84927648
0.92467186 0.88418405 0.83881949
0.92733527 0.88200647 0.83631585
0.95160038 0.88279241 0.67102094
0.90456143 0.88424995 0.84530158
0.90495025 0.88431922 0.84516552
0.90555825 0.88442049 0.84495275
0.90739810 0.88469280 0.84430893
0.91259993 0.88549943 0.84249114
0.92192055 0.88554396 0.83830044
0.92661292 0.88390882 0.83811362
0.92933621 0.88331328 0.83051476
0.94393407 0.88229880 0.73710446
0.02699296 0.02699296 0.17074284
0.02658238 0.02658238 0.16801990
0.87598895 0.88204619 0.22447647
0.44594770 0.88870510 0.27279943
0.37768633 0.05171816 0.18884057
0.36817971 0.04436331 0.16545557
0.39734175 0.04463080 0.15864818
0.40031090 0.04486769 0.15654302
0.43842152 0.04486769 0.11046177
0.02696917 0.02696917 0.17133984
0.02656553 0.02656553 0.16862302
0.86630013 0.86642400 0.22138575
0.42508552 0.88817291 0.26900450
0.37333360 0.05113196 0.18993806
0.36774378 0.04436450 0.16646043
0.39585760 0.04463083 0.15954993
0.39930884 0.04486769 0.15713620
0.43755688 0.04486769 0.11132433
0.02693245 0.02693245 0.17231025
0.02653935 0.02653935 0.16959927
0.82597787 0.71122719 0.21657136
0.38971679 0.88733005 0.26297264
0.36607439 0.05019366 0.19150931
0.36705495 0.04436639 0.16809948
0.39353016 0.04463086 0.16099533
0.39772970 0.04486769 0.15807796
0.43617703 0.04486769 0.11271356
0.02682479 0.02682479 0.17551652
0.02949821 0.02818532 0.17671645
0.48714317 0.03851296 0.20267899
0.31333332 0.83509104 0.24452089
0.34217760 0.04703909 0.19503303
0.36491739 0.04437228 0.17367199
0.38647261 0.04463098 0.16572801
0.39287564 0.04486769 0.16106155
0.43175021 0.04486769 0.11719069
0.03871965 0.11931875 0.29664091
0.03924451 0.11912440 0.29815885
0.03990333 0.11952424 0.30149907
0.08258539 0.10460233 0.28529201
0.27306829 0.05188134 0.23304015
0.32397039 0.04265114 0.18414171
0.36505634 0.04463133 0.18404194
0.37844598 0.04486769 0.17138965
0.41700356 0.04486769 0.13121198
0.05540860 0.41616066 0.62596966
0.05741795 0.42547529 0.63293723
0.08416947 0.49474181 0.67083744
0.17216406 0.62895640 0.74661459
0.56864265 0.75650736 0.79883541
0.81426591 0.76976380 0.79496979
0.87004725 0.76955936 0.78793431
0.84458084 0.70819692 0.75426975
0.37120091 0.04486769 0.17569348
0.15502607 0.61076738 0.74028516
0.21480879 0.63483061 0.75150319
0.30274404 0.66991434 0.76751493
0.50065031 0.76945841 0.80996356
0.74526394 0.83603243 0.84589345
0.83587126 0.85663241 0.85595136
0.90577364 0.86618943 0.85219993
0.91127056 0.85839675 0.83895575
0.91125148 0.84620619 0.82579864
0.71141969 0.82992583 0.84161971
0.72839986 0.83199422 0.84339099
0.75008216 0.83564961 0.84613976
0.77210392 0.84422231 0.85158771
0.80039337 0.85058121 0.85501624
0.85799569 0.86428984 0.86035281
0.90693052 0.87899458 0.86303078
0.91721882 0.88054629 0.85925553
0.92005516 0.87992850 0.85337949
0.85723913 0.86443145 0.86018734
0.85857830 0.86473510 0.86030448
0.86033726 0.86517684 0.86048465
0.86417208 0.86602896 0.86100816
0.87336097 0.86813211 0.86196013
0.89183607 0.87421850 0.86286692
0.91126010 0.88062081 0.86232608
0.91858407 0.88231220 0.85921557
0.92164071 0.88203679 0.85387869
0.88641097 0.90698684 0.41152639
0.88385573 0.90789638 0.42253132
0.85854128 0.90915095 0.37527134
0.09703417 0.03831977 0.09612149
0.63374219 0.04123009 0.17105424
0.41497160 0.04438781 0.15584921
0.38839855 0.04461394 0.11369221
0.39458689 0.04461394 0.11931496
0.41304013 0.04461394 0.09082934
0.88625930 0.90646103 0.40650299
0.88263782 0.90736545 0.41561791
0.85167989 0.90861388 0.37153233
0.09897095 0.03834686 0.09754093
0.62920512 0.04123713 0.17142010
0.41341265 0.04438808 0.15627919
0.38792799 0.04461394 0.11489572
0.39409724 0.04461394 0.12024864
0.41253282 0.04461394 0.09143066
0.88600906 0.90562810 0.39860359
0.88082287 0.90652453 0.40416254
0.84088490 0.90776337 0.36568149
0.10216984 0.03838957 0.09986689
0.62123695 0.04124828 0.17200624
0.41097319 0.04438850 0.15697074
0.38718239 0.04461394 0.11682750
0.39332485 0.04461394 0.12172920
0.41172908 0.04461394 0.09240541
0.88263178 0.90302608 0.37519748
0.86859084 0.90389848 0.37171623
0.81175396 0.90510835 0.34847288
0.11319311 0.03851182 0.10766968
0.59109834 0.04128303 0.17388731
0.40363967 0.04438982 0.15922428
0.38485265 0.04461394 0.12296007
0.39093943 0.04461394 0.12632340
0.40921918 0.04461394 0.09561668
0.78133810 0.89496514 0.31499740
0.71996968 0.89577107 0.30580540
0.64613145 0.89691969 0.30769244
0.15095838 0.03864773 0.13473557
0.49500514 0.04139007 0.18005253
0.38448853 0.04439385 0.16752337
0.37765435 0.04461394 0.14122002
0.38374039 0.04461394 0.13993302
0.40149978 0.04461394 0.10691786
0.09554040 0.42202401 0.62571622
0.11329458 0.43555086 0.63445373
0.19297314 0.46045205 0.64458357
0.39499613 0.52669774 0.67333921
0.54127119 0.48235285 0.62815733
0.62342734 0.34910398 0.52130721
0.38605954 0.06248292 0.29818985
0.36182791 0.04461394 0.18897841
0.37886367 0.04461394 0.14907033
0.44139929 0.74827276 0.79572913
0.47732940 0.76168159 0.80452586
0.53023975 0.78051959 0.81618335
0.63005377 0.81183108 0.82997292
0.76220878 0.83801822 0.84774301
0.83136293 0.84790295 0.85339789
0.89605824 0.85475643 0.84999497
0.90065677 0.84273061 0.83913729
0.89516299 0.82848851 0.82936627
0.76807543 0.84302985 0.85102478
0.76949016 0.84346005 0.85129283
0.77179378 0.84412293 0.85170410
0.78090189 0.84603532 0.85288966
0.80497566 0.85106506 0.85576852
0.85547718 0.86352622 0.86245937
0.90224197 0.87585587 0.86676167
0.91196565 0.87784295 0.86564619
0.91305412 0.87686701 0.86449955
0.85231972 0.86279161 0.86208622
0.85328324 0.86301645 0.86222974
0.85475263 0.86335325 0.86244862
0.86063240 0.86455317 0.86307186
0.86971818 0.86678035 0.86456256
0.88646001 0.87129349 0.86587121
0.90533340 0.87721644 0.86724578
0.91297257 0.87987209 0.86704874
0.91416416 0.88021860 0.86675158
0.86929331 0.88533229 0.15966978
0.87977359 0.88576511 0.19726048
0.87993386 0.88130804 0.19652419
0.88029991 0.86679490 0.19448834
0.66960491 0.04302734 0.13603722
0.35818068 0.04447344 0.06778159
0.36092589 0.04461394 0.06543275
0.44683727 0.04461394 0.06097267
0.46100036 0.04461394 0.05209999
0.87096337 0.88549417 0.16513112
0.87956362 0.88556132 0.19723701
0.87976037 0.88088603 0.19650215
0.88016400 0.86646364 0.19446985
0.66805332 0.04303049 0.13633883
0.35818432 0.04447366 0.06815778
0.36092597 0.04461394 0.06579838
0.44642986 0.04461394 0.06128416
0.46062550 0.04461394 0.05227892
0.87375913 0.88574393 0.17512488
0.87914261 0.88523678 0.19719995
0.87939855 0.88025054 0.19646734
0.87993636 0.86600704 0.19444065
0.66563779 0.04303548 0.13681627
0.35819008 0.04447401 0.06875481
0.36092610 0.04461394 0.06638199
0.44578264 0.04461394 0.06178793
0.46003069 0.04461394 0.05256782
0.87698998 0.88575294 0.19756784
0.87729749 0.88395801 0.19708512
0.87772125 0.87583388 0.19635946
0.87870234 0.86062652 0.19435006
0.65829658 0.04305099 0.13830572
0.35820802 0.04447509 0.07062029
0.36092652 0.04461394 0.06822977
0.44374577 0.04461394 0.06343977
0.45816404 0.04461394 0.05351988
0.86781049 0.87983141 0.19720637
0.86801244 0.86963076 0.19673801
0.86834474 0.83874395 0.19603299
0.86956198 0.82305528 0.19407516
0.63606122 0.04309849 0.14291997
0.35826306 0.04447842 0.07656205
0.36092778 0.04461394 0.07403687
0.43727728 0.04461394 0.06902380
0.45228518 0.04461394 0.05703736
0.78939172 0.59461244 0.19615731
0.79107412 0.51856089 0.19572852
0.79370848 0.52313525 0.19508063
0.78551430 0.48017174 0.19324798
0.53776265 0.04324191 0.15738912
0.35843022 0.04448852 0.10193172
0.36093167 0.04461394 0.09737557
0.41492279 0.04461394 0.08909665
0.43258563 0.04461394 0.07293969
0.68418922 0.77936010 0.81475493
0.69813069 0.78206640 0.81628482
0.71928639 0.78644834 0.81848703
0.75756242 0.79307630 0.82137194
0.81827840 0.80186425 0.82445890
0.83867693 0.77409475 0.80192046
0.86915565 0.77577873 0.79893211
0.84038186 0.70796433 0.76032062
0.36258870 0.04461394 0.18690833
0.79782608 0.84960889 0.85500601
0.79929351 0.84991164 0.85517402
0.80158620 0.85038268 0.85543186
0.80896548 0.85178283 0.85617617
0.82779479 0.85619735 0.85830394
0.86873509 0.86674505 0.86440298
0.90301183 0.87567744 0.86673128
0.91092607 0.87536330 0.86491770
0.91156216 0.87415812 0.86381396
0.86713475 0.86631693 0.86409151
0.86749883 0.86639267 0.86418258
0.86810375 0.86651651 0.86432255
0.87089943 0.86704439 0.86469257
0.87712599 0.86836451 0.86510220
0.89067600 0.87264248 0.86624667
0.90581083 0.87736109 0.86742677
0.91244188 0.87951871 0.86777467
0.91335413 0.87985561 0.86763894
