luts/lumix_color_lab_C/S_Deep_Forest_2.cube
TITLE "Generated by Resolve"
LUT_3D_SIZE 9
0.0247501 0.0247501 0.0247501
0.0247501 0.0247501 0.0247501
0.030045 0.0247501 0.0247501
0.0459754 0.0302739 0.0289921
0.0716106 0.0309606 0.0284123
0.127718 0.0320134 0.0268101
0.233616 0.0330663 0.0295567
0.399695 0.0394141 0.039292
0.540734 0.0461433 0.0461433
0.0228428 0.0340429 0.0327153
0.0349432 0.0403754 0.0347601
0.0532235 0.0439918 0.0335393
0.1028 0.047776 0.030808
0.201984 0.0382239 0.0311589
0.376104 0.038468 0.0378576
0.53164 0.0453651 0.0453651
0.603006 0.0494087 0.0494087
0.639216 0.0494087 0.0494087
0.024033 0.0540017 0.0372625
0.0237278 0.0597086 0.0310674
0.0442359 0.0707103 0.0278325
0.185168 0.0831311 0.0299535
0.336507 0.0366979 0.0346075
0.504814 0.0434882 0.0434882
0.58233 0.0489204 0.0489204
0.617258 0.0494087 0.0494087
0.644846 0.0494087 0.0494087
0.0260777 0.0900587 0.0319982
0.0271153 0.111269 0.0332647
0.0276036 0.127352 0.0328527
0.0446937 0.152773 0.0316625
0.43386 0.176806 0.0422065
0.497978 0.0430915 0.0430915
0.582544 0.0489357 0.0489357
0.618982 0.0494087 0.0494087
0.646647 0.0494087 0.0494087
0.0262913 0.178134 0.0293889
0.0281834 0.199603 0.0301061
0.0302281 0.215824 0.0312352
0.0324254 0.237278 0.0327001
0.0332036 0.246387 0.0332952
0.736004 0.401648 0.0720531
0.791058 0.214405 0.0606546
0.614633 0.0494087 0.0494087
0.64332 0.0494087 0.0494087
0.0349279 0.280827 0.0349279
0.0348974 0.297932 0.0348974
0.0350652 0.315557 0.0350652
0.0358892 0.33051 0.0358892
0.0373693 0.345571 0.0373693
0.0376745 0.34873 0.0376745
0.927016 0.65449 0.144198
0.945632 0.613214 0.141085
0.950744 0.502037 0.114305
0.0382391 0.355627 0.0382391
0.0386816 0.36846 0.0386816
0.0386206 0.379522 0.0386206
0.0382544 0.386557 0.0382544
0.0377203 0.392966 0.0377203
0.0373083 0.398169 0.0373083
0.0373236 0.398032 0.0373236
0.938643 0.787961 0.177295
0.952239 0.785306 0.181857
0.0373693 0.397177 0.0373693
0.0370031 0.405325 0.0370031
0.0373541 0.41503 0.0373541
0.0378271 0.422507 0.0378271
0.0381781 0.427604 0.0382391
0.0388037 0.434028 0.0389258
0.0389563 0.435508 0.0391089
0.0387121 0.43331 0.0388495
0.944167 0.843168 0.190524
0.0389258 0.435233 0.0390784
0.0402075 0.446815 0.0404974
0.0411688 0.457954 0.0417639
0.0412604 0.463981 0.042237
0.0410925 0.465537 0.0422675
0.0408789 0.46746 0.042298
0.0407263 0.468833 0.0423133
0.0407568 0.468635 0.0423133
0.0408026 0.468132 0.0423133
0.0247501 0.0247501 0.0247501
0.0247501 0.0247501 0.0247501
0.0332799 0.0254978 0.0281682
0.0516823 0.030045 0.0335241
0.0837568 0.0306096 0.0352789
0.152514 0.0327764 0.0352941
0.281514 0.034226 0.0351568
0.446128 0.0411994 0.0411994
0.571099 0.0482948 0.0482948
0.0227512 0.0347295 0.035111
0.0363317 0.0411383 0.0414588
0.0546731 0.0439307 0.0429389
0.105989 0.0467536 0.0420081
0.226062 0.0334478 0.0390936
0.414969 0.0400244 0.0400244
0.551949 0.0469978 0.0469978
0.610666 0.0494087 0.0494087
0.643091 0.0494087 0.0494087
0.023682 0.0523079 0.0439155
0.0233616 0.0597696 0.0487221
0.0507515 0.0708782 0.0451667
0.199725 0.0780499 0.0393225
0.360891 0.0378119 0.0367132
0.517098 0.0442512 0.0442512
0.588586 0.0491951 0.0491951
0.621759 0.0494087 0.0494087
0.649302 0.0494087 0.0494087
0.0254978 0.0841077 0.0430457
0.0264591 0.105135 0.0416114
0.0276036 0.127291 0.0328527
0.0892042 0.166339 0.0306706
0.466804 0.163439 0.0437629
0.515892 0.0441749 0.0441749
0.591196 0.0493019 0.0493019
0.624262 0.0494087 0.0494087
0.651087 0.0494087 0.0494087
0.0261082 0.161563 0.0299535
0.0261845 0.175601 0.0294194
0.02916 0.207004 0.0305943
0.0312352 0.225055 0.0318914
0.138369 0.336233 0.0355688
0.776349 0.382742 0.072755
0.764828 0.162646 0.0569924
0.62092 0.0494087 0.0494087
0.649104 0.0494087 0.0494087
0.0340734 0.260456 0.034165
0.034638 0.273396 0.034699
0.0348821 0.298985 0.0348821
0.035172 0.31841 0.035172
0.0365454 0.337011 0.0365454
0.17229 0.493751 0.0483558
0.933715 0.640253 0.143954
0.947723 0.599786 0.137453
0.94876 0.450584 0.101549
0.0368963 0.34052 0.0368963
0.0380255 0.353063 0.0380255
0.0386969 0.369024 0.0386969
0.0385443 0.381079 0.0385443
0.0382086 0.387167 0.0382086
0.0375677 0.394675 0.0375677
0.462272 0.641672 0.0810559
0.942168 0.782849 0.179431
0.954391 0.7776 0.180606
0.038117 0.388373 0.038117
0.0375067 0.395315 0.0375067
0.0370031 0.405142 0.0370031
0.0373999 0.415946 0.0373999
0.0376593 0.420096 0.0376593
0.0380865 0.426307 0.0381323
0.0383612 0.43006 0.0384527
0.730465 0.747814 0.12282
0.947738 0.844251 0.190326
0.0377661 0.421469 0.0377661
0.0384375 0.430747 0.038529
0.0399481 0.444389 0.0402075
0.0410468 0.456382 0.0415808
0.0413214 0.45977 0.0419623
0.0414282 0.461189 0.0421302
0.0412451 0.464103 0.042237
0.0411231 0.465263 0.0422675
0.669032 0.75552 0.115312
0.0247501 0.0247501 0.0247501
0.0242618 0.0247501 0.0256809
0.0338903 0.027924 0.0323186
0.0564431 0.0293126 0.0404822
0.0975357 0.030808 0.0443885
0.184039 0.0338903 0.0447852
0.336767 0.0362707 0.0458839
0.488701 0.0426795 0.0426795
0.595041 0.0493172 0.0493172
0.0222629 0.035462 0.037583
0.0323644 0.0404059 0.0475319
0.0521859 0.0435492 0.0521859
0.120943 0.0430762 0.0561227
0.265248 0.0353246 0.0520638
0.459251 0.0406958 0.0465553
0.571069 0.0482948 0.0482948
0.619058 0.0494087 0.0494087
0.648798 0.0494087 0.0494087
0.0236057 0.0529946 0.0453803
0.0237125 0.0592508 0.0574655
0.0555886 0.0728618 0.0742962
0.193378 0.0730144 0.0632792
0.379202 0.0377966 0.0512093
0.5252 0.044831 0.044831
0.592844 0.0493172 0.0493172
0.624994 0.0494087 0.0494087
0.652354 0.0494087 0.0494087
0.0242618 0.0840162 0.0540322
0.0251774 0.103716 0.0643168
0.0267338 0.130587 0.0755169
0.131121 0.177478 0.0523537
0.507988 0.147692 0.0539559
0.525368 0.0448463 0.0448463
0.596292 0.0493172 0.0493172
0.627878 0.0494087 0.0494087
0.654124 0.0494087 0.0494087
0.0281987 0.156039 0.0371252
0.0282139 0.164096 0.0371099
0.0278477 0.197131 0.0299535
0.0312505 0.225208 0.0318914
0.287572 0.368277 0.0399176
0.79501 0.369726 0.0728618
0.743557 0.127825 0.0562295
0.625864 0.0494087 0.0494087
0.652995 0.0494087 0.0494087
0.0333257 0.248142 0.0334173
0.0334936 0.250767 0.0335851
0.0348363 0.278309 0.0348516
0.0350347 0.314992 0.0350347
0.0358434 0.329793 0.0358434
0.512444 0.57792 0.0741436
0.936889 0.633204 0.143954
0.949172 0.595438 0.136858
0.946548 0.416907 0.0946365
0.0358892 0.330327 0.0358892
0.0364996 0.336492 0.0364996
0.0381018 0.353933 0.0381018
0.0387427 0.372885 0.0387427
0.038529 0.38117 0.038529
0.0379187 0.390906 0.0379187
0.797009 0.724956 0.128771
0.944579 0.781338 0.18056
0.955856 0.772244 0.179522
0.0384833 0.382193 0.0384833
0.0382544 0.386496 0.0382544
0.0374762 0.395483 0.0374762
0.0370489 0.407431 0.0370489
0.0373236 0.414527 0.0373236
0.0376135 0.419379 0.0376135
0.038056 0.425788 0.0380865
0.913863 0.801846 0.163272
0.950118 0.842817 0.191424
0.0372778 0.413367 0.0372778
0.0375372 0.418296 0.0375372
0.0383001 0.429267 0.0383764
0.0399939 0.444739 0.0402533
0.0407874 0.453239 0.0412146
0.0408179 0.453513 0.0412451
0.0411994 0.458228 0.0417945
0.041474 0.462074 0.0422065
0.927687 0.833722 0.173999
0.0247501 0.0247501 0.0247501
0.0244907 0.0247501 0.0296483
0.034638 0.0282902 0.0367437
0.0542153 0.0300908 0.0472419
0.104707 0.0319524 0.05832
0.210452 0.0343175 0.0625772
0.382696 0.0387427 0.0647593
0.532418 0.0446021 0.0565499
0.610712 0.0494087 0.0494087
0.0222477 0.0360266 0.0420844
0.0291142 0.0389258 0.0545205
0.0497292 0.0400397 0.0630808
0.103716 0.0426184 0.0822309
0.286152 0.0361181 0.0949874
0.504875 0.0428779 0.0746166
0.585229 0.0490578 0.0490578
0.626566 0.0494087 0.0494087
0.654124 0.0494087 0.0494087
0.0235142 0.0543679 0.0493172
0.0248112 0.0599222 0.0715343
0.0389258 0.0639811 0.115236
0.174487 0.0648051 0.136065
0.415152 0.0400549 0.116732
0.559197 0.0466621 0.0773022
0.599435 0.0493477 0.0493477
0.630381 0.0494087 0.0494087
0.654124 0.0494087 0.0494087
0.0245212 0.0902571 0.0565652
0.02533 0.10277 0.0754864
0.0275425 0.131594 0.124376
0.150362 0.170916 0.170092
0.468482 0.125017 0.119249
0.547417 0.0452277 0.079942
0.598337 0.0493324 0.0493324
0.630259 0.0494087 0.0494087
0.654124 0.0494087 0.0494087
0.0287633 0.16173 0.0596475
0.028809 0.162875 0.0816815
0.0308232 0.206149 0.119982
0.032929 0.250767 0.149035
0.406622 0.41207 0.0813764
0.832609 0.356802 0.0918746
0.696544 0.0844587 0.0526894
0.629252 0.0494087 0.0494087
0.654124 0.0494087 0.0494087
0.0325017 0.238132 0.0327459
0.0321813 0.234516 0.032517
0.0339666 0.257908 0.0340429
0.0348669 0.305913 0.0348669
0.0356909 0.327596 0.0356909
0.68304 0.60209 0.0958114
0.938704 0.622568 0.14226
0.950454 0.592172 0.136629
0.937881 0.377462 0.0873121
0.0352789 0.321187 0.0352789
0.0353704 0.322713 0.0353704
0.0360876 0.332433 0.0360876
0.0384375 0.359503 0.0384375
0.0386358 0.378973 0.0386358
0.0382544 0.386618 0.0382544
0.898024 0.752056 0.151949
0.94641 0.776333 0.17969
0.95697 0.766766 0.178256
0.0387579 0.376593 0.0387579
0.0386816 0.378042 0.0386816
0.0383764 0.384131 0.0383764
0.0375372 0.39501 0.0375372
0.0370184 0.406317 0.0370184
0.0371862 0.411551 0.0371862
0.0376135 0.419333 0.0376135
0.932677 0.815076 0.177523
0.951995 0.839353 0.191943
0.0370489 0.40734 0.0370489
0.0370947 0.408881 0.0370947
0.0373541 0.415076 0.0373541
0.0381628 0.42742 0.0382239
0.0394751 0.440116 0.0396735
0.0399634 0.444526 0.0402228
0.0403449 0.448371 0.0406653
0.041001 0.455833 0.0415198
0.93695 0.847166 0.187839
0.0232547 0.0247501 0.0276493
0.0263981 0.0248417 0.035874
0.0370031 0.0280766 0.0439002
0.0517891 0.0295109 0.0519722
0.0953384 0.0309148 0.071046
0.220066 0.0347753 0.0970932
0.409339 0.0399023 0.117754
0.567178 0.047364 0.127123
0.639368 0.0497902 0.0709239
0.0226139 0.0371252 0.0487221
0.0270542 0.0375219 0.0626383
0.0453651 0.0356298 0.0782483
0.0808881 0.0377661 0.0935073
0.233158 0.0343328 0.157183
0.513603 0.0452888 0.204532
0.621927 0.0485084 0.187716
0.657511 0.0521401 0.100237
0.654124 0.0494087 0.0494087
0.0242924 0.0575265 0.0636454
0.0260471 0.0576028 0.0914626
0.031342 0.0472877 0.158831
0.13022 0.0339055 0.200244
0.358633 0.0392615 0.241688
0.57731 0.04654 0.253346
0.640925 0.0498207 0.211536
0.664408 0.0525216 0.112078
0.654124 0.0494087 0.0494087
0.0249943 0.0997787 0.063508
0.0261082 0.104555 0.0931716
0.0284886 0.129931 0.174853
0.0568551 0.123018 0.274357
0.438834 0.0848096 0.303181
0.57232 0.0464942 0.246952
0.639948 0.0498512 0.21799
0.668986 0.0525521 0.153094
0.654124 0.0494087 0.0494087
0.0292821 0.172717 0.0577859
0.028809 0.166583 0.0905013
0.0307317 0.20177 0.155306
0.0332341 0.252094 0.262547
0.42594 0.405737 0.376547
0.778058 0.309422 0.294057
0.62771 0.0489815 0.205951
0.66363 0.0523842 0.149279
0.654124 0.0494087 0.0494087
0.0323491 0.247059 0.0477913
0.0309453 0.249668 0.098436
0.0334783 0.272831 0.154543
0.0353857 0.341436 0.24712
0.0373999 0.383185 0.299535
0.811353 0.707759 0.237903
0.939681 0.664652 0.194446
0.950393 0.593225 0.150469
0.910674 0.310491 0.0761273
0.0351263 0.317174 0.0351263
0.0349584 0.312932 0.0349584
0.0350958 0.316503 0.0350958
0.0374304 0.357717 0.0519875
0.0387732 0.374792 0.0387732
0.0383612 0.384482 0.0383612
0.92578 0.757839 0.162646
0.947433 0.7682 0.17792
0.957839 0.761074 0.176928
0.0387274 0.372061 0.0387274
0.0387274 0.371145 0.0387274
0.0387732 0.374304 0.0387732
0.0384833 0.38204 0.0384833
0.0373083 0.398276 0.0373083
0.0371252 0.409888 0.0371252
0.0372931 0.413931 0.0372931
0.936507 0.818555 0.182498
0.953567 0.835828 0.191577
0.0370947 0.402716 0.0370947
0.0371099 0.402548 0.0371099
0.0370184 0.405066 0.0370184
0.0371862 0.411536 0.0371862
0.0378271 0.422461 0.0378271
0.0389868 0.435737 0.0391394
0.0393225 0.438788 0.0395209
0.0403449 0.448341 0.0406653
0.941711 0.853971 0.192462
0.0219272 0.0247501 0.0307164
0.0287633 0.0257115 0.0435645
0.0390784 0.0272679 0.0524605
0.0543069 0.0278782 0.0613718
0.0829938 0.0290684 0.0774395
0.199207 0.0340734 0.12958
0.41503 0.0417334 0.199481
0.584161 0.0466926 0.259144
0.668513 0.0522316 0.298894
0.0232395 0.0381933 0.0586557
0.0252842 0.0361334 0.0791485
0.0439002 0.0318303 0.106065
0.0747692 0.0292363 0.128985
0.152895 0.0302586 0.160754
0.455756 0.0438239 0.299519
0.627054 0.0506142 0.366522
0.675547 0.051545 0.377005
0.697658 0.0505226 0.364324
0.0256809 0.0610971 0.0851301
0.0274662 0.0546883 0.12784
0.0301518 0.0348516 0.193469
0.0783856 0.031754 0.259266
0.247562 0.0347143 0.278477
0.531838 0.0461891 0.374014
0.648524 0.0511025 0.409308
0.685222 0.0510109 0.408865
0.700481 0.0513619 0.390829
0.0262608 0.111101 0.0933242
0.0282292 0.111772 0.152193
0.0318456 0.106661 0.229114
0.0345159 0.0474556 0.300587
0.284001 0.0366827 0.334035
0.544457 0.0463111 0.394812
0.653208 0.051133 0.422415
0.688212 0.0510719 0.417441
0.70071 0.0514687 0.393042
0.0299535 0.187106 0.0576638
0.029572 0.18201 0.110399
0.0298772 0.195285 0.18378
0.035111 0.244144 0.333944
0.178256 0.30486 0.504616
0.728557 0.199451 0.527749
0.644404 0.0510414 0.400748
0.681071 0.050782 0.401526
0.701167 0.0516365 0.397391
0.0334783 0.253651 0.0354925
0.031632 0.261326 0.103044
0.0339055 0.271839 0.172625
0.0357977 0.334936 0.31104
0.0439918 0.3944 0.468742
0.779568 0.723323 0.684596
0.954864 0.662089 0.627375
0.966445 0.593042 0.579629
0.696391 0.0509346 0.370413
0.0352483 0.320439 0.0352483
0.0370184 0.341558 0.119615
0.0368505 0.353887 0.205554
0.0378119 0.389593 0.312306
0.0428626 0.44123 0.435431
0.0449531 0.462913 0.493446
0.952453 0.919127 0.624765
0.967407 0.911421 0.594797
0.979934 0.910369 0.638132
0.0387274 0.371466 0.0387274
0.0386664 0.367285 0.0386664
0.0380255 0.389838 0.104097
0.0382544 0.404883 0.17229
0.0412299 0.448157 0.316991
0.0417945 0.469993 0.375555
0.0416419 0.460395 0.272145
0.939254 0.817456 0.183886
0.95433 0.830365 0.190707
0.037171 0.400626 0.037171
0.0373083 0.39826 0.0373083
0.0372778 0.398901 0.0372778
0.0371557 0.401114 0.0371557
0.0370947 0.408896 0.0370947
0.0380865 0.426261 0.0381323
0.0390936 0.436744 0.0392615
0.039704 0.442222 0.0399329
0.946059 0.857557 0.194018
0.0220798 0.0249332 0.0357519
0.0303197 0.0262913 0.0501869
0.0402686 0.0259556 0.0606394
0.0560311 0.0262608 0.0728618
0.0844587 0.02916 0.0947127
0.165972 0.0318608 0.141817
0.390845 0.0408637 0.249104
0.585092 0.0481727 0.357763
0.676661 0.0514992 0.433371
0.0239567 0.0389868 0.0700542
0.025742 0.0342412 0.101076
0.040589 0.0272679 0.142443
0.0666667 0.0296635 0.179385
0.143008 0.0305333 0.216495
0.335134 0.0357977 0.295048
0.597299 0.0485237 0.438651
0.678584 0.0517891 0.49305
0.712062 0.0515145 0.507118
0.0271916 0.0617685 0.114488
0.0278019 0.0449226 0.174136
0.0327764 0.0327764 0.246967
0.0370031 0.0350195 0.306188
0.199176 0.037705 0.35996
0.430823 0.0416724 0.387625
0.62565 0.050782 0.47924
0.695003 0.0524758 0.519478
0.71667 0.0520027 0.528176
0.0279393 0.123156 0.148043
0.0313573 0.108827 0.220356
0.0348058 0.0678111 0.289509
0.0354925 0.0354925 0.335119
0.183734 0.0393988 0.408148
0.446174 0.0431525 0.410224
0.63949 0.0518196 0.499794
0.703395 0.0527657 0.532662
0.719692 0.0525978 0.538003
0.030457 0.2047 0.103563
0.0301061 0.199115 0.184863
0.0330205 0.200946 0.280842
0.0383917 0.202991 0.3888
0.0398108 0.0972457 0.441169
0.478645 0.0447852 0.453437
0.641169 0.0518807 0.505974
0.700877 0.0526741 0.530175
0.717769 0.0521859 0.532586
0.0343328 0.266102 0.0344244
0.0328527 0.277058 0.106279
0.0343481 0.284489 0.198749
0.0366979 0.32694 0.341711
0.0434882 0.383307 0.519081
0.587716 0.619791 0.775906
0.93077 0.56495 0.79411
0.910689 0.332723 0.684627
0.71194 0.0515297 0.510887
0.0359045 0.330587 0.0359045
0.0366064 0.346624 0.0988479
0.0370336 0.363714 0.221744
0.0374762 0.385122 0.333257
0.0448768 0.441489 0.500908
0.0505074 0.473121 0.6168
0.960113 0.937484 0.929915
0.982086 0.922637 0.910201
0.991821 0.917296 0.902037
0.0387732 0.374289 0.0387732
0.0382086 0.401358 0.166674
0.0395209 0.42092 0.290318
0.0413214 0.432135 0.369116
0.0451972 0.46331 0.502571
0.0503395 0.492058 0.603037
0.0523384 0.502647 0.626368
0.976455 0.977829 0.912535
0.990234 0.977798 0.915068
0.0371557 0.40119 0.0371557
0.0382544 0.403326 0.0448005
0.0413672 0.448707 0.282902
0.0418097 0.459129 0.363317
0.0434577 0.472297 0.431327
0.0495003 0.500832 0.556832
0.0515908 0.51577 0.585
0.165972 0.728084 0.622065
0.975464 0.979858 0.774456
0.0230259 0.0259403 0.0428931
0.0308537 0.0264744 0.0560311
0.0410773 0.0250095 0.0694591
0.0579232 0.0270848 0.0904097
0.0872511 0.0297856 0.119265
0.156298 0.0302586 0.163958
0.343771 0.0372168 0.264881
0.570214 0.0470893 0.406744
0.678767 0.0519265 0.499245
0.0247807 0.039353 0.085008
0.0266423 0.0315709 0.125399
0.0363775 0.0296025 0.180255
0.0548409 0.0303044 0.228275
0.13167 0.0349737 0.278386
0.303822 0.0369116 0.346395
0.545846 0.0450752 0.447623
0.664912 0.0523232 0.523415
0.723888 0.0542 0.56173
0.0281224 0.0591897 0.150927
0.0307927 0.0315404 0.213321
0.0347906 0.0347906 0.310277
0.0371099 0.0371099 0.366705
0.105669 0.0382696 0.414923
0.397284 0.0420539 0.454856
0.575723 0.0457313 0.481498
0.682567 0.051606 0.545037
0.741024 0.0555886 0.583001
0.0304417 0.126711 0.210193
0.0349126 0.0906691 0.288792
0.0349126 0.0349126 0.318608
0.0373541 0.0373541 0.383474
0.0374304 0.0374304 0.393805
0.3991 0.0424201 0.46952
0.572946 0.0454871 0.484352
0.696605 0.0519112 0.560494
0.747677 0.0560159 0.592813
0.032105 0.223651 0.172549
0.0337835 0.218891 0.293294
0.0373541 0.195514 0.364141
0.0395819 0.136355 0.42562
0.0373846 0.0373846 0.39028
0.419944 0.0439307 0.499336
0.584817 0.0461891 0.500237
0.70222 0.0522774 0.567132
0.748516 0.0560769 0.593927
0.0344091 0.288243 0.0552529
0.0344701 0.302754 0.203082
0.0358129 0.309361 0.310918
0.0397498 0.319799 0.431739
0.0474098 0.349676 0.5635
0.158968 0.37966 0.68191
0.849622 0.353262 0.741283
0.696468 0.0518807 0.564233
0.740414 0.0555276 0.582528
0.0369116 0.340642 0.0369116
0.0366369 0.349279 0.0619059
0.0375067 0.374655 0.225574
0.037583 0.387091 0.342184
0.0454414 0.434867 0.512932
0.0516976 0.469673 0.646113
0.918639 0.90071 0.95552
0.980636 0.890379 0.960861
0.990692 0.861845 0.939544
0.0386053 0.379797 0.0386053
0.0386206 0.394934 0.0937514
0.039765 0.425101 0.286351
0.0419013 0.4374 0.388144
0.0453803 0.460929 0.514092
0.0526741 0.492988 0.636515
0.367941 0.848676 0.857008
0.981033 0.979049 0.97789
0.992462 0.977966 0.976379
0.0370642 0.403647 0.0370642
0.0413977 0.449928 0.271336
0.042649 0.465522 0.4038
0.0451209 0.471946 0.47834
0.0476692 0.479667 0.538796
0.052842 0.504067 0.633738
0.0564889 0.52192 0.677409
0.565148 0.925689 0.880095
0.987289 0.98883 0.974319
0.023743 0.0272679 0.0490578
0.0309148 0.0262303 0.0624247
0.0422065 0.0258183 0.0830396
0.0601663 0.0283818 0.112276
0.0901656 0.0290379 0.146914
0.161074 0.0293278 0.201984
0.31162 0.0353246 0.281941
0.542428 0.0457771 0.424186
0.672984 0.0522011 0.529061
0.0258488 0.0390173 0.103822
0.0284581 0.0284581 0.150561
0.0311742 0.0311742 0.214984
0.0429084 0.0326085 0.271977
0.109621 0.0366674 0.336065
0.292851 0.038941 0.405158
0.507561 0.0450446 0.472572
0.647471 0.0514992 0.53463
0.721721 0.0538643 0.57879
0.028809 0.051957 0.190021
0.0339818 0.0339818 0.266209
0.0369421 0.0369421 0.36228
0.0376898 0.0376898 0.404685
0.0381323 0.0381323 0.413138
0.372259 0.0436866 0.498772
0.554162 0.0453193 0.512718
0.661006 0.0523537 0.548699
0.743847 0.0557259 0.599725
0.0337682 0.122957 0.271321
0.0353857 0.0480659 0.323201
0.0373541 0.0373541 0.37464
0.0383459 0.0383459 0.416907
0.0391699 0.0391699 0.427482
0.351156 0.0441596 0.507881
0.556588 0.0458839 0.519112
0.664363 0.0526284 0.553628
0.759213 0.0568704 0.613611
0.0328679 0.240482 0.263874
0.0369726 0.215473 0.369711
0.0408179 0.172702 0.430228
0.0373541 0.0373541 0.37702
0.0382696 0.0382696 0.415839
0.308034 0.044419 0.515084
0.568048 0.0472725 0.532036
0.659144 0.0522774 0.551675
0.767285 0.0574655 0.620874
0.0355535 0.319051 0.163027
0.0357977 0.324865 0.30753
0.0397803 0.327382 0.426581
0.0440681 0.317754 0.512856
0.0459602 0.283787 0.56701
0.0431678 0.0689555 0.481834
0.593011 0.0493324 0.556008
0.66656 0.0529641 0.561257
0.761349 0.0571145 0.616983
0.0375982 0.34786 0.0375982
0.0382391 0.379187 0.190829
0.0384985 0.397192 0.340795
0.0432288 0.40882 0.460883
0.0465248 0.426459 0.576196
0.0520943 0.453666 0.679988
0.721859 0.77818 0.906828
0.969772 0.802243 0.94583
0.983932 0.763546 0.931884
0.0383307 0.385153 0.0383307
0.0385901 0.380041 0.0385901
0.0399481 0.427298 0.265248
0.0421759 0.444221 0.394186
0.0449836 0.457496 0.505089
0.0525521 0.489311 0.637308
0.0562142 0.504814 0.699931
0.978469 0.974533 0.985504
0.992676 0.974563 0.986816
0.0370794 0.408255 0.0370794
0.0404517 0.434302 0.15613
0.0421302 0.466117 0.38587
0.0456245 0.475853 0.487266
0.0477302 0.479606 0.544305
0.053193 0.501762 0.640436
0.056672 0.518593 0.693126
0.888945 0.980819 0.976471
0.988602 0.987716 0.98587
