luts/lumix_color_lab_C/S_Deep_Forest_2.cube
TITLE "Generated by Resolve"
LUT_3D_SIZE 33
0.0247501 0.0247501 0.0247501
0.0247501 0.0247501 0.0247501
0.0247501 0.0247501 0.0247501
0.0247501 0.0247501 0.0247501
0.0247501 0.0247501 0.0247501
0.0247501 0.0247501 0.0247501
0.0247501 0.0247501 0.0247501
0.0269169 0.0247501 0.0247501
0.030045 0.0247501 0.0247501
0.0337377 0.0251164 0.0251469
0.0382391 0.0273899 0.0270695
0.0421912 0.0290074 0.028275
0.0459754 0.0302739 0.0289921
0.0513161 0.0311894 0.0291752
0.0575113 0.0317693 0.0290532
0.064271 0.0314336 0.0287633
0.0716106 0.0309606 0.0284123
0.0814832 0.0305943 0.0282444
0.0939498 0.0301518 0.0275731
0.109163 0.0302434 0.0267796
0.127718 0.0320134 0.0268101
0.148806 0.0330816 0.0281071
0.172778 0.0334936 0.0295872
0.200839 0.0332647 0.0298314
0.233616 0.0330663 0.0295567
0.270161 0.0339208 0.0305333
0.310491 0.0355688 0.0327306
0.355062 0.0375677 0.0362402
0.399695 0.0394141 0.039292
0.439963 0.0409705 0.0409705
0.47599 0.0422217 0.0422217
0.509407 0.0437781 0.0437781
0.540734 0.0461433 0.0461433
0.0247501 0.0247501 0.0247501
0.0247501 0.0247501 0.0247501
0.0247501 0.0247501 0.0247501
0.0247501 0.0247501 0.0247501
0.0251164 0.0247501 0.0247501
0.0280003 0.0247959 0.0247654
0.0316014 0.0272374 0.0268254
0.0348058 0.0290074 0.0285191
0.038407 0.0303807 0.029572
0.0420539 0.0315251 0.0303502
0.0459602 0.0325322 0.0307164
0.0511177 0.0334173 0.0307164
0.0570382 0.0341039 0.030457
0.0642863 0.0345312 0.0300755
0.0712444 0.0341192 0.029572
0.0816663 0.0340124 0.0294804
0.0948806 0.0338445 0.0291447
0.110567 0.0336156 0.0283207
0.128023 0.0319982 0.0274205
0.15053 0.0331273 0.0282597
0.177157 0.0335241 0.0297093
0.208164 0.0331426 0.0296635
0.242603 0.0331731 0.0296483
0.281086 0.0343633 0.0310369
0.323537 0.0361334 0.0336156
0.367636 0.0381018 0.037232
0.407858 0.0397498 0.0397192
0.447349 0.0412451 0.0412451
0.483146 0.0424659 0.0424659
0.515801 0.0441749 0.0441749
0.545907 0.0465553 0.0465553
0.570977 0.0482948 0.0482948
0.591012 0.0493019 0.0493019
0.0247501 0.0247501 0.0247501
0.0247501 0.0248569 0.0247501
0.0246738 0.0267643 0.0254673
0.0289158 0.0290532 0.0279088
0.031693 0.0306401 0.0294499
0.0340887 0.0319219 0.0306706
0.0368505 0.033051 0.0315709
0.0399634 0.0340124 0.0321813
0.0436713 0.0348058 0.0324712
0.047715 0.0354772 0.0322576
0.0536965 0.0363012 0.0319219
0.0602731 0.0370336 0.0314183
0.0679484 0.037644 0.03093
0.0776532 0.0380865 0.0306096
0.0900893 0.0382391 0.0304875
0.105989 0.0383612 0.030045
0.125063 0.0376745 0.0287785
0.145754 0.0352636 0.0282902
0.169619 0.0334783 0.0294957
0.200488 0.0332647 0.0298466
0.236957 0.0330968 0.0295872
0.277501 0.0342107 0.030869
0.319997 0.035996 0.0333562
0.363241 0.0379187 0.0368963
0.407645 0.0397345 0.039704
0.449149 0.0413062 0.0413062
0.485328 0.0425422 0.0425422
0.516701 0.0442359 0.0442359
0.545159 0.0464942 0.0464942
0.568978 0.048188 0.048188
0.588525 0.0491951 0.0491951
0.603311 0.0494087 0.0494087
0.616007 0.0494087 0.0494087
0.0235904 0.0297856 0.0287785
0.0250401 0.0313268 0.0301976
0.0283055 0.0331579 0.0309758
0.0318303 0.0344854 0.0317845
0.0344396 0.0354162 0.0328985
0.0373541 0.0365454 0.0333257
0.0402075 0.037583 0.0336004
0.0438392 0.0384985 0.0337377
0.0478523 0.0392309 0.033341
0.0544594 0.0402533 0.0328985
0.0615396 0.0410925 0.0322423
0.0697337 0.0417945 0.0315709
0.0816815 0.0423896 0.0309911
0.0971695 0.0430152 0.0308843
0.116182 0.0433967 0.030518
0.138048 0.042298 0.0292058
0.161898 0.0394293 0.0288396
0.184344 0.0335699 0.0298772
0.21915 0.0330358 0.0295262
0.257115 0.0334783 0.0300298
0.299794 0.035111 0.0320439
0.34902 0.0372778 0.0357061
0.398245 0.039353 0.0392157
0.443244 0.0410925 0.0410925
0.480781 0.0423896 0.0423896
0.512917 0.0439918 0.0439918
0.541146 0.0461738 0.0461738
0.564446 0.0479286 0.0479286
0.583017 0.0489509 0.0489509
0.598032 0.0493324 0.0493324
0.610407 0.0494087 0.0494087
0.621225 0.0494087 0.0494087
0.631144 0.0494087 0.0494087
0.0228428 0.0340429 0.0327153
0.0247044 0.0356451 0.0337224
0.0276493 0.0376135 0.0341039
0.0317845 0.0392767 0.0343938
0.0349432 0.0403754 0.0347601
0.0387579 0.0413519 0.0344701
0.0426947 0.0421912 0.0343633
0.0467079 0.0429694 0.0340734
0.0532235 0.0439918 0.0335393
0.0610056 0.0449836 0.0328679
0.0701457 0.0459449 0.0320745
0.0841077 0.0469062 0.0313878
0.1028 0.047776 0.030808
0.124926 0.0485389 0.0301976
0.14992 0.0474556 0.0292515
0.176562 0.0440375 0.0297398
0.201984 0.0382239 0.0311589
0.231876 0.033051 0.0295415
0.274861 0.0341039 0.0307469
0.323842 0.0361486 0.0336461
0.376104 0.038468 0.0378576
0.425757 0.0404212 0.0404212
0.468421 0.0419623 0.0419623
0.50251 0.0433509 0.0433509
0.53164 0.0453651 0.0453651
0.555993 0.0473182 0.0473182
0.575479 0.0485542 0.0485542
0.590951 0.0492866 0.0492866
0.603006 0.0494087 0.0494087
0.613504 0.0494087 0.0494087
0.622766 0.0494087 0.0494087
0.631296 0.0494087 0.0494087
0.639216 0.0494087 0.0494087
0.0230869 0.0391241 0.0352789
0.0231479 0.0403754 0.0359045
0.0255283 0.0420996 0.035996
0.0294041 0.0436561 0.0357977
0.0336156 0.0448615 0.0361181
0.0376287 0.046067 0.0354467
0.0429541 0.0471199 0.0345006
0.049073 0.0479896 0.0337377
0.0575113 0.0491798 0.03299
0.0674754 0.0505074 0.0320897
0.081651 0.0517433 0.0311894
0.102205 0.0529488 0.0303502
0.127153 0.0540627 0.0294347
0.153429 0.0535439 0.0285954
0.183185 0.0506142 0.0296178
0.215198 0.0451514 0.0322271
0.24062 0.0331426 0.029633
0.286397 0.0345769 0.0313115
0.337407 0.0367437 0.0346838
0.390219 0.0390326 0.0387732
0.438834 0.0409247 0.0409247
0.479271 0.0423285 0.0423285
0.511757 0.0439155 0.0439155
0.539284 0.0460212 0.0460212
0.561776 0.047776 0.047776
0.578973 0.0487373 0.0487373
0.592569 0.0493172 0.0493172
0.603143 0.0494087 0.0494087
0.612375 0.0494087 0.0494087
0.620371 0.0494087 0.0494087
0.627573 0.0494087 0.0494087
0.634607 0.0494087 0.0494087
0.641489 0.0494087 0.0494087
0.0235752 0.0441291 0.0367742
0.0237125 0.045594 0.0372015
0.0238804 0.0471199 0.0367895
0.0262455 0.0481727 0.0359197
0.0302892 0.0489509 0.0358892
0.0345617 0.0506142 0.035172
0.0398718 0.0522927 0.033753
0.0480964 0.0542153 0.0325933
0.0603799 0.056199 0.0314946
0.074464 0.0577249 0.0304417
0.0944228 0.0593118 0.0293126
0.119722 0.060502 0.0281682
0.14844 0.0602579 0.0277409
0.180819 0.0581521 0.0290227
0.219196 0.053666 0.0315862
0.254047 0.0441138 0.0337987
0.284901 0.0345159 0.0312352
0.336217 0.0366827 0.0345922
0.3888 0.0389715 0.0386816
0.436881 0.0408484 0.0408484
0.477607 0.0422675 0.0422675
0.510002 0.0438087 0.0438087
0.537377 0.0458534 0.0458534
0.559304 0.0475776 0.0475776
0.576211 0.0486 0.0486
0.589197 0.0492256 0.0492256
0.599283 0.0493477 0.0493477
0.607584 0.0494087 0.0494087
0.615198 0.0494087 0.0494087
0.622278 0.0494087 0.0494087
0.629252 0.0494087 0.0494087
0.636118 0.0494087 0.0494087
0.642954 0.0494087 0.0494087
0.024033 0.0492256 0.0375525
0.0240482 0.0506905 0.0375525
0.0239414 0.0521859 0.0365454
0.0237125 0.0533303 0.0348058
0.0253452 0.0533608 0.0336461
0.0295567 0.0540322 0.0328069
0.0348058 0.0570077 0.0315404
0.0426184 0.0603494 0.0302892
0.057908 0.064271 0.0289769
0.0785077 0.0679332 0.0274357
0.104372 0.0690776 0.0269474
0.134966 0.0700999 0.0276646
0.169329 0.0695201 0.0288243
0.206729 0.0653391 0.0301366
0.25127 0.0587167 0.0330205
0.28838 0.0456855 0.0357671
0.318013 0.0359045 0.0332036
0.37116 0.0382544 0.0374914
0.420768 0.040238 0.040238
0.463676 0.0418097 0.0418097
0.497749 0.0430762 0.0430762
0.525872 0.044892 0.044892
0.549203 0.0467994 0.0467994
0.566812 0.0480659 0.0480659
0.580804 0.0488441 0.0488441
0.592126 0.0493172 0.0493172
0.601007 0.0493782 0.0493782
0.609064 0.0494087 0.0494087
0.616419 0.0494087 0.0494087
0.623423 0.0494087 0.0494087
0.63035 0.0494087 0.0494087
0.63714 0.0494087 0.0494087
0.643961 0.0494087 0.0494087
0.024033 0.0540017 0.0372625
0.0239872 0.0556191 0.0369116
0.0238041 0.0572976 0.0353094
0.0237125 0.0586557 0.0326696
0.0237278 0.0597086 0.0310674
0.024445 0.0603647 0.0303502
0.0288396 0.0632486 0.0289616
0.0347295 0.0671092 0.0277104
0.0442359 0.0707103 0.0278325
0.0698253 0.0782788 0.0278172
0.104448 0.082948 0.0278325
0.144167 0.0836042 0.0282444
0.185168 0.0831311 0.0299535
0.22742 0.0786755 0.0312352
0.276555 0.0692912 0.033753
0.318044 0.0540169 0.0372473
0.336507 0.0366979 0.0346075
0.3888 0.0389715 0.0386816
0.43624 0.0408179 0.0408179
0.474617 0.0421759 0.0421759
0.504814 0.0434882 0.0434882
0.530465 0.0452735 0.0452735
0.551949 0.0469978 0.0469978
0.568795 0.0481727 0.0481727
0.58233 0.0489204 0.0489204
0.593271 0.0493172 0.0493172
0.602045 0.0493935 0.0493935
0.609918 0.0494087 0.0494087
0.617258 0.0494087 0.0494087
0.624384 0.0494087 0.0494087
0.631281 0.0494087 0.0494087
0.638148 0.0494087 0.0494087
0.644846 0.0494087 0.0494087
0.0239567 0.0592203 0.0362097
0.0239872 0.0610666 0.0353552
0.0241398 0.0632486 0.0329747
0.0243992 0.0656291 0.0295415
0.0245975 0.0677501 0.0285344
0.0247349 0.0693675 0.0287938
0.024918 0.0717327 0.0291752
0.0263371 0.0754101 0.0294652
0.032166 0.0809033 0.0293126
0.0438392 0.0872206 0.0288701
0.0831159 0.0981003 0.0284428
0.13872 0.103655 0.0287785
0.190127 0.102663 0.0302892
0.241062 0.0990921 0.032639
0.293278 0.0892042 0.0342718
0.343389 0.0714885 0.0373083
0.378729 0.0500801 0.0396887
0.392706 0.0391241 0.038941
0.437888 0.0408789 0.0408789
0.475074 0.0421912 0.0421912
0.505089 0.0435187 0.0435187
0.53106 0.0453193 0.0453193
0.552773 0.0470741 0.0470741
0.569482 0.0482032 0.0482032
0.58294 0.0489509 0.0489509
0.593805 0.0493172 0.0493172
0.602716 0.0494087 0.0494087
0.610727 0.0494087 0.0494087
0.618112 0.0494087 0.0494087
0.625193 0.0494087 0.0494087
0.632136 0.0494087 0.0494087
0.639078 0.0494087 0.0494087
0.645869 0.0494087 0.0494087
0.0243839 0.0657359 0.034226
0.0246281 0.068574 0.0328985
0.024918 0.0718547 0.0298772
0.0251926 0.075761 0.0298314
0.0254215 0.0793622 0.030396
0.0256046 0.0821393 0.0307927
0.0257572 0.0848859 0.0312047
0.0259861 0.0885481 0.0317693
0.026215 0.0924086 0.0323339
0.0291295 0.0967575 0.031754
0.0428473 0.107744 0.0299382
0.101366 0.122957 0.0289921
0.176822 0.12958 0.0299992
0.240497 0.127001 0.0328069
0.302907 0.120195 0.0358282
0.36051 0.103075 0.0378119
0.406638 0.0780804 0.0398566
0.431632 0.0528267 0.0415045
0.434104 0.0407416 0.0407416
0.472602 0.0420996 0.0420996
0.503532 0.0434119 0.0434119
0.530159 0.045243 0.045243
0.552239 0.0470283 0.0470283
0.569421 0.0482032 0.0482032
0.583169 0.0489662 0.0489662
0.594232 0.0493172 0.0493172
0.603326 0.0494087 0.0494087
0.611322 0.0494087 0.0494087
0.618814 0.0494087 0.0494087
0.62594 0.0494087 0.0494087
0.633036 0.0494087 0.0494087
0.639902 0.0494087 0.0494087
0.646632 0.0494087 0.0494087
0.0251926 0.0757458 0.0314488
0.0254063 0.0789654 0.0303349
0.0257115 0.0838941 0.0310521
0.0260166 0.0892348 0.0318761
0.0263066 0.0941329 0.0324407
0.0265202 0.0978866 0.0327001
0.0266728 0.100832 0.0328832
0.0268406 0.104677 0.0330968
0.027039 0.109361 0.0332952
0.0272068 0.113207 0.0332494
0.0272831 0.115282 0.0332341
0.0433051 0.128893 0.0310063
0.122362 0.151766 0.0296941
0.219455 0.160723 0.0310216
0.295933 0.156741 0.0356603
0.367071 0.146029 0.0392462
0.427085 0.123201 0.0415351
0.469505 0.0908827 0.0423438
0.480293 0.0581826 0.0438697
0.469017 0.0419928 0.0419928
0.501366 0.0432898 0.0432898
0.528634 0.0451209 0.0451209
0.551232 0.046952 0.046952
0.569039 0.048188 0.048188
0.583261 0.0489662 0.0489662
0.594522 0.0493172 0.0493172
0.603616 0.0494087 0.0494087
0.611719 0.0494087 0.0494087
0.619257 0.0494087 0.0494087
0.626383 0.0494087 0.0494087
0.633371 0.0494087 0.0494087
0.640192 0.0494087 0.0494087
0.646922 0.0494087 0.0494087
0.0260777 0.0900587 0.0319982
0.0263218 0.0943923 0.0324712
0.0266117 0.0995499 0.0328069
0.0268711 0.10547 0.0331426
0.0271153 0.111269 0.0332647
0.0272984 0.115541 0.0332189
0.0274205 0.119051 0.0331426
0.0275425 0.122911 0.0330358
0.0276036 0.127352 0.0328527
0.027512 0.131884 0.032578
0.027451 0.134997 0.0323949
0.0274052 0.136385 0.0322728
0.0446937 0.152773 0.0316625
0.146136 0.184741 0.0307774
0.266651 0.198062 0.0323339
0.355306 0.191012 0.0383001
0.43386 0.176806 0.0422065
0.493462 0.150454 0.0449531
0.531685 0.112779 0.0458686
0.533394 0.0669413 0.0461433
0.497978 0.0430915 0.0430915
0.526085 0.0449073 0.0449073
0.549798 0.0468452 0.0468452
0.568231 0.0481422 0.0481422
0.582544 0.0489357 0.0489357
0.594049 0.0493172 0.0493172
0.603311 0.0494087 0.0494087
0.61146 0.0494087 0.0494087
0.618982 0.0494087 0.0494087
0.626154 0.0494087 0.0494087
0.633127 0.0494087 0.0494087
0.639948 0.0494087 0.0494087
0.646647 0.0494087 0.0494087
0.0269932 0.108248 0.0332952
0.0272068 0.113268 0.0332494
0.0274052 0.118746 0.0331579
0.0275883 0.124666 0.0329747
0.0275425 0.130449 0.0326696
0.0274357 0.135286 0.0323644
0.0273289 0.139071 0.0320745
0.0272374 0.142138 0.0318303
0.0270542 0.146288 0.0314641
0.0267948 0.150622 0.0310521
0.0265507 0.154696 0.0306554
0.0263523 0.157778 0.0303349
0.026276 0.158984 0.0302129
0.0441138 0.179644 0.0322881
0.163607 0.222324 0.0323491
0.316106 0.242206 0.0350347
0.421775 0.234287 0.0414588
0.504799 0.219501 0.045594
0.561898 0.190173 0.0478981
0.596323 0.14757 0.0493629
0.595148 0.0861982 0.0486305
0.522652 0.0446174 0.0446174
0.54696 0.0466316 0.0466316
0.566018 0.0480201 0.0480201
0.58088 0.0488441 0.0488441
0.592874 0.0493172 0.0493172
0.602213 0.0493935 0.0493935
0.610437 0.0494087 0.0494087
0.618067 0.0494087 0.0494087
0.625269 0.0494087 0.0494087
0.632303 0.0494087 0.0494087
0.639139 0.0494087 0.0494087
0.645899 0.0494087 0.0494087
0.0275425 0.129885 0.0327001
0.027451 0.134997 0.0323949
0.0272831 0.140459 0.0319524
0.0270695 0.145907 0.0314946
0.0267338 0.151659 0.0309453
0.0264286 0.156558 0.030457
0.026215 0.160037 0.0301061
0.0260319 0.162844 0.0298161
0.0260319 0.16643 0.0296788
0.0260777 0.171069 0.0295109
0.0261997 0.175906 0.0294041
0.0263828 0.180484 0.0293736
0.0265049 0.183352 0.0293431
0.0265507 0.184421 0.0293431
0.0419318 0.204944 0.0325475
0.186435 0.267414 0.0344244
0.373297 0.294438 0.0396124
0.49456 0.289189 0.0465553
0.581506 0.274266 0.0507668
0.636454 0.241901 0.0517891
0.666896 0.197284 0.0530251
0.66566 0.129961 0.0526589
0.599039 0.0636606 0.0491951
0.56347 0.0478676 0.0478676
0.579019 0.0487526 0.0487526
0.591226 0.0493019 0.0493019
0.600809 0.0493782 0.0493782
0.609323 0.0494087 0.0494087
0.616938 0.0494087 0.0494087
0.624231 0.0494087 0.0494087
0.631296 0.0494087 0.0494087
0.638331 0.0494087 0.0494087
0.645136 0.0494087 0.0494087
0.0266728 0.152865 0.0308385
0.0263371 0.158068 0.0303044
0.0260166 0.163348 0.0297856
0.0260624 0.169284 0.029572
0.026154 0.174701 0.0294194
0.0263523 0.179675 0.0293736
0.0265049 0.183215 0.0293431
0.0267185 0.186145 0.0294194
0.0270695 0.1897 0.0295872
0.0275578 0.194568 0.0298009
0.0282139 0.199847 0.0301213
0.0289311 0.20528 0.0304875
0.0295872 0.210391 0.0308385
0.0299535 0.213535 0.0310674
0.0301366 0.215061 0.0311894
0.0352026 0.22266 0.0320897
0.219196 0.319081 0.0369421
0.437186 0.354055 0.0451972
0.56994 0.350896 0.0547646
0.658457 0.335042 0.0590066
0.713954 0.30251 0.059266
0.741146 0.258244 0.0591592
0.740307 0.198489 0.0572671
0.696529 0.110933 0.0531624
0.576608 0.0486152 0.0486152
0.589532 0.0492409 0.0492409
0.599466 0.0493477 0.0493477
0.608087 0.0494087 0.0494087
0.615854 0.0494087 0.0494087
0.623316 0.0494087 0.0494087
0.630442 0.0494087 0.0494087
0.637476 0.0494087 0.0494087
0.644358 0.0494087 0.0494087
0.0262913 0.178134 0.0293889
0.0265202 0.183688 0.0293431
0.0270085 0.188968 0.0295415
0.0275273 0.194263 0.0298009
0.0281834 0.199603 0.0301061
0.0288701 0.204807 0.030457
0.0294347 0.209094 0.0307469
0.0298314 0.212528 0.0310063
0.0302281 0.215824 0.0312352
0.0307317 0.220111 0.0315557
0.031281 0.225437 0.0319066
0.0318914 0.231449 0.0323033
0.0324254 0.237278 0.0327001
0.0328374 0.241856 0.0330053
0.0331273 0.24509 0.0332189
0.0332494 0.246906 0.033341
0.0332036 0.246387 0.0332952
0.258106 0.373251 0.0399634
0.50277 0.415061 0.0526589
0.647532 0.417243 0.0670329
0.736004 0.401648 0.0720531
0.790722 0.371923 0.0727092
0.810788 0.332647 0.0702068
0.812528 0.283543 0.065568
0.791058 0.214405 0.0606546
0.7196 0.107454 0.0548714
0.597681 0.0493324 0.0493324
0.606638 0.0494087 0.0494087
0.614633 0.0494087 0.0494087
0.622065 0.0494087 0.0494087
0.629358 0.0494087 0.0494087
0.636378 0.0494087 0.0494087
0.64332 0.0494087 0.0494087
0.0289769 0.205615 0.0305028
0.0296025 0.21062 0.0308537
0.0301366 0.215106 0.0311894
0.0307012 0.219928 0.0315404
0.0312657 0.225299 0.0319066
0.0318303 0.230716 0.0322576
0.0322576 0.235309 0.0325628
0.032578 0.238941 0.0328069
0.0328527 0.2421 0.0330205
0.0332189 0.246571 0.0333104
0.0335699 0.25182 0.0336614
0.0339361 0.257252 0.0340276
0.0341955 0.263218 0.034287
0.0344701 0.269047 0.0345617
0.034638 0.273136 0.0346838
0.0347448 0.27602 0.0347753
0.0348058 0.277348 0.0348211
0.0347753 0.2766 0.0348058
0.301991 0.427634 0.0442817
0.568399 0.473884 0.0629587
0.726268 0.484077 0.0831006
0.812955 0.471336 0.0903182
0.856672 0.444739 0.0900282
0.872312 0.414801 0.0868086
0.874876 0.377997 0.0816815
0.867475 0.329015 0.0750439
0.843397 0.262089 0.0671397
0.773877 0.14638 0.0570382
0.613108 0.0494087 0.0494087
0.620645 0.0494087 0.0494087
0.627939 0.0494087 0.0494087
0.635004 0.0494087 0.0494087
0.642023 0.0494087 0.0494087
0.0319677 0.23212 0.0323491
0.0323491 0.236423 0.032639
0.0327306 0.240711 0.032929
0.0331579 0.245624 0.0332494
0.0335088 0.250858 0.0336004
0.0338598 0.256306 0.0339513
0.0341039 0.26096 0.0341955
0.034287 0.26508 0.0343786
0.0344549 0.268681 0.0345464
0.0346075 0.27248 0.0346685
0.0347906 0.276997 0.0348058
0.0349432 0.282414 0.0349432
0.0349737 0.287633 0.0349737
0.0349737 0.293172 0.0349737
0.0348974 0.297765 0.0348974
0.0348363 0.301595 0.0348363
0.0348516 0.303655 0.0348516
0.0348516 0.304326 0.0348516
0.0348516 0.30341 0.0348516
0.333989 0.476478 0.0506447
0.632136 0.529747 0.0782177
0.799069 0.549706 0.102358
0.873747 0.537804 0.109606
0.902876 0.517021 0.109499
0.916457 0.494026 0.106767
0.920058 0.470512 0.102953
0.919585 0.441413 0.0975967
0.916121 0.403647 0.0907454
0.901381 0.344549 0.0808728
0.848478 0.238056 0.06598
0.654597 0.0584268 0.0515755
0.633524 0.0494087 0.0494087
0.640482 0.0494087 0.0494087
0.0339361 0.257343 0.0340276
0.0341192 0.261555 0.0342107
0.0343175 0.265675 0.0344091
0.0345159 0.270375 0.0346075
0.0347143 0.275242 0.0347601
0.0349279 0.2804 0.0349279
0.0349584 0.285328 0.0349584
0.0349889 0.289509 0.0349889
0.0349737 0.29305 0.0349737
0.0349126 0.296712 0.0349126
0.0348363 0.300938 0.0348363
0.0348669 0.305394 0.0348669
0.0348974 0.310033 0.0348974
0.0350347 0.315038 0.0350347
0.0352178 0.31957 0.0352178
0.0354162 0.323339 0.0354162
0.0355993 0.326101 0.0355993
0.0357214 0.327932 0.0357214
0.0357214 0.328038 0.0357214
0.0356756 0.327352 0.0356756
0.363607 0.519738 0.0574655
0.699351 0.583917 0.0954757
0.858976 0.610574 0.122301
0.912245 0.599481 0.128161
0.926131 0.584527 0.128878
0.933577 0.569253 0.127565
0.938277 0.554223 0.124895
0.941482 0.537179 0.120882
0.942153 0.515908 0.116335
0.941985 0.484428 0.109636
0.937316 0.428443 0.0967575
0.913024 0.340734 0.0806744
0.791852 0.131395 0.0582895
0.0349279 0.280827 0.0349279
0.0349584 0.284642 0.0349584
0.0349889 0.288533 0.0349889
0.0349737 0.293217 0.0349737
0.0348974 0.297932 0.0348974
0.0348363 0.302983 0.0348363
0.0348821 0.307698 0.0348821
0.0349279 0.312108 0.0349279
0.0350652 0.315557 0.0350652
0.0351873 0.318898 0.0351873
0.0353552 0.322606 0.0353552
0.0356146 0.326482 0.0356146
0.0358892 0.33051 0.0358892
0.036286 0.334478 0.036286
0.0367132 0.338643 0.0367132
0.0370794 0.342443 0.0370794
0.0373693 0.345571 0.0373693
0.037583 0.347662 0.037583
0.0376593 0.348699 0.0376593
0.037705 0.349111 0.037705
0.0376745 0.34873 0.0376745
0.406165 0.562097 0.0651408
0.762234 0.634043 0.110857
0.894957 0.662501 0.138781
0.927016 0.65449 0.144198
0.935073 0.643137 0.145327
0.939406 0.6336 0.145327
0.942718 0.624598 0.144228
0.945632 0.613214 0.141085
0.948104 0.599191 0.137392
0.950225 0.577935 0.133135
0.951583 0.548333 0.126299
0.950744 0.502037 0.114305
0.0348363 0.302068 0.0348363
0.0348669 0.305989 0.0348669
0.0348974 0.309865 0.0348974
0.0350042 0.314214 0.0350042
0.0351873 0.318791 0.0351873
0.0354467 0.323842 0.0354467
0.0357519 0.328328 0.0357519
0.0360723 0.332372 0.0360723
0.0364233 0.335805 0.0364233
0.036759 0.339055 0.036759
0.0370642 0.342245 0.0370642
0.0373693 0.345434 0.0373693
0.0376593 0.348577 0.0376593
0.0379187 0.351751 0.0379187
0.0382086 0.355184 0.0382086
0.0383764 0.358328 0.0383764
0.038529 0.361425 0.038529
0.0386206 0.36376 0.0386206
0.0386358 0.365118 0.0386358
0.0386511 0.365805 0.0386511
0.0386511 0.366033 0.0386511
0.0386511 0.365667 0.0386511
0.453162 0.598199 0.073228
0.816068 0.677775 0.124941
0.917082 0.704158 0.150973
0.932784 0.701106 0.156756
0.937667 0.692988 0.158511
0.941482 0.687022 0.159136
0.944701 0.681086 0.158923
0.947585 0.673884 0.157687
0.950286 0.663661 0.155032
0.952728 0.648981 0.151522
0.955001 0.627131 0.146929
0.0353094 0.321874 0.0353094
0.0355535 0.325383 0.0355535
0.0358129 0.329198 0.0358129
0.0361944 0.333608 0.0361944
0.0366522 0.338079 0.0366522
0.0370794 0.342367 0.0370794
0.0374762 0.34667 0.0374762
0.0378119 0.350484 0.0378119
0.0380713 0.353521 0.0380713
0.0382696 0.356146 0.0382696
0.0383917 0.358557 0.0383917
0.038529 0.361364 0.038529
0.0386206 0.363775 0.0386206
0.0386511 0.36611 0.0386511
0.0386816 0.368811 0.0386816
0.0387274 0.371618 0.0387274
0.0387732 0.374289 0.0387732
0.0387579 0.376471 0.0387579
0.0386816 0.378103 0.0386816
0.0386358 0.378912 0.0386358
0.0386206 0.37937 0.0386206
0.0386206 0.379446 0.0386206
0.0386358 0.379126 0.0386358
0.506645 0.630213 0.0820325
0.858335 0.714351 0.137942
0.927474 0.737255 0.159991
0.935241 0.738674 0.165789
0.939529 0.732738 0.16817
0.943175 0.729168 0.168902
0.946334 0.726162 0.169024
0.949203 0.72079 0.168582
0.951858 0.71342 0.167178
0.954376 0.70251 0.164706
0.03682 0.339681 0.03682
0.0371557 0.343236 0.0371557
0.0375219 0.347066 0.0375219
0.0378271 0.350713 0.0378271
0.0381476 0.354467 0.0381476
0.0383764 0.35845 0.0383764
0.0385595 0.362142 0.0385595
0.0386358 0.36524 0.0386358
0.0386816 0.367788 0.0386816
0.0387121 0.370077 0.0387121
0.0387427 0.372198 0.0387427
0.0387732 0.374334 0.0387732
0.0387732 0.376242 0.0387732
0.0386816 0.378134 0.0386816
0.0385748 0.380194 0.0385748
0.038468 0.382345 0.038468
0.0383612 0.38468 0.0383612
0.0382544 0.386664 0.0382544
0.0381476 0.388113 0.0381476
0.0380713 0.388983 0.0380713
0.0380255 0.389609 0.0380255
0.037995 0.389899 0.037995
0.0380102 0.389807 0.0380102
0.0380407 0.389425 0.0380407
0.585672 0.664714 0.0941787
0.889342 0.743694 0.148714
0.931182 0.762966 0.166873
0.937026 0.766995 0.172351
0.941222 0.763394 0.175326
0.944747 0.762661 0.176455
0.947936 0.761151 0.176471
0.950759 0.757244 0.176089
0.953399 0.751247 0.17525
0.0382391 0.355627 0.0382391
0.0383917 0.358648 0.0383917
0.0385443 0.361883 0.0385443
0.0386358 0.365179 0.0386358
0.0386816 0.36846 0.0386816
0.0387274 0.371618 0.0387274
0.0387732 0.374655 0.0387732
0.0387274 0.37731 0.0387274
0.0386206 0.379522 0.0386206
0.0385138 0.38143 0.0385138
0.0384375 0.383169 0.0384375
0.0383459 0.38497 0.0383459
0.0382544 0.386557 0.0382544
0.0381476 0.387945 0.0381476
0.0380255 0.389517 0.0380255
0.0378882 0.391211 0.0378882
0.0377203 0.392966 0.0377203
0.0375372 0.394858 0.0375372
0.0374151 0.396384 0.0374151
0.0373541 0.397421 0.0373541
0.0373083 0.398169 0.0373083
0.0372931 0.398627 0.0372931
0.0372778 0.398688 0.0372778
0.0372931 0.398459 0.0372931
0.0373236 0.398032 0.0373236
0.658198 0.695552 0.106538
0.909697 0.766995 0.156939
0.933455 0.782986 0.172412
0.938643 0.787961 0.177295
0.942763 0.787518 0.180621
0.946273 0.789197 0.182574
0.949371 0.78822 0.182467
0.952239 0.785306 0.181857
0.0386969 0.368887 0.0386969
0.0387274 0.371618 0.0387274
0.0387732 0.374304 0.0387732
0.0387274 0.377111 0.0387274
0.0386053 0.379782 0.0386053
0.038468 0.382391 0.038468
0.0383459 0.384878 0.0383459
0.0382086 0.387167 0.0382086
0.0380713 0.389059 0.0380713
0.0379339 0.390646 0.0379339
