luts/lumix_color_lab_C/S_Deep_Forest_1.cube
TITLE "Generated by Resolve"
LUT_3D_SIZE 33
0.0247501 0.0247501 0.0247501
0.0247501 0.0247501 0.0247501
0.0247501 0.0247501 0.0247501
0.0247501 0.0247501 0.0247501
0.0247501 0.0247501 0.0247501
0.0247501 0.0247501 0.0247501
0.0253758 0.0247501 0.0247501
0.028809 0.0247501 0.0247501
0.0324254 0.0247501 0.0247501
0.0370336 0.0267338 0.0265049
0.042237 0.0293736 0.0285954
0.0469062 0.0313115 0.0297246
0.0538643 0.0324102 0.029984
0.0615549 0.0330968 0.0299535
0.0694133 0.03299 0.0297093
0.0809186 0.0331426 0.0299229
0.0957198 0.0331273 0.0298314
0.114107 0.0327459 0.0290837
0.135592 0.0324102 0.0287327
0.162066 0.0333562 0.0296025
0.193606 0.033402 0.0298772
0.230533 0.0330358 0.0295262
0.272236 0.0339971 0.0306249
0.318013 0.0359045 0.0332036
0.365957 0.0380407 0.0370947
0.410346 0.0398413 0.0398413
0.452934 0.0414435 0.0414435
0.489815 0.0427253 0.0427253
0.523003 0.0446479 0.0446479
0.552163 0.0470283 0.0470283
0.575601 0.0485542 0.0485542
0.593866 0.0493172 0.0493172
0.60798 0.0494087 0.0494087
0.0247501 0.0247501 0.0247501
0.0247501 0.0247501 0.0247501
0.0247501 0.0247501 0.0247501
0.0247501 0.0247501 0.0247501
0.026688 0.0247501 0.0247501
0.0301366 0.0260929 0.0256352
0.0344701 0.0288701 0.0283207
0.038941 0.0309453 0.0299687
0.0433967 0.0324559 0.0309148
0.0481575 0.033875 0.0314336
0.0549172 0.03505 0.0314641
0.0623178 0.0360113 0.0312352
0.070222 0.0364385 0.03093
0.0821393 0.0370184 0.0310826
0.0975814 0.0373693 0.031281
0.115755 0.0373999 0.0307317
0.137026 0.0357061 0.0297093
0.16083 0.0333104 0.0300298
0.192615 0.0334173 0.0298772
0.22977 0.0330358 0.0295262
0.27155 0.0339818 0.0305943
0.315984 0.0358129 0.0330663
0.362585 0.0378882 0.0368353
0.409308 0.0397955 0.0397803
0.453117 0.0414588 0.0414588
0.490394 0.0427558 0.0427558
0.522866 0.0446479 0.0446479
0.550973 0.0469368 0.0469368
0.573693 0.0484474 0.0484474
0.591806 0.0493172 0.0493172
0.605509 0.0494087 0.0494087
0.617395 0.0494087 0.0494087
0.627909 0.0494087 0.0494087
0.0247501 0.0247501 0.0247501
0.0247501 0.0261845 0.0247959
0.0259861 0.0283207 0.0268101
0.0310521 0.0310063 0.0294194
0.0343175 0.0327306 0.0311131
0.0378424 0.0342107 0.0322423
0.0417029 0.0354772 0.0329595
0.0460517 0.036759 0.0329747
0.0519875 0.038056 0.0327306
0.0588846 0.039292 0.0323491
0.0670939 0.0404212 0.0319371
0.0776989 0.0413367 0.0316167
0.0920882 0.0421759 0.031693
0.110491 0.0428779 0.0318151
0.132097 0.0424048 0.0308995
0.15671 0.0400854 0.0300603
0.180224 0.0351873 0.0300298
0.211337 0.0330816 0.0295872
0.248463 0.0332647 0.0297551
0.291218 0.0347601 0.0315862
0.340047 0.0368658 0.0349126
0.390646 0.0390478 0.0388037
0.437385 0.0408637 0.0408637
0.476936 0.0422522 0.0422522
0.509819 0.0438087 0.0438087
0.538872 0.0459754 0.0459754
0.563149 0.0478523 0.0478523
0.582086 0.0489052 0.0489052
0.59707 0.0493172 0.0493172
0.609339 0.0494087 0.0494087
0.619974 0.0494087 0.0494087
0.629343 0.0494087 0.0494087
0.637903 0.0494087 0.0494087
0.0231785 0.0316472 0.0303807
0.0250248 0.0334173 0.0319371
0.0287022 0.0360571 0.0326696
0.0333104 0.0378882 0.0336767
0.0377203 0.0392462 0.033814
0.0418097 0.0404669 0.0339818
0.0460212 0.0415351 0.0338293
0.0524453 0.0427863 0.033402
0.0601968 0.0440681 0.0328374
0.0688029 0.0453193 0.0321965
0.0812848 0.0464942 0.031632
0.0988174 0.0476234 0.0311894
0.119585 0.0487831 0.0308843
0.143816 0.0488289 0.0300908
0.169375 0.046128 0.0296635
0.195682 0.0424048 0.0311742
0.218723 0.0330358 0.0295262
0.258442 0.0335241 0.0300755
0.304417 0.0353094 0.0323491
0.354986 0.0375525 0.0362402
0.404944 0.0396277 0.0395666
0.450599 0.0413672 0.0413672
0.487434 0.0426337 0.0426337
0.518074 0.0443122 0.0443122
0.544778 0.0464637 0.0464637
0.566323 0.0480354 0.0480354
0.583642 0.0489815 0.0489815
0.597162 0.0493172 0.0493172
0.608209 0.0494087 0.0494087
0.617823 0.0494087 0.0494087
0.626703 0.0494087 0.0494087
0.63447 0.0494087 0.0494087
0.641505 0.0494087 0.0494087
0.0230564 0.0381323 0.0347143
0.0231174 0.0398718 0.0356756
0.0263676 0.0420386 0.0357366
0.0320287 0.0437629 0.0359045
0.0370642 0.0452583 0.0353704
0.0432593 0.0465705 0.0343328
0.0495155 0.0475471 0.0335241
0.0578775 0.0488899 0.0328069
0.0677653 0.0504463 0.0319829
0.0814527 0.0519417 0.0311894
0.100175 0.0532845 0.0304875
0.12311 0.0546426 0.0297093
0.147723 0.0550546 0.0290074
0.174807 0.0530709 0.0289616
0.206302 0.0493172 0.0312352
0.235859 0.0415198 0.0325628
0.264714 0.0336919 0.0302739
0.309987 0.0355535 0.0327001
0.359503 0.0377508 0.0366064
0.407919 0.0397498 0.0397192
0.451301 0.0413825 0.0413825
0.487587 0.0426337 0.0426337
0.517586 0.0442817 0.0442817
0.543313 0.0463569 0.0463569
0.564187 0.0479133 0.0479133
0.580697 0.0488289 0.0488289
0.593912 0.0493172 0.0493172
0.604334 0.0494087 0.0494087
0.613428 0.0494087 0.0494087
0.621408 0.0494087 0.0494087
0.628611 0.0494087 0.0494087
0.635355 0.0494087 0.0494087
0.641718 0.0494087 0.0494087
0.0235904 0.0447242 0.0370947
0.0238041 0.0464179 0.0375525
0.0239567 0.0481422 0.0367895
0.0282902 0.0489815 0.0357214
0.0337377 0.0503853 0.035172
0.0400092 0.0523079 0.033402
0.0492714 0.054612 0.0321355
0.0614176 0.0566873 0.0310216
0.0754101 0.058381 0.030045
0.0943313 0.0602579 0.0290684
0.117632 0.0617227 0.0279393
0.144045 0.062211 0.0277256
0.172122 0.0603799 0.0285954
0.205982 0.0576486 0.030396
0.242069 0.052079 0.0331731
0.27039 0.0397345 0.0331273
0.302754 0.0352331 0.0322423
0.350317 0.0373388 0.0358282
0.397833 0.0393378 0.0392004
0.441169 0.0410163 0.0410163
0.478111 0.042298 0.042298
0.508492 0.0437171 0.0437171
0.534478 0.0456092 0.0456092
0.555886 0.0473182 0.0473182
0.572885 0.0484016 0.0484016
0.586572 0.0491188 0.0491188
0.597253 0.0493172 0.0493172
0.606073 0.0494087 0.0494087
0.614191 0.0494087 0.0494087
0.621637 0.0494087 0.0494087
0.628672 0.0494087 0.0494087
0.635279 0.0494087 0.0494087
0.641581 0.0494087 0.0494087
0.0240635 0.0508278 0.0382544
0.0241245 0.0526436 0.0381781
0.0239261 0.054078 0.0364691
0.023621 0.0548104 0.034165
0.0284276 0.0544289 0.0326238
0.0348821 0.0577554 0.03122
0.0433204 0.0611582 0.0296788
0.059678 0.0656901 0.0281987
0.0797742 0.069398 0.026978
0.103655 0.070634 0.0270542
0.131151 0.071809 0.0275731
0.162005 0.0721752 0.028687
0.194156 0.0698711 0.0296941
0.231785 0.064744 0.0314031
0.27126 0.0572213 0.0344244
0.302358 0.0434577 0.0359045
0.328115 0.0363317 0.0339666
0.375402 0.0384375 0.0378119
0.419898 0.0401923 0.0401923
0.458824 0.0416571 0.0416571
0.491508 0.0428016 0.0428016
0.518532 0.0443427 0.0443427
0.541802 0.0462348 0.0462348
0.560342 0.0476692 0.0476692
0.575128 0.0485389 0.0485389
0.587518 0.0491493 0.0491493
0.597803 0.0493324 0.0493324
0.606394 0.0494087 0.0494087
0.614298 0.0494087 0.0494087
0.621759 0.0494087 0.0494087
0.628717 0.0494087 0.0494087
0.635325 0.0494087 0.0494087
0.641611 0.0494087 0.0494087
0.0241855 0.0565194 0.0382391
0.0241245 0.0583505 0.037644
0.0238956 0.0600137 0.035111
0.0239109 0.061265 0.0315404
0.0239567 0.0619211 0.0306401
0.0289311 0.0643626 0.0287327
0.0354009 0.0682536 0.0278172
0.0450599 0.0720531 0.0278935
0.0708171 0.0797436 0.027863
0.102998 0.0844434 0.027924
0.138018 0.0850538 0.0280919
0.173617 0.0855421 0.0294652
0.210636 0.0836805 0.0308843
0.250874 0.078233 0.0321965
0.293812 0.0680552 0.0347906
0.328771 0.0535439 0.0377966
0.340124 0.0368658 0.0349279
0.386389 0.03888 0.038529
0.428794 0.040528 0.040528
0.465324 0.0418708 0.0418708
0.495186 0.0429694 0.0429694
0.5205 0.0444648 0.0444648
0.542596 0.0462959 0.0462959
0.560769 0.0476997 0.0476997
0.575387 0.0485389 0.0485389
0.587777 0.0491646 0.0491646
0.597955 0.0493324 0.0493324
0.606577 0.0494087 0.0494087
0.61442 0.0494087 0.0494087
0.621759 0.0494087 0.0494087
0.628779 0.0494087 0.0494087
0.635447 0.0494087 0.0494087
0.641764 0.0494087 0.0494087
0.0242466 0.0625925 0.0374304
0.0243381 0.0647593 0.036286
0.0245212 0.0674144 0.0330205
0.0247654 0.0697337 0.0288396
0.0248875 0.0712444 0.0290837
0.0250095 0.0730144 0.0293736
0.0273289 0.0767376 0.0294652
0.0336919 0.0823529 0.0292363
0.0462959 0.0882582 0.028809
0.0820325 0.098146 0.0284428
0.131182 0.10425 0.0288243
0.175418 0.103807 0.0295567
0.219959 0.102785 0.0319829
0.263294 0.0975662 0.0332799
0.309377 0.0870527 0.0350652
0.350561 0.0705882 0.0377203
0.381125 0.0514839 0.0398718
0.386816 0.0388952 0.0385595
0.428351 0.0405127 0.0405127
0.464179 0.041825 0.041825
0.494026 0.0429084 0.0429084
0.519844 0.0444343 0.0444343
0.542092 0.0462501 0.0462501
0.560662 0.0476844 0.0476844
0.57557 0.0485542 0.0485542
0.587839 0.0491646 0.0491646
0.597879 0.0493324 0.0493324
0.606607 0.0494087 0.0494087
0.614572 0.0494087 0.0494087
0.621958 0.0494087 0.0494087
0.629053 0.0494087 0.0494087
0.635706 0.0494087 0.0494087
0.642115 0.0494087 0.0494087
0.0247807 0.0705882 0.035996
0.0250095 0.0734112 0.0345312
0.0252842 0.0771038 0.0300603
0.0255436 0.0813764 0.0306859
0.0257115 0.0839246 0.0310674
0.0258183 0.0857557 0.031342
0.0259861 0.0886091 0.0317693
0.0261692 0.0916609 0.0322423
0.0317235 0.09691 0.0311284
0.0467994 0.107179 0.0296788
0.0968185 0.120165 0.0289158
0.161913 0.127916 0.0298009
0.214679 0.125978 0.0312963
0.269062 0.123491 0.0346075
0.318883 0.114397 0.0361791
0.367285 0.0979782 0.0380255
0.404776 0.0764782 0.0398413
0.428138 0.0539406 0.0415656
0.42443 0.0403601 0.0403601
0.461097 0.0417334 0.0417334
0.4916 0.0428016 0.0428016
0.518166 0.0443275 0.0443275
0.5411 0.0461738 0.0461738
0.559808 0.0476234 0.0476234
0.575067 0.0485237 0.0485237
0.587625 0.0491646 0.0491646
0.597879 0.0493324 0.0493324
0.60679 0.0494087 0.0494087
0.614832 0.0494087 0.0494087
0.622263 0.0494087 0.0494087
0.629419 0.0494087 0.0494087
0.636225 0.0494087 0.0494087
0.64268 0.0494087 0.0494087
0.0255131 0.0809186 0.0340581
0.0257572 0.0847028 0.0312505
0.0260777 0.0901198 0.0320134
0.0263676 0.0952621 0.032517
0.0265507 0.0985733 0.0327459
0.0266575 0.100404 0.0328679
0.0267796 0.103151 0.0330205
0.0269169 0.106554 0.0332036
0.027039 0.10927 0.0332952
0.0289006 0.112078 0.032929
0.0476081 0.126619 0.0305943
0.112337 0.144625 0.0294499
0.195438 0.154894 0.0304265
0.256245 0.1514 0.0331273
0.319677 0.147387 0.0372625
0.375387 0.134493 0.0394293
0.42385 0.113298 0.0410925
0.459129 0.08542 0.0417792
0.470146 0.0576181 0.0434577
0.456779 0.0415808 0.0415808
0.488548 0.0426795 0.0426795
0.515663 0.0441749 0.0441749
0.539361 0.0460212 0.0460212
0.558694 0.0475319 0.0475319
0.574365 0.0484932 0.0484932
0.587366 0.0491493 0.0491493
0.598016 0.0493324 0.0493324
0.606958 0.0494087 0.0494087
0.615091 0.0494087 0.0494087
0.622675 0.0494087 0.0494087
0.629908 0.0494087 0.0494087
0.636652 0.0494087 0.0494087
0.643168 0.0494087 0.0494087
0.0263523 0.0949874 0.0325017
0.0265965 0.0993057 0.0327916
0.0268406 0.104738 0.0330968
0.0270848 0.110384 0.0332799
0.0272374 0.114214 0.0332341
0.0273289 0.116396 0.0332189
0.0274205 0.118807 0.0331579
0.027512 0.122072 0.033051
0.0276188 0.125612 0.0329442
0.0275883 0.128023 0.0328069
0.0275731 0.128832 0.0327611
0.0492103 0.146777 0.0312352
0.130053 0.170962 0.0302586
0.231998 0.185504 0.0308537
0.303731 0.180804 0.0353857
0.373129 0.174319 0.0395819
0.433677 0.158297 0.0422522
0.479774 0.133059 0.0441596
0.511345 0.0988174 0.0445411
0.511635 0.0623331 0.0452888
0.485527 0.0425422 0.0425422
0.51342 0.0440223 0.0440223
0.537423 0.0458534 0.0458534
0.557565 0.0474403 0.0474403
0.573785 0.0484474 0.0484474
0.587076 0.049134 0.049134
0.597726 0.0493324 0.0493324
0.606806 0.0494087 0.0494087
0.615137 0.0494087 0.0494087
0.622751 0.0494087 0.0494087
0.63003 0.0494087 0.0494087
0.636912 0.0494087 0.0494087
0.643397 0.0494087 0.0494087
0.0271458 0.11194 0.0332647
0.0273289 0.116258 0.0332189
0.0274968 0.12134 0.0330816
0.0276036 0.12694 0.0328832
0.0275273 0.130968 0.032639
0.0274815 0.133379 0.0324865
0.0274357 0.135241 0.0323644
0.0273594 0.13814 0.0321355
0.0272526 0.141527 0.0318761
0.0271611 0.144442 0.031632
0.027039 0.146426 0.0314488
0.0269932 0.147127 0.0313878
0.049897 0.169772 0.0317235
0.148348 0.201526 0.0314488
0.268299 0.218814 0.0324254
0.353872 0.214252 0.0378576
0.429435 0.205173 0.0418555
0.492714 0.187869 0.044831
0.536995 0.158892 0.0469062
0.564645 0.118303 0.047715
0.555291 0.0685588 0.0467079
0.509773 0.0437934 0.0437934
0.535103 0.045655 0.045655
0.55581 0.047303 0.047303
0.572457 0.0483864 0.0483864
0.586099 0.0491035 0.0491035
0.597253 0.0493172 0.0493172
0.606455 0.0494087 0.0494087
0.614755 0.0494087 0.0494087
0.622492 0.0494087 0.0494087
0.629847 0.0494087 0.0494087
0.636728 0.0494087 0.0494087
0.64329 0.0494087 0.0494087
0.0275273 0.130694 0.0326543
0.027451 0.134859 0.0323949
0.0273136 0.139345 0.0320439
0.0271763 0.144183 0.0316625
0.0269322 0.148333 0.0312657
0.0267948 0.150805 0.0310369
0.026688 0.152575 0.0308537
0.0265507 0.154696 0.0306554
0.0263523 0.157839 0.0303349
0.0261387 0.161166 0.029984
0.0260166 0.164248 0.0297551
0.0260471 0.166567 0.0296635
0.0260471 0.167132 0.0296483
0.0484016 0.194141 0.0322271
0.161975 0.235645 0.03299
0.303365 0.256458 0.0350042
0.410376 0.255482 0.0411688
0.49099 0.245823 0.0453193
0.555535 0.225711 0.0479591
0.596201 0.193317 0.0494392
0.620844 0.147494 0.0505074
0.606485 0.0835431 0.0486152
0.531685 0.0453651 0.0453651
0.553262 0.0471046 0.0471046
0.570642 0.0482795 0.0482795
0.584787 0.0490425 0.0490425
0.596017 0.0493172 0.0493172
0.605402 0.0494087 0.0494087
0.614023 0.0494087 0.0494087
0.621836 0.0494087 0.0494087
0.629206 0.0494087 0.0494087
0.636225 0.0494087 0.0494087
0.642878 0.0494087 0.0494087
0.0268101 0.150362 0.0310674
0.0265812 0.154406 0.0306859
0.0262913 0.158679 0.0302434
0.0260319 0.162722 0.0298314
0.0260471 0.166918 0.0296635
0.0260624 0.169497 0.029572
0.0260777 0.170794 0.0295262
0.0260929 0.172534 0.0294652
0.0261997 0.175814 0.0294041
0.0263523 0.179583 0.0293736
0.0265202 0.183688 0.0293431
0.0268254 0.187152 0.0294652
0.0270237 0.189242 0.0295567
0.0271153 0.190158 0.0296025
0.0449836 0.216022 0.0320897
0.177996 0.274754 0.0347601
0.345907 0.300664 0.0382544
0.469886 0.303822 0.0455634
0.558694 0.294728 0.0507515
0.62208 0.271458 0.0520943
0.660761 0.235492 0.0532082
0.680491 0.186862 0.0535439
0.664561 0.114687 0.0520485
0.570825 0.0532998 0.0479438
0.568414 0.0481575 0.0481575
0.582986 0.0489509 0.0489509
0.594812 0.0493172 0.0493172
0.604395 0.0494087 0.0494087
0.613062 0.0494087 0.0494087
0.620935 0.0494087 0.0494087
0.628473 0.0494087 0.0494087
0.635584 0.0494087 0.0494087
0.642359 0.0494087 0.0494087
0.0260777 0.171237 0.0295109
0.0261692 0.175189 0.0294194
0.0263371 0.179248 0.0293889
0.0265049 0.183307 0.0293431
0.0268254 0.187152 0.0294652
0.0270848 0.189746 0.0295872
0.0272374 0.191257 0.0296483
0.0274052 0.193027 0.0297398
0.0277409 0.196277 0.0298924
0.0282597 0.200229 0.0301518
0.0288701 0.204807 0.030457
0.0294652 0.209339 0.0307622
0.0299077 0.213107 0.0310369
0.0301823 0.215534 0.03122
0.0303197 0.216678 0.0313115
0.0400092 0.232609 0.0316472
0.199252 0.317433 0.0365911
0.395544 0.351263 0.0417029
0.532708 0.357626 0.0523537
0.625223 0.347112 0.0582589
0.689738 0.322606 0.0592966
0.728908 0.285222 0.0596017
0.742672 0.236805 0.0582895
0.728267 0.167041 0.0560769
0.649439 0.073991 0.0509804
0.581109 0.0488594 0.0488594
0.593423 0.0493172 0.0493172
0.60322 0.0494087 0.0494087
0.612039 0.0494087 0.0494087
0.620172 0.0494087 0.0494087
0.627756 0.0494087 0.0494087
0.634928 0.0494087 0.0494087
0.641825 0.0494087 0.0494087
0.0274815 0.193805 0.0297704
0.0279393 0.197803 0.029984
0.028397 0.201221 0.0302129
0.0288853 0.204944 0.0304723
0.0294194 0.208957 0.0307317
0.0297551 0.211917 0.0309606
0.0300145 0.214054 0.0311131
0.0302281 0.215869 0.0312505
0.0305486 0.218585 0.0314488
0.0309453 0.222171 0.031693
0.0314183 0.226734 0.0319982
0.0319677 0.23212 0.0323491
0.0323644 0.236561 0.0326543
0.0327001 0.24033 0.0328985
0.032929 0.242847 0.0330663
0.0330358 0.244099 0.0331426
0.0339666 0.245426 0.0331121
0.221897 0.361547 0.0386969
0.448707 0.403128 0.0471504
0.596811 0.413626 0.061387
0.695338 0.403281 0.0692149
0.759152 0.379522 0.0707713
0.793973 0.344106 0.0699626
0.803342 0.299138 0.0662089
0.792218 0.236088 0.0618143
0.738155 0.135729 0.0555428
0.591485 0.0493172 0.0493172
0.601755 0.0493935 0.0493935
0.610925 0.0494087 0.0494087
0.619074 0.0494087 0.0494087
0.626841 0.0494087 0.0494087
0.634195 0.0494087 0.0494087
0.641093 0.0494087 0.0494087
0.0303807 0.217105 0.031342
0.0307164 0.22002 0.0315557
0.0310521 0.223224 0.0317693
0.0314336 0.226978 0.0320134
0.0318608 0.231113 0.0322881
0.0321965 0.234546 0.032517
0.0323949 0.236896 0.0326696
0.0325628 0.238804 0.0327916
0.0328069 0.241413 0.0329747
0.0331273 0.245045 0.0332036
0.033402 0.249332 0.0334936
0.0337377 0.254444 0.0338293
0.0340276 0.25948 0.0341192
0.0342565 0.264286 0.0343481
0.0344091 0.267857 0.0345006
0.0345159 0.270069 0.0345922
0.0345464 0.271122 0.0346227
0.0345464 0.270848 0.0346227
0.247791 0.40705 0.0415961
0.502373 0.454444 0.0547341
0.664134 0.470832 0.073579
0.768124 0.462943 0.0845502
0.825757 0.440085 0.0860304
0.852064 0.408545 0.083711
0.858564 0.370398 0.0790265
0.851652 0.317082 0.0721141
0.822187 0.237919 0.0636454
0.722713 0.0985733 0.0538033
0.60943 0.0494087 0.0494087
0.617945 0.0494087 0.0494087
0.625803 0.0494087 0.0494087
0.633158 0.0494087 0.0494087
0.640208 0.0494087 0.0494087
0.0325933 0.239094 0.0328069
0.0328527 0.242084 0.0330205
0.0331426 0.245335 0.0332341
0.033402 0.249241 0.0334936
0.0336614 0.2533 0.033753
0.0339208 0.257008 0.0339971
0.0340429 0.259709 0.0341344
0.0341497 0.262058 0.0342412
0.0342565 0.264515 0.0343481
0.0344091 0.267613 0.0344854
0.0345617 0.27155 0.034638
0.0347601 0.276371 0.0347906
0.0349279 0.281178 0.0349279
0.0349737 0.286 0.0349737
0.0350042 0.290105 0.0350042
0.0349737 0.293263 0.0349737
0.0349432 0.295171 0.0349432
0.0349279 0.295933 0.0349279
0.0349432 0.295293 0.0349432
0.25745 0.446128 0.0453346
0.555444 0.504295 0.0658579
0.734936 0.529137 0.0901503
0.833265 0.521965 0.101823
0.878965 0.50219 0.103319
0.899001 0.47454 0.100374
0.903822 0.444999 0.0958572
0.901198 0.403845 0.0886702
0.890074 0.34725 0.0799115
0.845975 0.248524 0.0665293
0.692836 0.0726787 0.0535286
0.62446 0.0494087 0.0494087
0.631983 0.0494087 0.0494087
0.639033 0.0494087 0.0494087
0.0340887 0.260868 0.0341802
0.0342412 0.264103 0.0343328
0.0343786 0.267247 0.0344701
0.0345312 0.270817 0.0346075
0.034699 0.274662 0.0347448
0.0348516 0.27866 0.0348669
0.0349279 0.281682 0.0349279
0.0349432 0.283955 0.0349432
0.0349737 0.286259 0.0349737
0.0349889 0.28925 0.0349889
0.0349889 0.292729 0.0349889
0.0349126 0.296757 0.0349126
0.0348363 0.301183 0.0348363
0.0348669 0.305959 0.0348669
0.0349126 0.310262 0.0349126
0.0349889 0.313649 0.0349889
0.0350805 0.316121 0.0350805
0.0351568 0.317952 0.0351568
0.035172 0.318456 0.035172
0.0351568 0.317998 0.0351568
0.263752 0.481086 0.0493477
0.612818 0.552834 0.0799878
0.804059 0.586419 0.109743
0.885451 0.578149 0.119371
0.912154 0.560571 0.120562
0.926146 0.538827 0.118257
0.931502 0.516411 0.114412
0.932601 0.488441 0.108721
0.929793 0.450263 0.100893
0.921004 0.385657 0.0882582
0.871992 0.273136 0.0708782
0.637446 0.0517891 0.0501564
0.637751 0.0494087 0.0494087
0.0349279 0.281605 0.0349279
0.0349584 0.284428 0.0349584
0.0349737 0.287419 0.0349737
0.0350042 0.291142 0.0350042
0.0349432 0.295003 0.0349432
0.0348821 0.298741 0.0348821
0.0348363 0.301869 0.0348363
0.0348516 0.304448 0.0348516
0.0348821 0.306859 0.0348821
0.0348974 0.309316 0.0348974
0.0349432 0.312367 0.0349432
0.0350805 0.315938 0.0350805
0.0352178 0.319905 0.0352178
0.0354467 0.323964 0.0354467
0.0357366 0.328115 0.0357366
0.0360266 0.331884 0.0360266
0.0363165 0.334798 0.0363165
0.0365454 0.337011 0.0365454
0.0366674 0.338262 0.0366674
0.0367437 0.338918 0.0367437
0.0367132 0.338598 0.0367132
0.279164 0.515389 0.0538643
0.673655 0.59913 0.0941939
0.855985 0.635065 0.126467
0.915892 0.629435 0.135256
0.929519 0.61471 0.136492
0.936019 0.59968 0.135637
0.940291 0.583169 0.132784
0.943435 0.562829 0.127489
0.94551 0.536217 0.121538
0.944808 0.496529 0.112749
0.938811 0.426078 0.0959945
0.905928 0.31986 0.0780041
0.0348516 0.300572 0.0348516
0.0348516 0.303456 0.0348516
0.0348669 0.306508 0.0348669
0.0348974 0.309865 0.0348974
0.0349889 0.313649 0.0349889
0.0351415 0.317586 0.0351415
0.0352636 0.320806 0.0352636
0.0354009 0.323308 0.0354009
0.0355535 0.32549 0.0355535
0.0357366 0.328069 0.0357366
0.0359045 0.330739 0.0359045
0.0361944 0.333471 0.0361944
0.0365301 0.336873 0.0365301
0.0368963 0.340581 0.0368963
0.0372625 0.344366 0.0372625
0.0376135 0.348058 0.0376135
0.0378576 0.350958 0.0378576
0.038056 0.353491 0.038056
0.0381933 0.355154 0.0381933
0.0382696 0.356207 0.0382696
0.0383001 0.356756 0.0383001
0.0382849 0.356466 0.0382849
0.302907 0.54699 0.0587778
0.732158 0.642206 0.10779
0.893477 0.677546 0.140551
0.928206 0.675456 0.149065
0.935622 0.663752 0.150469
0.940093 0.65214 0.150256
0.943694 0.640269 0.148562
0.946883 0.625574 0.144457
0.949569 0.604868 0.1393
0.95169 0.577111 0.133562
0.952697 0.54023 0.1243
0.035172 0.318334 0.035172
0.0352636 0.321111 0.0352636
0.035462 0.323995 0.035462
0.0356909 0.327382 0.0356909
0.0359503 0.331151 0.0359503
0.0363165 0.334752 0.0363165
0.0366369 0.337881 0.0366369
0.0369116 0.340612 0.0369116
0.0371099 0.342779 0.0371099
0.0373083 0.344869 0.0373083
0.0375219 0.347127 0.0375219
0.0377356 0.349615 0.0377356
0.0379492 0.352178 0.0379492
0.0382086 0.355215 0.0382086
0.0383764 0.358297 0.0383764
0.0385443 0.361654 0.0385443
0.0386358 0.364599 0.0386358
0.0386664 0.366949 0.0386664
0.0386969 0.369024 0.0386969
0.0387121 0.37026 0.0387121
0.0387274 0.371023 0.0387274
0.0387274 0.371298 0.0387274
0.0387274 0.371023 0.0387274
0.347448 0.578119 0.065156
0.796231 0.683055 0.122881
0.916091 0.713573 0.152026
0.933242 0.714168 0.159564
0.938216 0.704906 0.161501
0.942336 0.696666 0.16173
0.945876 0.688472 0.160967
0.94902 0.677485 0.158618
0.951873 0.662516 0.154757
0.95436 0.642039 0.150393
0.0363012 0.334615 0.0363012
0.0365759 0.337285 0.0365759
0.0368811 0.340307 0.0368811
0.037171 0.343404 0.037171
0.0375067 0.346868 0.0375067
0.0377966 0.350301 0.0377966
0.0380407 0.353155 0.0380407
0.0382239 0.355505 0.0382239
0.0383307 0.357473 0.0383307
0.0384375 0.359442 0.0384375
0.0385138 0.361257 0.0385138
0.0386053 0.363241 0.0386053
0.0386358 0.365286 0.0386358
0.0386816 0.367788 0.0386816
0.0387121 0.370321 0.0387121
0.0387427 0.373083 0.0387427
0.0387884 0.375982 0.0387884
0.0386816 0.37818 0.0386816
0.0385901 0.380072 0.0385901
0.0385138 0.381521 0.0385138
0.038468 0.382498 0.038468
0.0384375 0.383017 0.0384375
0.0384375 0.383093 0.0384375
0.0384527 0.382788 0.0384527
0.419608 0.612512 0.0739757
0.849256 0.718395 0.136812
0.927474 0.743694 0.16112
0.935714 0.746075 0.167514
0.940444 0.73904 0.16997
0.944396 0.7346 0.170306
0.947845 0.728847 0.16994
0.950927 0.720333 0.168658
0.953658 0.709651 0.166339
0.0377356 0.349615 0.0377356
0.0379339 0.351995 0.0379339
0.0381476 0.354589 0.0381476
0.0383307 0.357473 0.0383307
0.0384833 0.36054 0.0384833
0.0386206 0.363531 0.0386206
0.0386511 0.366033 0.0386511
0.0386816 0.368277 0.0386816
0.0387121 0.370031 0.0387121
0.0387274 0.371588 0.0387274
0.0387579 0.373297 0.0387579
0.0387732 0.374975 0.0387732
0.0387579 0.376638 0.0387579
0.0386664 0.3785 0.0386664
0.0385443 0.380789 0.0385443
0.0384375 0.382971 0.0384375
0.0383307 0.38529 0.0383307
0.0381933 0.387518 0.0381933
0.038056 0.389151 0.038056
0.0379492 0.390524 0.0379492
0.0378729 0.391485 0.0378729
0.0377966 0.392203 0.0377966
0.0377661 0.392554 0.0377661
0.0377813 0.392462 0.0377813
0.0378119 0.392065 0.0378119
0.493126 0.644038 0.0831006
0.883589 0.746029 0.147433
0.931456 0.76762 0.167941
0.937774 0.771359 0.173739
0.942412 0.767666 0.176944
0.946303 0.766018 0.177371
0.949691 0.762127 0.176898
0.952651 0.756344 0.176211
0.0385901 0.362554 0.0385901
0.0386358 0.364752 0.0386358
0.0386664 0.367071 0.0386664
0.0386969 0.369528 0.0386969
0.0387427 0.372107 0.0387427
0.0387732 0.374823 0.0387732
0.0387274 0.377066 0.0387274
0.0386358 0.378912 0.0386358
0.0385595 0.380575 0.0385595
0.0384833 0.382025 0.0384833
