luts/lumix_color_lab_C/S_Deep_Forest_1.cube
TITLE "Generated by Resolve"
LUT_3D_SIZE 5
0.0247501 0.0247501 0.0247501
0.0324254 0.0247501 0.0247501
0.0957198 0.0331273 0.0298314
0.365957 0.0380407 0.0370947
0.60798 0.0494087 0.0494087
0.0242466 0.0625925 0.0374304
0.0462959 0.0882582 0.028809
0.381125 0.0514839 0.0398718
0.57557 0.0485542 0.0485542
0.642115 0.0494087 0.0494087
0.0274815 0.193805 0.0297704
0.0305486 0.218585 0.0314488
0.0339666 0.245426 0.0331121
0.792218 0.236088 0.0618143
0.641093 0.0494087 0.0494087
0.0377356 0.349615 0.0377356
0.0387121 0.370031 0.0387121
0.0383307 0.38529 0.0383307
0.0378119 0.392065 0.0378119
0.952651 0.756344 0.176211
0.0380255 0.42533 0.038056
0.040238 0.447181 0.0405432
0.0412757 0.45922 0.0419013
0.0408942 0.467338 0.042298
0.041001 0.466316 0.0422827
0.0247501 0.0247501 0.0247501
0.0379644 0.0292821 0.0357366
0.141344 0.033814 0.0539712
0.467582 0.0411231 0.0500954
0.633555 0.0494087 0.0494087
0.0233158 0.0613718 0.0496834
0.0652171 0.0862898 0.0876631
0.375463 0.0382086 0.0586404
0.585626 0.049073 0.049073
0.647852 0.0494087 0.0494087
0.0292058 0.168307 0.0467079
0.0307164 0.206638 0.0485847
0.296513 0.357321 0.0391394
0.745296 0.140673 0.0560311
0.649729 0.0494087 0.0494087
0.035172 0.318593 0.035172
0.0363165 0.334798 0.0363165
0.0386816 0.368688 0.0386816
0.737575 0.69807 0.116823
0.956039 0.73991 0.172732
0.0370336 0.404517 0.0370336
0.0374609 0.417151 0.0374609
0.0397345 0.442374 0.0399634
0.0408331 0.453666 0.0412604
0.933669 0.840589 0.182391
0.023209 0.0247501 0.0277409
0.0426032 0.0293736 0.0484321
0.138308 0.033814 0.0963607
0.534768 0.0462654 0.164767
0.648417 0.0494087 0.0494087
0.0245365 0.0699016 0.0727245
0.0321813 0.0527199 0.188937
0.352178 0.0389258 0.240162
0.631815 0.0491798 0.203357
0.654124 0.0494087 0.0494087
0.0298619 0.184543 0.0644541
0.0309148 0.207462 0.172961
0.40557 0.388937 0.361563
0.615946 0.0486 0.197269
0.653727 0.0494087 0.0494087
0.0348669 0.306615 0.0348669
0.0353094 0.315984 0.0619974
0.0386511 0.381811 0.066804
0.914473 0.738018 0.155306
0.957763 0.737438 0.171939
0.0373999 0.396506 0.0373999
0.0373846 0.397009 0.0373846
0.0373999 0.416129 0.0373999
0.0392615 0.438148 0.0394446
0.943114 0.855528 0.193225
0.0223087 0.0250095 0.0371405
0.0460212 0.02533 0.0720989
0.113664 0.0302434 0.135012
0.512459 0.0459754 0.346212
0.70454 0.0517433 0.485603
0.0281529 0.0768292 0.134905
0.0341955 0.0341955 0.269978
0.208209 0.0377661 0.359823
0.611368 0.0496681 0.461524
0.711437 0.051545 0.503105
0.0306554 0.213153 0.106355
0.0330053 0.201068 0.280262
0.0488289 0.115618 0.456123
0.624933 0.0508278 0.487373
0.712489 0.0514992 0.50988
0.0352331 0.320058 0.0352331
0.0356756 0.339376 0.214374
0.0442359 0.431418 0.484596
0.946853 0.914031 0.902235
0.989807 0.885664 0.862959
0.0375219 0.395041 0.0375219
0.0390936 0.414862 0.132036
0.0415503 0.458106 0.339529
0.0485847 0.511284 0.53756
0.969497 0.973022 0.637552
0.0238193 0.0285801 0.05449
0.0488289 0.0277714 0.119875
0.112947 0.0324559 0.226184
0.406348 0.0404822 0.380316
0.711192 0.0529488 0.568963
0.0316472 0.0607919 0.233692
0.0373541 0.0373541 0.388403
0.0386053 0.0386053 0.420462
0.51516 0.0445411 0.506081
0.734173 0.054963 0.591409
0.0335851 0.249729 0.278035
0.0402838 0.152255 0.426856
0.0381476 0.0381476 0.413672
0.529213 0.0460975 0.52723
0.759793 0.0569772 0.615244
0.0366522 0.338048 0.0366522
0.0366369 0.373953 0.346059
0.0463417 0.405707 0.571527
0.548577 0.667155 0.84828
0.9738 0.604944 0.877455
0.0371252 0.401785 0.0371252
0.0413367 0.450553 0.323125
0.046128 0.471183 0.513588
0.0564431 0.517845 0.68864
0.988495 0.987701 0.986023
