luts/lumix_color_lab_C/S_Deep_Forest_1.cube
TITLE "Generated by Resolve"
LUT_3D_SIZE 9
0.0247501 0.0247501 0.0247501
0.0247501 0.0247501 0.0247501
0.0324254 0.0247501 0.0247501
0.0538643 0.0324102 0.029984
0.0957198 0.0331273 0.0298314
0.193606 0.033402 0.0298772
0.365957 0.0380407 0.0370947
0.523003 0.0446479 0.0446479
0.60798 0.0494087 0.0494087
0.0230564 0.0381323 0.0347143
0.0370642 0.0452583 0.0353704
0.0677653 0.0504463 0.0319829
0.147723 0.0550546 0.0290074
0.264714 0.0336919 0.0302739
0.451301 0.0413825 0.0413825
0.564187 0.0479133 0.0479133
0.613428 0.0494087 0.0494087
0.641718 0.0494087 0.0494087
0.0242466 0.0625925 0.0374304
0.0248875 0.0712444 0.0290837
0.0462959 0.0882582 0.028809
0.219959 0.102785 0.0319829
0.381125 0.0514839 0.0398718
0.494026 0.0429084 0.0429084
0.57557 0.0485542 0.0485542
0.614572 0.0494087 0.0494087
0.642115 0.0494087 0.0494087
0.0271458 0.11194 0.0332647
0.0275273 0.130968 0.032639
0.0272526 0.141527 0.0318761
0.049897 0.169772 0.0317235
0.429435 0.205173 0.0418555
0.555291 0.0685588 0.0467079
0.572457 0.0483864 0.0483864
0.614755 0.0494087 0.0494087
0.64329 0.0494087 0.0494087
0.0274815 0.193805 0.0297704
0.0294194 0.208957 0.0307317
0.0305486 0.218585 0.0314488
0.0323644 0.236561 0.0326543
0.0339666 0.245426 0.0331121
0.695338 0.403281 0.0692149
0.792218 0.236088 0.0618143
0.610925 0.0494087 0.0494087
0.641093 0.0494087 0.0494087
0.0349279 0.281605 0.0349279
0.0349432 0.295003 0.0349432
0.0348821 0.306859 0.0348821
0.0352178 0.319905 0.0352178
0.0363165 0.334798 0.0363165
0.0367132 0.338598 0.0367132
0.915892 0.629435 0.135256
0.943435 0.562829 0.127489
0.905928 0.31986 0.0780041
0.0377356 0.349615 0.0377356
0.0384833 0.36054 0.0384833
0.0387121 0.370031 0.0387121
0.0387579 0.376638 0.0387579
0.0383307 0.38529 0.0383307
0.0378729 0.391485 0.0378729
0.0378119 0.392065 0.0378119
0.937774 0.771359 0.173739
0.952651 0.756344 0.176211
0.0378882 0.391257 0.0378882
0.0373236 0.398032 0.0373236
0.0370031 0.405478 0.0370031
0.0372015 0.411734 0.0372015
0.0375219 0.418067 0.0375219
0.0380865 0.4262 0.0381323
0.0383154 0.429496 0.0383917
0.0381933 0.427832 0.0382544
0.945174 0.838254 0.189151
0.0380255 0.42533 0.038056
0.0389868 0.435752 0.0391394
0.040238 0.447181 0.0405432
0.0409094 0.454627 0.0413825
0.0412757 0.45922 0.0419013
0.0412451 0.464103 0.042237
0.0408942 0.467338 0.042298
0.0408637 0.467643 0.042298
0.041001 0.466316 0.0422827
0.0247501 0.0247501 0.0247501
0.0247501 0.0247501 0.0247501
0.0368811 0.0268864 0.0304112
0.0629435 0.0315709 0.0371099
0.118746 0.0317845 0.0400244
0.244373 0.0336614 0.0402991
0.417227 0.0401007 0.0401007
0.5561 0.0473335 0.0473335
0.621469 0.0494087 0.0494087
0.0227207 0.0385595 0.0379797
0.0389563 0.046128 0.0467994
0.0691234 0.0490425 0.0464179
0.152056 0.0520943 0.0461891
0.301228 0.0349889 0.0420844
0.475731 0.0422065 0.0422065
0.574731 0.0485084 0.0485084
0.617197 0.0494087 0.0494087
0.644327 0.0494087 0.0494087
0.0234073 0.0604868 0.047776
0.0233616 0.0711223 0.0529183
0.0584115 0.0867628 0.0464179
0.235798 0.0928206 0.0405585
0.377798 0.0424353 0.0382086
0.505913 0.0435645 0.0435645
0.58146 0.0488746 0.0488746
0.618265 0.0494087 0.0494087
0.645548 0.0494087 0.0494087
0.0263676 0.101854 0.0473335
0.0267185 0.122194 0.0437018
0.0273899 0.137072 0.0322271
0.10959 0.183749 0.0311131
0.462898 0.188235 0.0434272
0.527138 0.0518502 0.0444953
0.581979 0.0489052 0.0489052
0.619776 0.0494087 0.0494087
0.647181 0.0494087 0.0494087
0.0260929 0.171847 0.0294804
0.0263981 0.180911 0.0293736
0.0294347 0.209094 0.0307469
0.0309148 0.221836 0.0316777
0.159304 0.334951 0.0360266
0.741024 0.378668 0.0692149
0.768139 0.180362 0.0576028
0.617182 0.0494087 0.0494087
0.646357 0.0494087 0.0494087
0.033875 0.256397 0.0339666
0.034226 0.263691 0.0343175
0.0349737 0.287587 0.0349737
0.0348516 0.303258 0.0348516
0.0353857 0.323003 0.0353857
0.166934 0.474342 0.0461891
0.927153 0.607706 0.134051
0.94493 0.538491 0.121889
0.824231 0.170321 0.0612955
0.0358434 0.329641 0.0358434
0.0367285 0.33875 0.0367285
0.0382391 0.355535 0.0382391
0.0386664 0.367468 0.0386664
0.0387732 0.376226 0.0387732
0.0382391 0.386816 0.0382391
0.320104 0.595056 0.067216
0.941711 0.761593 0.175326
0.954726 0.745296 0.174014
0.0386053 0.379705 0.0386053
0.0382849 0.385931 0.0382849
0.0375219 0.395041 0.0375219
0.0370489 0.404211 0.0370489
0.0371099 0.409339 0.0371099
0.0374762 0.417411 0.0374762
0.0379187 0.423713 0.0379187
0.639445 0.718029 0.107897
0.94873 0.838163 0.190433
0.0371862 0.411536 0.0371862
0.037583 0.418936 0.037583
0.0384527 0.430884 0.0385443
0.0399329 0.444205 0.040177
0.040528 0.45037 0.0408942
0.04094 0.454994 0.041413
0.0414435 0.461311 0.0421454
0.0413062 0.463539 0.042237
0.881941 0.81297 0.156786
0.0247501 0.0247501 0.0247501
0.0247044 0.0247501 0.0265202
0.0379644 0.0292821 0.0357366
0.0690776 0.0304265 0.0466468
0.141344 0.033814 0.0539712
0.294697 0.0358587 0.0535592
0.467582 0.0411231 0.0500954
0.580179 0.0488136 0.0488136
0.633555 0.0494087 0.0494087
0.0227359 0.0394751 0.0410773
0.0332799 0.0447852 0.0554665
0.0654307 0.0487526 0.0630808
0.172366 0.0444648 0.0695811
0.342061 0.037232 0.0611276
0.510536 0.0440528 0.0503548
0.586358 0.0491035 0.0491035
0.622614 0.0494087 0.0494087
0.648646 0.0494087 0.0494087
0.0233158 0.0613718 0.0496834
0.0241855 0.0714885 0.0681773
0.0652171 0.0862898 0.0876631
0.220874 0.0851148 0.0734264
0.375463 0.0382086 0.0586404
0.516152 0.0442359 0.048127
0.585626 0.049073 0.049073
0.620966 0.0494087 0.0494087
0.647852 0.0494087 0.0494087
0.0251469 0.102068 0.0617533
0.0260319 0.119432 0.0766613
0.0271 0.141314 0.0909438
0.149645 0.191577 0.0648356
0.494591 0.172503 0.0582437
0.505959 0.0435645 0.0435645
0.587274 0.0491493 0.0491493
0.623117 0.0494087 0.0494087
0.650004 0.0494087 0.0494087
0.0292058 0.168307 0.0467079
0.0294041 0.173831 0.0503395
0.0307164 0.206638 0.0485847
0.0306859 0.21973 0.0315251
0.296513 0.357321 0.0391394
0.757595 0.35848 0.0680552
0.745296 0.140673 0.0560311
0.622049 0.0494087 0.0494087
0.649729 0.0494087 0.0494087
0.032929 0.242939 0.0330663
0.0324559 0.237598 0.0327153
0.0344701 0.269108 0.0345617
0.0348363 0.30135 0.0348363
0.0350652 0.315526 0.0350652
0.482094 0.548898 0.0677501
0.931884 0.59559 0.133028
0.946151 0.532036 0.120851
0.731167 0.0771801 0.0539406
0.035172 0.318593 0.035172
0.0351568 0.317968 0.0351568
0.0363165 0.334798 0.0363165
0.0383459 0.35761 0.0383459
0.0386816 0.368688 0.0386816
0.0384985 0.381811 0.0384985
0.737575 0.69807 0.116823
0.944152 0.756588 0.175021
0.956039 0.73991 0.172732
0.0387427 0.37232 0.0387427
0.0387579 0.373968 0.0387579
0.0383764 0.384192 0.0383764
0.0374762 0.395529 0.0374762
0.0370794 0.403204 0.0370794
0.0371252 0.41001 0.0371252
0.0375677 0.418692 0.0375677
0.902083 0.790906 0.157977
0.950957 0.835767 0.191272
0.0370336 0.404517 0.0370336
0.0370489 0.407263 0.0370489
0.0374609 0.417151 0.0374609
0.0384375 0.430777 0.038529
0.0397345 0.442374 0.0399634
0.0401923 0.446662 0.0404822
0.0408331 0.453666 0.0412604
0.0412757 0.459281 0.0419013
0.933669 0.840589 0.182391
0.0247501 0.0247501 0.0247501
0.0258946 0.0247501 0.0306401
0.0392462 0.029572 0.0405585
0.0670634 0.0317693 0.0561685
0.151476 0.0347448 0.0733654
0.327794 0.0371099 0.0826123
0.511009 0.0429847 0.0739147
0.595529 0.0493172 0.0493172
0.642695 0.0494087 0.0494087
0.0228885 0.0402838 0.0466621
0.0301671 0.0432593 0.0644694
0.061677 0.0447852 0.0807507
0.145052 0.0422522 0.109133
0.363333 0.0392004 0.124498
0.545098 0.0453651 0.093843
0.594949 0.0493172 0.0493172
0.628092 0.0494087 0.0494087
0.653269 0.0494087 0.0494087
0.0232853 0.0643626 0.0547036
0.0256962 0.0730907 0.087602
0.0419318 0.0741131 0.13959
0.199435 0.0770123 0.15494
0.405539 0.0402228 0.130892
0.547173 0.0454566 0.0923171
0.598962 0.0487678 0.0544289
0.625605 0.0494087 0.0494087
0.651591 0.0494087 0.0494087
0.0255741 0.10901 0.0638285
0.0263218 0.118517 0.0886854
0.0279698 0.142367 0.142245
0.167285 0.185718 0.183383
0.456977 0.152667 0.13785
0.52903 0.0444648 0.0937362
0.59823 0.0483711 0.0579385
0.625299 0.0494087 0.0494087
0.651682 0.0494087 0.0494087
0.0295109 0.174365 0.0691081
0.0288701 0.170367 0.0978866
0.0314336 0.212619 0.142016
0.0332952 0.247761 0.168109
0.384237 0.395392 0.107515
0.792081 0.342763 0.0947738
0.699962 0.0940108 0.0534676
0.624887 0.0494087 0.0494087
0.652415 0.0494087 0.0494087
0.0321965 0.234852 0.0327306
0.0313878 0.232624 0.0524453
0.0328374 0.266835 0.0631876
0.0351568 0.305623 0.0480964
0.0350042 0.314214 0.0350042
0.636728 0.569406 0.0854047
0.93344 0.582055 0.130465
0.946868 0.526787 0.119966
0.648432 0.0494087 0.0494087
0.0348974 0.309941 0.0348974
0.0348516 0.304128 0.0348516
0.0350042 0.313985 0.0350042
0.0374914 0.346731 0.0374914
0.0386969 0.368872 0.0386969
0.0386816 0.378149 0.0386816
0.871962 0.729564 0.142794
0.945953 0.752392 0.174365
0.957015 0.740017 0.17261
0.0386511 0.366522 0.0386511
0.0386358 0.364675 0.0386358
0.0387121 0.370764 0.0387121
0.0383764 0.384222 0.0383764
0.0373388 0.39762 0.0373388
0.0370184 0.4047 0.0370184
0.0372778 0.413397 0.0372778
0.930571 0.807309 0.173846
0.952712 0.833524 0.191226
0.0372015 0.400031 0.0372015
0.0372168 0.399725 0.0372168
0.0370031 0.405264 0.0370031
0.0374304 0.416907 0.0374304
0.0383001 0.429419 0.0383917
0.039292 0.438468 0.0394751
0.0399786 0.444617 0.040238
0.0408331 0.453696 0.0412757
0.938918 0.850141 0.190249
0.023209 0.0247501 0.0277409
0.0289616 0.0257572 0.0383764
0.0426032 0.0293736 0.0484321
0.0637217 0.0310674 0.0614481
0.138308 0.033814 0.0963607
0.338964 0.0386206 0.139391
0.534768 0.0462654 0.164767
0.633417 0.049546 0.14905
0.648417 0.0494087 0.0494087
0.0234836 0.0421607 0.0550851
0.0280003 0.0412604 0.0771038
0.0562142 0.0372168 0.1066
0.110552 0.0375525 0.125231
0.298955 0.0367895 0.198413
0.549828 0.046128 0.238025
0.631479 0.0491951 0.206592
0.658457 0.0522164 0.101198
0.654124 0.0494087 0.0494087
0.0245365 0.0699016 0.0727245
0.0271153 0.0691691 0.111772
0.0321813 0.0527199 0.188937
0.158297 0.0392767 0.223835
0.352178 0.0389258 0.240162
0.561334 0.0462654 0.247898
0.631815 0.0491798 0.203357
0.657679 0.0521553 0.100511
0.654124 0.0494087 0.0494087
0.0261082 0.118791 0.0690013
0.0269017 0.119936 0.106218
0.0285649 0.143267 0.189822
0.0702678 0.145785 0.278462
0.433524 0.12372 0.305272
0.551049 0.0461433 0.23801
0.627466 0.0489509 0.204044
0.66128 0.0525978 0.131563
0.654124 0.0494087 0.0494087
0.0298619 0.184543 0.0644541
0.0289311 0.172061 0.104234
0.0309148 0.207462 0.172961
0.0331731 0.248692 0.266957
0.40557 0.388937 0.361563
0.74377 0.309575 0.287877
0.615946 0.0486 0.197269
0.657176 0.0523079 0.131472
0.653727 0.0494087 0.0494087
0.0318608 0.250156 0.0598154
0.0312657 0.240818 0.116411
0.0339818 0.271778 0.177325
0.0351568 0.332357 0.256931
0.0364996 0.369268 0.297444
0.748775 0.669551 0.252735
0.937072 0.616251 0.193271
0.946456 0.517922 0.135897
0.649821 0.0494087 0.0494087
0.0348669 0.306615 0.0348669
0.0351415 0.302403 0.0415808
0.0353094 0.315984 0.0619974
0.0370336 0.359167 0.102922
0.0386511 0.381811 0.066804
0.0387274 0.377203 0.0387274
0.914473 0.738018 0.155306
0.946868 0.744442 0.172854
0.957763 0.737438 0.171939
0.0385748 0.362341 0.0385748
0.0383307 0.357351 0.0383307
0.0384375 0.359533 0.0384375
0.0387427 0.372107 0.0387427
0.0378119 0.392157 0.0378119
0.0370184 0.404883 0.0370184
0.0371252 0.409751 0.0371252
0.935363 0.812207 0.180179
0.953964 0.83122 0.19086
0.0373999 0.396506 0.0373999
0.0375525 0.39472 0.0375525
0.0373846 0.397009 0.0373846
0.0370642 0.403738 0.0370642
0.0373999 0.416129 0.0373999
0.0384985 0.431373 0.0386053
0.0392615 0.438148 0.0394446
0.0402838 0.447684 0.040589
0.943114 0.855528 0.193225
0.0218204 0.0247501 0.0309758
0.0317693 0.0269017 0.0469978
0.0446174 0.0280156 0.0587015
0.0661631 0.0280461 0.0743877
0.116091 0.0313878 0.1066
0.299947 0.0368658 0.188922
0.540398 0.0465705 0.279026
0.649195 0.0519112 0.329259
0.691829 0.0508125 0.338109
0.0242618 0.0438849 0.0670176
0.0257877 0.0387579 0.102831
0.0508583 0.0287938 0.142321
0.0967422 0.0289616 0.165789
0.201007 0.0314336 0.203891
0.491554 0.0452888 0.330907
0.634501 0.0509499 0.373312
0.677012 0.0518807 0.364019
0.694148 0.0507973 0.332311
0.0264286 0.0757916 0.101152
0.028336 0.0639506 0.14789
0.0300908 0.0339208 0.216693
0.0978866 0.0339361 0.279103
0.260578 0.0349279 0.279698
0.513939 0.0458686 0.35906
0.638956 0.0510262 0.384192
0.67924 0.0516518 0.3729
0.693629 0.0509804 0.327459
0.0268101 0.129686 0.0991073
0.0281529 0.125002 0.160861
0.0320287 0.1234 0.240787
0.0354467 0.0704509 0.313863
0.313497 0.0451972 0.355779
0.521721 0.0459449 0.374594
0.640589 0.0509957 0.39028
0.680735 0.051545 0.375021
0.694972 0.0506294 0.339986
0.0302129 0.197055 0.0621958
0.029633 0.183276 0.119051
0.029984 0.201251 0.197757
0.03505 0.244114 0.331243
0.198505 0.308415 0.484871
0.706065 0.229984 0.50985
0.631876 0.0508431 0.371099
0.675319 0.0518654 0.366293
0.696254 0.0504921 0.351797
0.0330663 0.255238 0.043534
0.0315557 0.251301 0.119417
0.0340887 0.266835 0.189425
0.0358892 0.326955 0.313146
0.0428016 0.378805 0.448554
0.728389 0.673884 0.631739
0.940856 0.60351 0.568246
0.94258 0.473838 0.495445
0.690623 0.0509346 0.328695
0.0348974 0.310063 0.0348974
0.036347 0.323995 0.129
0.0355535 0.332799 0.202655
0.0370489 0.378363 0.305257
0.0419471 0.431144 0.413535
0.0438392 0.453422 0.465187
0.944533 0.894255 0.566461
0.963104 0.877562 0.516915
0.975082 0.871794 0.539467
0.0385443 0.361807 0.0385443
0.0380102 0.352773 0.0380102
0.0377813 0.369955 0.0736706
0.0377356 0.389319 0.129839
0.0406195 0.436271 0.269673
0.0415045 0.457542 0.304372
0.0394446 0.429725 0.105547
0.938201 0.812375 0.182162
0.954543 0.827176 0.190143
0.0375677 0.394598 0.0375677
0.0379187 0.39089 0.0379187
0.0378729 0.391531 0.0378729
0.0375677 0.394553 0.0375677
0.0370031 0.405142 0.0370031
0.0379492 0.424216 0.0379644
0.0392157 0.43772 0.0393835
0.0397803 0.442847 0.0400092
0.946822 0.858656 0.194293
0.0223087 0.0250095 0.0371405
0.0333104 0.0270542 0.0552529
0.0460212 0.02533 0.0720989
0.0674754 0.0282444 0.0977188
0.113664 0.0302434 0.135012
0.243 0.0339055 0.209522
0.512459 0.0459754 0.346212
0.650538 0.0507668 0.438544
0.70454 0.0517433 0.485603
0.0252537 0.0449989 0.0847639
0.0266423 0.0340124 0.135561
0.0425574 0.0302586 0.19144
0.0792859 0.0320897 0.228016
0.180621 0.0340734 0.267506
0.380575 0.0375982 0.334508
0.602243 0.0488746 0.444327
0.680522 0.0518349 0.487785
0.710323 0.0516213 0.494575
0.0281529 0.0768292 0.134905
0.0294957 0.0512856 0.201617
0.0341955 0.0341955 0.269978
0.0411536 0.0354162 0.322072
0.208209 0.0377661 0.359823
0.40766 0.0399329 0.370031
0.611368 0.0496681 0.461524
0.686 0.0520638 0.498543
0.711437 0.051545 0.503105
0.0280919 0.142824 0.152224
0.0312963 0.124056 0.226917
0.0352483 0.0852369 0.295354
0.0350042 0.0350042 0.322515
0.193011 0.0392004 0.39704
0.423957 0.0417182 0.394049
0.62208 0.0505684 0.479332
0.691814 0.0523384 0.510002
0.713405 0.0515602 0.514382
0.0306554 0.213153 0.106355
0.0299992 0.198291 0.186908
0.0330053 0.201068 0.280262
0.0380102 0.206012 0.383337
0.0488289 0.115618 0.456123
0.522606 0.0619516 0.496025
0.624933 0.0508278 0.487373
0.690578 0.0523079 0.509407
0.712489 0.0514992 0.50988
0.034165 0.262348 0.0342565
0.0321813 0.266041 0.12369
0.0343328 0.268528 0.204868
0.0366522 0.317708 0.341787
0.0432898 0.368872 0.501396
0.535897 0.57377 0.736233
0.908827 0.503655 0.750225
0.784497 0.0909895 0.557443
0.707485 0.0516823 0.493126
0.0352331 0.320058 0.0352331
0.0365911 0.330953 0.114321
0.0356756 0.339376 0.214374
0.0365301 0.371862 0.325185
0.0442359 0.431418 0.484596
0.0493324 0.464302 0.598718
0.946853 0.914031 0.902235
0.979889 0.887129 0.867506
0.989807 0.885664 0.862959
0.0386358 0.364736 0.0386358
0.0377356 0.381872 0.128023
0.0381018 0.397757 0.247272
0.0397345 0.415076 0.334188
0.0441291 0.455528 0.473701
0.0491035 0.486519 0.577996
0.0510872 0.497902 0.605142
0.973114 0.97438 0.869307
0.988769 0.975174 0.879561
0.0375219 0.395041 0.0375219
0.0380255 0.389609 0.0380255
0.0390936 0.414862 0.132036
0.0404059 0.43476 0.243107
0.0415503 0.458106 0.339529
0.0461891 0.493065 0.500038
0.0485847 0.511284 0.53756
0.0469062 0.511711 0.503365
0.969497 0.973022 0.637552
0.0232242 0.0271763 0.0460365
0.033875 0.0264439 0.0639658
0.0481727 0.0267033 0.0932937
0.0682689 0.0289616 0.130022
0.114076 0.0291142 0.177935
0.216785 0.032517 0.241184
0.453223 0.0418708 0.36054
0.636316 0.0514839 0.484764
0.712596 0.0533761 0.546624
0.0264439 0.0447242 0.110918
0.0294804 0.0294804 0.172641
0.0321355 0.0321355 0.236301
0.053666 0.0344396 0.289509
0.150851 0.0367742 0.343999
0.334646 0.0391394 0.393515
0.547524 0.0450141 0.458122
0.66482 0.0523384 0.522499
0.723583 0.0541543 0.560571
0.0294804 0.0728313 0.180377
0.0325475 0.0325475 0.243442
0.0357061 0.0357061 0.338979
0.0373541 0.0373541 0.377218
0.0921798 0.0383307 0.412711
0.361471 0.0408026 0.441749
0.544839 0.0449378 0.463188
0.67248 0.0519265 0.533669
0.732006 0.0548409 0.571694
0.0300908 0.151461 0.226368
0.0353246 0.106569 0.298985
0.0348058 0.0348058 0.313695
0.0373541 0.0373541 0.375555
0.0382391 0.0375219 0.38851
0.3626 0.0412146 0.458045
0.54168 0.0449226 0.466957
0.683619 0.0515602 0.547539
0.740581 0.0555581 0.582315
0.0326085 0.231464 0.177218
0.0337835 0.217151 0.293675
0.0372168 0.188449 0.356939
0.0393225 0.133654 0.41883
0.0373541 0.0373541 0.384771
0.378866 0.043061 0.488289
0.561822 0.0451057 0.488624
0.690471 0.051606 0.555993
0.743069 0.0557107 0.586145
0.0342565 0.288701 0.0703288
0.0345769 0.288548 0.213046
0.0353246 0.287938 0.309667
0.0387732 0.299596 0.423514
0.0461128 0.325017 0.545174
0.105043 0.307225 0.634974
0.796429 0.243366 0.689815
0.688807 0.0515297 0.556603
0.735927 0.0551461 0.577432
0.0359045 0.330632 0.0359045
0.036286 0.337896 0.0916609
0.0363012 0.352758 0.224872
0.0363928 0.368032 0.335088
0.0454871 0.422889 0.505592
0.0509499 0.460609 0.637079
0.87541 0.860212 0.938033
0.977096 0.836164 0.941756
0.987442 0.794766 0.91104
0.0387274 0.371099 0.0387274
0.0384833 0.378271 0.0701152
0.0383154 0.403555 0.250004
0.0400854 0.416876 0.348028
0.0444495 0.452354 0.491814
0.0513466 0.487617 0.621469
0.0723888 0.533791 0.706554
0.980148 0.977523 0.976532
0.992493 0.976684 0.974456
0.0373693 0.397177 0.0373693
0.0393072 0.421332 0.154467
0.0413367 0.448753 0.333211
0.0428779 0.458106 0.414115
0.0459754 0.471778 0.505089
0.051606 0.500221 0.612726
0.0560922 0.521218 0.667994
0.0575723 0.531945 0.68217
0.987213 0.988815 0.971359
0.0238193 0.0285801 0.05449
0.0340581 0.0252995 0.0772717
0.0488289 0.0277714 0.119875
0.0661173 0.0289464 0.166354
0.112947 0.0324559 0.226184
0.214694 0.0357366 0.293935
0.406348 0.0404822 0.380316
0.606836 0.0482185 0.496452
0.711192 0.0529488 0.568963
0.0268101 0.0403906 0.141848
0.0312505 0.0312505 0.217151
0.0347753 0.0347753 0.287816
0.0353552 0.0353552 0.331945
0.0789502 0.0374762 0.39086
0.302617 0.0403754 0.452628
0.50779 0.0442817 0.492821
0.640986 0.0508736 0.534218
0.721843 0.0538796 0.579522
0.0316472 0.0607919 0.233692
0.0347906 0.0347906 0.310353
0.0373541 0.0373541 0.388403
0.038468 0.038468 0.418601
0.0386053 0.0386053 0.420462
0.302464 0.0428626 0.491234
0.51516 0.0445411 0.506081
0.638788 0.0506142 0.534997
0.734173 0.054963 0.591409
0.0350652 0.146273 0.29926
0.0357671 0.0516365 0.339162
0.0373541 0.0373541 0.376715
0.0381781 0.0381781 0.414023
0.0390021 0.0390021 0.425452
0.254917 0.0431525 0.494179
0.510964 0.0445869 0.510277
0.637247 0.0504921 0.536248
0.747677 0.0560769 0.604547
0.0335851 0.249729 0.278035
0.0375372 0.210437 0.377386
0.0402838 0.152255 0.426856
0.0373541 0.0373541 0.37705
0.0381476 0.0381476 0.413672
0.189746 0.0429236 0.493843
0.529213 0.0460975 0.52723
0.637964 0.05066 0.539666
0.759793 0.0569772 0.615244
0.0351568 0.318105 0.183017
0.0361639 0.311681 0.325734
0.0390173 0.298878 0.428824
0.0429541 0.280003 0.494865
0.0459297 0.233326 0.541299
0.0389563 0.0389563 0.424964
0.557504 0.0480354 0.552666
0.654887 0.0521553 0.556222
0.758862 0.0569619 0.615305
0.0366522 0.338048 0.0366522
0.0372931 0.367636 0.21799
0.0366369 0.373953 0.346059
0.0432136 0.384619 0.456184
0.0463417 0.405707 0.571527
0.0522164 0.433677 0.670359
0.548577 0.667155 0.84828
0.956146 0.678614 0.903838
0.9738 0.604944 0.877455
0.0387121 0.377569 0.0387121
0.0386816 0.368017 0.0386816
0.0387121 0.409171 0.239567
0.0409094 0.426169 0.361944
0.0442817 0.447593 0.489036
0.0516213 0.48307 0.627604
0.0557412 0.500832 0.698116
0.976028 0.970077 0.985153
0.992721 0.971893 0.986893
0.0371252 0.401785 0.0371252
0.0375219 0.39501 0.0375219
0.0413367 0.450553 0.323125
0.0435035 0.463279 0.434119
0.046128 0.471183 0.513588
0.0517586 0.497078 0.62388
0.0564431 0.517845 0.68864
0.738811 0.963806 0.95433
0.988495 0.987701 0.986023
