luts/lumix_color_lab_C/S_Deep_Forest_2.cube
TITLE "Generated by Resolve"
LUT_3D_SIZE 5
0.0247501 0.0247501 0.0247501
0.030045 0.0247501 0.0247501
0.0716106 0.0309606 0.0284123
0.233616 0.0330663 0.0295567
0.540734 0.0461433 0.0461433
0.024033 0.0540017 0.0372625
0.0442359 0.0707103 0.0278325
0.336507 0.0366979 0.0346075
0.58233 0.0489204 0.0489204
0.644846 0.0494087 0.0494087
0.0262913 0.178134 0.0293889
0.0302281 0.215824 0.0312352
0.0332036 0.246387 0.0332952
0.791058 0.214405 0.0606546
0.64332 0.0494087 0.0494087
0.0382391 0.355627 0.0382391
0.0386206 0.379522 0.0386206
0.0377203 0.392966 0.0377203
0.0373236 0.398032 0.0373236
0.952239 0.785306 0.181857
0.0389258 0.435233 0.0390784
0.0411688 0.457954 0.0417639
0.0410925 0.465537 0.0422675
0.0407263 0.468833 0.0423133
0.0408026 0.468132 0.0423133
0.0247501 0.0247501 0.0247501
0.0338903 0.027924 0.0323186
0.0975357 0.030808 0.0443885
0.336767 0.0362707 0.0458839
0.595041 0.0493172 0.0493172
0.0236057 0.0529946 0.0453803
0.0555886 0.0728618 0.0742962
0.379202 0.0377966 0.0512093
0.592844 0.0493172 0.0493172
0.652354 0.0494087 0.0494087
0.0281987 0.156039 0.0371252
0.0278477 0.197131 0.0299535
0.287572 0.368277 0.0399176
0.743557 0.127825 0.0562295
0.652995 0.0494087 0.0494087
0.0358892 0.330327 0.0358892
0.0381018 0.353933 0.0381018
0.038529 0.38117 0.038529
0.797009 0.724956 0.128771
0.955856 0.772244 0.179522
0.0372778 0.413367 0.0372778
0.0383001 0.429267 0.0383764
0.0407874 0.453239 0.0412146
0.0411994 0.458228 0.0417945
0.927687 0.833722 0.173999
0.0232547 0.0247501 0.0276493
0.0370031 0.0280766 0.0439002
0.0953384 0.0309148 0.071046
0.409339 0.0399023 0.117754
0.639368 0.0497902 0.0709239
0.0242924 0.0575265 0.0636454
0.031342 0.0472877 0.158831
0.358633 0.0392615 0.241688
0.640925 0.0498207 0.211536
0.654124 0.0494087 0.0494087
0.0292821 0.172717 0.0577859
0.0307317 0.20177 0.155306
0.42594 0.405737 0.376547
0.62771 0.0489815 0.205951
0.654124 0.0494087 0.0494087
0.0351263 0.317174 0.0351263
0.0350958 0.316503 0.0350958
0.0387732 0.374792 0.0387732
0.92578 0.757839 0.162646
0.957839 0.761074 0.176928
0.0370947 0.402716 0.0370947
0.0370184 0.405066 0.0370184
0.0378271 0.422461 0.0378271
0.0393225 0.438788 0.0395209
0.941711 0.853971 0.192462
0.0220798 0.0249332 0.0357519
0.0402686 0.0259556 0.0606394
0.0844587 0.02916 0.0947127
0.390845 0.0408637 0.249104
0.676661 0.0514992 0.433371
0.0271916 0.0617685 0.114488
0.0327764 0.0327764 0.246967
0.199176 0.037705 0.35996
0.62565 0.050782 0.47924
0.71667 0.0520027 0.528176
0.030457 0.2047 0.103563
0.0330205 0.200946 0.280842
0.0398108 0.0972457 0.441169
0.641169 0.0518807 0.505974
0.717769 0.0521859 0.532586
0.0359045 0.330587 0.0359045
0.0370336 0.363714 0.221744
0.0448768 0.441489 0.500908
0.960113 0.937484 0.929915
0.991821 0.917296 0.902037
0.0371557 0.40119 0.0371557
0.0413672 0.448707 0.282902
0.0434577 0.472297 0.431327
0.0515908 0.51577 0.585
0.975464 0.979858 0.774456
0.023743 0.0272679 0.0490578
0.0422065 0.0258183 0.0830396
0.0901656 0.0290379 0.146914
0.31162 0.0353246 0.281941
0.672984 0.0522011 0.529061
0.028809 0.051957 0.190021
0.0369421 0.0369421 0.36228
0.0381323 0.0381323 0.413138
0.554162 0.0453193 0.512718
0.743847 0.0557259 0.599725
0.0328679 0.240482 0.263874
0.0408179 0.172702 0.430228
0.0382696 0.0382696 0.415839
0.568048 0.0472725 0.532036
0.767285 0.0574655 0.620874
0.0375982 0.34786 0.0375982
0.0384985 0.397192 0.340795
0.0465248 0.426459 0.576196
0.721859 0.77818 0.906828
0.983932 0.763546 0.931884
0.0370794 0.408255 0.0370794
0.0421302 0.466117 0.38587
0.0477302 0.479606 0.544305
0.056672 0.518593 0.693126
0.988602 0.987716 0.98587
