luts/lumix_color_lab_C/S_Golden_Hour_1.cube
TITLE "Generated by Resolve"
LUT_3D_SIZE 9
0.024979 0.024979 0.024979
0.0323644 0.0301366 0.0304723
0.0454871 0.0324254 0.0339208
0.0952468 0.0242161 0.0299535
0.216617 0.02327 0.0268864
0.450492 0.0230411 0.0286107
0.771511 0.0220493 0.0300755
0.931289 0.0204623 0.0314946
0.955779 0.0199893 0.0341955
0.0372473 0.0411231 0.0359808
0.0611124 0.0454108 0.0333867
0.133074 0.0408942 0.0256657
0.282368 0.0362554 0.0240177
0.536599 0.0366979 0.0227817
0.822156 0.0366979 0.0216678
0.929747 0.0369421 0.0213779
0.95201 0.0377966 0.0222934
0.966552 0.0398413 0.0245212
0.037644 0.0902571 0.0419776
0.0761273 0.118425 0.0378119
0.200565 0.110292 0.0195468
0.426703 0.0671702 0.0164797
0.704265 0.0550698 0.0184634
0.897505 0.0553902 0.0205386
0.941314 0.0563973 0.0222324
0.95816 0.0579995 0.0238804
0.971283 0.0608072 0.0265965
0.0288548 0.18407 0.0508431
0.077348 0.228962 0.0533608
0.194797 0.266438 0.034699
0.447028 0.226734 0.014847
0.72549 0.167163 0.0164187
0.903624 0.122393 0.0187991
0.948684 0.115007 0.0215763
0.965118 0.127993 0.0249027
0.977188 0.157015 0.0289006
0.0280308 0.343175 0.0724193
0.0762646 0.385 0.0756695
0.182437 0.449607 0.0651713
0.430426 0.465568 0.031281
0.727108 0.423896 0.014786
0.900908 0.3953 0.0171359
0.952285 0.386481 0.0195621
0.968597 0.41033 0.0230564
0.980758 0.449088 0.0275578
0.0306706 0.542779 0.103304
0.0743114 0.593332 0.105943
0.201907 0.647608 0.0971084
0.412375 0.698466 0.0657816
0.710964 0.67219 0.0245212
0.896101 0.650126 0.0153506
0.955077 0.655863 0.0180514
0.970611 0.680415 0.0214389
0.982849 0.708934 0.0256504
0.0344244 0.764904 0.138018
0.0800031 0.809689 0.137087
0.231647 0.820447 0.123293
0.427878 0.851621 0.0933089
0.69868 0.85095 0.0489967
0.891768 0.83006 0.0217441
0.956924 0.833371 0.0187533
0.972869 0.855177 0.0240787
0.984497 0.874342 0.0302281
0.0386969 0.896544 0.16907
0.0885939 0.911147 0.160891
0.275013 0.915755 0.1402
0.483085 0.924834 0.107256
0.704204 0.933516 0.0641031
0.889296 0.924743 0.0319982
0.957961 0.923049 0.027512
0.974929 0.93196 0.0318303
0.98674 0.939345 0.0362097
0.0433051 0.93846 0.190555
0.119005 0.943877 0.173419
0.328725 0.948867 0.145495
0.548791 0.95436 0.109606
0.746807 0.961013 0.0676738
0.904631 0.956924 0.034287
0.963256 0.9514 0.0290532
0.977691 0.954269 0.0327306
0.989059 0.956344 0.0358282
0.0265202 0.0266728 0.0274357
0.0331579 0.03122 0.0331121
0.0449683 0.0324559 0.0386664
0.0944991 0.0240177 0.037995
0.220203 0.022797 0.0402991
0.448463 0.0227207 0.0455634
0.778958 0.0212863 0.0520333
0.932067 0.0193332 0.0584115
0.956344 0.0185855 0.0654002
0.0361181 0.0418097 0.0396582
0.0589914 0.0497292 0.0451057
0.126009 0.0438849 0.0403601
0.272801 0.0367285 0.0408179
0.534722 0.0367437 0.0429694
0.825711 0.0364385 0.0452735
0.930053 0.0364385 0.0477607
0.952117 0.0371099 0.050721
0.966949 0.03888 0.0547341
0.0334173 0.0878004 0.048661
0.0776074 0.12163 0.0555581
0.17847 0.120897 0.0415351
0.383627 0.0758221 0.0378576
0.636255 0.0573281 0.0400244
0.870832 0.0570687 0.0414282
0.935042 0.0580148 0.0429999
0.95465 0.0592813 0.0449073
0.969192 0.0616464 0.0480812
0.0243534 0.160754 0.0565499
0.0715343 0.23093 0.0690318
0.180285 0.266102 0.0623636
0.404623 0.246921 0.0373388
0.686183 0.184619 0.0383307
0.886091 0.137301 0.041825
0.944305 0.126467 0.0451209
0.961028 0.135775 0.0476997
0.9738 0.169223 0.050721
0.0220035 0.289342 0.0728618
0.0581064 0.359854 0.0862745
0.184604 0.41651 0.0927596
0.380087 0.47747 0.0601968
0.685405 0.447333 0.0369268
0.884871 0.413275 0.0392767
0.949676 0.396979 0.0426032
0.966217 0.416831 0.0467384
0.978302 0.455497 0.0521096
0.024033 0.478676 0.102312
0.0527352 0.534874 0.111238
0.179187 0.59765 0.116625
0.36878 0.664317 0.0943008
0.659419 0.684169 0.0523384
0.877821 0.665354 0.0371252
0.951629 0.667201 0.0406195
0.969024 0.685267 0.045655
0.98117 0.713527 0.0579843
0.0269627 0.697032 0.137377
0.0513313 0.753841 0.144335
0.190311 0.791836 0.14493
0.399542 0.813031 0.130297
0.637873 0.848859 0.0791638
0.865721 0.836866 0.04654
0.95256 0.838956 0.042237
0.971054 0.865675 0.0559396
0.983032 0.88539 0.0728771
0.0308537 0.877775 0.172061
0.0608988 0.887694 0.172473
0.215595 0.910109 0.167376
0.447089 0.926848 0.152834
0.659693 0.929763 0.102754
0.856748 0.926604 0.0575265
0.952361 0.923629 0.0487831
0.973022 0.935134 0.0592508
0.984817 0.944091 0.07364
0.0350958 0.933196 0.197833
0.0711833 0.938811 0.190753
0.259419 0.944823 0.178882
0.498772 0.950378 0.161334
0.710338 0.956909 0.124239
0.872145 0.959518 0.0631571
0.956405 0.951202 0.0493782
0.975265 0.954635 0.0571603
0.986786 0.957946 0.068513
0.0278019 0.0280766 0.0297704
0.0337072 0.0317082 0.0352636
0.0412909 0.0330358 0.0391546
0.0700694 0.0280003 0.0438544
0.158801 0.0217594 0.052018
0.388907 0.0212253 0.0582284
0.74432 0.0196689 0.0657206
0.930968 0.0175021 0.078584
0.955245 0.0171817 0.103929
0.0345006 0.0411688 0.0414588
0.0543832 0.0492409 0.0538796
0.10399 0.0453498 0.0627756
0.234531 0.0349279 0.0743572
0.509026 0.035111 0.0673381
0.792203 0.0357824 0.0685893
0.925582 0.0360266 0.0750134
0.950225 0.0366979 0.0800488
0.965743 0.0382696 0.101701
0.030457 0.0835126 0.0513008
0.0619364 0.128252 0.0829786
0.161151 0.129793 0.100328
0.347356 0.0858778 0.0819104
0.608621 0.0583963 0.0645457
0.860975 0.057023 0.0647288
0.935042 0.0578317 0.0673838
0.955123 0.0588846 0.0720989
0.969863 0.0610819 0.081117
0.0219883 0.14902 0.0602274
0.0556344 0.2271 0.0974289
0.18471 0.270359 0.124193
0.372168 0.263157 0.09337
0.646097 0.199008 0.069749
0.863355 0.157137 0.0625467
0.940444 0.142992 0.0656138
0.958282 0.148898 0.0678111
0.972107 0.18085 0.0757916
0.018143 0.257679 0.0748455
0.0446326 0.335943 0.103929
0.174685 0.424277 0.139239
0.364797 0.479011 0.134401
0.652293 0.464897 0.0875105
0.870954 0.423316 0.072282
0.947036 0.409628 0.0755016
0.963592 0.429923 0.0921187
0.97583 0.469886 0.117266
0.0192569 0.431159 0.101411
0.0395819 0.475624 0.117159
0.15108 0.578286 0.151843
0.372457 0.643137 0.170413
0.621118 0.693217 0.112459
0.867781 0.678203 0.0929885
0.950698 0.676738 0.0975204
0.967559 0.691768 0.119936
0.979553 0.719387 0.152697
0.0214847 0.639872 0.134951
0.0424811 0.687556 0.151308
0.138521 0.747585 0.170718
0.364736 0.788602 0.184009
0.602197 0.833707 0.153414
0.845212 0.850278 0.104311
0.951888 0.853834 0.110475
0.969604 0.874556 0.134173
0.981903 0.889616 0.162692
0.0247807 0.85832 0.171908
0.0470893 0.867872 0.186679
0.151522 0.882322 0.198138
0.390234 0.922896 0.2
0.629816 0.922927 0.189029
0.826352 0.93872 0.117861
0.951446 0.933318 0.107576
0.971405 0.940612 0.130678
0.983276 0.946456 0.156374
0.0286107 0.922698 0.202167
0.0521096 0.933532 0.21323
0.184649 0.940307 0.216159
0.437034 0.946777 0.2094
0.673823 0.953109 0.205219
0.847669 0.960479 0.151614
0.953689 0.953674 0.106172
0.973083 0.956695 0.122316
0.984909 0.959457 0.144045
0.0288548 0.0293126 0.0322576
0.0339055 0.0318456 0.0371862
0.0403906 0.0330816 0.0410925
0.0573892 0.0309453 0.0436561
0.11632 0.0220035 0.0614939
0.270634 0.0205234 0.0826123
0.571572 0.0192264 0.0995193
0.905959 0.0167544 0.131777
0.949538 0.0150454 0.219699
0.03299 0.0400854 0.0427405
0.0469825 0.0426947 0.0591287
0.0898756 0.0418402 0.0757
0.151919 0.0362249 0.0787976
0.31426 0.0315404 0.109224
0.64416 0.0310674 0.116594
0.914488 0.0316777 0.143282
0.948486 0.0331731 0.187869
0.96379 0.0360723 0.24094
0.0290532 0.0747387 0.052842
0.0451362 0.116289 0.0958877
0.139513 0.124483 0.14107
0.278462 0.0927291 0.142824
0.546868 0.0545815 0.155352
0.830091 0.0544442 0.155657
0.926146 0.0567636 0.172763
0.952834 0.0583047 0.213291
0.968566 0.0604868 0.274968
0.0193332 0.14136 0.0639048
0.038819 0.217166 0.115587
0.149096 0.281376 0.174365
0.344823 0.279133 0.204364
0.605844 0.217227 0.182437
0.852979 0.16466 0.170642
0.939696 0.144335 0.17966
0.958312 0.148348 0.209125
0.972488 0.177813 0.254887
0.0142977 0.253315 0.0799878
0.0346685 0.316274 0.123812
0.140444 0.419684 0.188235
0.375723 0.488151 0.241947
0.620859 0.482612 0.201907
0.847501 0.433265 0.192065
0.943053 0.425254 0.200519
0.960616 0.446632 0.220737
0.973922 0.484245 0.255039
0.0150759 0.410773 0.1066
0.0328374 0.429572 0.132708
0.108644 0.549462 0.186511
0.362509 0.654719 0.247425
0.605966 0.697414 0.246235
0.845426 0.691096 0.208865
0.947875 0.680842 0.223407
0.965576 0.69778 0.262928
0.977417 0.729 0.307469
0.0171206 0.602075 0.139956
0.0349889 0.620996 0.161044
0.0847639 0.690135 0.192569
0.325093 0.779019 0.242634
0.606149 0.820264 0.2822
0.819898 0.856886 0.208774
0.948623 0.860075 0.226505
0.968185 0.879072 0.266712
0.980621 0.894148 0.313344
0.0200198 0.814588 0.177218
0.0394598 0.839979 0.199924
0.0887922 0.851896 0.220157
0.30721 0.884565 0.244602
0.595392 0.91426 0.276127
0.800336 0.928817 0.247486
0.945296 0.93521 0.2056
0.969848 0.943175 0.250431
0.98172 0.949218 0.293339
0.0234073 0.910689 0.21207
0.0440986 0.919799 0.232242
0.105058 0.93315 0.248096
0.345647 0.941436 0.259068
0.613809 0.948974 0.274266
0.816098 0.955566 0.287968
0.943877 0.954833 0.208148
0.970794 0.957961 0.226947
0.983139 0.961578 0.269276
0.0296178 0.0302739 0.0347601
0.0343633 0.0321355 0.0396277
0.0409857 0.0331121 0.0440681
0.0568093 0.03122 0.0466468
0.0970169 0.0234836 0.0566262
0.20647 0.02121 0.0905776
0.441566 0.019089 0.142519
0.785412 0.0165103 0.197375
0.936919 0.0138552 0.291264
0.0322271 0.0399939 0.0453956
0.0423285 0.0411231 0.0611582
0.0744488 0.0367895 0.0813458
0.121324 0.0324712 0.0889296
0.197086 0.0309453 0.0921798
0.416098 0.0289006 0.155001
0.784146 0.0274968 0.214527
0.935714 0.0280919 0.282948
0.958511 0.0306859 0.362585
0.0276188 0.0712749 0.0593423
0.0375372 0.0935225 0.0979934
0.102388 0.103334 0.158572
0.228031 0.0816358 0.178378
0.373602 0.054551 0.168521
0.650477 0.0452735 0.230274
0.899351 0.0474556 0.252674
0.94725 0.0514687 0.318944
0.966293 0.0557259 0.404974
0.0165713 0.142168 0.0801251
0.0289311 0.18529 0.124056
0.0962539 0.251637 0.197208
0.298909 0.26154 0.272679
0.511238 0.20853 0.275166
0.79794 0.130846 0.311482
0.932692 0.12015 0.352071
0.955154 0.138048 0.407691
0.970901 0.170275 0.480705
0.0108949 0.259571 0.0979477
0.0270237 0.292775 0.134874
0.090486 0.400504 0.216419
0.317449 0.502266 0.323888
0.589532 0.501274 0.377859
0.822644 0.448356 0.366949
0.941131 0.429084 0.383307
0.959869 0.445319 0.422934
0.973953 0.483864 0.479393
0.0109102 0.412879 0.120714
0.0269627 0.408652 0.144579
0.0699626 0.51693 0.2168
0.305058 0.652369 0.329625
0.61735 0.705791 0.416587
0.822354 0.704372 0.38378
0.943694 0.685039 0.404074
0.962386 0.703944 0.438148
0.975113 0.739254 0.478614
0.0129244 0.592035 0.152728
0.0292973 0.583276 0.177844
0.0544289 0.634028 0.214786
0.254459 0.765316 0.302983
0.597345 0.831281 0.402548
0.80708 0.861723 0.414527
0.943282 0.867094 0.400763
0.9664 0.880674 0.447211
0.978882 0.898054 0.507271
0.0158389 0.78941 0.192798
0.0331884 0.793713 0.217365
0.0523842 0.811444 0.237552
0.213718 0.847868 0.286503
0.554528 0.909209 0.367147
0.80119 0.925353 0.441886
0.936599 0.939452 0.372107
0.968078 0.946731 0.426276
0.980194 0.952667 0.479057
0.019089 0.901534 0.229786
0.0373846 0.903716 0.251926
0.0590219 0.912612 0.272618
0.226734 0.93225 0.299443
0.528847 0.943969 0.341558
0.789578 0.953643 0.412192
0.931243 0.957366 0.406577
0.968246 0.96025 0.384298
0.981338 0.96466 0.446555
0.0302586 0.0311437 0.0375372
0.0352178 0.0327001 0.0431067
0.0426795 0.0332799 0.0481422
0.0607309 0.0307774 0.0577859
0.0961166 0.0238499 0.0682841
0.174304 0.0220951 0.0840314
0.354116 0.020264 0.13991
0.662501 0.0171664 0.243259
0.914687 0.0135348 0.356725
0.0318608 0.0407416 0.0497444
0.0404364 0.0408789 0.0698863
0.0643626 0.0372931 0.0874647
0.103014 0.0301671 0.101656
0.163241 0.0299382 0.106416
0.290181 0.0294499 0.124376
0.597559 0.0272679 0.235874
0.904311 0.024918 0.356588
0.947509 0.0251164 0.443946
0.0252995 0.0761883 0.0759289
0.0349279 0.0796674 0.10312
0.0757763 0.0828565 0.159777
0.174243 0.0675822 0.198688
0.289418 0.0478523 0.199466
0.451011 0.0419013 0.191791
0.749645 0.0395972 0.304997
0.923995 0.0415198 0.368887
0.955245 0.0463111 0.455741
0.0136721 0.149035 0.101106
0.0243534 0.155596 0.12961
0.0564279 0.199634 0.204288
0.213748 0.206287 0.295003
0.419455 0.174502 0.314687
0.600885 0.106722 0.296086
0.864225 0.0646677 0.375631
0.942733 0.0673686 0.440925
0.965927 0.0928511 0.553338
0.00776684 0.267826 0.123095
0.0217441 0.265034 0.148882
0.0514382 0.342504 0.225635
0.211765 0.447669 0.348562
0.530526 0.469551 0.45687
0.744579 0.416373 0.468162
0.9234 0.362371 0.524193
0.956436 0.397681 0.591134
0.971542 0.459403 0.664561
0.00756847 0.421134 0.144747
0.0226444 0.402319 0.165576
0.0429541 0.476097 0.22948
0.213046 0.631464 0.370932
0.555764 0.718822 0.513893
0.800626 0.718776 0.583322
0.936126 0.693858 0.5906
0.960754 0.7037 0.627146
0.974578 0.737682 0.680217
0.00900282 0.596841 0.17145
0.0245212 0.578973 0.194278
0.0408789 0.598123 0.230335
0.177554 0.736538 0.352148
0.535439 0.83151 0.501686
0.815198 0.869383 0.612909
0.936233 0.874784 0.595987
0.964065 0.881971 0.638498
0.976349 0.901549 0.68368
0.0116274 0.787472 0.206668
0.0279545 0.775036 0.236667
0.043534 0.766201 0.262455
0.136034 0.81799 0.324208
0.47126 0.913146 0.449104
0.797009 0.930907 0.578332
0.930861 0.944228 0.607034
0.966308 0.950484 0.618463
0.978485 0.955581 0.66743
0.0149844 0.897948 0.247227
0.0318761 0.895811 0.278157
0.0481727 0.892409 0.301137
0.124422 0.898207 0.32668
0.41619 0.937133 0.404028
0.760693 0.952743 0.518441
0.929793 0.959869 0.626307
0.966018 0.963531 0.576303
0.979568 0.967987 0.636194
0.0307622 0.0319371 0.0407111
0.0360266 0.0331884 0.0471199
0.0442054 0.0334936 0.058793
0.0646525 0.0303044 0.0741283
0.10071 0.0231785 0.0882734
0.171099 0.0222324 0.102586
0.307683 0.0212253 0.1299
0.556802 0.0188907 0.215167
0.877165 0.0147097 0.380636
0.031342 0.0415656 0.0627451
0.0401617 0.0416876 0.0884108
0.065095 0.0373999 0.109773
0.101274 0.0301366 0.129671
0.164675 0.0298772 0.145739
0.269093 0.0294041 0.15845
0.473075 0.0282902 0.192233
0.797971 0.0256962 0.339345
0.934691 0.0232242 0.503716
0.0230411 0.0810864 0.0957809
0.0327611 0.0809339 0.12903
0.0627298 0.0739605 0.172168
0.137835 0.0584573 0.21178
0.234714 0.0449378 0.23415
0.359335 0.0393072 0.22417
0.568917 0.0379034 0.239063
0.878798 0.0375525 0.398764
0.941741 0.0385443 0.509026
0.0107576 0.156207 0.126177
0.0218509 0.153719 0.158038
0.0413519 0.15903 0.214191
0.143465 0.154131 0.306081
0.321019 0.126772 0.339742
0.48513 0.0851148 0.322637
0.662623 0.0574807 0.30724
0.89398 0.0548867 0.438056
0.947997 0.058732 0.526925
0.0049897 0.277256 0.15375
0.0187533 0.264057 0.180133
0.0344549 0.284245 0.229816
0.122972 0.348928 0.341009
0.392828 0.369329 0.464149
0.645457 0.343404 0.489006
0.811307 0.262867 0.471748
0.937591 0.185153 0.562982
0.961074 0.244511 0.649927
0.00451667 0.430579 0.175113
0.0196078 0.410224 0.202441
0.0340429 0.42298 0.244007
0.118746 0.54609 0.370825
0.408713 0.667552 0.535943
0.755886 0.685832 0.654795
0.898146 0.649439 0.675441
0.955154 0.634073 0.736721
0.971832 0.692958 0.807721
0.00581369 0.606348 0.199527
0.0210269 0.585122 0.226398
0.0344549 0.575296 0.254566
0.100404 0.690852 0.367422
0.415854 0.816495 0.547463
0.772961 0.877241 0.702876
0.928786 0.883192 0.767239
0.961685 0.885039 0.787823
0.975082 0.901335 0.829648
0.00796521 0.792935 0.230976
0.0236057 0.776684 0.261112
0.0375982 0.759777 0.286412
0.0783093 0.794949 0.347616
0.364309 0.882383 0.509544
0.752895 0.931151 0.674693
0.933898 0.948684 0.78407
0.964508 0.953689 0.781979
0.976425 0.957687 0.819837
0.0109102 0.898329 0.265095
0.0269474 0.894743 0.300771
0.0419928 0.886793 0.331228
0.073579 0.875578 0.362707
0.298787 0.926635 0.457725
0.691997 0.948379 0.603555
0.928344 0.962158 0.746792
0.964599 0.967117 0.778531
0.977813 0.970871 0.794522
0.0311589 0.0326543 0.0443885
0.0367437 0.0336919 0.0549783
0.0456703 0.033753 0.0740215
0.0685435 0.0298619 0.0935531
0.107836 0.0231937 0.114473
0.176806 0.0223087 0.136248
0.299657 0.0213626 0.159777
0.497887 0.0199588 0.202228
0.789502 0.0167544 0.329397
0.0307012 0.0424964 0.0786908
0.0397498 0.0426184 0.111986
0.0668803 0.0377966 0.144823
0.105287 0.0308537 0.172778
0.170779 0.0299229 0.199634
0.273594 0.0293889 0.221149
0.441367 0.028275 0.240375
0.688563 0.0267948 0.291783
0.910597 0.0243381 0.455512
0.0208743 0.0857099 0.12076
0.0309606 0.0847334 0.168994
0.0590677 0.0770886 0.227817
0.130068 0.0564279 0.266239
0.215442 0.0425269 0.291493
0.341054 0.0383917 0.301244
0.519142 0.0373693 0.298222
0.760037 0.0369879 0.335393
0.921355 0.0368048 0.497185
0.00775158 0.164584 0.161212
0.0193027 0.160876 0.207385
0.0355535 0.153292 0.265858
0.105821 0.129107 0.333028
0.24921 0.0953078 0.368582
0.398093 0.0682994 0.371008
0.555932 0.0525368 0.339162
0.757092 0.0502937 0.348501
0.924849 0.0516976 0.523644
0.00238041 0.287114 0.190723
0.0163119 0.273777 0.228092
0.0283207 0.265766 0.267811
0.0749676 0.270604 0.345769
0.258305 0.267948 0.450996
0.513909 0.237919 0.487938
0.688472 0.188022 0.469032
0.847379 0.115373 0.454307
0.940063 0.0852979 0.5935
0.00178531 0.441733 0.213916
0.0169223 0.419089 0.247379
0.0289311 0.405295 0.278767
0.0603952 0.444785 0.357717
0.243229 0.547662 0.512261
0.608087 0.570397 0.641855
0.82504 0.55967 0.669917
0.9252 0.487831 0.658686
0.955428 0.438636 0.742214
0.00288396 0.617761 0.236805
0.0180362 0.594461 0.271687
0.030396 0.579797 0.303838
0.0541543 0.614618 0.373846
0.255756 0.753628 0.545174
0.637324 0.838544 0.714427
0.902449 0.85832 0.818463
0.952605 0.844617 0.842573
0.970916 0.856413 0.891966
0.00488289 0.803067 0.265812
0.020325 0.783459 0.302708
0.0333257 0.767819 0.334447
0.0485847 0.761608 0.375631
0.230991 0.84654 0.527398
0.64712 0.925521 0.714229
0.916304 0.950576 0.851774
0.962692 0.956024 0.902327
0.974487 0.958999 0.916533
0.0074464 0.900099 0.296864
0.0230106 0.895964 0.33611
0.0366674 0.889281 0.367285
0.052903 0.875547 0.396292
0.189914 0.895628 0.487617
0.587854 0.94432 0.662943
0.905333 0.962142 0.820325
0.965194 0.96965 0.907454
0.976211 0.972641 0.908156
0.0314336 0.0333104 0.0484474
0.0372778 0.0342412 0.0691081
0.0472419 0.0340581 0.0921645
0.0726482 0.0294347 0.118181
0.115297 0.0233463 0.149493
0.187686 0.0222324 0.18085
0.302312 0.0214542 0.209094
0.486244 0.0200504 0.244877
0.732174 0.0178378 0.315236
0.0299382 0.043534 0.0985275
0.0391241 0.0436866 0.144427
0.06804 0.038529 0.188449
0.109712 0.0315862 0.225284
0.176822 0.0299077 0.266865
0.283619 0.0292668 0.302403
0.441291 0.0282597 0.324544
0.653574 0.0268101 0.348837
0.879255 0.0252995 0.413657
0.0186923 0.090425 0.157092
0.0290837 0.088838 0.221103
0.0557565 0.0812238 0.299763
0.13051 0.05832 0.351263
0.218936 0.042359 0.383993
0.345144 0.0383001 0.404105
0.51429 0.0373999 0.401434
0.714717 0.0365301 0.399283
0.898634 0.0364538 0.440665
0.00476081 0.172778 0.207172
0.0173037 0.166979 0.274083
0.0327153 0.159319 0.34873
0.0954757 0.131548 0.419333
0.22533 0.0867323 0.439719
0.353567 0.061387 0.441611
0.516152 0.0493172 0.425544
0.698222 0.048661 0.406455
0.890593 0.049424 0.444572
0 0.299138 0.24004
0.0138705 0.283955 0.290181
0.0259251 0.275853 0.347051
0.0578317 0.248371 0.40177
0.183322 0.210285 0.467384
0.392447 0.166705 0.494392
0.575204 0.126329 0.492714
0.729259 0.0822461 0.456962
0.882734 0.0661021 0.471427
0 0.453803 0.260746
0.0144656 0.429664 0.302358
0.0263218 0.417899 0.346639
0.0417182 0.397604 0.387121
0.145769 0.41854 0.489326
0.427573 0.426444 0.607126
0.705669 0.411719 0.644511
0.842084 0.365896 0.627054
0.922499 0.285969 0.616129
9.15541e-05 0.629053 0.284611
0.0153506 0.604562 0.327031
0.0274968 0.591379 0.367926
0.04065 0.566796 0.399298
0.13167 0.637751 0.515145
0.429755 0.733089 0.680873
0.794125 0.751873 0.797147
0.93228 0.760571 0.826551
0.953597 0.708583 0.822644
0.00192264 0.81413 0.312306
0.017319 0.792889 0.356878
0.0297551 0.779721 0.399313
0.0431067 0.753307 0.43093
0.120073 0.801862 0.528679
0.459083 0.898436 0.707958
0.82121 0.933211 0.849912
0.956985 0.948089 0.925414
0.969268 0.948074 0.941436
0.00442512 0.902907 0.341375
0.0197757 0.897978 0.386496
0.0326238 0.893462 0.427115
0.0463417 0.881041 0.458503
0.102129 0.874479 0.513817
0.433661 0.937316 0.679866
0.83267 0.957275 0.844205
0.961746 0.969726 0.935531
0.974929 0.973342 0.95639
