luts/lumix_color_lab_C/S_Golden_Hour_2.cube
TITLE "Generated by Resolve"
LUT_3D_SIZE 5
0.0218204 0.0218204 0.0218204
0.0330663 0.0293889 0.0299077
0.0913405 0.0220951 0.0279088
0.400854 0.0186313 0.0252689
0.911452 0.0167239 0.0288243
0.0365301 0.0536202 0.0360876
0.122576 0.0753033 0.0239414
0.640192 0.0450599 0.0165408
0.94168 0.047776 0.0192111
0.971679 0.0546731 0.0247807
0.0231785 0.304753 0.0616464
0.129732 0.412757 0.0682231
0.7093 0.40528 0.0108339
0.955795 0.377234 0.0172732
0.985077 0.477272 0.0261082
0.0324407 0.811658 0.142977
0.187106 0.852903 0.134325
0.708843 0.882658 0.0505989
0.963058 0.87158 0.0200961
0.989792 0.901854 0.0310063
0.0477607 0.944472 0.194507
0.347433 0.953994 0.14696
0.800412 0.964904 0.0588998
0.969177 0.953994 0.0281224
0.994736 0.957473 0.0329747
0.0247654 0.0249638 0.0260319
0.0336309 0.0305028 0.0335699
0.0907912 0.0218357 0.0387884
0.446921 0.0173648 0.0477302
0.920317 0.0150301 0.0641489
0.0332647 0.0535439 0.0428321
0.108583 0.0901808 0.0723735
0.59202 0.0472572 0.0532845
0.940398 0.049424 0.0611582
0.971756 0.0555276 0.0728161
0.0160983 0.243961 0.0673686
0.116365 0.393133 0.11017
0.657023 0.452873 0.0598917
0.952819 0.411093 0.059617
0.980819 0.509468 0.102571
0.0221256 0.725399 0.145174
0.10985 0.818326 0.169741
0.628595 0.883696 0.13196
0.959487 0.890242 0.0883803
0.986648 0.915602 0.126146
0.0336156 0.936461 0.212589
0.20856 0.946822 0.217762
0.74815 0.958419 0.191821
0.963104 0.955383 0.0850385
0.990356 0.960449 0.111345
0.0266575 0.0271458 0.0304417
0.0340276 0.0308232 0.0378882
0.0590982 0.0284733 0.0438697
0.250736 0.0170443 0.0887922
0.797803 0.0133364 0.166201
0.0302129 0.0465248 0.0477302
0.0640574 0.0657969 0.106813
0.293889 0.0390478 0.131777
0.912963 0.0389563 0.256184
0.966674 0.0487678 0.423957
0.00753796 0.243687 0.0881666
0.0447395 0.352377 0.177859
0.583276 0.495506 0.373373
0.946822 0.436332 0.397818
0.977569 0.530907 0.521385
0.0115053 0.660533 0.165652
0.0417334 0.682475 0.21532
0.582803 0.861524 0.391699
0.952575 0.899351 0.40827
0.982223 0.922148 0.503807
0.0204166 0.921599 0.258412
0.0544137 0.931716 0.298177
0.57174 0.947188 0.364874
0.94876 0.957519 0.381506
0.984863 0.966018 0.446723
0.0279698 0.0288396 0.0352026
0.035523 0.0316014 0.0444495
0.0632029 0.0280613 0.0587472
0.182635 0.0189822 0.0865797
0.598138 0.0149081 0.234379
0.0265202 0.0535439 0.0766613
0.0473945 0.0576944 0.147372
0.202731 0.0356603 0.207568
0.625834 0.0332952 0.262409
0.9411 0.0342718 0.556985
0.000610361 0.268605 0.15349
0.0241093 0.274952 0.223209
0.338689 0.326848 0.447257
0.813687 0.207401 0.457069
0.956649 0.20444 0.65211
0.00320439 0.680842 0.224979
0.0295567 0.67454 0.290272
0.349813 0.818433 0.532357
0.940398 0.910582 0.808057
0.976471 0.925231 0.857053
0.0108034 0.918639 0.309178
0.0382086 0.912505 0.373785
0.277348 0.925811 0.476829
0.94342 0.963119 0.794461
0.979828 0.972778 0.82948
0.0289464 0.0302281 0.0400092
0.0370336 0.0323186 0.0541543
0.0726787 0.0265965 0.0873579
0.196872 0.0191653 0.128115
0.537301 0.016907 0.220157
0.0234989 0.0612345 0.118425
0.0451667 0.0651408 0.242878
0.221057 0.035462 0.361746
0.590707 0.0335851 0.40679
0.912551 0.0343481 0.481605
0 0.298222 0.234287
0.0205386 0.30222 0.347356
0.186435 0.217777 0.478706
0.625376 0.114916 0.491905
0.894667 0.0698863 0.505791
0 0.711391 0.309133
0.0243839 0.702098 0.401663
0.124056 0.682094 0.515206
0.859983 0.823941 0.832013
0.957351 0.803906 0.859174
0.00537118 0.922728 0.390997
0.0306096 0.916838 0.47245
0.11075 0.883787 0.528939
0.892607 0.959808 0.867597
0.976806 0.974975 0.960891
