luts/lumix_color_lab_C/S_Golden_Hour_1.cube
TITLE "Generated by Resolve"
LUT_3D_SIZE 5
0.024979 0.024979 0.024979
0.0454871 0.0324254 0.0339208
0.216617 0.02327 0.0268864
0.771511 0.0220493 0.0300755
0.955779 0.0199893 0.0341955
0.037644 0.0902571 0.0419776
0.200565 0.110292 0.0195468
0.704265 0.0550698 0.0184634
0.941314 0.0563973 0.0222324
0.971283 0.0608072 0.0265965
0.0280308 0.343175 0.0724193
0.182437 0.449607 0.0651713
0.727108 0.423896 0.014786
0.952285 0.386481 0.0195621
0.980758 0.449088 0.0275578
0.0344244 0.764904 0.138018
0.231647 0.820447 0.123293
0.69868 0.85095 0.0489967
0.956924 0.833371 0.0187533
0.984497 0.874342 0.0302281
0.0433051 0.93846 0.190555
0.328725 0.948867 0.145495
0.746807 0.961013 0.0676738
0.963256 0.9514 0.0290532
0.989059 0.956344 0.0358282
0.0278019 0.0280766 0.0297704
0.0412909 0.0330358 0.0391546
0.158801 0.0217594 0.052018
0.74432 0.0196689 0.0657206
0.955245 0.0171817 0.103929
0.030457 0.0835126 0.0513008
0.161151 0.129793 0.100328
0.608621 0.0583963 0.0645457
0.935042 0.0578317 0.0673838
0.969863 0.0610819 0.081117
0.018143 0.257679 0.0748455
0.174685 0.424277 0.139239
0.652293 0.464897 0.0875105
0.947036 0.409628 0.0755016
0.97583 0.469886 0.117266
0.0214847 0.639872 0.134951
0.138521 0.747585 0.170718
0.602197 0.833707 0.153414
0.951888 0.853834 0.110475
0.981903 0.889616 0.162692
0.0286107 0.922698 0.202167
0.184649 0.940307 0.216159
0.673823 0.953109 0.205219
0.953689 0.953674 0.106172
0.984909 0.959457 0.144045
0.0296178 0.0302739 0.0347601
0.0409857 0.0331121 0.0440681
0.0970169 0.0234836 0.0566262
0.441566 0.019089 0.142519
0.936919 0.0138552 0.291264
0.0276188 0.0712749 0.0593423
0.102388 0.103334 0.158572
0.373602 0.054551 0.168521
0.899351 0.0474556 0.252674
0.966293 0.0557259 0.404974
0.0108949 0.259571 0.0979477
0.090486 0.400504 0.216419
0.589532 0.501274 0.377859
0.941131 0.429084 0.383307
0.973953 0.483864 0.479393
0.0129244 0.592035 0.152728
0.0544289 0.634028 0.214786
0.597345 0.831281 0.402548
0.943282 0.867094 0.400763
0.978882 0.898054 0.507271
0.019089 0.901534 0.229786
0.0590219 0.912612 0.272618
0.528847 0.943969 0.341558
0.931243 0.957366 0.406577
0.981338 0.96466 0.446555
0.0307622 0.0319371 0.0407111
0.0442054 0.0334936 0.058793
0.10071 0.0231785 0.0882734
0.307683 0.0212253 0.1299
0.877165 0.0147097 0.380636
0.0230411 0.0810864 0.0957809
0.0627298 0.0739605 0.172168
0.234714 0.0449378 0.23415
0.568917 0.0379034 0.239063
0.941741 0.0385443 0.509026
0.0049897 0.277256 0.15375
0.0344549 0.284245 0.229816
0.392828 0.369329 0.464149
0.811307 0.262867 0.471748
0.961074 0.244511 0.649927
0.00581369 0.606348 0.199527
0.0344549 0.575296 0.254566
0.415854 0.816495 0.547463
0.928786 0.883192 0.767239
0.975082 0.901335 0.829648
0.0109102 0.898329 0.265095
0.0419928 0.886793 0.331228
0.298787 0.926635 0.457725
0.928344 0.962158 0.746792
0.977813 0.970871 0.794522
0.0314336 0.0333104 0.0484474
0.0472419 0.0340581 0.0921645
0.115297 0.0233463 0.149493
0.302312 0.0214542 0.209094
0.732174 0.0178378 0.315236
0.0186923 0.090425 0.157092
0.0557565 0.0812238 0.299763
0.218936 0.042359 0.383993
0.51429 0.0373999 0.401434
0.898634 0.0364538 0.440665
0 0.299138 0.24004
0.0259251 0.275853 0.347051
0.183322 0.210285 0.467384
0.575204 0.126329 0.492714
0.882734 0.0661021 0.471427
9.15541e-05 0.629053 0.284611
0.0274968 0.591379 0.367926
0.13167 0.637751 0.515145
0.794125 0.751873 0.797147
0.953597 0.708583 0.822644
0.00442512 0.902907 0.341375
0.0326238 0.893462 0.427115
0.102129 0.874479 0.513817
0.83267 0.957275 0.844205
0.974929 0.973342 0.95639
