luts/lumix_color_lab_C/S_Golden_Hour_2.cube
TITLE "Generated by Resolve"
LUT_3D_SIZE 33
0.0218204 0.0218204 0.0218204
0.022858 0.0226596 0.0226902
0.0239719 0.0234989 0.0235904
0.0251316 0.0243992 0.0245212
0.0263676 0.0253452 0.0254978
0.0277867 0.0263828 0.0265965
0.0295567 0.0275731 0.0278782
0.031281 0.0285649 0.0289616
0.0330663 0.0293889 0.0299077
0.0349737 0.0300908 0.0307622
0.0370642 0.0306859 0.0315251
0.0408637 0.0307164 0.0319524
0.0453803 0.0305028 0.0322118
0.0522011 0.029633 0.0320592
0.0633097 0.0274815 0.0310521
0.0760052 0.0249943 0.0297398
0.0913405 0.0220951 0.0279088
0.110246 0.020264 0.026154
0.132906 0.0198215 0.024567
0.162753 0.0196689 0.0240482
0.197131 0.019501 0.0239414
0.236469 0.0193179 0.0242771
0.28307 0.0191043 0.0245823
0.33753 0.0188602 0.0249027
0.400854 0.0186313 0.0252689
0.468421 0.0183871 0.0256199
0.539452 0.018143 0.0259861
0.611673 0.0179141 0.0263981
0.682506 0.0177615 0.0268559
0.75346 0.0175937 0.0273442
0.827207 0.0173342 0.0278325
0.886137 0.0170596 0.028336
0.911452 0.0167239 0.0288243
0.0248264 0.0249638 0.0247807
0.0260014 0.0259709 0.0256809
0.027512 0.0271 0.0268406
0.0290532 0.0283055 0.0280156
0.0304723 0.0293126 0.0289921
0.0319219 0.0301823 0.0298619
0.0334478 0.0309758 0.0306249
0.0351415 0.0316625 0.0313115
0.0370642 0.0322576 0.0319066
0.0405432 0.0323491 0.0321965
0.0448005 0.0322118 0.0323186
0.0505989 0.0316625 0.0321813
0.061387 0.029633 0.0310521
0.0730602 0.0273594 0.0297704
0.0876936 0.0246586 0.0278935
0.104829 0.0222629 0.0259098
0.127367 0.0218967 0.0241855
0.156024 0.0217288 0.0231785
0.189075 0.0216068 0.0227512
0.228916 0.0214542 0.0228885
0.276341 0.0212558 0.0229953
0.332006 0.0210422 0.0231174
0.395407 0.0208286 0.0232242
0.465904 0.0206149 0.0233768
0.535958 0.0204471 0.0235752
0.605783 0.0203403 0.0238041
0.680568 0.0201877 0.0240177
0.756756 0.0199893 0.0242161
0.832273 0.0197299 0.0243839
0.889998 0.0194553 0.024567
0.912947 0.0191958 0.0247654
0.927169 0.0189517 0.0249943
0.936599 0.0187381 0.0252689
0.0285039 0.0289769 0.0283513
0.0296941 0.0299687 0.0292515
0.0310216 0.0308843 0.0298161
0.0323644 0.0317235 0.0305791
0.0337377 0.0324712 0.0312657
0.0352026 0.0331579 0.0319066
0.03682 0.0337987 0.0324407
0.0395666 0.0341039 0.0327306
0.0433356 0.0341192 0.0328069
0.0475929 0.0339818 0.0327611
0.0565194 0.0325475 0.0318608
0.0675212 0.0304723 0.030518
0.0808576 0.0280156 0.0287327
0.0962844 0.0252079 0.026566
0.116533 0.0243229 0.0246586
0.140566 0.0240635 0.022858
0.172595 0.0240635 0.0221714
0.21088 0.0239872 0.021912
0.256352 0.0238804 0.0218509
0.309407 0.0237278 0.0217594
0.370504 0.0235447 0.0216983
0.437888 0.0233921 0.0216678
0.509178 0.0232853 0.0217136
0.585626 0.0231174 0.0216831
0.665568 0.0229191 0.0216526
0.745846 0.0226902 0.0215763
0.823606 0.022446 0.0215305
0.884871 0.0222324 0.0214694
0.911254 0.0220188 0.0214389
0.925231 0.0218509 0.0215
0.935164 0.0217441 0.0215915
0.942092 0.0217136 0.0218051
0.948089 0.0217288 0.0220951
0.0312505 0.0322271 0.03093
0.0323949 0.0330968 0.031693
0.0336461 0.0339666 0.0317235
0.03505 0.034699 0.0321965
0.0365301 0.0353857 0.0326848
0.0387732 0.0358129 0.033051
0.0422065 0.0359045 0.0332036
0.0460059 0.035874 0.0332799
0.0520027 0.0352636 0.0329137
0.0622263 0.0334783 0.0317082
0.0738384 0.0313573 0.0301823
0.0888991 0.0286717 0.0280003
0.106462 0.0265354 0.0257725
0.129335 0.0263828 0.0238041
0.158618 0.0264134 0.0226444
0.193637 0.0264591 0.0220188
0.235813 0.0264439 0.0218662
0.285725 0.0263828 0.0216983
0.341909 0.0263371 0.0215305
0.406607 0.0262455 0.0213779
0.48101 0.0260624 0.0211185
0.562387 0.025864 0.0208743
0.646952 0.0256352 0.0205844
0.731334 0.025391 0.0203098
0.811887 0.0251774 0.0200656
0.877668 0.024979 0.0198978
0.909178 0.0248417 0.0197604
0.922911 0.0247501 0.0196994
0.933623 0.0247349 0.0197299
0.940673 0.0247807 0.0198215
0.946456 0.0249027 0.0200504
0.951949 0.0251316 0.0203555
0.957153 0.0254673 0.0207675
0.0332952 0.0350958 0.0327153
0.0345464 0.0359503 0.0333867
0.0358282 0.0368353 0.033402
0.0373083 0.037644 0.0332036
0.0402228 0.0379339 0.0333104
0.0436103 0.0380865 0.033341
0.0476692 0.0380713 0.0333257
0.0561685 0.0367895 0.0324865
0.0671092 0.0348058 0.0312047
0.0802625 0.0324559 0.0294957
0.0958724 0.0297093 0.0272831
0.116823 0.028809 0.0251926
0.141863 0.0288548 0.0232547
0.174441 0.0290379 0.0225223
0.212375 0.02916 0.0222171
0.255695 0.0292515 0.0220951
0.308217 0.0292515 0.0218662
0.371038 0.0291905 0.0215305
0.444709 0.0290379 0.021149
0.525292 0.0288396 0.0207065
0.611429 0.0286259 0.0202487
0.700725 0.0284123 0.0198215
0.78471 0.0282139 0.0194095
0.858808 0.0280461 0.019089
0.904341 0.0279545 0.0188144
0.918196 0.027924 0.018677
0.930495 0.027985 0.0186007
0.93843 0.0281224 0.0186618
0.944015 0.0283513 0.0188296
0.949279 0.0286717 0.019089
0.954284 0.029099 0.0195163
0.958877 0.0296483 0.0200351
0.963088 0.0303197 0.0207218
0.0349126 0.0378271 0.0339513
0.0363012 0.0387274 0.0345769
0.0379797 0.0395514 0.0348363
0.0406043 0.0402228 0.0337224
0.0441444 0.0405432 0.0333257
0.0481727 0.04065 0.0331579
0.0571603 0.0393225 0.0320897
0.0684825 0.0373236 0.0306401
0.0832685 0.0347143 0.0286107
0.10042 0.031754 0.026215
0.124086 0.032105 0.0243687
0.151736 0.0323796 0.0230259
0.184466 0.0324407 0.0224765
0.225376 0.0323186 0.0223239
0.27393 0.0323339 0.0220188
0.33167 0.0323491 0.0216373
0.399374 0.0323033 0.0211795
0.475959 0.0321965 0.0206607
0.559731 0.0320439 0.0201572
0.64683 0.0318608 0.0196384
0.733867 0.031693 0.0191348
0.817151 0.0315557 0.0187228
0.883223 0.0314946 0.0184329
0.910185 0.0315099 0.0181735
0.923598 0.0316014 0.0180667
0.933745 0.0317998 0.0180667
0.940475 0.032105 0.018204
0.945632 0.0325017 0.0184482
0.950378 0.0330205 0.0188449
0.954757 0.0336614 0.0193942
0.958694 0.0344244 0.0200656
0.962386 0.0352636 0.0208896
0.965881 0.0361639 0.0217288
0.0361639 0.0405585 0.0347295
0.0379339 0.0415503 0.0353094
0.0410925 0.0421149 0.0355383
0.0437171 0.0428779 0.0344701
0.0468147 0.0461891 0.0334173
0.0546578 0.0475013 0.0325933
0.0659495 0.0475166 0.0313115
0.0798352 0.0466011 0.029572
0.0963302 0.0447089 0.0273747
0.120363 0.0426795 0.0247044
0.150668 0.0401465 0.0224613
0.187396 0.0375067 0.0214847
0.231479 0.0357366 0.0213474
0.284245 0.0357671 0.0211643
0.345876 0.0358282 0.0208133
0.41619 0.0358434 0.0204013
0.493462 0.0358129 0.019913
0.575433 0.0357519 0.0194247
0.661067 0.0356909 0.0189059
0.746593 0.0356146 0.0184329
0.826612 0.035584 0.0180514
0.890745 0.0355993 0.0177615
0.910613 0.0357061 0.0176394
0.924132 0.035935 0.0176089
0.934051 0.0362554 0.017731
0.940566 0.0366827 0.0180362
0.945235 0.0372473 0.0184634
0.949538 0.0379187 0.0190585
0.953552 0.0386816 0.0197299
0.957427 0.0394751 0.0204471
0.961089 0.0403449 0.02121
0.964614 0.0412451 0.0220188
0.968002 0.0421912 0.0228428
0.0370794 0.0434272 0.03505
0.0395056 0.0466468 0.0358282
0.0426795 0.0504616 0.0365911
0.0452888 0.05449 0.0365454
0.0494087 0.058732 0.0347753
0.0592508 0.0605478 0.0326848
0.0719158 0.0611582 0.0312352
0.0888533 0.0603494 0.0289464
0.110811 0.0581369 0.025864
0.138872 0.0542153 0.0222477
0.176837 0.0488594 0.0200809
0.224018 0.0440986 0.0193179
0.279606 0.0409094 0.019089
0.344839 0.040116 0.0189364
0.417609 0.0400244 0.0187381
0.495338 0.0400244 0.0185397
0.576822 0.0400397 0.0183261
0.660624 0.0400397 0.0180667
0.743282 0.0400702 0.017792
0.820569 0.0401465 0.0175326
0.885435 0.0402838 0.01738
0.907378 0.0405127 0.01738
0.921035 0.0408331 0.0175174
0.931548 0.0413062 0.0178531
0.93904 0.0418402 0.0183261
0.943557 0.0424659 0.0188602
0.94786 0.0431678 0.01944
0.951965 0.0439002 0.0200809
0.955871 0.0447089 0.0207523
0.95964 0.0455482 0.0214542
0.963195 0.0464485 0.0222171
0.966613 0.0473945 0.0230411
0.969894 0.0483711 0.0238956
0.0365301 0.0536202 0.0360876
0.0395209 0.0584115 0.0369879
0.0431525 0.0629129 0.0378119
0.0463874 0.0675212 0.0382544
0.0529641 0.0727855 0.0367895
0.0618143 0.0776532 0.0338903
0.0761425 0.0796063 0.0310979
0.0946975 0.079057 0.028336
0.122576 0.0753033 0.0239414
0.157977 0.0700389 0.020325
0.200992 0.0628061 0.017731
0.255192 0.0538796 0.0165713
0.320821 0.0479591 0.0163729
0.395285 0.0462043 0.0163119
0.474525 0.0452583 0.0163272
0.556832 0.0450141 0.0163882
0.640192 0.0450599 0.0165408
0.722286 0.0451209 0.0167239
0.79884 0.045243 0.0168917
0.865202 0.0454414 0.0171359
0.900053 0.0457465 0.0174411
0.914153 0.0461433 0.0178531
0.926955 0.0466163 0.0182803
0.936568 0.0471809 0.0186923
0.94168 0.047776 0.0192111
0.946075 0.0484627 0.0197147
0.950271 0.0491798 0.020325
0.954253 0.0499886 0.0209354
0.958068 0.0508278 0.0216068
0.961685 0.0517128 0.0223392
0.965179 0.0526436 0.0231022
0.96846 0.0536355 0.0239109
0.971679 0.0546731 0.0247807
0.0356298 0.0657054 0.0369573
0.0387579 0.0721752 0.0381323
0.0427253 0.0786755 0.0393378
0.048127 0.0841077 0.039765
0.0554971 0.0894636 0.0386358
0.0631571 0.0972 0.0359197
0.0768749 0.102495 0.0319677
0.0981765 0.103761 0.0281529
0.128161 0.100923 0.0235752
0.168582 0.0940566 0.0186007
0.218601 0.0838331 0.0148775
0.275975 0.071519 0.0138094
0.346059 0.0629435 0.0137484
0.426139 0.0551919 0.0138857
0.509483 0.0513771 0.0141756
0.594141 0.0510719 0.0146029
0.676509 0.0508736 0.0150759
0.755001 0.0509194 0.0157321
0.827436 0.0511025 0.0163882
0.88806 0.0513466 0.0169985
0.904143 0.051667 0.0175631
0.919676 0.0520485 0.0181582
0.931594 0.0525673 0.0187076
0.939605 0.0531319 0.0192569
0.944152 0.0537575 0.0198215
0.94847 0.0544594 0.0203708
0.95259 0.0552224 0.0209964
0.956451 0.0560616 0.021622
0.960189 0.0569314 0.0223545
0.963714 0.0578927 0.0230716
0.967071 0.0588846 0.0238956
0.970291 0.0599069 0.0246891
0.973465 0.0609751 0.0256046
0.033875 0.0814374 0.0382696
0.0372015 0.0888991 0.0394751
0.0412757 0.0970932 0.0406806
0.0476844 0.104509 0.0411841
0.055848 0.11136 0.04065
0.0639506 0.119341 0.0385595
0.0761883 0.128969 0.0345769
0.0973068 0.134249 0.0298161
0.129625 0.133516 0.0246281
0.173342 0.127504 0.018616
0.22768 0.117403 0.0135653
0.291478 0.103487 0.0115358
0.36286 0.0883497 0.0118868
0.440848 0.0743725 0.0123903
0.524193 0.0653239 0.0130159
0.609186 0.0604868 0.0137026
0.692088 0.0576944 0.0143435
0.77116 0.0572061 0.0150454
0.842847 0.0573434 0.0157473
0.889479 0.0575418 0.0164797
0.907805 0.0578164 0.0172427
0.924376 0.0582132 0.0179599
0.936782 0.0587015 0.0186618
0.942031 0.0592355 0.019379
0.946563 0.0598764 0.0200656
0.950881 0.0605936 0.0207675
0.95494 0.061387 0.0215
0.95877 0.0622568 0.0222324
0.962386 0.0631571 0.0230259
0.965805 0.0641337 0.0238041
0.969116 0.0651408 0.0246433
0.972213 0.0661936 0.0254978
0.975311 0.0672313 0.0263523
0.0312657 0.100313 0.0396429
0.0345464 0.109941 0.04094
0.0387884 0.120272 0.0423133
0.0455787 0.128679 0.0428473
0.0545205 0.137423 0.0429084
0.0639658 0.147066 0.0417334
0.0757763 0.157565 0.0385138
0.0943618 0.169284 0.0337987
0.126879 0.173404 0.0280766
0.173007 0.169848 0.0215763
0.229236 0.161486 0.0147402
0.295933 0.148043 0.0102998
0.371466 0.132342 0.0110628
0.449119 0.11635 0.0117189
0.529625 0.0984207 0.0123445
0.614801 0.0810101 0.0130007
0.700084 0.0712291 0.0136873
0.781064 0.0678721 0.0143435
0.853193 0.0658579 0.0150454
0.889586 0.0646525 0.0157778
0.910811 0.064332 0.016556
0.928115 0.0645304 0.0173953
0.93933 0.0649882 0.0182803
0.944167 0.0655528 0.0191196
0.94876 0.0661784 0.0199283
0.953094 0.066865 0.0207828
0.957122 0.0676585 0.0216373
0.960952 0.068513 0.0225223
0.964538 0.0714733 0.0233768
0.96788 0.0755474 0.0242618
0.971084 0.0797742 0.0251926
0.974197 0.0842603 0.0261234
0.977234 0.0888685 0.0270542
0.0278477 0.125154 0.0413825
0.031281 0.136278 0.0428473
0.035996 0.148989 0.0445716
0.0428321 0.159197 0.0454261
0.0519722 0.16875 0.0458686
0.0627146 0.179492 0.0455024
0.0751202 0.192691 0.0437781
0.0932326 0.206653 0.0396429
0.122683 0.218067 0.0342412
0.168414 0.21915 0.0275731
0.227054 0.213352 0.0201419
0.295125 0.202365 0.0137331
0.372793 0.187274 0.0109102
0.455589 0.170352 0.0111238
0.537209 0.153384 0.0118105
0.619394 0.135348 0.0124208
0.70312 0.117769 0.0130312
0.784512 0.102052 0.0136873
0.858152 0.0879683 0.0143587
0.888716 0.081651 0.0150912
0.913619 0.0798962 0.0158999
0.932219 0.0803388 0.0167849
0.9411 0.0814221 0.0176852
0.946029 0.0828412 0.018616
0.950683 0.0848249 0.0195315
0.955032 0.0872053 0.0204623
0.959106 0.0903029 0.0214084
0.962921 0.0938125 0.022385
0.966445 0.100587 0.0233768
0.969818 0.108248 0.0243687
0.972992 0.11667 0.0253605
0.976074 0.125139 0.0263981
0.979126 0.133852 0.0273899
0.0249332 0.158175 0.0440681
0.0281529 0.169726 0.0457771
0.0336156 0.183703 0.0478523
0.0405127 0.196475 0.0492561
0.0486 0.206882 0.0500038
0.0610208 0.218051 0.0502937
0.0745403 0.232685 0.0498817
0.0940719 0.248234 0.047013
0.121141 0.263066 0.0420539
0.164141 0.271397 0.0354772
0.222614 0.269856 0.0274662
0.292226 0.261769 0.0191806
0.371603 0.248341 0.0131533
0.456153 0.232319 0.0108492
0.542611 0.214374 0.0111543
0.626368 0.197421 0.0118563
0.70695 0.179644 0.0124971
0.786358 0.160601 0.0131533
0.856825 0.142733 0.0138552
0.887541 0.13193 0.0145571
0.91603 0.125994 0.0153506
0.936233 0.123064 0.0161898
0.942489 0.121767 0.0170596
0.947555 0.123232 0.0179751
0.95227 0.126238 0.0189517
0.956649 0.130541 0.019913
0.960739 0.136446 0.0209049
0.964599 0.143328 0.0219577
0.968124 0.155871 0.0230106
0.971466 0.168704 0.0241398
0.97467 0.182147 0.0252079
0.977783 0.195743 0.0263218
0.980835 0.209934 0.0273747
0.0234684 0.199908 0.0482338
0.0271153 0.213123 0.0505226
0.0323186 0.226932 0.052842
0.03888 0.240299 0.0545205
0.0459144 0.252644 0.0558938
0.0601816 0.263416 0.0565957
0.0764935 0.276051 0.0564431
0.0966201 0.292378 0.0547189
0.123095 0.309911 0.0505226
0.161364 0.32401 0.0441444
0.217273 0.329381 0.0361486
0.287984 0.325002 0.0265354
0.368322 0.313954 0.0175479
0.454597 0.29958 0.0113985
0.543023 0.283558 0.010544
0.629999 0.26627 0.0112612
0.712795 0.250431 0.0120089
0.788602 0.23444 0.012665
0.851102 0.219013 0.0133211
0.88542 0.205997 0.0140383
0.915938 0.196704 0.0147555
0.936507 0.191135 0.01561
0.943694 0.189624 0.016495
0.948882 0.192538 0.0174258
0.953658 0.198337 0.0183719
0.958083 0.206348 0.0193637
0.962219 0.215885 0.0204013
0.966018 0.227405 0.0214542
0.969558 0.24033 0.0225223
0.972915 0.254139 0.023682
0.97612 0.268208 0.0248112
0.979309 0.282292 0.0260014
0.982437 0.297658 0.0271763
0.0231174 0.249134 0.0540932
0.0267948 0.265003 0.0572061
0.0315557 0.278477 0.0598001
0.0380407 0.291676 0.0616007
0.0461891 0.302983 0.0630503
0.0593423 0.314092 0.0640726
0.0783551 0.325231 0.063798
0.0999771 0.340383 0.0624704
0.125902 0.359304 0.0592355
0.161089 0.378103 0.0535744
0.21239 0.389746 0.0456703
0.2813 0.391058 0.035874
0.364019 0.384192 0.0251774
0.449866 0.372137 0.0158846
0.5393 0.357671 0.00991836
0.62742 0.341817 0.0106966
0.712978 0.325612 0.0113375
0.790814 0.311452 0.0121157
0.847318 0.29955 0.0127871
0.883833 0.289418 0.013489
0.914351 0.282139 0.0142061
0.934737 0.27718 0.0150607
0.944518 0.276387 0.0159152
0.949981 0.279484 0.016846
0.954772 0.286198 0.017792
0.959304 0.294911 0.0188144
0.963455 0.305409 0.019852
0.967269 0.317525 0.0209354
0.970871 0.33048 0.0220798
0.974227 0.344305 0.023209
0.977462 0.358633 0.0243687
0.980682 0.372976 0.0255436
0.983856 0.387152 0.0266728
0.0231785 0.304753 0.0616464
0.0271153 0.3205 0.0651102
0.0322576 0.332952 0.0678569
0.0380713 0.344686 0.0694896
0.0467536 0.357702 0.0711376
0.0569772 0.369543 0.0721904
0.0791791 0.380392 0.0718853
0.103243 0.393378 0.0705119
0.129732 0.412757 0.0682231
0.162661 0.433921 0.0633707
0.209018 0.451377 0.0560311
0.274556 0.459037 0.0464485
0.356161 0.455787 0.0349126
0.44416 0.44654 0.0238651
0.533364 0.434806 0.014847
0.623423 0.420554 0.0111543
0.7093 0.40528 0.0108339
0.789349 0.390967 0.0114595
0.845563 0.380484 0.0122377
0.883558 0.374121 0.0130007
0.912993 0.369024 0.0137789
0.933471 0.366323 0.0145266
0.945251 0.366751 0.0153811
0.950881 0.370687 0.0162966
0.955795 0.377234 0.0172732
0.960327 0.386206 0.0183108
0.964523 0.397009 0.0193484
0.968353 0.409491 0.0204318
0.971969 0.422095 0.0215763
0.975357 0.435691 0.0227207
0.978653 0.449622 0.0238804
0.981857 0.463508 0.0250095
0.985077 0.477272 0.0261082
0.0238651 0.363378 0.0705577
0.027985 0.377661 0.0739452
0.0335393 0.39028 0.076463
0.0386816 0.402228 0.0781872
0.045594 0.414801 0.0795453
0.0577554 0.428061 0.0805829
0.079118 0.439078 0.0804761
0.105669 0.452094 0.0792859
0.134264 0.468391 0.0768902
0.166445 0.491096 0.0731365
0.209094 0.512352 0.0665904
0.26949 0.525734 0.0573281
0.349371 0.527138 0.0456092
0.438376 0.521385 0.0333257
0.52842 0.51104 0.0220188
0.61883 0.498665 0.0141909
0.705318 0.48539 0.0112154
0.785641 0.471626 0.0108492
0.84329 0.461875 0.0116121
0.88368 0.456641 0.0124514
0.913069 0.454749 0.0133211
0.934203 0.454444 0.0140993
0.946014 0.457053 0.0149081
0.951705 0.462287 0.0158083
0.956634 0.469215 0.0167697
0.961166 0.478645 0.0177462
0.965362 0.488975 0.0187991
0.969238 0.500343 0.0199283
0.972824 0.51281 0.0210117
0.976242 0.525322 0.0221103
0.979553 0.538094 0.0232395
0.982742 0.551263 0.0243687
0.986023 0.563622 0.0254215
0.0248417 0.423468 0.0801556
0.0290532 0.43772 0.0833906
0.0345312 0.450263 0.0855726
0.0394141 0.463432 0.0873579
0.0442054 0.476356 0.0887465
0.0587625 0.488746 0.0894179
0.0800946 0.500786 0.0893873
0.106859 0.513191 0.0882887
0.138796 0.528817 0.0859693
0.17293 0.548882 0.0823529
0.213764 0.572427 0.0766918
0.2692 0.590402 0.0680858
0.343984 0.596994 0.056672
0.431388 0.594507 0.0438392
0.523156 0.586938 0.0311589
0.612696 0.576211 0.0201114
0.700252 0.564034 0.0125887
0.780118 0.552605 0.0105898
0.840558 0.543023 0.0109865
0.882826 0.537636 0.0118563
0.913405 0.536355 0.0127871
0.936263 0.538827 0.0136721
0.946441 0.543694 0.0144656
0.952438 0.549798 0.0153353
0.957443 0.557717 0.0162814
0.961898 0.566384 0.0172427
0.966049 0.575479 0.0182498
0.969924 0.585458 0.0193179
0.97348 0.595712 0.0204166
0.976883 0.606531 0.0214847
0.980194 0.617319 0.0225681
0.983398 0.628153 0.023621
0.986709 0.63801 0.0246433
0.0258183 0.486076 0.0901045
0.0301366 0.500023 0.0932479
0.0354162 0.512917 0.0951553
0.0398718 0.525872 0.0967575
0.0445411 0.540505 0.0984512
0.0600137 0.553414 0.0989548
0.0809644 0.56495 0.0986191
0.10959 0.576776 0.0974136
0.143359 0.590494 0.0950179
0.180957 0.608865 0.0914778
0.222171 0.630762 0.0860914
0.274006 0.651362 0.0781262
0.343099 0.663783 0.0672923
0.426444 0.664576 0.0545357
0.51696 0.658946 0.0412299
0.609049 0.650004 0.0287938
0.696025 0.639002 0.0184787
0.776425 0.627909 0.0111696
0.837263 0.61912 0.0108644
0.879957 0.613901 0.0113222
0.912352 0.611872 0.0122377
0.937026 0.613245 0.0131838
0.946349 0.618967 0.0141146
0.953124 0.62591 0.0149538
0.958434 0.633661 0.0158389
0.962707 0.641657 0.0167391
0.96672 0.650385 0.017731
0.970504 0.659129 0.0187839
0.974014 0.66836 0.0198062
0.977371 0.677836 0.0208438
0.980697 0.686809 0.0218814
0.983948 0.69601 0.0228733
0.987198 0.704707 0.0238193
0.0268711 0.5505 0.100465
0.0313115 0.565118 0.103655
0.0366064 0.577081 0.105074
0.0410773 0.591318 0.106783
0.0483711 0.605158 0.108003
0.0590219 0.61857 0.108598
0.0827192 0.630671 0.10808
0.11371 0.640909 0.106416
0.14966 0.653681 0.103944
0.188235 0.670008 0.10045
0.232136 0.689998 0.0952163
0.282445 0.710048 0.0873732
0.345998 0.72462 0.0770886
0.42533 0.727993 0.0644999
0.514336 0.723888 0.0509957
0.605554 0.715023 0.0377661
0.694377 0.704311 0.0258793
0.774029 0.693935 0.0160525
0.832731 0.686091 0.0122072
0.877272 0.680766 0.0114443
0.91078 0.678569 0.0119631
0.9346 0.679805 0.0127413
0.946685 0.684321 0.0136721
0.954192 0.691615 0.0146029
0.959533 0.699763 0.0154879
0.963699 0.707988 0.0163729
0.967529 0.716136 0.0172885
0.97116 0.724269 0.018265
0.974578 0.732647 0.0192569
0.977874 0.741009 0.0202335
0.981125 0.748898 0.0212253
0.984405 0.757 0.0222019
0.98764 0.76463 0.0231174
0.0280156 0.615732 0.11104
0.0325933 0.630228 0.113802
0.0380407 0.642847 0.115328
0.0426184 0.656962 0.116884
0.0497597 0.67071 0.117769
0.0610666 0.683665 0.118029
0.0842298 0.695781 0.117388
0.118273 0.706111 0.115511
0.156268 0.716503 0.112688
0.198154 0.73019 0.108797
0.243656 0.74641 0.103273
0.29427 0.761975 0.0956588
0.3552 0.773632 0.0856184
0.429206 0.781888 0.0734112
0.5149 0.779156 0.0598154
0.605737 0.77174 0.0461891
0.694331 0.762127 0.0334173
0.772412 0.752438 0.0227054
0.829831 0.745312 0.0154879
0.875654 0.740566 0.0129854
0.91017 0.738445 0.0121767
0.932769 0.739284 0.0124361
0.946853 0.743664 0.0133059
0.955688 0.749676 0.0142367
0.96051 0.757855 0.0151064
0.964721 0.766278 0.0160678
0.96846 0.773495 0.0170596
0.971923 0.780087 0.0180972
0.975235 0.786603 0.0191653
0.978454 0.792966 0.0202487
0.981643 0.799481 0.0213321
0.984863 0.805035 0.0223545
0.988052 0.810559 0.0233616
0.0293584 0.682139 0.12192
0.0340276 0.695842 0.124147
0.0395972 0.708934 0.125582
0.0444038 0.722881 0.127001
0.0490425 0.735683 0.127382
0.0653086 0.748119 0.127214
0.089662 0.758968 0.126192
0.122133 0.768765 0.124254
0.164508 0.777432 0.120912
0.209628 0.783475 0.116197
0.258122 0.791501 0.110338
0.309773 0.804273 0.102892
0.36878 0.815381 0.0928817
0.438773 0.824613 0.0810101
0.520424 0.825605 0.0676585
0.609094 0.820584 0.0535592
0.696773 0.814191 0.0403754
0.772808 0.804517 0.0292668
0.830152 0.797864 0.0213321
0.876326 0.792981 0.0156863
0.910002 0.790295 0.0133974
0.932418 0.790341 0.0133974
0.947158 0.79324 0.0140078
0.956359 0.797726 0.014725
0.961395 0.803677 0.0156863
0.965667 0.810315 0.0166476
0.969436 0.817075 0.017731
0.972854 0.823606 0.0189364
0.976059 0.828992 0.020264
0.979202 0.834134 0.021561
0.982238 0.839094 0.0228275
0.985382 0.843687 0.0240482
0.98851 0.847929 0.0252079
0.0308232 0.747814 0.132692
0.0356451 0.761898 0.134646
0.0412299 0.77351 0.135576
0.0459144 0.78616 0.13637
0.0517433 0.79855 0.136721
0.0701152 0.809827 0.136019
0.0958267 0.814527 0.134493
0.129992 0.81648 0.131899
0.173617 0.818586 0.128145
0.222797 0.823545 0.123003
0.27396 0.829786 0.116594
0.328634 0.839414 0.108721
0.386954 0.851621 0.0990311
0.453422 0.857893 0.0871901
0.531243 0.861234 0.0739452
0.615839 0.862119 0.0598611
0.700893 0.85417 0.0462043
0.775753 0.844709 0.0345159
0.832578 0.838102 0.0260929
0.878477 0.833432 0.0204623
0.910887 0.831235 0.017258
0.932891 0.830518 0.0158999
0.94728 0.832746 0.0158083
0.956542 0.836042 0.0163272
0.962249 0.840696 0.0173342
0.966491 0.846021 0.0186007
0.97026 0.851606 0.0199893
0.973678 0.857298 0.0213931
0.976928 0.86273 0.0227665
0.979965 0.867277 0.0241398
0.982971 0.871473 0.0256046
0.986068 0.874891 0.0268559
0.98912 0.878126 0.0280919
0.0324407 0.811658 0.142977
0.0373541 0.824582 0.144579
0.0430152 0.836133 0.145296
0.0477302 0.83888 0.145434
0.0581064 0.841489 0.1449
0.0740826 0.845243 0.143938
0.101167 0.848844 0.141863
0.139452 0.851133 0.13875
0.187106 0.852903 0.134325
0.237964 0.856336 0.128725
0.292714 0.86363 0.121889
0.349508 0.869535 0.113466
0.408453 0.877424 0.103746
0.472938 0.884459 0.0920577
0.546288 0.887297 0.0784466
0.626413 0.887037 0.0643931
0.708843 0.882658 0.0505989
0.779355 0.876219 0.0387427
0.836622 0.870176 0.0298924
0.881117 0.865553 0.0241093
0.912673 0.862623 0.0204776
0.933791 0.862943 0.0188602
0.947768 0.865248 0.0184787
0.956939 0.868055 0.0190127
0.963058 0.87158 0.0200961
0.967269 0.875578 0.0215457
0.971038 0.879896 0.0230106
0.974487 0.88423 0.0245212
0.977722 0.888441 0.0260166
0.980789 0.89276 0.0274968
0.98381 0.896559 0.028809
0.986801 0.899596 0.0299687
0.989792 0.901854 0.0310063
0.0341039 0.858579 0.152544
0.0390936 0.861708 0.153735
0.0448463 0.864836 0.153994
0.0495918 0.868589 0.153719
0.0619211 0.870497 0.152483
0.0809644 0.872938 0.150713
0.108583 0.876265 0.148287
0.150896 0.8804 0.14493
0.201602 0.883101 0.139712
0.257053 0.885725 0.133303
0.313848 0.889174 0.12578
0.372061 0.894514 0.117311
0.4318 0.899397 0.106981
0.49546 0.90518 0.0951553
0.563989 0.9075 0.0818189
0.639933 0.907088 0.0675669
0.718288 0.905119 0.0538491
0.784878 0.901625 0.0420386
0.840772 0.896376 0.0330205
0.884947 0.891737 0.0268254
0.915557 0.888075 0.0231174
0.935317 0.887984 0.0217899
