luts/lumix_color_lab_C/S_Golden_Hour_2.cube
TITLE "Generated by Resolve"
LUT_3D_SIZE 9
0.0218204 0.0218204 0.0218204
0.0263676 0.0253452 0.0254978
0.0330663 0.0293889 0.0299077
0.0453803 0.0305028 0.0322118
0.0913405 0.0220951 0.0279088
0.197131 0.019501 0.0239414
0.400854 0.0186313 0.0252689
0.682506 0.0177615 0.0268559
0.911452 0.0167239 0.0288243
0.0332952 0.0350958 0.0327153
0.0402228 0.0379339 0.0333104
0.0671092 0.0348058 0.0312047
0.141863 0.0288548 0.0232547
0.308217 0.0292515 0.0218662
0.611429 0.0286259 0.0202487
0.904341 0.0279545 0.0188144
0.944015 0.0283513 0.0188296
0.963088 0.0303197 0.0207218
0.0365301 0.0536202 0.0360876
0.0529641 0.0727855 0.0367895
0.122576 0.0753033 0.0239414
0.320821 0.0479591 0.0163729
0.640192 0.0450599 0.0165408
0.900053 0.0457465 0.0174411
0.94168 0.047776 0.0192111
0.958068 0.0508278 0.0216068
0.971679 0.0546731 0.0247807
0.0278477 0.125154 0.0413825
0.0519722 0.16875 0.0458686
0.122683 0.218067 0.0342412
0.372793 0.187274 0.0109102
0.70312 0.117769 0.0130312
0.913619 0.0798962 0.0158999
0.950683 0.0848249 0.0195315
0.966445 0.100587 0.0233768
0.979126 0.133852 0.0273899
0.0231785 0.304753 0.0616464
0.0467536 0.357702 0.0711376
0.129732 0.412757 0.0682231
0.356161 0.455787 0.0349126
0.7093 0.40528 0.0108339
0.912993 0.369024 0.0137789
0.955795 0.377234 0.0172732
0.971969 0.422095 0.0215763
0.985077 0.477272 0.0261082
0.0268711 0.5505 0.100465
0.0483711 0.605158 0.108003
0.14966 0.653681 0.103944
0.345998 0.72462 0.0770886
0.694377 0.704311 0.0258793
0.91078 0.678569 0.0119631
0.959533 0.699763 0.0154879
0.974578 0.732647 0.0192569
0.98764 0.76463 0.0231174
0.0324407 0.811658 0.142977
0.0581064 0.841489 0.1449
0.187106 0.852903 0.134325
0.408453 0.877424 0.103746
0.708843 0.882658 0.0505989
0.912673 0.862623 0.0204776
0.963058 0.87158 0.0200961
0.977722 0.888441 0.0260166
0.989792 0.901854 0.0310063
0.039765 0.917815 0.176654
0.0779889 0.932296 0.16907
0.260166 0.933867 0.148165
0.508278 0.939086 0.110231
0.751812 0.945388 0.058732
0.923476 0.933165 0.0274815
0.966217 0.934707 0.0273594
0.980392 0.940139 0.0306249
0.992584 0.943786 0.0335546
0.0477607 0.944472 0.194507
0.130297 0.949264 0.176242
0.347433 0.953994 0.14696
0.600015 0.958724 0.106432
0.800412 0.964904 0.0588998
0.934768 0.954574 0.028748
0.969177 0.953994 0.0281224
0.982757 0.956069 0.030869
0.994736 0.957473 0.0329747
0.0232853 0.0233616 0.0238499
0.0278325 0.0269169 0.0278172
0.0340429 0.0300755 0.0326696
0.0478218 0.0305028 0.0361334
0.0977188 0.021088 0.0331426
0.214862 0.0194705 0.032929
0.436698 0.018265 0.037583
0.720974 0.0171969 0.0429236
0.920256 0.01561 0.0492103
0.0331426 0.0359045 0.0349279
0.04065 0.0387579 0.0388952
0.0673838 0.035523 0.0383154
0.14931 0.0293736 0.032517
0.335378 0.0294194 0.0340887
0.658793 0.0282902 0.0358587
0.912902 0.0273289 0.0381323
0.94725 0.0277104 0.0415961
0.964874 0.0299077 0.0464332
0.0351415 0.0544747 0.0405585
0.0552071 0.0773632 0.0466163
0.116182 0.0830854 0.038529
0.301579 0.0519875 0.0316625
0.598367 0.046891 0.0323033
0.890349 0.0477455 0.033463
0.939529 0.0494698 0.0357061
0.956497 0.0522774 0.03888
0.970596 0.0559091 0.0430457
0.0266728 0.115755 0.0467079
0.0485542 0.174166 0.0566873
0.125429 0.216175 0.0559548
0.349783 0.20766 0.0296941
0.681041 0.134936 0.0309453
0.902647 0.0909133 0.0347448
0.947768 0.0921798 0.0383307
0.963561 0.112963 0.0418402
0.97644 0.147143 0.0458991
0.0195315 0.272725 0.0648508
0.0392615 0.334264 0.0778363
0.127718 0.392721 0.0816052
0.323293 0.463874 0.0584421
0.684077 0.431296 0.0289006
0.905104 0.391043 0.0317998
0.954635 0.395026 0.0361334
0.970611 0.437888 0.0412909
0.983261 0.491875 0.0468147
0.0224155 0.510781 0.102159
0.0410773 0.572244 0.113649
0.130266 0.628824 0.114443
0.331884 0.689296 0.0967117
0.657649 0.718379 0.0492714
0.900984 0.696254 0.0297704
0.958053 0.713924 0.0335546
0.973617 0.742016 0.0382696
0.986465 0.775677 0.0467384
0.0272831 0.773251 0.145815
0.0473487 0.827283 0.152483
0.154528 0.841276 0.146715
0.392432 0.861433 0.129
0.666453 0.881804 0.0752422
0.89958 0.869337 0.039765
0.960815 0.876295 0.0381323
0.976287 0.893629 0.0451667
0.988205 0.906615 0.0540017
0.0336919 0.906233 0.182177
0.0564889 0.924834 0.180636
0.212451 0.93048 0.16817
0.476753 0.939803 0.149676
0.719936 0.941512 0.086244
0.908461 0.935225 0.0462196
0.963867 0.93518 0.0439612
0.978607 0.940902 0.0482643
0.990707 0.9449 0.0528115
0.0408789 0.940749 0.203906
0.0817731 0.945754 0.193225
0.287739 0.950881 0.177722
0.555962 0.955932 0.156008
0.774243 0.962188 0.103975
0.92015 0.956329 0.0483253
0.966323 0.953719 0.0440986
0.980591 0.95613 0.0477302
0.992569 0.957732 0.0508736
0.0247654 0.0249638 0.0260319
0.0291752 0.0281834 0.030045
0.0336309 0.0305028 0.0335699
0.0439002 0.0305486 0.0387579
0.0907912 0.0218357 0.0387884
0.213764 0.0187228 0.0417334
0.446921 0.0173648 0.0477302
0.729671 0.0164797 0.0553292
0.920317 0.0150301 0.0641489
0.0323339 0.035874 0.0362554
0.0399023 0.0389105 0.0420844
0.0598917 0.0371099 0.0439612
0.136904 0.0285496 0.0495613
0.328008 0.0289158 0.0507515
0.660761 0.0279393 0.0551461
0.913832 0.0268254 0.0619364
0.947387 0.0272679 0.0689097
0.964202 0.0296635 0.0770581
0.0332647 0.0535439 0.0428321
0.0470893 0.0823682 0.0547799
0.108583 0.0901808 0.0723735
0.283787 0.0556802 0.0576028
0.59202 0.0472572 0.0532845
0.890837 0.0479896 0.0570077
0.940398 0.049424 0.0611582
0.95761 0.0520027 0.0658732
0.971756 0.0555276 0.0728161
0.0251011 0.109148 0.0506752
0.0392157 0.173526 0.0673686
0.128786 0.225132 0.0936446
0.326207 0.22475 0.0654917
0.647196 0.150164 0.0520485
0.885573 0.103929 0.0546731
0.944823 0.104326 0.0573739
0.961334 0.124483 0.0609751
0.974823 0.164111 0.0666972
0.0160983 0.243961 0.0673686
0.0319829 0.310292 0.0840009
0.116365 0.393133 0.11017
0.316487 0.46038 0.108873
0.657023 0.452873 0.0598917
0.905211 0.406943 0.0534829
0.952819 0.411093 0.059617
0.96849 0.454307 0.0726482
0.980819 0.509468 0.102571
0.0177462 0.470314 0.102251
0.0347601 0.523674 0.116121
0.0966201 0.589868 0.131563
0.321828 0.658747 0.146761
0.619226 0.724254 0.0869306
0.902068 0.712734 0.0650645
0.956603 0.727214 0.0746166
0.972457 0.75462 0.0974594
0.984878 0.783734 0.125261
0.0221256 0.725399 0.145174
0.0407111 0.780468 0.157458
0.10985 0.818326 0.169741
0.354223 0.842741 0.174701
0.628595 0.883696 0.13196
0.892943 0.881865 0.0784772
0.959487 0.890242 0.0883803
0.97467 0.90724 0.107469
0.986648 0.915602 0.126146
0.0275731 0.893629 0.184848
0.0475624 0.905226 0.194324
0.147997 0.92929 0.201343
0.424262 0.937499 0.196307
0.69102 0.942214 0.169757
0.896269 0.94522 0.0880598
0.961425 0.941436 0.0887465
0.976761 0.946151 0.104402
0.988785 0.949187 0.119921
0.0336156 0.936461 0.212589
0.0546731 0.941329 0.219821
0.20856 0.946822 0.217762
0.4963 0.952789 0.206577
0.74815 0.958419 0.191821
0.910277 0.960601 0.106844
0.963104 0.955383 0.0850385
0.978256 0.958511 0.0992294
0.990356 0.960449 0.111345
0.0258488 0.0261845 0.0282139
0.0298161 0.0287327 0.0320592
0.0335851 0.0305791 0.0353246
0.0397955 0.0312352 0.0384375
0.0690623 0.025803 0.0440986
0.15172 0.0184024 0.0543984
0.342321 0.0169985 0.0621195
0.638239 0.0154726 0.0737163
0.908888 0.0133974 0.0987869
0.0311894 0.0351415 0.0373388
0.0368353 0.037644 0.0437018
0.050309 0.0377508 0.0481422
0.0854505 0.0305638 0.051194
0.194415 0.025803 0.0741588
0.515969 0.0254368 0.0814221
0.901732 0.0242618 0.0996109
0.945266 0.0246128 0.145251
0.962417 0.0275883 0.212711
0.0317845 0.0472267 0.0442054
0.0393072 0.0710307 0.0632792
0.0894484 0.0841382 0.102373
0.212345 0.0606241 0.108064
0.513298 0.0432136 0.123583
0.864012 0.0453956 0.121614
0.93637 0.0486 0.143587
0.954986 0.0514382 0.194507
0.969833 0.054963 0.262654
0.0223392 0.104433 0.0541695
0.0291752 0.162356 0.0851453
0.0940414 0.233967 0.139895
0.2972 0.240986 0.177569
0.601267 0.168795 0.149187
0.875731 0.10956 0.132647
0.94435 0.106615 0.148928
0.961425 0.125551 0.190402
0.975219 0.163043 0.246387
0.0118715 0.234775 0.0724956
0.0255283 0.279332 0.0965744
0.080415 0.378988 0.1523
0.324971 0.469444 0.212909
0.620691 0.47361 0.172763
0.881315 0.419394 0.160494
0.948989 0.431403 0.180545
0.965057 0.476753 0.216022
0.97789 0.528847 0.258656
0.0127108 0.438727 0.106538
0.0274357 0.464103 0.124117
0.057908 0.53402 0.157702
0.296895 0.656855 0.217838
0.596017 0.722225 0.220844
0.881361 0.726329 0.182376
0.954498 0.734585 0.207553
0.970367 0.761929 0.25008
0.982238 0.790448 0.295064
0.0167086 0.677165 0.148318
0.0324712 0.713878 0.170443
0.0579538 0.757015 0.193011
0.278798 0.80705 0.22562
0.607172 0.858198 0.262943
0.861784 0.885451 0.183291
0.95697 0.894347 0.208255
0.972534 0.911269 0.244343
0.984649 0.918242 0.278035
0.0213931 0.8757 0.193957
0.0384222 0.885252 0.214878
0.0745556 0.893858 0.232639
0.322118 0.928481 0.251652
0.636454 0.933577 0.275456
0.856626 0.942458 0.212131
0.957824 0.941955 0.195392
0.97435 0.94818 0.230304
0.986282 0.951782 0.260319
0.0262455 0.931685 0.231449
0.0446937 0.935103 0.248402
0.106325 0.940154 0.261036
0.386282 0.946975 0.270008
0.687617 0.954177 0.286915
0.880537 0.96051 0.264393
0.958236 0.955779 0.188479
0.975174 0.959716 0.213718
0.987625 0.962432 0.241718
0.0266575 0.0271458 0.0304417
0.030457 0.0292515 0.0343481
0.0340276 0.0308232 0.0378882
0.0401465 0.0314183 0.0411536
0.0590982 0.0284733 0.0438697
0.118074 0.0191806 0.0626688
0.250736 0.0170443 0.0887922
0.491264 0.0151369 0.118624
0.797803 0.0133364 0.166201
0.030808 0.0353246 0.0400092
0.0353094 0.0364233 0.0449836
0.0446479 0.036759 0.0505074
0.068986 0.0326696 0.0590982
0.119951 0.0257115 0.0659037
0.307286 0.0242161 0.117952
0.67657 0.0223545 0.168338
0.922805 0.0214694 0.24686
0.953506 0.0226596 0.353246
0.0302129 0.0465248 0.0477302
0.0352026 0.0561074 0.0656443
0.0640574 0.0657969 0.106813
0.15816 0.0547799 0.136202
0.293889 0.0390478 0.131777
0.632929 0.0357061 0.208713
0.912963 0.0389563 0.256184
0.948974 0.0439918 0.335027
0.966674 0.0487678 0.423957
0.019028 0.108248 0.0660716
0.0248264 0.131884 0.0937819
0.0505989 0.194842 0.158923
0.23859 0.215335 0.243549
0.47483 0.156497 0.244572
0.81915 0.0823072 0.288029
0.940322 0.0835889 0.346212
0.957626 0.111376 0.420539
0.972396 0.151369 0.503044
0.00753796 0.243687 0.0881666
0.019501 0.25922 0.111177
0.0447395 0.352377 0.177859
0.25362 0.477836 0.296818
0.583276 0.495506 0.373373
0.852735 0.435859 0.364248
0.946822 0.436332 0.397818
0.964141 0.479713 0.457633
0.977569 0.530907 0.521385
0.0074464 0.439734 0.119265
0.021622 0.444648 0.14229
0.0391546 0.486564 0.182818
0.224094 0.63743 0.292805
0.608377 0.732036 0.411246
0.856092 0.740734 0.383047
0.951308 0.736034 0.417395
0.966812 0.767971 0.467384
0.978698 0.800778 0.509361
0.0115053 0.660533 0.165652
0.0259861 0.672068 0.193744
0.0417334 0.682475 0.21532
0.180087 0.770672 0.276844
0.582803 0.861524 0.391699
0.839384 0.888823 0.404273
0.952575 0.899351 0.40827
0.970169 0.913542 0.456062
0.982223 0.922148 0.503807
0.016083 0.864302 0.216754
0.0308843 0.86656 0.241306
0.0479286 0.866682 0.26067
0.181811 0.871061 0.290806
0.562432 0.924529 0.371527
0.841016 0.940017 0.448417
0.951827 0.944549 0.377447
0.971756 0.951827 0.432502
0.983719 0.955764 0.47541
0.0204166 0.921599 0.258412
0.0360571 0.927001 0.279454
0.0544137 0.931716 0.298177
0.2336 0.938399 0.322225
0.57174 0.947188 0.364874
0.844388 0.955077 0.441459
0.94876 0.957519 0.381506
0.971771 0.962203 0.398077
0.984863 0.966018 0.446723
0.0273747 0.0280613 0.0328679
0.0311589 0.0298466 0.0370184
0.0347753 0.0312505 0.0411383
0.0417487 0.0314794 0.0449989
0.059678 0.0285344 0.0471656
0.101671 0.0202487 0.0585794
0.200565 0.0182193 0.0883345
0.398642 0.0158999 0.148074
0.675471 0.0136263 0.228641
0.0305943 0.0359197 0.0436561
0.0351873 0.0367742 0.0492714
0.0439307 0.0366369 0.0621042
0.0662394 0.0329595 0.0742046
0.112703 0.025742 0.0832074
0.224277 0.0250401 0.100862
0.488716 0.0231174 0.188663
0.843046 0.0203708 0.320897
0.938064 0.0192264 0.440528
0.0282292 0.0501106 0.0590219
0.0340581 0.0540475 0.0814679
0.049897 0.0551614 0.111482
0.11574 0.0458534 0.14493
0.217334 0.0362402 0.156283
0.400992 0.0340734 0.16672
0.783825 0.033051 0.324819
0.929549 0.0345464 0.424491
0.952743 0.0389258 0.496986
0.0154269 0.115465 0.0884718
0.0223545 0.123613 0.113069
0.0339513 0.146258 0.164935
0.148669 0.15349 0.26479
0.366567 0.117906 0.288533
0.57229 0.0647288 0.264591
0.872511 0.0555276 0.374121
0.94168 0.0607919 0.450065
0.96318 0.068986 0.565698
0.00366217 0.255772 0.119219
0.0153201 0.260349 0.143557
0.029633 0.294667 0.191089
0.138949 0.398779 0.312184
0.494591 0.442832 0.45362
0.753872 0.378302 0.463249
0.937514 0.325719 0.539651
0.959319 0.394751 0.632364
0.973846 0.483436 0.710933
0.00329595 0.451621 0.149386
0.0170748 0.45153 0.173953
0.0304112 0.460945 0.205859
0.126864 0.597559 0.328069
0.522499 0.739513 0.519295
0.82916 0.756649 0.623011
0.946395 0.742153 0.64004
0.964263 0.766934 0.683986
0.977234 0.799435 0.731106
0.00657664 0.667338 0.190188
0.0205081 0.668406 0.216861
0.0342107 0.664271 0.24358
0.100084 0.720806 0.317327
0.489906 0.850904 0.497353
0.845762 0.894377 0.648417
0.946883 0.904723 0.639948
0.967071 0.912444 0.680461
0.978622 0.924483 0.716991
0.0108186 0.86389 0.237095
0.0248417 0.862638 0.267811
0.039704 0.850309 0.297292
0.0919966 0.832822 0.327688
0.438422 0.92285 0.453956
0.832685 0.943221 0.617609
0.945373 0.949554 0.635233
0.969055 0.955734 0.658854
0.980957 0.958953 0.696757
0.0150912 0.918074 0.281498
0.0292668 0.917998 0.316014
0.0449378 0.916152 0.341115
0.108812 0.918029 0.362905
0.412268 0.937926 0.427085
0.807752 0.953613 0.569284
0.94435 0.960433 0.665537
0.968673 0.965835 0.621347
0.982086 0.969955 0.671687
0.0279698 0.0288396 0.0352026
0.0317693 0.0303807 0.0397498
0.035523 0.0316014 0.0444495
0.0433204 0.0315251 0.0488899
0.0632029 0.0280613 0.0587472
0.103182 0.0203708 0.0697795
0.182635 0.0189822 0.0865797
0.342962 0.017319 0.134463
0.598138 0.0149081 0.234379
0.0303655 0.0365148 0.0473945
0.0350805 0.0373388 0.0611124
0.0447395 0.0370336 0.0794385
0.0693675 0.0327153 0.0958572
0.119738 0.0258335 0.113085
0.214466 0.0251621 0.12842
0.398291 0.0243687 0.163287
0.705791 0.0221256 0.286412
0.917922 0.0196841 0.46891
0.0265202 0.0535439 0.0766613
0.0327764 0.057435 0.106096
0.0473945 0.0576944 0.147372
0.108186 0.0437018 0.180301
0.202731 0.0356603 0.207568
0.361929 0.0337377 0.219608
0.625834 0.0332952 0.262409
0.898756 0.0329747 0.423941
0.9411 0.0342718 0.556985
0.0118868 0.123537 0.114565
0.0189364 0.132082 0.150805
0.0301518 0.136461 0.203311
0.100954 0.11986 0.282307
0.277424 0.0842908 0.322393
0.462226 0.0553445 0.302785
0.67274 0.049836 0.302327
0.900511 0.0513008 0.459159
0.946075 0.0552682 0.56788
0.000610361 0.268605 0.15349
0.0124514 0.272175 0.186099
0.0241093 0.274952 0.223209
0.0675822 0.309865 0.309804
0.338689 0.326848 0.447257
0.632929 0.293156 0.47744
0.813687 0.207401 0.457069
0.932937 0.152056 0.57142
0.956649 0.20444 0.65211
0.00015259 0.466255 0.185672
0.0137331 0.463813 0.217868
0.0261845 0.463416 0.25243
0.0607919 0.514336 0.333501
0.351675 0.666392 0.525734
0.775891 0.711513 0.687327
0.921111 0.678035 0.709453
0.956771 0.674617 0.773358
0.973342 0.737469 0.837797
0.00320439 0.680842 0.224979
0.0168307 0.678126 0.257328
0.0295567 0.67454 0.290272
0.0521401 0.679988 0.339818
0.349813 0.818433 0.532357
0.796246 0.899031 0.733028
0.940398 0.910582 0.808057
0.964218 0.914107 0.828855
0.976471 0.925231 0.857053
0.00691234 0.867185 0.268986
0.0204166 0.864683 0.302495
0.0336919 0.854948 0.332113
0.0540475 0.825422 0.357549
0.311513 0.878706 0.501366
0.779141 0.938064 0.710582
0.945907 0.953201 0.822553
0.966781 0.958694 0.820554
0.978271 0.960739 0.846601
0.0108034 0.918639 0.309178
0.0241398 0.917189 0.343954
0.0382086 0.912505 0.373785
0.0613107 0.899321 0.404746
0.277348 0.925811 0.476829
0.736873 0.95079 0.65301
0.94342 0.963119 0.794461
0.966766 0.969329 0.810971
0.979828 0.972778 0.82948
0.0284886 0.0295415 0.0375219
0.0323491 0.0308843 0.0425574
0.0362707 0.0319524 0.0478065
0.044892 0.031632 0.0587472
0.0676432 0.0273899 0.0719768
0.10927 0.0203555 0.0850538
0.187579 0.0191043 0.102663
0.328664 0.0179751 0.137346
0.551766 0.0162356 0.213275
0.0301213 0.0372015 0.0533913
0.0350195 0.0380102 0.0751965
0.045594 0.0375525 0.0982986
0.0731212 0.0324559 0.121004
0.12784 0.0260624 0.149325
0.223926 0.025391 0.171374
0.389883 0.0245212 0.200122
0.638926 0.0232547 0.266896
0.897124 0.0213474 0.413123
0.0249943 0.057435 0.0958572
0.0314183 0.0610971 0.135073
0.0462501 0.0612345 0.191287
0.113085 0.0449683 0.239582
0.211902 0.0356146 0.281559
0.373159 0.0339513 0.303807
0.59173 0.0332647 0.318944
0.830381 0.0333867 0.376364
0.926894 0.0341192 0.512398
0.00857557 0.132982 0.14493
0.0163272 0.141344 0.197604
0.0276341 0.144427 0.268284
0.0888838 0.119295 0.345113
0.242054 0.0740215 0.371237
0.417578 0.0514229 0.37055
0.609277 0.0476692 0.350698
0.826322 0.0493477 0.389532
0.929076 0.0518807 0.543389
0 0.282414 0.190585
0.0102083 0.284993 0.233692
0.0220645 0.288258 0.281285
0.0478981 0.269459 0.340764
0.23357 0.248981 0.444312
0.515541 0.209537 0.481407
0.698909 0.152865 0.455711
0.859709 0.101778 0.459388
0.938979 0.0907759 0.602884
0 0.480949 0.22533
0.0115206 0.477729 0.264347
0.0238804 0.477409 0.304723
0.0410468 0.461677 0.347509
0.206714 0.555413 0.499931
0.636744 0.597742 0.666224
0.855787 0.591196 0.695003
0.936706 0.531151 0.690593
0.955184 0.502831 0.771084
0.000640879 0.695918 0.264698
0.0141604 0.691951 0.303761
0.0265812 0.688518 0.344289
0.0424659 0.656901 0.377508
0.213336 0.762463 0.528527
0.672999 0.871305 0.73933
0.927123 0.891585 0.845701
0.957259 0.885206 0.869078
0.971679 0.893095 0.90547
0.00424201 0.871916 0.308934
0.0175631 0.868849 0.3467
0.0300755 0.862211 0.383795
0.0463111 0.833494 0.411307
0.196582 0.848081 0.515862
0.68159 0.933883 0.736919
0.934722 0.954177 0.873198
0.965087 0.960601 0.915419
0.976074 0.961959 0.923858
0.0077821 0.920394 0.347417
0.0208133 0.91809 0.384802
0.0337224 0.914214 0.41883
0.0506905 0.900267 0.444633
0.177386 0.896834 0.496529
0.637171 0.945037 0.696849
0.929656 0.963226 0.853697
0.967376 0.971572 0.920043
0.978119 0.974319 0.918791
0.0289464 0.0302281 0.0400092
0.032929 0.0313725 0.0456703
0.0370336 0.0323186 0.0541543
0.0465858 0.0317693 0.0710155
0.0726787 0.0265965 0.0873579
0.118471 0.020264 0.105013
0.196872 0.0191653 0.128115
0.337209 0.0180972 0.163058
0.537301 0.016907 0.220157
0.0297856 0.0379034 0.0644694
0.0349432 0.0387732 0.0904402
0.0464027 0.0381476 0.121019
0.0780194 0.032105 0.153079
0.135943 0.0262303 0.191546
0.238407 0.0254978 0.224567
0.400549 0.0246433 0.262226
0.630854 0.0234379 0.314626
0.865049 0.0223239 0.401221
0.0234989 0.0612345 0.118425
0.0301213 0.0649882 0.169497
0.0451667 0.0651408 0.242878
0.11754 0.0467079 0.310201
0.221057 0.035462 0.361746
0.387717 0.0341192 0.395071
0.590707 0.0335851 0.40679
0.802716 0.033402 0.42771
0.912551 0.0343481 0.481605
0.0055848 0.143572 0.182422
0.0142977 0.150286 0.252552
0.0255741 0.15285 0.339681
0.0852216 0.126665 0.431647
0.245533 0.0753338 0.457954
0.416815 0.0518807 0.458534
0.605798 0.0481727 0.442359
0.790326 0.0487526 0.439521
0.906767 0.0506752 0.489006
0 0.298222 0.234287
0.00830091 0.299611 0.287114
0.0205386 0.30222 0.347356
0.043183 0.277485 0.417044
0.186435 0.217777 0.478706
0.431952 0.160876 0.499214
0.625376 0.114916 0.491905
0.776471 0.0836194 0.466697
0.894667 0.0698863 0.505791
0 0.496666 0.267872
0.00967422 0.492775 0.312596
0.0220493 0.491951 0.361471
0.037171 0.469261 0.40647
0.133379 0.465019 0.492744
0.484794 0.474144 0.633143
0.771344 0.464179 0.671733
0.872404 0.422187 0.65333
0.938186 0.367117 0.65687
0 0.711391 0.309133
0.0120546 0.70547 0.353948
0.0243839 0.702098 0.401663
0.0396277 0.669413 0.436194
0.124056 0.682094 0.515206
0.493782 0.791318 0.710582
0.859983 0.823941 0.832013
0.944015 0.832776 0.853178
0.957351 0.803906 0.859174
0.00190738 0.876661 0.353094
0.0151369 0.873518 0.396658
0.0273899 0.868788 0.440681
0.0429541 0.843275 0.472038
0.115328 0.820813 0.529549
0.526146 0.913329 0.732616
0.887129 0.944793 0.872816
0.961379 0.955535 0.934813
0.971267 0.955169 0.948348
0.00537118 0.922728 0.390997
0.0182498 0.920058 0.43299
0.0306096 0.916838 0.47245
0.0465095 0.903883 0.500221
0.11075 0.883787 0.528939
0.50518 0.936889 0.707469
0.892607 0.959808 0.867597
0.964874 0.971664 0.943755
0.976806 0.974975 0.960891
