luts/lumix_color_lab_C/S_Golden_Hour_1.cube
TITLE "Generated by Resolve"
LUT_3D_SIZE 33
0.024979 0.024979 0.024979
0.0264897 0.0260777 0.026154
0.0280613 0.0272221 0.0273594
0.0301366 0.0287327 0.0289464
0.0323644 0.0301366 0.0304723
0.0344854 0.0311894 0.0316625
0.036759 0.0320592 0.0327153
0.0406348 0.0324102 0.0334173
0.0454871 0.0324254 0.0339208
0.0530098 0.031632 0.033875
0.0649119 0.0295567 0.03299
0.0787213 0.0271153 0.0317388
0.0952468 0.0242161 0.0299535
0.117174 0.0232395 0.028397
0.143893 0.0230869 0.0271305
0.177325 0.0231479 0.0269322
0.216617 0.02327 0.0268864
0.264546 0.02327 0.0273442
0.320226 0.023209 0.0277867
0.383032 0.0231174 0.0281987
0.450492 0.0230411 0.0286107
0.524453 0.0229191 0.0290227
0.604379 0.0226902 0.0294041
0.68777 0.0224155 0.0297551
0.771511 0.0220493 0.0300755
0.853254 0.0216526 0.0304265
0.9037 0.0212253 0.0307317
0.918441 0.0208133 0.0310979
0.931289 0.0204623 0.0314946
0.939162 0.0201877 0.0319982
0.945037 0.0200198 0.0326238
0.95053 0.0199435 0.033341
0.955779 0.0199893 0.0341955
0.0294194 0.0297704 0.0292973
0.0311894 0.0310979 0.0303502
0.0330053 0.0321965 0.0314183
0.0348363 0.0331884 0.0323644
0.0368048 0.0340734 0.0331426
0.0402075 0.0345159 0.0336156
0.0445869 0.0346532 0.033875
0.0499428 0.0344549 0.0338903
0.0607156 0.0327153 0.0328832
0.0728466 0.0306249 0.0316472
0.0882429 0.0280766 0.0297704
0.106111 0.0259861 0.0278325
0.129335 0.0259861 0.0261997
0.159503 0.0261387 0.0253605
0.196048 0.0263218 0.0251011
0.238407 0.0264439 0.0253147
0.287816 0.0265202 0.0255131
0.34226 0.0265965 0.0257572
0.405936 0.0265812 0.0258946
0.477394 0.0265049 0.0260014
0.555459 0.0263218 0.0260471
0.637217 0.0260929 0.0260471
0.720729 0.0258335 0.0260471
0.800961 0.0255589 0.0260166
0.870817 0.0252842 0.0260471
0.907729 0.024979 0.0260777
0.921981 0.0246738 0.0261082
0.933318 0.0243992 0.0262455
0.940627 0.0241855 0.0264286
0.94641 0.0240635 0.0267338
0.951751 0.0240635 0.0271611
0.956756 0.0242161 0.0277256
0.961273 0.024445 0.0284276
0.0329595 0.0340429 0.0325933
0.0345617 0.035111 0.0331731
0.0364385 0.0360723 0.0335241
0.0392767 0.0366674 0.0340124
0.0434424 0.0368048 0.0342718
0.0479591 0.0368658 0.0344549
0.0573281 0.0355535 0.0336614
0.0686351 0.0337224 0.0324407
0.0823072 0.0314946 0.0307469
0.0980392 0.0289006 0.0286564
0.119448 0.0285801 0.0268864
0.144793 0.028809 0.0254063
0.176379 0.0291295 0.0249485
0.213413 0.0294041 0.024918
0.25626 0.029633 0.0250095
0.307347 0.0297704 0.0250095
0.366659 0.0298161 0.024918
0.434195 0.0298009 0.0247654
0.507332 0.0297246 0.0245975
0.585138 0.0296025 0.0243839
0.665675 0.0294347 0.0241855
0.744839 0.0292668 0.0239719
0.820554 0.0290684 0.0238041
0.882536 0.0289158 0.023682
0.909728 0.028748 0.0236057
0.92311 0.0285801 0.0235142
0.933669 0.0284276 0.0234989
0.940734 0.0283055 0.0235294
0.946349 0.0282597 0.0236667
0.951614 0.0283513 0.0238956
0.956374 0.0285496 0.0242924
0.960647 0.0288548 0.0248417
0.964477 0.0292821 0.0255589
0.0354009 0.0376593 0.034638
0.0372931 0.0387274 0.0354314
0.0404669 0.0394446 0.0345006
0.0448005 0.0396735 0.0344701
0.0504463 0.0394903 0.034287
0.0619669 0.037583 0.0330205
0.0746471 0.0354162 0.0315709
0.0903639 0.0328832 0.0295872
0.108629 0.0311437 0.0276493
0.131258 0.0318761 0.0260471
0.157702 0.0326238 0.0253147
0.188235 0.0328374 0.0249027
0.226474 0.0327916 0.0248875
0.272175 0.0328679 0.0247654
0.325994 0.03299 0.0245365
0.389105 0.0330663 0.0243229
0.457206 0.0330816 0.024033
0.529 0.0330663 0.0237278
0.604196 0.0330205 0.0234226
0.681895 0.032929 0.0231327
0.757427 0.0328374 0.0228428
0.829114 0.0327459 0.0225834
0.886671 0.0326848 0.0223697
0.909514 0.032639 0.0222324
0.92221 0.0326085 0.0221103
0.932586 0.0325933 0.0220493
0.939788 0.0326085 0.0220645
0.945098 0.0326543 0.0221561
0.950134 0.0328222 0.0223697
0.954681 0.0330816 0.0226902
0.958694 0.0334783 0.023209
0.962295 0.0339818 0.0238499
0.965606 0.0345464 0.0246128
0.0372473 0.0411231 0.0359808
0.0410925 0.0418402 0.0364996
0.0444953 0.0426337 0.0354162
0.0493019 0.045243 0.0345617
0.0611124 0.0454108 0.0333867
0.0740368 0.0450141 0.0320287
0.0901503 0.043595 0.030045
0.109545 0.0422217 0.0279698
0.133074 0.0408942 0.0256657
0.162585 0.0391546 0.0246891
0.196323 0.0373846 0.0241855
0.235477 0.0360113 0.0241245
0.282368 0.0362554 0.0240177
0.337316 0.0364233 0.0237888
0.399802 0.0365759 0.0234684
0.466575 0.0366522 0.0231327
0.536599 0.0366979 0.0227817
0.608759 0.0367285 0.0224613
0.682063 0.0367285 0.0221714
0.753796 0.0367285 0.0218814
0.822156 0.0366979 0.0216678
0.880095 0.0367437 0.0215152
0.906126 0.0367895 0.0213779
0.918593 0.0368505 0.0213474
0.929747 0.0369421 0.0213779
0.938003 0.0370642 0.0214542
0.942977 0.0372473 0.0216373
0.947616 0.0375067 0.0218967
0.95201 0.0377966 0.0222934
0.9561 0.0381628 0.0227207
0.959838 0.0386358 0.0232242
0.963317 0.0392004 0.0238499
0.966552 0.0398413 0.0245212
0.0391241 0.0467231 0.0369116
0.0432288 0.0511177 0.0379339
0.0467689 0.055436 0.0380102
0.0549477 0.058854 0.0353552
0.0677348 0.0593423 0.0336461
0.0838178 0.0586404 0.0316625
0.102358 0.0573587 0.0292821
0.126375 0.05449 0.0259861
0.156985 0.0506752 0.0238804
0.192874 0.0467384 0.0226902
0.233539 0.0433509 0.0222782
0.281407 0.0410163 0.0222477
0.337545 0.0404517 0.0221714
0.400534 0.0404212 0.0221103
0.466896 0.0404822 0.0219425
0.535271 0.0405737 0.0217746
0.604334 0.0406653 0.0215457
0.673991 0.0407416 0.0213321
0.742519 0.0408026 0.0211337
0.80705 0.0409094 0.0209964
0.864698 0.0410315 0.0209049
0.900236 0.0411536 0.0208438
0.912642 0.0412909 0.0209354
0.92459 0.0415045 0.021088
0.933501 0.0417334 0.0213016
0.940017 0.0420233 0.0215915
0.94464 0.0422522 0.0218967
0.949081 0.0425269 0.0221714
0.953338 0.0428626 0.0225376
0.957336 0.0432593 0.0229801
0.961059 0.0437781 0.0235599
0.964401 0.044358 0.0241855
0.967544 0.0449836 0.0248417
0.0393225 0.059617 0.0385748
0.0441596 0.0648661 0.039704
0.0508583 0.0694285 0.0399481
0.0591592 0.0745251 0.0373693
0.0721141 0.0773632 0.0341802
0.0902419 0.0767224 0.0315099
0.114 0.0739147 0.0279698
0.142367 0.0696422 0.0244755
0.17525 0.0644388 0.0217746
0.216526 0.0577401 0.0204166
0.264637 0.0506752 0.0200046
0.319951 0.0470283 0.0199893
0.382315 0.0459602 0.0199893
0.44889 0.045182 0.0200198
0.517647 0.0448463 0.0200961
0.587686 0.0449073 0.0201877
0.656245 0.0449989 0.0202487
0.72224 0.0451057 0.0203403
0.785153 0.0452583 0.0204318
0.842908 0.0454414 0.0205539
0.892317 0.0456245 0.0207523
0.904662 0.0458534 0.0209354
0.916762 0.0461128 0.0211643
0.92784 0.0463874 0.0214084
0.937011 0.0466773 0.0216831
0.941772 0.0469368 0.0219425
0.946258 0.0472114 0.0222019
0.950622 0.0475166 0.0224765
0.954772 0.0478981 0.0229038
0.958663 0.0483711 0.0233921
0.962234 0.0489052 0.0239261
0.965515 0.0495308 0.024567
0.968627 0.0501869 0.0252689
0.03888 0.0740368 0.0402686
0.0440986 0.0815747 0.0417182
0.0535897 0.0858778 0.0415808
0.0624704 0.0914473 0.0396124
0.0746777 0.0975052 0.0354772
0.0936141 0.0990005 0.0318151
0.120409 0.0960861 0.0277104
0.153414 0.0911421 0.0237583
0.191714 0.0841077 0.0204471
0.234409 0.0756085 0.018265
0.284627 0.0649271 0.017792
0.345174 0.0588846 0.0178531
0.411597 0.0536507 0.0179904
0.481575 0.0504311 0.0181582
0.551751 0.0496071 0.0183871
0.620996 0.0496681 0.0187228
0.688014 0.0497902 0.0191196
0.751842 0.0499275 0.0195926
0.810941 0.0500649 0.0200351
0.863432 0.050248 0.0204166
0.895033 0.0504463 0.0207675
0.908202 0.0506905 0.0211032
0.921263 0.0509804 0.0214694
0.931624 0.0512551 0.0217594
0.939239 0.0515297 0.022034
0.943694 0.0518044 0.0222934
0.948104 0.0521553 0.0225834
0.952407 0.0525216 0.0229648
0.956374 0.0529488 0.0233768
0.960082 0.0534676 0.0238346
0.963546 0.0540475 0.0243992
0.966857 0.0547494 0.0251469
0.969879 0.0554818 0.025864
0.037644 0.0902571 0.0419776
0.0437018 0.0992294 0.0432746
0.0543374 0.105562 0.0432593
0.0642405 0.111711 0.0419623
0.0761273 0.118425 0.0378119
0.0944839 0.123674 0.0332189
0.122744 0.122774 0.0285954
0.158099 0.118044 0.0238499
0.200565 0.110292 0.0195468
0.248096 0.100725 0.0169223
0.299733 0.0905318 0.0160067
0.359274 0.0787366 0.0162203
0.426703 0.0671702 0.0164797
0.497566 0.0596475 0.0168612
0.568978 0.0574044 0.0173648
0.638056 0.0558328 0.0179294
0.704265 0.0550698 0.0184634
0.767529 0.0549325 0.0189822
0.826581 0.0550393 0.0194858
0.879011 0.0551919 0.0199893
0.897505 0.0553902 0.0205386
0.911925 0.0556039 0.0209964
0.925261 0.055848 0.0214542
0.935943 0.0561227 0.0218357
0.941314 0.0563973 0.0222324
0.945815 0.0567483 0.0226444
0.950118 0.0570993 0.0230259
0.954269 0.057496 0.0234226
0.95816 0.0579995 0.0238804
0.961807 0.0586404 0.024506
0.965164 0.0592966 0.0251621
0.968322 0.0600137 0.0258488
0.971283 0.0608072 0.0265965
0.0355688 0.109361 0.0437018
0.0424659 0.119692 0.0449989
0.0537575 0.126848 0.0450141
0.0653391 0.133959 0.0442512
0.0771801 0.142809 0.0412604
0.0942245 0.150423 0.0361181
0.122225 0.152667 0.0308537
0.159518 0.149508 0.0253147
0.20296 0.142931 0.020325
0.252766 0.133532 0.0162051
0.309377 0.121569 0.014847
0.369238 0.109026 0.0153506
0.434104 0.0954604 0.0158083
0.504601 0.0824598 0.0162966
0.576196 0.0714427 0.0167697
0.646708 0.0632181 0.0173037
0.714626 0.0605478 0.0178073
0.778088 0.0600137 0.0183413
0.837186 0.0601205 0.0189212
0.882689 0.0602579 0.0194858
0.89929 0.0604257 0.0200351
0.915465 0.0606241 0.0206302
0.928878 0.060853 0.0211643
0.938827 0.0611429 0.0217594
0.94342 0.0614176 0.0222782
0.947875 0.0617533 0.022797
0.952193 0.06215 0.0233005
0.956252 0.0626535 0.0238956
0.960082 0.0632181 0.0244907
0.963623 0.0638285 0.0251774
0.966857 0.0645457 0.0258946
0.969955 0.0653391 0.0266575
0.972885 0.0661784 0.0274815
0.0330663 0.129915 0.0454566
0.0404669 0.143053 0.0471351
0.0521096 0.151766 0.047364
0.0649882 0.158389 0.0467689
0.0777447 0.168215 0.0448615
0.094255 0.17998 0.040528
0.120165 0.186343 0.0349737
0.157488 0.184894 0.0289464
0.202564 0.179919 0.0230564
0.253361 0.172274 0.0171664
0.311482 0.160861 0.015259
0.375921 0.147234 0.0150301
0.441764 0.133211 0.0153353
0.509972 0.117266 0.0157931
0.580514 0.101091 0.0162661
0.651148 0.0872663 0.0167544
0.720516 0.0803388 0.017319
0.785702 0.0752728 0.0178378
0.845014 0.0707256 0.0183719
0.882017 0.067628 0.0189364
0.900725 0.0662089 0.0195315
0.919295 0.0658427 0.0202182
0.933135 0.0660563 0.0208896
0.940719 0.0663157 0.0215152
0.945388 0.0666056 0.0221561
0.949874 0.0669566 0.0227817
0.954208 0.0673991 0.0234531
0.958251 0.0678874 0.0241855
0.96199 0.0684672 0.024918
0.965423 0.0702678 0.0257115
0.968643 0.073518 0.0265812
0.971603 0.0768139 0.0274052
0.974472 0.0803082 0.028275
0.0306859 0.15523 0.047837
0.0382086 0.168399 0.0495918
0.0499275 0.179232 0.0501717
0.0634318 0.187869 0.0501564
0.0776074 0.19704 0.0488899
0.0951095 0.2094 0.0454566
0.11841 0.221424 0.0405432
0.153597 0.224964 0.0347295
0.199496 0.222354 0.028397
0.25185 0.215274 0.0217441
0.311101 0.205173 0.016968
0.376455 0.19205 0.0150759
0.447059 0.176394 0.0148928
0.517067 0.161975 0.0153658
0.585901 0.146654 0.0158236
0.654688 0.131472 0.0163272
0.722805 0.117647 0.0168154
0.788769 0.104784 0.0173342
0.849073 0.0928359 0.0179294
0.880949 0.0864271 0.0185702
0.902602 0.0834516 0.0192111
0.922103 0.0822156 0.019852
0.937575 0.0820935 0.0204929
0.942428 0.0823377 0.0212406
0.947173 0.082948 0.021912
0.95172 0.0838788 0.0226291
0.956024 0.0851453 0.0234379
0.960006 0.087129 0.0242161
0.963729 0.0897688 0.0251164
0.967071 0.0927138 0.0259861
0.970184 0.0968795 0.0269017
0.973129 0.102953 0.0278477
0.975998 0.109789 0.0288243
0.0288548 0.18407 0.0508431
0.0366979 0.198703 0.0529488
0.0473487 0.209033 0.0535439
0.0615396 0.218845 0.0538949
0.077348 0.228962 0.0533608
0.0965744 0.241596 0.0509651
0.118944 0.254902 0.0465705
0.1505 0.264622 0.0411078
0.194797 0.266438 0.034699
0.247608 0.262257 0.0276799
0.307958 0.253422 0.0209049
0.375433 0.241093 0.0167391
0.447028 0.226734 0.014847
0.520378 0.211048 0.0147555
0.590906 0.196521 0.0153506
0.658854 0.182162 0.0158999
0.72549 0.167163 0.0164187
0.790906 0.151705 0.0170138
0.851072 0.137209 0.0175631
0.878935 0.128084 0.0181735
0.903624 0.122393 0.0187991
0.924636 0.118898 0.019501
0.938766 0.116503 0.0201724
0.943862 0.114717 0.0208438
0.948684 0.115007 0.0215763
0.953277 0.11667 0.0223239
0.957549 0.119417 0.0231327
0.961471 0.123217 0.0240177
0.965118 0.127993 0.0249027
0.968399 0.133394 0.0258946
0.971511 0.139559 0.0269322
0.974426 0.146807 0.0279088
0.977188 0.157015 0.0289006
0.027985 0.21677 0.0545815
0.0353857 0.231815 0.0569314
0.0450599 0.243824 0.057969
0.059968 0.25391 0.0585336
0.0780194 0.262303 0.0581064
0.0977951 0.27509 0.0565194
0.119936 0.2907 0.0531014
0.148867 0.303731 0.0478065
0.18967 0.31075 0.0416266
0.241581 0.310964 0.0344244
0.302815 0.305119 0.0264744
0.371359 0.294667 0.0200046
0.443915 0.282032 0.0157168
0.518822 0.267918 0.0144656
0.593652 0.253025 0.0148318
0.663447 0.239811 0.0154421
0.728542 0.227085 0.016022
0.790661 0.213977 0.0165408
0.848142 0.200504 0.0171359
0.876631 0.189975 0.0177615
0.904295 0.180621 0.0184329
0.926284 0.173678 0.0190738
0.939162 0.168887 0.0197299
0.944976 0.166659 0.0204166
0.949889 0.167086 0.0211185
0.954467 0.169757 0.0218509
0.958724 0.174228 0.0226444
0.962661 0.181048 0.0235599
0.966201 0.188632 0.0245212
0.969497 0.19707 0.0255436
0.972519 0.206363 0.0265812
0.975418 0.215961 0.0276493
0.978225 0.226535 0.0287022
0.0276493 0.257053 0.0599069
0.0347448 0.269337 0.0619059
0.0431983 0.280079 0.0628824
0.0586099 0.291096 0.0638132
0.0777142 0.299962 0.0635538
0.0983749 0.311482 0.0622416
0.121675 0.326909 0.0593881
0.147921 0.344228 0.0550393
0.184909 0.356634 0.0491951
0.234653 0.360815 0.0419318
0.296407 0.35874 0.0334325
0.365591 0.351888 0.0252689
0.439994 0.341085 0.0187076
0.515602 0.329061 0.0147707
0.591394 0.315587 0.0142824
0.6636 0.302831 0.0149386
0.731289 0.291066 0.0155642
0.79324 0.279881 0.0162051
0.843534 0.269245 0.0167544
0.87422 0.259342 0.0173495
0.90312 0.251026 0.0179446
0.925795 0.244938 0.0186313
0.93875 0.240238 0.0192569
0.9458 0.237751 0.0198672
0.950805 0.237766 0.0205386
0.955428 0.241245 0.0213016
0.959686 0.246159 0.0220951
0.963546 0.252415 0.0230106
0.967071 0.26041 0.0239719
0.970367 0.269947 0.0250706
0.973404 0.279667 0.0261387
0.976303 0.289738 0.0272068
0.979095 0.30013 0.0283207
0.0276341 0.299214 0.0658274
0.0348363 0.311177 0.0679179
0.0434882 0.320745 0.0688334
0.0569162 0.330877 0.0695354
0.0775006 0.340002 0.0692454
0.0995041 0.351324 0.0681315
0.123125 0.366781 0.0659648
0.149493 0.384878 0.0621347
0.182666 0.402686 0.0570382
0.228717 0.413352 0.0503853
0.289296 0.41532 0.0419776
0.35996 0.411063 0.0325017
0.435157 0.402747 0.0239567
0.511391 0.392157 0.0170596
0.587289 0.380179 0.0149691
0.660731 0.368353 0.0145876
0.729686 0.357183 0.0150454
0.793378 0.346502 0.0157168
0.84094 0.33843 0.0163729
0.873137 0.33106 0.0169375
0.902098 0.324224 0.0175174
0.924392 0.318242 0.0181125
0.938186 0.313756 0.0187076
0.94641 0.311879 0.0193942
0.951583 0.312276 0.0200351
0.956176 0.314809 0.0207675
0.960433 0.319905 0.021561
0.964355 0.327352 0.0225071
0.967865 0.335439 0.0235142
0.971099 0.344335 0.0245365
0.974166 0.353796 0.0256352
0.977127 0.364706 0.0267948
0.979934 0.374929 0.0279088
0.0280308 0.343175 0.0724193
0.0351415 0.354086 0.0743267
0.0438697 0.364553 0.0752575
0.0541238 0.375967 0.0760815
0.0762646 0.385 0.0756695
0.100313 0.394781 0.0744488
0.124422 0.41059 0.0728161
0.15108 0.429877 0.0697948
0.182437 0.449607 0.0651713
0.224857 0.466239 0.0591745
0.282994 0.472709 0.0509651
0.353643 0.471794 0.0412451
0.430426 0.465568 0.031281
0.507027 0.455909 0.0221561
0.583413 0.445716 0.0170596
0.657053 0.434928 0.0151369
0.727108 0.423896 0.014786
0.791989 0.413291 0.015259
0.838621 0.405386 0.0158999
0.872877 0.399603 0.0165103
0.900908 0.3953 0.0171359
0.923766 0.390524 0.017731
0.938796 0.387152 0.0183261
0.947066 0.385565 0.0189059
0.952285 0.386481 0.0195621
0.956939 0.389883 0.020325
0.961181 0.39498 0.021149
0.965057 0.401587 0.0220493
0.968597 0.41033 0.0230564
0.971862 0.419532 0.024155
0.974929 0.429084 0.0252384
0.977874 0.438956 0.0263981
0.980758 0.449088 0.0275578
0.0286564 0.389914 0.0796368
0.0356451 0.40087 0.0813153
0.0432746 0.411048 0.082063
0.0530709 0.423026 0.0828565
0.0754711 0.43386 0.0827344
0.10071 0.444068 0.081651
0.126604 0.457923 0.0799573
0.154238 0.477317 0.0774853
0.185031 0.498848 0.073518
0.224948 0.517937 0.0678111
0.279622 0.528832 0.059968
0.348592 0.531121 0.0502327
0.425254 0.527062 0.0396124
0.502983 0.519036 0.029099
0.580224 0.50956 0.0206149
0.65359 0.500206 0.0167849
0.723796 0.489952 0.014786
0.788281 0.479789 0.0148318
0.836393 0.472053 0.0154116
0.872374 0.466285 0.0160525
0.900542 0.463386 0.0167086
0.923247 0.460609 0.0173342
0.940612 0.459464 0.0179294
0.947738 0.459525 0.0185245
0.952926 0.461036 0.0191653
0.957519 0.464271 0.0198978
0.961807 0.470054 0.020737
0.965682 0.476997 0.0216373
0.969192 0.484749 0.0226444
0.972457 0.493431 0.0236973
0.975616 0.503075 0.0248875
0.978561 0.512535 0.0259861
0.98143 0.522026 0.0271153
0.0292821 0.438087 0.0870375
0.0360418 0.449928 0.0886702
0.0425879 0.461265 0.0895399
0.0534981 0.473823 0.0902571
0.0737621 0.484672 0.090135
0.100923 0.49514 0.0890822
0.128756 0.509331 0.0875715
0.157427 0.52723 0.0852979
0.188968 0.548135 0.0816663
0.228321 0.56875 0.0762798
0.278416 0.583597 0.0689708
0.344472 0.58851 0.059266
0.420096 0.587091 0.0484016
0.498604 0.580591 0.0372778
0.575265 0.572961 0.0273136
0.649409 0.563806 0.0196994
0.71873 0.554711 0.0150301
0.783932 0.545403 0.0145418
0.833173 0.537896 0.0149233
0.870573 0.532738 0.0155795
0.899748 0.529534 0.0162661
0.923445 0.527977 0.0169375
0.941909 0.527657 0.0175479
0.948241 0.529946 0.0181277
0.953536 0.532982 0.0187991
0.95819 0.53695 0.019501
0.962341 0.54226 0.0203098
0.966217 0.549599 0.0212558
0.969772 0.55726 0.0222629
0.973037 0.565469 0.023331
0.97612 0.573404 0.0243992
0.97911 0.581872 0.0255283
0.982025 0.590356 0.0266575
0.0299382 0.489281 0.0949721
0.0363622 0.501274 0.0964218
0.0419776 0.51339 0.0973526
0.0548867 0.52639 0.0979934
0.0738537 0.538811 0.098024
0.100343 0.549447 0.0970321
0.131029 0.5617 0.095201
0.162081 0.57821 0.0928969
0.195239 0.597162 0.0894179
0.233692 0.618112 0.0844129
0.281498 0.635508 0.077409
0.342733 0.643748 0.0681315
0.415946 0.644755 0.0572518
0.493004 0.640406 0.0459602
0.570382 0.633066 0.0349889
0.645106 0.624338 0.0258946
0.714611 0.616114 0.0191501
0.779583 0.608011 0.014435
0.82948 0.601877 0.0144503
0.867887 0.596704 0.0151369
0.898314 0.592905 0.0157778
0.923156 0.590997 0.0165103
0.941039 0.591562 0.0171511
0.948623 0.594034 0.0177615
0.954116 0.597742 0.0184024
0.958877 0.602533 0.0191348
0.962951 0.607813 0.0199741
0.96669 0.614328 0.0208591
0.970169 0.621134 0.0218357
0.973465 0.629328 0.0229038
0.976547 0.636927 0.0239719
0.979522 0.644251 0.0250401
0.982452 0.651804 0.026154
0.0306706 0.542779 0.103304
0.037171 0.55491 0.104616
0.0426337 0.567269 0.105531
0.055436 0.581048 0.106096
0.0743114 0.593332 0.105943
0.100786 0.603769 0.104875
0.134157 0.614893 0.102907
0.167803 0.629374 0.100328
0.201907 0.647608 0.0971084
0.240253 0.666957 0.092195
0.286641 0.68423 0.0853437
0.343389 0.695277 0.0763714
0.412375 0.698466 0.0657816
0.487907 0.696696 0.054551
0.565377 0.689433 0.0431525
0.639704 0.681498 0.0331273
0.710964 0.67219 0.0245212
0.775219 0.664256 0.0178378
0.825711 0.657465 0.0155947
0.864591 0.653132 0.0149538
0.896101 0.650126 0.0153506
0.922103 0.64828 0.0160525
0.939483 0.648569 0.0166934
0.948699 0.65124 0.01738
0.955077 0.655863 0.0180514
0.959686 0.660975 0.0187991
0.963623 0.667521 0.0196231
0.967224 0.673838 0.0205081
0.970611 0.680415 0.0214389
0.973816 0.68748 0.0224613
0.976944 0.695079 0.0235294
0.979919 0.702144 0.0245975
0.982849 0.708934 0.0256504
0.0314794 0.596704 0.111772
0.038056 0.609873 0.113054
0.0436103 0.622751 0.114015
0.0548867 0.635874 0.11429
0.0751202 0.64828 0.113924
0.102892 0.658793 0.112673
0.136477 0.669169 0.110674
0.17232 0.681926 0.107912
0.20911 0.697566 0.104356
0.247623 0.714458 0.0994736
0.293492 0.730724 0.0926375
0.347112 0.742565 0.0841077
0.410529 0.745968 0.0738537
0.484489 0.74548 0.0624399
0.560418 0.739956 0.0510719
0.635676 0.732586 0.0402991
0.707362 0.723568 0.0306249
0.771603 0.715892 0.0226596
0.821393 0.709667 0.0178073
0.861509 0.704967 0.0158999
0.894362 0.701961 0.0155184
0.920363 0.700435 0.0157321
0.937926 0.70132 0.0162966
0.94876 0.70428 0.0169528
0.956207 0.708949 0.0177005
0.96051 0.714977 0.0184939
0.964294 0.721401 0.0192874
0.967788 0.728252 0.0201572
0.971099 0.735119 0.0211185
0.974227 0.741726 0.0220645
0.977249 0.748333 0.0230869
0.980255 0.755444 0.024155
0.983185 0.761807 0.0251621
0.0323949 0.652552 0.12047
0.0391241 0.665293 0.121584
0.0454414 0.677958 0.122332
0.0531777 0.691188 0.122499
0.0760662 0.703075 0.121859
0.105562 0.713497 0.120409
0.140185 0.722286 0.118074
0.177417 0.73286 0.115053
0.216709 0.745693 0.11104
0.256733 0.760296 0.106096
0.301854 0.769802 0.0992905
0.353109 0.780102 0.0910353
0.413504 0.788037 0.0810407
0.482887 0.788785 0.0699626
0.557961 0.784009 0.0583963
0.631815 0.778058 0.0473945
0.703136 0.771481 0.0372931
0.768124 0.763561 0.0281834
0.817578 0.757748 0.0213474
0.859159 0.753262 0.0181125
0.893339 0.750332 0.0162203
0.918883 0.749203 0.01561
0.937011 0.749676 0.0158846
0.949081 0.752789 0.016556
0.956939 0.757427 0.0172885
0.961212 0.764218 0.0181125
0.965072 0.770962 0.0190433
0.96846 0.776608 0.0200198
0.971649 0.782727 0.0210574
0.974716 0.788464 0.0221408
0.977691 0.794003 0.0232395
0.980621 0.799527 0.0243687
0.983612 0.805432 0.0256046
0.0333715 0.708186 0.129152
0.0401617 0.721325 0.130159
0.046128 0.733745 0.130663
0.0545205 0.745907 0.13051
0.0773175 0.757061 0.129625
0.108263 0.766567 0.127825
0.144137 0.774105 0.125124
0.182803 0.782361 0.121889
0.224292 0.786358 0.117296
0.267475 0.793866 0.111879
0.311345 0.805051 0.105501
0.361868 0.814023 0.0972152
0.419074 0.82182 0.0875563
0.484306 0.826078 0.0767681
0.556664 0.823362 0.0652628
0.629404 0.819745 0.0539712
0.700481 0.814954 0.0434424
0.765057 0.807614 0.0341344
0.81471 0.801877 0.0270237
0.857572 0.797711 0.0213474
0.892699 0.793942 0.0177005
0.917983 0.791974 0.0166171
0.936385 0.792248 0.0166629
0.948989 0.7944 0.0170596
0.957046 0.798169 0.0176394
0.9617 0.803342 0.0184482
0.965652 0.809415 0.01944
0.969116 0.816312 0.0205539
0.972259 0.822461 0.0216983
0.97528 0.827863 0.0231327
0.97821 0.83299 0.0244907
0.981094 0.837781 0.0258946
0.984039 0.842344 0.0272984
0.0344244 0.764904 0.138018
0.0412757 0.776654 0.138689
0.046952 0.788647 0.138842
0.0589456 0.7991 0.138201
0.0800031 0.809689 0.137087
0.110109 0.811795 0.13489
0.147555 0.812848 0.131777
0.189105 0.815137 0.127916
0.231647 0.820447 0.123293
0.277562 0.826307 0.117372
0.323018 0.834165 0.110689
0.372793 0.844175 0.102693
0.427878 0.851621 0.0933089
0.489418 0.854414 0.0826276
0.557275 0.856855 0.071519
0.628672 0.857755 0.0601053
0.69868 0.85095 0.0489967
0.763088 0.842985 0.0391852
0.812833 0.837583 0.0315862
0.856275 0.833112 0.025803
0.891768 0.83006 0.0217441
0.917205 0.828489 0.0194247
0.935821 0.828412 0.0184024
0.948547 0.830091 0.0183108
0.956924 0.833371 0.0187533
0.962203 0.837903 0.0197299
0.96614 0.843366 0.021088
0.96968 0.849134 0.0225528
0.972869 0.855177 0.0240787
0.97586 0.861082 0.0255283
0.978775 0.866346 0.0271153
0.981613 0.870558 0.0286564
0.984497 0.874342 0.0302281
0.0355077 0.818936 0.14641
0.0423896 0.830976 0.14696
0.0481422 0.835325 0.146578
0.0618753 0.836851 0.145373
0.0830091 0.839399 0.143725
0.111086 0.842573 0.141436
0.151629 0.844785 0.138079
0.195987 0.845685 0.133562
0.240772 0.849119 0.128496
0.288319 0.855024 0.122377
0.336599 0.862226 0.115434
0.385718 0.868086 0.107332
0.438483 0.874922 0.0982834
0.498054 0.880049 0.0878462
0.561944 0.881498 0.0763104
0.630335 0.880644 0.0648051
0.698665 0.877607 0.0538033
0.760372 0.873228 0.0438849
0.810925 0.86833 0.0357214
0.854719 0.86389 0.0296178
0.891005 0.860258 0.0251011
0.916609 0.857984 0.0222019
0.935088 0.858595 0.0208896
0.948089 0.860761 0.0204776
