luts/lumix_color_lab_C/S_Night_Time_1.cube
TITLE "Generated by Resolve"
LUT_3D_SIZE 33
0.000335698 0.000244144 0.000213626
0.000686656 0.000457771 0.000411994
0.00103761 0.000671397 0.000579843
0.00140383 0.000869764 0.000732433
0.00201419 0.00108339 0.000869764
0.00430304 0.00172427 0.0010071
0.0069276 0.00282292 0.00178531
0.00926223 0.00363165 0.00228885
0.0133669 0.00419623 0.00263981
0.0179446 0.00462348 0.00289921
0.0225834 0.00495918 0.00308232
0.029633 0.00518807 0.00318914
0.0383917 0.00544747 0.00325017
0.0504921 0.0059968 0.00326543
0.0686656 0.00628672 0.0031281
0.0900282 0.0061799 0.00288396
0.115465 0.00578317 0.00256352
0.145846 0.00495918 0.00227359
0.182223 0.00367742 0.00218204
0.226093 0.0021973 0.00320439
0.27805 0.000732433 0.00482185
0.34612 0.000183108 0.00770581
0.425452 3.0518e-05 0.0119783
0.513817 0 0.0179751
0.616953 0 0.0278019
0.739315 0 0.0424659
0.863172 0 0.0607004
0.959304 0 0.0790417
0.996445 0 0.0924086
1 0 0.100771
1 0 0.10544
1 0 0.10779
1 0 0.108995
0.00125124 0.00102235 0.00077821
0.00161746 0.00140383 0.000946059
0.00360113 0.00247196 0.00163272
0.00561532 0.00361639 0.00268559
0.00720226 0.00442512 0.00314336
0.00895705 0.00505074 0.00350958
0.0129091 0.00553903 0.00378424
0.0170138 0.00590524 0.0039826
0.0213169 0.00656138 0.00411994
0.0287327 0.00738537 0.00422675
0.0387121 0.0081178 0.00428778
0.0532692 0.00851453 0.00418097
0.0723735 0.00856031 0.00393683
0.0954604 0.00830091 0.00360113
0.122545 0.00758373 0.00321965
0.154147 0.00634775 0.00296025
0.190356 0.00457771 0.00283818
0.235309 0.00265507 0.00340276
0.288426 0.000885023 0.00523384
0.354681 0.000274662 0.00810254
0.432227 4.57771e-05 0.0124056
0.5299 0 0.0194705
0.646128 0 0.0307622
0.768704 0 0.04654
0.884504 0 0.0643626
0.965957 0 0.0805829
0.996201 0 0.092195
1 0 0.0998245
1 0 0.104204
1 0 0.106722
1 0 0.108125
1 0 0.108904
1 0 0.109361
0.00370794 0.00460822 0.00239567
0.00543221 0.00526436 0.0030518
0.007187 0.00579843 0.00363165
0.00869764 0.00643931 0.00407416
0.0126345 0.00715648 0.00477607
0.0159915 0.00813306 0.00526436
0.019791 0.00921645 0.00573739
0.027039 0.0102541 0.00608835
0.0369116 0.0109865 0.00613413
0.05243 0.0113375 0.00596628
0.0728771 0.0113375 0.00550851
0.0963149 0.0115053 0.00469978
0.122042 0.0113222 0.00418097
0.152712 0.0104829 0.0037995
0.187839 0.00881971 0.00357061
0.230503 0.00662242 0.00383001
0.278874 0.00401312 0.00460822
0.342428 0.00192264 0.00724804
0.425422 0.000350958 0.0118257
0.526757 3.0518e-05 0.0191653
0.638804 0 0.0299992
0.752926 0 0.044358
0.861158 0 0.0603799
0.941894 0 0.0751659
0.986419 0 0.0870222
1 0 0.0950637
1 0 0.100343
1 0 0.1037
1 0 0.105882
1 0 0.107195
1 0 0.108171
1 0 0.108858
1 0 0.109316
0.00541695 0.00843824 0.00355535
0.00697337 0.00943008 0.00404364
0.00985733 0.0102235 0.00456245
0.0118563 0.0116579 0.00486763
0.0168765 0.0129397 0.00547799
0.0270237 0.0131685 0.00679026
0.03682 0.0135348 0.00859083
0.0526741 0.0148623 0.00939956
0.0708934 0.016144 0.00907912
0.0910048 0.0172274 0.00808728
0.114733 0.0177005 0.00674449
0.143343 0.0170901 0.00523384
0.176608 0.0152895 0.0041352
0.215595 0.0127565 0.00408942
0.263523 0.00927749 0.00445563
0.327153 0.00491341 0.00607309
0.406867 0.00114443 0.0103609
0.499779 0.000122072 0.0168002
0.601663 0 0.0262303
0.704311 0 0.0378576
0.803769 0 0.0515755
0.890837 0 0.0654307
0.952819 0 0.0774853
0.98587 0 0.0867628
0.998566 0 0.0933394
1 0 0.0978408
1 0 0.101244
1 0 0.103914
1 0 0.105882
1 0 0.10724
1 0 0.108186
1 0 0.108858
1 0 0.109316
0.00561532 0.0146944 0.00390631
0.00788891 0.0160372 0.00430304
0.011841 0.0172732 0.00468452
0.0152743 0.0190738 0.00527962
0.0171054 0.0230564 0.00495918
0.0324712 0.0249943 0.00503548
0.0617533 0.0243076 0.00572213
0.0879988 0.023331 0.00764477
0.112184 0.0238041 0.0089723
0.13933 0.0240635 0.00907912
0.169482 0.0240482 0.00799573
0.205188 0.0228275 0.00573739
0.248569 0.0191196 0.00419623
0.30219 0.013138 0.0047303
0.368475 0.00502022 0.00717174
0.446967 0.000885023 0.0125277
0.532982 0.000122072 0.0196078
0.624323 0 0.0284733
0.715312 0 0.0392004
0.800534 0 0.0511025
0.875273 0 0.0628061
0.932616 0 0.0731823
0.969039 0 0.08159
0.990127 0 0.0885786
1 0 0.0941939
1 0 0.0984207
1 0 0.101686
1 0 0.104143
1 0 0.10602
1 0 0.107362
1 0 0.108263
1 0 0.108873
1 0 0.109331
0.00415045 0.0271916 0.00317388
0.00648508 0.0297856 0.00331121
0.0100099 0.0314946 0.00352483
0.01561 0.0336156 0.00370794
0.018143 0.0384527 0.00337224
0.025803 0.0439918 0.00265507
0.0637827 0.0459297 0.00213626
0.108476 0.0433356 0.00213626
0.154879 0.0382696 0.00256352
0.196353 0.0340887 0.00318914
0.242954 0.0280156 0.0037995
0.296574 0.0202487 0.00485237
0.355703 0.0112154 0.00683604
0.418219 0.00518807 0.0100557
0.482063 0.00215152 0.0146792
0.548486 0.000503548 0.0206607
0.617502 4.57771e-05 0.0275731
0.687434 1.5259e-05 0.0357061
0.756008 0 0.0447547
0.823316 0 0.0545357
0.886488 0 0.0646677
0.938521 0 0.0743572
0.972351 0 0.0825513
0.991638 0 0.0893416
1 0 0.0947585
1 0 0.0989242
1 0 0.102159
1 0 0.104479
1 0 0.106233
1 0 0.107515
1 0 0.108415
1 0 0.108965
1 0 0.109377
0.00161746 0.0490578 0.00129702
0.00259403 0.0525673 0.00131228
0.00456245 0.0544137 0.00144961
0.0103761 0.0564126 0.00161746
0.0222477 0.0568093 0.00146487
0.0171359 0.0660105 0.00077821
0.0443122 0.0702525 0.00015259
0.10164 0.0706798 6.10361e-05
0.171298 0.0630808 1.5259e-05
0.248692 0.0462196 0.000579843
0.315129 0.0306401 0.00262455
0.377768 0.0173037 0.00584421
0.443549 0.00888075 0.0108339
0.507866 0.00315862 0.0162661
0.570306 0.000366217 0.0222324
0.628641 0.000122072 0.0284123
0.68426 3.0518e-05 0.0352026
0.739467 0 0.0424811
0.795605 0 0.05037
0.852567 0 0.0589914
0.907607 0 0.0681315
0.950301 0 0.0766155
0.977264 0 0.0839551
0.993774 0 0.0902266
1 0 0.0953231
1 0 0.0993515
1 0 0.102556
1 0 0.104845
1 0 0.106477
1 0 0.107652
1 0 0.108492
1 0 0.109056
1 0 0.109422
0.000167849 0.0770886 0.00015259
0.000244144 0.0802472 0.000137331
0.0010071 0.0813153 0.000122072
0.00463874 0.082536 0.000122072
0.0165103 0.0819562 0.000106813
0.0252232 0.085832 4.57771e-05
0.0225071 0.096788 0
0.0625925 0.101198 0
0.147021 0.0986038 0
0.237339 0.0846723 0.000122072
0.338811 0.0551461 0.00216678
0.427726 0.0282597 0.00721752
0.494301 0.0123598 0.0129091
0.557366 0.00451667 0.019379
0.621347 0.00195315 0.0268559
0.684474 0.000411994 0.0348058
0.746166 0 0.0431678
0.804105 0 0.051545
0.856397 0 0.059617
0.904265 0 0.0675212
0.941344 0 0.0747539
0.968383 0 0.0813458
0.987137 0 0.0872969
1 0 0.0927291
1 0 0.0967269
1 0 0.100206
1 0 0.103014
1 0 0.10515
1 0 0.106737
1 0 0.10779
1 0 0.108553
1 0 0.109133
1 0 0.109468
0 0.108736 0
3.0518e-05 0.112261 0
0.000137331 0.114 0
0.000396735 0.115251 0
0.00602731 0.113573 0
0.0252232 0.110262 0
0.0148013 0.124208 0
0.0248417 0.132815 0
0.0870832 0.136355 0
0.192676 0.131243 0
0.296681 0.112612 0.000350958
0.412757 0.0740978 0.00361639
0.521279 0.032166 0.0125582
0.602243 0.0123445 0.0223392
0.669825 0.00300603 0.0315099
0.734615 3.0518e-05 0.0408179
0.797711 0 0.0503548
0.856748 0 0.0596933
0.909163 0 0.068513
0.949798 0 0.0762798
0.97232 0 0.0824598
0.988342 0 0.0877852
1 0 0.0925612
1 0 0.0959945
1 0 0.0991531
1 0 0.102037
1 0 0.104021
1 0 0.105745
1 0 0.107118
1 0 0.107988
1 0 0.108659
1 0 0.109178
1 0 0.109514
0 0.152392 0
0 0.154711 0
0 0.154406 0
1.5259e-05 0.154604 0
0.00134279 0.151095 0
0.010193 0.14519 0
0.02121 0.146288 0
0.00749218 0.165438 0
0.0324865 0.170581 0
0.11696 0.173541 0
0.239719 0.16762 1.5259e-05
0.36202 0.145098 0.000518807
0.490181 0.0944533 0.00544747
0.614023 0.0359045 0.0193484
0.70901 0.00981155 0.0341192
0.781155 0.00317388 0.0464179
0.84332 0 0.0569467
0.900816 0 0.0667277
0.945464 0 0.0753185
0.971801 0 0.0822919
0.989685 0 0.0882582
1 0 0.0931563
1 0 0.0967727
1 0 0.0996567
1 0 0.102159
1 0 0.103914
1 0 0.105425
1 0 0.106783
1 0 0.107607
1 0 0.108324
1 0 0.108904
1 0 0.10927
1 0 0.109545
0 0.205142 0
0 0.203845 0
0 0.200168 0
0 0.197604 0
6.10361e-05 0.191577 0
0.00187686 0.183612 0
0.0167544 0.176043 0
0.00900282 0.18912 0
0.00675975 0.205158 0
0.0430915 0.209674 0
0.152407 0.214435 0
0.293858 0.208698 0
0.432029 0.182773 0.0009308
0.56968 0.127962 0.007187
0.702937 0.0538186 0.0252995
0.809689 0.00550851 0.0482643
0.883955 0 0.0626535
0.934661 6.10361e-05 0.0728618
0.966445 3.0518e-05 0.0806744
0.98706 1.5259e-05 0.0871443
1 0 0.092668
1 0 0.0965744
1 0 0.0998093
1 0 0.102434
1 0 0.104311
1 0 0.105714
1 0 0.10692
1 0 0.107637
1 0 0.108263
1 0 0.108797
1 0 0.109163
1 0 0.109468
1 0 0.109621
0 0.262119 0
0 0.257176 0
0 0.249271 0
0 0.242969 0
0 0.233234 0
0.000183108 0.223499 0
0.00596628 0.214099 0
0.0198062 0.212711 0
0.00512703 0.235477 0
0.0078584 0.248463 0
0.0608225 0.255909 0
0.190326 0.26244 0
0.354345 0.256153 4.57771e-05
0.505379 0.229679 0.000961318
0.651102 0.167697 0.00814832
0.787121 0.0693217 0.0322728
0.895338 0.0152438 0.0596933
0.955642 0.000518807 0.0760204
0.98201 0.000213626 0.0846571
1 0 0.0915541
1 0 0.0956436
1 0 0.0992142
1 0 0.102113
1 0 0.104128
1 0 0.105714
1 0 0.106981
1 0 0.107774
1 0 0.108385
1 0 0.108904
1 0 0.109209
1 0 0.109483
1 0 0.109606
1 0 0.109682
0 0.318685 0
0 0.311131 0
0 0.300343 0
0 0.292653 0
0 0.280827 0
1.5259e-05 0.2692 0
0.00109865 0.258503 0
0.0138399 0.249546 0
0.0107576 0.261524 0
0.00135805 0.288457 0
0.0123445 0.299901 0
0.0731365 0.310185 0
0.236057 0.317525 0
0.420569 0.310826 0
0.582635 0.281865 0.000961318
0.731762 0.21413 0.00831617
0.863783 0.0968643 0.0368658
0.954116 0.0144961 0.068986
0.989853 0.00463874 0.0854658
1 0.00157168 0.093492
1 0.000747692 0.0978408
1 4.57771e-05 0.101472
1 1.5259e-05 0.103593
1 0 0.105364
1 0 0.106798
1 0 0.107668
1 0 0.108354
1 0 0.108934
1 0 0.109255
1 0 0.109499
1 0 0.109621
1 0 0.109667
1 0 0.109667
0 0.376959 0
0 0.368399 0
0 0.35671 0
0 0.348028 0
0 0.335714 0
0 0.321904 0
7.62951e-05 0.309728 0
0.00386053 0.298878 0
0.018265 0.296986 0
0.00392157 0.322972 0
0.0021973 0.34728 0
0.0134432 0.358099 0
0.100542 0.370932 0
0.289403 0.378897 0
0.491188 0.371069 3.0518e-05
0.660838 0.340566 0.00077821
0.808423 0.267582 0.00852979
0.9308 0.132464 0.0370336
0.985138 0.0424048 0.0728161
1 0.0102083 0.0909895
1 0.00201419 0.0992142
1 0.00015259 0.1028
1 0 0.104814
1 1.5259e-05 0.106477
1 1.5259e-05 0.107408
1 0 0.108202
1 0 0.108858
1 0 0.109209
1 0 0.109483
1 0 0.109621
1 0 0.109651
1 0 0.109651
1 0 0.109636
0 0.441169 0
0 0.43151 0
0 0.418647 0
0 0.409522 0
0 0.395926 0
0 0.381079 0
0 0.367254 0
0.000534066 0.355505 0
0.00881971 0.346029 0
0.00704967 0.357137 0
0.00108339 0.390936 0
0.00077821 0.411521 0
0.02121 0.423056 0
0.123583 0.437385 0
0.349447 0.445243 0
0.564385 0.436866 3.0518e-05
0.735866 0.406317 0.000686656
0.876127 0.334462 0.00613413
0.964492 0.192752 0.0372931
0.999802 0.0664988 0.0737011
1 0.0146334 0.0952773
1 0.00415045 0.102174
1 0.00135805 0.105364
1 0.000381476 0.106981
1 0 0.107988
1 0 0.10869
1 0 0.109117
1 0 0.109438
1 0 0.10959
1 0 0.109636
1 0 0.109636
1 0 0.109636
1 0 0.109636
0 0.509209 0
0 0.498726 0
0 0.484993 0
0 0.475608 0
0 0.461219 0
0 0.445121 0
0 0.430854 0
3.0518e-05 0.417868 0
0.00103761 0.405921 0
0.0103304 0.402686 0
0.00302129 0.427863 0
6.10361e-05 0.462272 0
0.00137331 0.480079 0
0.022446 0.492241 0
0.160647 0.507424 0
0.415122 0.515084 0
0.635325 0.50663 0
0.804166 0.477165 0.000274662
0.927275 0.409125 0.00682078
0.997803 0.284886 0.0281071
0.999893 0.122728 0.064683
1 0.0381476 0.0903029
1 0.0065156 0.104067
1 0.00132753 0.10721
1 0.000488289 0.108309
1 0.00015259 0.108949
1 0 0.109377
1 0 0.10956
1 0 0.109636
1 0 0.109636
1 0 0.109636
1 0 0.109621
1 0 0.109621
0 0.579751 0
0 0.5691 0
0 0.554757 0
0 0.544945 0
0 0.53048 0
0 0.512993 0
0 0.497658 0
0 0.483436 0
3.0518e-05 0.471031 0
0.00384527 0.460624 0
0.00709544 0.469322 0
0.000793469 0.505165 0
0.000198367 0.535622 0
0.000488289 0.551644 0
0.0375677 0.564248 0
0.195041 0.580041 0
0.481132 0.587243 0
0.705821 0.580941 0
0.86717 0.557595 0.000137331
0.965743 0.50161 0.00224308
0.997818 0.359655 0.0236362
0.999847 0.197757 0.0552377
1 0.0814221 0.0848096
1 0.0290684 0.0998398
1 0.00686656 0.106844
1 0.00140383 0.108827
1 1.5259e-05 0.109468
1 1.5259e-05 0.109621
1 1.5259e-05 0.109621
1 1.5259e-05 0.109621
1 0 0.109606
1 0 0.109606
1 0 0.109606
0 0.651072 0
0 0.640085 0
0 0.626627 0
0 0.615747 0
0 0.601648 0
0 0.583917 0
0 0.56762 0
0 0.552819 0
0 0.539712 0
0.00047303 0.527687 0
0.00427253 0.523018 0
0.000549325 0.545312 0
0.000106813 0.584207 0
6.10361e-05 0.609613 0
0.00364691 0.623255 0
0.0417487 0.637247 0
0.24564 0.65301 0
0.553918 0.660258 0
0.77084 0.655497 0
0.912871 0.635966 3.0518e-05
0.986526 0.590524 0.00233463
0.998901 0.498192 0.0102998
1 0.305013 0.0384985
1 0.13753 0.0716869
1 0.0295109 0.100649
1 0.000900282 0.109026
1 1.5259e-05 0.109545
1 0.000900282 0.109361
1 0.0028687 0.108843
1 0.0053254 0.108217
1 0.00787366 0.107546
1 0.0106203 0.106844
1 0.0133516 0.106142
0 0.721492 0
0 0.711055 0
0 0.697658 0
0 0.687022 0
0 0.673609 0
0 0.655177 0
0 0.638239 0
0 0.623041 0
0 0.609552 0
3.0518e-05 0.59736 0
0.00227359 0.585672 0
0.00503548 0.591867 0
0.00106813 0.624796 0
1.5259e-05 0.66099 0
0.000488289 0.682094 0
0.00642405 0.694789 0
0.0657054 0.710201 0
0.313039 0.725338 0
0.629343 0.732601 0
0.832319 0.730343 0
0.954513 0.717021 0
0.990311 0.679011 0.000259403
1 0.577539 0.00970474
1 0.42034 0.0288243
1 0.244831 0.0551461
1 0.106249 0.0824445
1 0.0382086 0.0996567
1 0.0332494 0.100969
1 0.0341955 0.100725
1 0.0365606 0.100099
1 0.039826 0.0992599
1 0.0438392 0.0982223
1 0.0478676 0.0971847
0 0.789258 0
0 0.779721 0
0 0.766369 0
0 0.756283 0
0 0.74461 0
0 0.725597 0
0 0.708812 0
0 0.693294 0
0 0.679225 0
0 0.666651 0
0.000518807 0.653803 0
0.00517281 0.648753 0
0.00355535 0.666407 0
0.000381476 0.704295 0
7.62951e-05 0.735943 0
0.000366217 0.7523 0
0.0115969 0.764645 0
0.0978714 0.780087 0
0.405188 0.793988 0
0.701411 0.801236 0
0.878859 0.801419 0
0.968429 0.78938 4.57771e-05
0.996338 0.756481 0.00106813
0.999878 0.689555 0.00466926
1 0.539773 0.0139773
1 0.348806 0.0361334
1 0.173236 0.0710918
1 0.127337 0.0812085
1 0.121599 0.0822309
1 0.120851 0.0823682
1 0.125063 0.0816205
1 0.133135 0.0801709
1 0.144976 0.0780499
0 0.854047 0.0011902
0 0.844434 0.000946059
0 0.83154 0.000610361
0 0.822446 0.000366217
0 0.811475 0.000106813
0 0.792706 0
0 0.776272 0
0 0.760952 0
0 0.747539 0
0 0.735576 0
6.10361e-05 0.723308 0
0.00157168 0.712123 0
0.00511177 0.715846 0
0.00062562 0.743099 0
6.10361e-05 0.779904 0
0 0.805112 0
0.000946059 0.820371 0
0.0158541 0.831952 0
0.174395 0.846922 0.000595102
0.503136 0.856794 0.00274662
0.767376 0.862455 0.00177005
0.919921 0.862974 0.000534066
0.983841 0.854856 0.000106813
0.998932 0.829282 0.000289921
0.999908 0.765347 0.00192264
1 0.647532 0.00733959
1 0.463676 0.0276341
1 0.359564 0.0415656
1 0.343526 0.0441901
1 0.330312 0.0463569
1 0.32372 0.0474403
1 0.324147 0.0473793
1 0.331182 0.0462196
0 0.907729 0.0158694
0 0.900114 0.0131075
0 0.890211 0.00953689
0 0.882322 0.00677501
0 0.874235 0.00402838
0 0.858061 0.000976577
0 0.841291 0.000503548
0 0.825986 0.000228885
0 0.813107 7.62951e-05
0 0.80061 0
0 0.78909 0
0.000137331 0.77731 0
0.00311284 0.771862 0
0.00349432 0.785275 0
0.000534066 0.818128 0
0 0.852064 0
9.15541e-05 0.869825 0.00404364
0.000885023 0.880491 0.00631724
0.0427405 0.890425 0.00769055
0.236683 0.901442 0.00915541
0.598627 0.910246 0.00764477
0.824689 0.916259 0.00254826
0.945357 0.917006 0.00747692
0.99237 0.908797 0.0122225
0.998917 0.889662 0.00483711
1 0.840986 0.00189212
1 0.73434 0.00488289
1 0.606683 0.0103761
1 0.596796 0.0112917
1 0.582757 0.012604
1 0.56791 0.0139773
1 0.558007 0.0149081
1 0.554467 0.0152438
0 0.956588 0.0395514
0 0.949599 0.0359655
0 0.940032 0.0310674
0 0.932616 0.027039
0 0.926055 0.0235447
0 0.911299 0.0171054
0 0.897475 0.0122683
0 0.88513 0.00819409
0 0.87393 0.00468452
0 0.86363 0.00169375
0 0.853117 0
0 0.842588 0
0.000900282 0.832242 0
0.00476081 0.833997 0
0.00138857 0.855161 0.000869764
9.15541e-05 0.884459 0.00747692
0 0.908919 0.013611
1.5259e-05 0.923415 0.0169375
0.00352483 0.932891 0.0175021
0.0383154 0.941985 0.0178378
0.362341 0.947265 0.0353704
0.677455 0.950591 0.0538338
0.874083 0.953338 0.0645151
0.968612 0.953689 0.0612955
0.994049 0.949004 0.0294652
1 0.935439 0.00421149
1 0.897871 0.0012665
1 0.819318 0.000991836
1 0.796323 0.00120546
1 0.788769 0.00132753
1 0.776425 0.00154116
1 0.762707 0.00175479
1 0.751736 0.0019379
0 0.979706 0.151461
0 0.977066 0.133364
0 0.973419 0.1084
0 0.970642 0.08925
0 0.968002 0.0724651
0 0.961639 0.0382544
0 0.948867 0.0313725
0 0.936324 0.0255436
0 0.925185 0.0212711
0 0.915434 0.0176394
0 0.905928 0.0141299
0 0.89688 0.0110628
0.000122072 0.887617 0.00816358
0.00241093 0.882506 0.00665293
0.00390631 0.8907 0.00813306
0.000457771 0.914 0.0138247
0 0.941711 0.0220493
0 0.957305 0.0455787
0.000198367 0.962921 0.0702983
0.00555428 0.966628 0.0876326
0.120439 0.97055 0.105425
0.435859 0.973617 0.130678
0.75552 0.976715 0.151537
0.911376 0.979797 0.148089
0.979919 0.980591 0.102541
0.996887 0.977523 0.0470283
0.999908 0.971557 0.0316472
1 0.94255 0.0177005
1 0.921843 0.00944533
1 0.920668 0.00927749
1 0.916747 0.00866712
1 0.909697 0.00758373
1 0.901457 0.00631724
0 0.995865 0.279255
0 0.993576 0.260731
0 0.99057 0.236347
0 0.98822 0.217121
0 0.986175 0.200549
0 0.981704 0.164782
0 0.976318 0.129519
0 0.970962 0.098146
0 0.965911 0.0723278
0 0.960998 0.0504463
0 0.955596 0.030396
0 0.946517 0.0260624
0 0.93817 0.0216526
0.000869764 0.930129 0.0176547
0.00854505 0.930129 0.0166476
0.0049897 0.944244 0.0199435
0.000228885 0.960861 0.0619516
1.5259e-05 0.973922 0.115419
1.5259e-05 0.980728 0.155978
0.000259403 0.984466 0.183429
0.024506 0.98674 0.201816
0.176455 0.989837 0.223896
0.562799 0.991745 0.243076
0.818051 0.992752 0.247211
0.940383 0.993866 0.220218
0.986725 0.995377 0.15079
0.999374 0.994079 0.115221
0.999924 0.987625 0.0777295
1 0.97464 0.0318151
1 0.975784 0.0332799
1 0.975586 0.0330053
1 0.974533 0.0316777
1 0.972747 0.0294194
0 0.999741 0.379385
0 0.99939 0.365057
0 0.998947 0.347326
0 0.998566 0.331563
0 0.99823 0.31928
0 0.99736 0.291905
0 0.993469 0.256718
0 0.98938 0.223957
0 0.985458 0.193393
0 0.981842 0.165591
0 0.978286 0.139544
0 0.974151 0.118715
0 0.96965 0.098085
0.000137331 0.964935 0.0783703
0.00387579 0.961669 0.0674449
0.00611887 0.964446 0.0793164
0.000732433 0.974868 0.11783
7.62951e-05 0.985 0.186892
0 0.993301 0.246876
1.5259e-05 0.995499 0.277363
7.62951e-05 0.996307 0.29366
0.0451972 0.996963 0.306325
0.308675 0.998276 0.321889
0.666163 0.999176 0.333806
0.868589 0.998642 0.328771
0.961242 0.998199 0.300587
0.994095 0.998276 0.25626
0.999405 0.997742 0.191073
1 0.993393 0.106645
1 0.992416 0.0849775
1 0.992859 0.08925
1 0.992782 0.0884718
1 0.992325 0.0841993
0 1 0.468101
0 1 0.45594
0 1 0.43888
0 1 0.42414
0 1 0.41387
0 1 0.388891
0 0.999359 0.361395
0 0.998489 0.33434
0 0.997559 0.309636
0 0.996643 0.288273
0 0.995209 0.265583
0 0.991974 0.24007
0 0.988724 0.21503
1.5259e-05 0.985595 0.191348
0.000335698 0.982391 0.16878
0.00112917 0.981552 0.165194
0.000885023 0.985565 0.192874
9.15541e-05 0.993912 0.252155
1.5259e-05 0.997253 0.30901
0 0.999542 0.349432
0 0.999924 0.370977
0.00849927 0.999893 0.382818
0.1131 0.999832 0.392111
0.461051 0.999802 0.404746
0.750851 0.999771 0.414939
0.908354 0.999542 0.410208
0.976074 0.999451 0.388815
0.996796 0.999588 0.334447
1 0.999588 0.239506
1 0.999252 0.170871
1 0.999329 0.187396
1 0.999359 0.193393
1 0.999344 0.192645
0 1 0.548089
0 1 0.536126
0 1 0.520562
0 1 0.50782
0 1 0.498207
0 1 0.477104
0 1 0.450629
0 1 0.425605
0 1 0.403281
