luts/lumix_color_lab_C/S_Night_Time_2.cube
TITLE "Generated by Resolve"
LUT_3D_SIZE 5
0.000549325 0.000396735 0.000350958
0.0122988 0.00436408 0.00277714
0.101625 0.00564584 0.00198367
0.43595 1.5259e-05 0.012665
1 0 0.10071
6.10361e-05 0.0831922 9.15541e-05
0.0680858 0.107149 0
0.762646 0 0.0454566
1 0 0.100099
1 0 0.109453
0 0.578027 0
0 0.518486 0
0.521935 0.623957 0
1 0.0090486 0.106569
1 0.0236515 0.103487
0 1 0.396887
0 0.996048 0.274968
0.000274662 0.984298 0.182223
0.964263 0.998535 0.31342
1 0.996094 0.119966
0 1 0.752346
0 1 0.747143
0.039765 1 0.615167
0.0608377 1 0.720958
0.999435 1 0.638025
0.000946059 0.000915541 0.00123598
0.020325 0.00492866 0.00936904
0.161761 0.00282292 0.0164187
0.652247 0 0.0319371
1 0 0.108232
0 0.114809 0.0919051
0.0763867 0.108263 0.0895399
0.676875 0.00248722 0.0535134
1 0 0.101976
1 0 0.109575
0 0.700877 0
0 0.601877 0
0.538064 0.627253 0
1 0.139361 0.0725261
1 0.0651255 0.0931258
0 1 0.516945
0 1 0.385397
0.0851301 0.967132 0.0934615
0.9635 0.998032 0.292332
1 0.993515 0.108385
0 1 0.752346
0 1 0.748837
0 1 0.648707
0.268803 1 0.658793
0.999313 1 0.640406
0.000915541 0.00277714 0.0116426
0.0129702 0.00518807 0.0610361
0.185092 0.000274662 0.0645304
0.707286 0 0.111269
1 0 0.109606
0 0.021088 0.482033
0 0.00477607 0.657084
0.724483 0 0.347311
1 0 0.249989
1 0 0.111879
0 0.688441 0.626963
0 0.705104 0.632807
0.555779 0.588083 0.546044
0.999985 0.445762 0.417136
1 0.127993 0.120272
0 1 0.694575
0 1 0.61088
6.10361e-05 0.992401 0.366827
0.949722 0.994461 0.418708
1 0.975448 0.608042
0 1 0.755383
0 1 0.753964
0 1 0.708736
0.856199 0.999969 0.545464
0.998062 1 0.663218
0.000564584 0.00483711 0.0414435
0.00364691 0.00103761 0.158511
0.19968 0 0.296193
0.89012 0 0.293736
1 0 0.119188
0 0.223316 0.943618
0 0.522118 0.992233
0.253529 0.441978 0.98996
1 0 0.732006
1 0 0.730251
0 0.763073 0.981323
0 0.793271 0.972793
0.00363165 0.746883 0.974762
0.999603 0.0802777 0.877073
1 0.0386206 0.951782
0 0.997787 0.979355
0 0.997253 0.977493
0 0.985718 0.956924
0.938354 0.945663 0.930816
0.999512 0.946578 0.907652
0 1 0.909346
0 1 0.864622
0 1 0.84538
0.664256 0.999969 0.812039
0.992721 0.99971 0.866209
0.000183108 0.00569161 0.0812848
1.5259e-05 1.5259e-05 0.324636
0.0138552 0 0.687953
0.990402 0 0.883452
1 0 0.776074
0 0.744045 0.999954
0 0.83212 1
9.15541e-05 0.822904 1
0.999359 0.429801 1
1 0 0.987427
0 0.890333 0.996292
0 0.909712 0.99559
0 0.89865 0.996612
0.942092 0.809674 1
1 0.007187 0.996139
0 0.998871 0.987335
0 0.998688 0.987274
0 0.993698 0.987579
0.808576 0.970382 0.991623
0.999664 0.886213 0.982803
0 0.999878 0.987045
0 0.999863 0.986969
0 0.999847 0.986679
0.544671 0.995956 0.987411
0.987686 0.989334 0.987274
