luts/lumix_color_lab_C/S_Night_Time_2.cube
TITLE "Generated by Resolve"
LUT_3D_SIZE 9
0.000549325 0.000396735 0.000350958
0.00236515 0.00112917 0.000915541
0.0122988 0.00436408 0.00277714
0.0376287 0.00569161 0.00318914
0.101625 0.00564584 0.00198367
0.216678 0.00210575 0.00283818
0.43595 1.5259e-05 0.012665
0.790387 0 0.049546
1 0 0.10071
0.00598154 0.0143587 0.0043183
0.0155337 0.0194095 0.00585946
0.0751354 0.020798 0.010132
0.175494 0.0190433 0.00375372
0.409888 0.00115969 0.0104677
0.8056 0 0.0518502
0.998093 0 0.09308
1 0 0.10518
1 0 0.108843
6.10361e-05 0.0831922 9.15541e-05
0.00791943 0.0889448 6.10361e-05
0.0680858 0.107149 0
0.475959 0.0167391 0.0112764
0.762646 0 0.0454566
0.96347 0 0.0799268
1 0 0.100099
1 0 0.107393
1 0 0.109453
0 0.275654 0
0 0.262913 0
0.0177005 0.235019 0
0.221729 0.300496 0
0.918135 0.0289158 0.0586709
1 0.000106813 0.100801
1 0 0.107317
1 0 0.109224
1 0 0.109636
0 0.578027 0
0 0.560388 0
0 0.518486 0
9.15541e-05 0.554635 0
0.521935 0.623957 0
0.999527 0.33547 0.0328832
1 0.0090486 0.106569
1 0.00619516 0.107988
1 0.0236515 0.103487
0 0.894392 0.0110475
0 0.879484 0.00581369
0 0.837629 0.00030518
0.00263981 0.78265 0
0.000534066 0.879499 0.00621042
0.825742 0.919188 0.00259403
1 0.881819 0.00199893
1 0.711284 0.00259403
1 0.717083 0.00251774
0 1 0.396887
0 0.999374 0.363531
0 0.996048 0.274968
0 0.977737 0.134279
0.000274662 0.984298 0.182223
0.0784314 0.997681 0.316411
0.964263 0.998535 0.31342
1 0.995361 0.121126
1 0.996094 0.119966
0 1 0.694728
0 1 0.658869
0 1 0.582208
0 1 0.48484
0.060502 0.999924 0.414466
3.0518e-05 1 0.542062
0.682704 1 0.574533
0.993164 1 0.558892
0.999863 1 0.521843
0 1 0.752346
0 1 0.750805
0 1 0.747143
0 1 0.695186
0.039765 1 0.615167
0.00914015 1 0.665034
0.0608377 1 0.720958
0.893538 1 0.720012
0.999435 1 0.638025
0.000793469 0.000656138 0.000656138
0.0047303 0.0021973 0.00270085
0.0171664 0.00477607 0.00523384
0.0493019 0.00584421 0.00666819
0.126314 0.00477607 0.00535592
0.264027 0.000854505 0.00601205
0.521523 0 0.0187381
0.913527 0 0.0693828
1 0 0.105455
0.00497444 0.0167391 0.0136263
0.0170596 0.0216373 0.0178988
0.0677958 0.0238499 0.0188907
0.190204 0.0198672 0.0118257
0.470832 0.00030518 0.015259
0.865263 0 0.0610971
1 0 0.0957504
1 0 0.106111
1 0 0.109163
0 0.10721 0.00238041
0.000549325 0.111757 0.00392157
0.0729534 0.112032 0.00315862
0.381659 0.0527962 0.0205386
0.666026 0.00331121 0.0321355
0.953811 0 0.0771496
1 0 0.100435
1 0 0.10753
1 0 0.109499
0 0.315373 0
0 0.292073 0
0.00282292 0.265782 0
0.22974 0.305074 0
0.887373 0.0677195 0.0458686
0.999939 0.00256352 0.0941176
1 0 0.105013
1 0 0.108278
1 0 0.109545
0 0.62388 0
0 0.597269 0
0 0.548318 0
0.0400244 0.507622 0
0.530968 0.626795 0
0.999619 0.34287 0.0325322
1 0.0302129 0.100481
1 0.0137636 0.106081
1 0.0389563 0.0996567
0 0.925139 0.0234073
0 0.906538 0.0154421
0 0.867277 0.00233463
0.000198367 0.804395 0
0.00178531 0.85861 0.00169375
0.830198 0.919081 0.00250248
1 0.889509 0.00189212
1 0.711757 0.00271611
1 0.729015 0.00311284
0 1 0.447257
0 1 0.409293
0 0.998154 0.324651
0 0.983932 0.180041
0.0792859 0.968627 0.0983139
0.0723888 0.995285 0.283055
0.964111 0.998337 0.304036
1 0.995407 0.120638
1 0.995361 0.113222
0 1 0.720974
0 1 0.688396
0 1 0.615976
0 1 0.510521
0.0410163 0.999924 0.413352
0.0221408 1 0.496986
0.652171 1 0.550469
0.992782 1 0.543557
0.999878 1 0.515328
0 1 0.752346
0 1 0.751385
0 1 0.747982
0 1 0.712261
0.00735485 1 0.631357
0.357076 1 0.608957
0.0983902 1 0.696056
0.876265 1 0.715328
0.999435 1 0.638025
0.000946059 0.000915541 0.00123598
0.0053254 0.00355535 0.00701915
0.020325 0.00492866 0.00936904
0.0596323 0.00512703 0.0135042
0.161761 0.00282292 0.0164187
0.343008 6.10361e-05 0.0163882
0.652247 0 0.0319371
0.992676 0 0.0896773
1 0 0.108232
0.00317388 0.0202029 0.0308843
0.00956741 0.0235752 0.0470283
0.0795605 0.0175631 0.0495155
0.237308 0.00875868 0.0526436
0.576944 0 0.0348669
0.933257 0 0.0733043
1 0 0.0991073
1 0 0.107118
1 0 0.109422
0 0.114809 0.0919051
1.5259e-05 0.1243 0.0972457
0.0763867 0.108263 0.0895399
0.323705 0.0767681 0.0631418
0.676875 0.00248722 0.0535134
0.962997 0 0.0797894
1 0 0.101976
1 0 0.107988
1 0 0.109575
0 0.375433 0
0 0.351247 0
6.10361e-05 0.319127 0.00251774
0.239521 0.313161 0.00932326
0.781491 0.179263 0.0979171
0.978744 0.0492256 0.0772259
1 0.00326543 0.101335
1 0 0.107942
1 0 0.109529
0 0.700877 0
0 0.656901 0
0 0.601877 0
0.0423438 0.540734 0
0.538064 0.627253 0
0.999344 0.378851 0.0266728
1 0.139361 0.0725261
1 0.0621347 0.0937209
1 0.0651255 0.0931258
0 0.9673 0.066331
0 0.94316 0.0326696
0 0.901213 0.0135348
0 0.830869 0
0.100237 0.812238 0
0.832547 0.916854 0.00296025
1 0.892058 0.00320439
1 0.693553 0.00482185
1 0.730648 0.0047303
0 1 0.516945
0 1 0.466285
0 1 0.385397
0 0.99147 0.236393
0.0851301 0.967132 0.0934615
0.0944381 0.991714 0.235355
0.9635 0.998032 0.292332
1 0.995193 0.122576
1 0.993515 0.108385
0 1 0.752346
0 1 0.718685
0 1 0.655482
0 1 0.544488
0.00477607 0.999985 0.437186
0.32253 0.999954 0.425269
0.629129 1 0.520409
0.992172 1 0.526009
0.999878 1 0.507485
0 1 0.752346
0 1 0.751919
0 1 0.748837
0 1 0.73463
0 1 0.648707
0.575723 1 0.577691
0.268803 1 0.658793
0.869093 1 0.690578
0.999313 1 0.640406
0.000991836 0.00123598 0.00462348
0.00488289 0.00459297 0.0176699
0.0179446 0.00512703 0.0272984
0.0690471 0.00416571 0.0239872
0.157809 0.00173953 0.0336919
0.372641 0 0.0546883
0.761822 0 0.0658579
1 0 0.100481
1 0 0.109483
0.00062562 0.0214694 0.0677501
0.00213626 0.0216678 0.113375
0.0337682 0.00932326 0.169162
0.224125 0.0037232 0.101152
0.578775 0 0.121981
0.984878 0 0.0935225
1 0 0.104234
1 0 0.108675
1 0 0.109743
0 0.0839857 0.262257
0 0.0990005 0.277073
0.00105287 0.0755627 0.305577
0.354162 0.0206455 0.203052
0.755215 1.5259e-05 0.196094
0.991363 0 0.108949
1 0 0.10454
1 0 0.108614
1 0 0.109697
0 0.339178 0.291005
0 0.352758 0.299718
0 0.3458 0.2878
0.251133 0.29546 0.262272
0.669535 0.249516 0.211582
0.971786 0.0634928 0.142931
1 0.00334173 0.1037
1 0 0.10808
1 0 0.109575
0 0.770779 0.00047303
0 0.762341 0.00140383
0 0.704143 0.00448615
0.00450141 0.627131 0.0429999
0.543206 0.623407 0.0826276
0.989319 0.501259 0.263462
1 0.400168 0.140505
1 0.291508 0.0568093
1 0.122408 0.0824445
0 0.99173 0.251469
0 0.983001 0.204425
0 0.955734 0.0928206
0 0.881178 0.0292821
0.273106 0.819745 0.00326543
0.825345 0.901579 0.0521859
0.999985 0.875563 0.0247349
1 0.726085 0.0404517
1 0.746715 0.0713512
0 1 0.618769
0 1 0.564858
0 1 0.469947
0 0.997436 0.327642
0.00183108 0.974777 0.164645
0.321324 0.97203 0.155367
0.958694 0.996933 0.302419
1 0.993362 0.145159
1 0.988861 0.110491
0 1 0.752224
0 1 0.752331
0 1 0.705333
0 1 0.594629
1.5259e-05 0.999985 0.470237
0.597482 0.999313 0.372412
0.599344 0.999924 0.473671
0.990951 1 0.513207
0.999908 1 0.488197
0 1 0.752148
0 1 0.752041
0 1 0.749554
0 1 0.745525
0 1 0.674357
0.321233 1 0.589715
0.754421 1 0.584634
0.854948 1 0.657298
0.998871 1 0.650431
0.000915541 0.00277714 0.0116426
0.00392157 0.00505074 0.035462
0.0129702 0.00518807 0.0610361
0.0734874 0.00205997 0.0710613
0.185092 0.000274662 0.0645304
0.365148 0 0.0762036
0.707286 0 0.111269
1 0 0.103502
1 0 0.109606
4.57771e-05 0.0166629 0.126421
3.0518e-05 0.00701915 0.218601
0.000411994 1.5259e-05 0.378546
0.174105 0 0.353552
0.597375 0 0.214633
0.959731 0 0.182223
1 0 0.135943
1 0 0.110384
1 0 0.109773
0 0.021088 0.482033
0 0.00854505 0.584451
0 0.00477607 0.657084
0.090959 9.15541e-05 0.648524
0.724483 0 0.347311
0.98471 0 0.340978
1 0 0.249989
1 0 0.126192
1 0 0.111879
0 0.258701 0.669688
0 0.302113 0.657084
0 0.336278 0.616632
0.00737011 0.284367 0.615274
0.692988 0.0974746 0.463584
0.999176 0.00239567 0.48072
1 0.000381476 0.350576
1 0 0.16669
1 0 0.116075
0 0.688441 0.626963
0 0.705287 0.639323
0 0.705104 0.632807
1.5259e-05 0.661418 0.57998
0.555779 0.588083 0.546044
0.929702 0.567437 0.487922
0.999985 0.445762 0.417136
1 0.299611 0.265553
1 0.127993 0.120272
0 0.996338 0.417334
0 0.996994 0.411368
0 0.992325 0.392432
0 0.953384 0.336019
0.100374 0.890715 0.356298
0.820294 0.885313 0.408347
0.997086 0.848066 0.585077
0.999969 0.847303 0.578256
1 0.811704 0.37203
0 1 0.694575
0 1 0.671565
0 1 0.61088
0 0.999985 0.465522
6.10361e-05 0.992401 0.366827
0.699855 0.96849 0.32784
0.949722 0.994461 0.418708
0.999985 0.98735 0.432761
1 0.975448 0.608042
0 1 0.756252
0 1 0.757198
0 1 0.755673
0 1 0.661906
0 1 0.53135
0.370474 0.999496 0.437705
0.731167 0.999207 0.432959
0.989029 0.999893 0.526101
0.999878 1 0.558907
0 1 0.755383
0 1 0.755718
0 1 0.753964
0 1 0.75024
0 1 0.708736
0.0842908 1 0.611353
0.856199 0.999969 0.545464
0.845945 1 0.608103
0.998062 1 0.663218
0.000747692 0.00411994 0.0246738
0.00277714 0.00518807 0.0591135
0.00807202 0.00354009 0.105089
0.0538949 0.000610361 0.145037
0.210407 0 0.150698
0.439719 0 0.143862
0.772992 0 0.155901
1 0 0.132067
1 0 0.109285
0 0.00784314 0.209979
0 7.62951e-05 0.378637
0 0 0.649104
7.62951e-05 4.57771e-05 0.767742
0.605859 0 0.626596
0.98587 0 0.395377
1 0 0.247303
1 0 0.199329
1 0 0.178637
0 0.00357061 0.769436
0 0.0323796 0.862531
0 0.122133 0.918242
0 0.258045 0.955856
0.604776 0.000106813 0.819074
0.991348 0 0.538308
1 0 0.455451
1 0 0.503197
1 0 0.566522
0 0.321447 0.86659
0 0.358984 0.858808
0 0.396216 0.883391
0 0.386618 0.911009
0.45948 0.184909 0.886213
0.976837 0 0.643
1 0 0.650401
1 0 0.704555
1 0 0.708156
0 0.682475 0.923339
0 0.704448 0.926177
0 0.7149 0.916686
0 0.688991 0.874098
0.156756 0.628412 0.861738
0.938231 0.416556 0.748745
1 0.206485 0.793317
1 0.137499 0.775067
1 0.096025 0.711681
0 0.940459 0.901946
0 0.946715 0.906706
0 0.946136 0.90309
0 0.928161 0.877516
0.00892653 0.895247 0.829526
0.821103 0.840558 0.807507
0.98114 0.841947 0.779736
0.999588 0.845991 0.75108
1 0.785534 0.696086
0 0.999969 0.860212
0 1 0.838468
0 1 0.798215
0 1 0.732067
0 0.99794 0.675578
0.608255 0.981735 0.690028
0.940108 0.974685 0.725383
0.996796 0.953613 0.846342
0.999908 0.955367 0.838621
0 1 0.802365
0 1 0.794934
0 1 0.793271
0 1 0.791684
0 1 0.678843
0.223163 0.999725 0.637171
0.905928 0.996658 0.632166
0.983932 0.999237 0.695445
0.999146 0.996811 0.812696
0 1 0.771298
0 1 0.77351
0 1 0.776318
0 1 0.772366
0 1 0.764721
0.0119936 1 0.678309
0.759197 0.999985 0.634958
0.935042 0.999939 0.617212
0.997086 1 0.719905
0.000564584 0.00483711 0.0414435
0.00169375 0.00514229 0.0838483
0.00364691 0.00103761 0.158511
0.03093 4.57771e-05 0.244022
0.19968 0 0.296193
0.510399 0 0.285115
0.89012 0 0.293736
1 0 0.232334
1 0 0.119188
0 0.000717174 0.319509
0 1.5259e-05 0.558999
0 0.0141451 0.872908
0 0.345754 0.977981
0.343893 0.136965 0.952087
0.990265 0 0.784802
1 0 0.574716
1 0 0.399863
1 0 0.36289
0 0.223316 0.943618
0 0.392004 0.975509
0 0.522118 0.992233
0 0.648432 0.998901
0.253529 0.441978 0.98996
0.992645 4.57771e-05 0.901915
1 0 0.732006
1 0 0.643381
1 0 0.730251
0 0.474311 0.957748
0 0.515541 0.968063
0 0.573251 0.980041
0 0.616556 0.9906
0.0920424 0.608148 0.995026
0.936263 0.0470588 0.950774
1 0 0.811872
1 0 0.782696
1 0 0.881651
0 0.763073 0.981323
0 0.780728 0.978546
0 0.793271 0.972793
0 0.780102 0.97023
0.00363165 0.746883 0.974762
0.813489 0.599542 0.969039
0.999603 0.0802777 0.877073
1 0.0296941 0.897536
1 0.0386206 0.951782
0 0.943648 0.977646
0 0.950195 0.978927
0 0.949645 0.978363
0 0.935821 0.972412
0.000610361 0.911818 0.955596
0.633707 0.870649 0.950744
0.983032 0.778546 0.914366
0.999527 0.773907 0.93344
1 0.72462 0.923156
0 0.997787 0.979355
0 0.997879 0.979355
0 0.997253 0.977493
0 0.993378 0.971008
0 0.985718 0.956924
0.452354 0.96759 0.936507
0.938354 0.945663 0.930816
0.988144 0.945708 0.923476
0.999512 0.946578 0.907652
0 0.999985 0.9738
0 1 0.968032
0 1 0.954589
0 1 0.922866
0 1 0.886702
0.0900893 0.999207 0.864118
0.878569 0.992264 0.878401
0.974792 0.988067 0.896208
0.99736 0.978485 0.946059
0 1 0.909346
0 1 0.885542
0 1 0.864622
0 1 0.852781
0 1 0.84538
0.000198367 1 0.814954
0.664256 0.999969 0.812039
0.959808 0.999405 0.825666
0.992721 0.99971 0.866209
0.000381476 0.00529488 0.059617
0.00062562 0.00410468 0.113939
0.000640879 0.000213626 0.224903
0.00561532 0 0.37467
0.140993 0 0.482979
0.543282 0 0.524514
0.966018 0 0.563836
1 0 0.523964
1 0 0.287602
0 0.000213626 0.44892
0 0 0.729152
0 0.384833 0.981353
0 0.742214 0.999939
0.0386816 0.651423 0.999496
0.929519 0.168765 0.98703
1 0 0.895125
1 0 0.773068
1 0 0.701183
0 0.541772 0.993652
0 0.624445 0.998108
0 0.725948 0.999786
0 0.819242 1
0.0375067 0.763439 1
0.886976 0.479118 0.999817
1 1.5259e-05 0.970413
1 0 0.90042
1 0 0.864942
0 0.624323 0.991791
0 0.67747 0.995514
0 0.727504 0.997818
0 0.780652 0.999603
0.0055848 0.806729 0.999985
0.776547 0.632303 0.999252
1 0.0233005 0.989151
1 0 0.940414
1 0 0.918547
0 0.834455 0.992874
0 0.846311 0.991104
0 0.858991 0.990921
0 0.857084 0.992462
3.0518e-05 0.850828 0.994934
0.663615 0.804852 0.998398
0.996735 0.449012 0.994278
1 0.0172427 0.963607
1 0.000106813 0.958373
0 0.961913 0.990143
0 0.965743 0.989868
0 0.966659 0.989075
0 0.958968 0.986023
1.5259e-05 0.945083 0.983139
0.415259 0.917723 0.98558
0.941543 0.853147 0.986969
0.999924 0.662593 0.964004
1 0.518059 0.976608
0 0.998245 0.987427
0 0.998322 0.987411
0 0.997757 0.987411
0 0.994644 0.987457
0 0.988327 0.98497
0.375891 0.972442 0.978592
0.882383 0.95375 0.977478
0.988586 0.928985 0.965988
0.999207 0.924239 0.96965
0 0.999878 0.987045
0 0.999878 0.987045
0 0.999863 0.986954
0 0.999863 0.986633
0 0.999802 0.983032
0.102312 0.99559 0.976577
0.836698 0.984588 0.97145
0.972946 0.976486 0.971511
0.994278 0.976089 0.968505
0 0.999878 0.987045
0 0.999908 0.985672
0 0.999939 0.982116
0 0.999985 0.971832
0 1 0.950317
0.000183108 1 0.937804
0.492485 0.999405 0.936675
0.94754 0.996139 0.94847
0.988159 0.994446 0.956756
0.000183108 0.00569161 0.0812848
0.000198367 0.00141909 0.159335
1.5259e-05 1.5259e-05 0.324636
1.5259e-05 0 0.551308
0.0138552 0 0.687953
0.522683 0 0.804349
0.990402 0 0.883452
1 0 0.872084
1 0 0.776074
0 0 0.604242
0 0.0409247 0.900511
0 0.733776 0.999908
0 0.833188 1
0.00157168 0.828824 1
0.754101 0.721691 1
1 0.122454 0.999985
1 0 0.983154
1 0 0.947005
0 0.744045 0.999954
0 0.797833 1
0 0.83212 1
0 0.829572 1
9.15541e-05 0.822904 1
0.721004 0.796185 1
0.999359 0.429801 1
1 0.000106813 0.999512
1 0 0.987427
0 0.770428 0.999634
0 0.81706 0.999802
0 0.840253 0.999832
0 0.845884 0.999863
0 0.835157 0.999954
0.644892 0.810925 1
0.98996 0.677455 1
1 0.020798 1
1 7.62951e-05 0.994583
0 0.890333 0.996292
0 0.90013 0.995651
0 0.909712 0.99559
0 0.908843 0.995819
0 0.89865 0.996612
0.488106 0.872572 0.998932
0.942092 0.809674 1
1 0.306661 0.999924
1 0.007187 0.996139
0 0.969894 0.990356
0 0.974304 0.989944
0 0.977157 0.989624
0 0.974105 0.989746
0 0.966064 0.990356
0.188815 0.95169 0.992416
0.874983 0.922621 0.996216
0.997101 0.820325 0.997711
1 0.402121 0.992844
0 0.998871 0.987335
0 0.999008 0.987305
0 0.998688 0.987274
0 0.996948 0.987366
0 0.993698 0.987579
0.177142 0.985199 0.989029
0.808576 0.970382 0.991623
0.969909 0.949096 0.992691
0.999664 0.886213 0.982803
0 0.999878 0.987045
0 0.999878 0.987045
0 0.999863 0.986954
0 0.999863 0.986801
0 0.999725 0.98674
0.088716 0.996872 0.987549
0.801236 0.986526 0.989151
0.951659 0.979828 0.989425
0.994339 0.969009 0.984634
0 0.999878 0.987045
0 0.999878 0.987045
0 0.999863 0.986969
0 0.999863 0.986831
0 0.999847 0.986679
0.00433356 0.999649 0.986603
0.544671 0.995956 0.987411
0.931289 0.992401 0.986831
0.987686 0.989334 0.987274
