luts/lumix_color_lab_C/S_Night_Time_1.cube
TITLE "Generated by Resolve"
LUT_3D_SIZE 9
0.000335698 0.000244144 0.000213626
0.00201419 0.00108339 0.000869764
0.0133669 0.00419623 0.00263981
0.0383917 0.00544747 0.00325017
0.115465 0.00578317 0.00256352
0.27805 0.000732433 0.00482185
0.616953 0 0.0278019
0.996445 0 0.0924086
1 0 0.108995
0.00561532 0.0146944 0.00390631
0.0171054 0.0230564 0.00495918
0.112184 0.0238041 0.0089723
0.248569 0.0191196 0.00419623
0.532982 0.000122072 0.0196078
0.875273 0 0.0628061
1 0 0.0941939
1 0 0.10602
1 0 0.109331
0 0.108736 0
0.00602731 0.113573 0
0.0870832 0.136355 0
0.521279 0.032166 0.0125582
0.797711 0 0.0503548
0.97232 0 0.0824598
1 0 0.0991531
1 0 0.107118
1 0 0.109514
0 0.318685 0
0 0.280827 0
0.0107576 0.261524 0
0.236057 0.317525 0
0.863783 0.0968643 0.0368658
1 0.000747692 0.0978408
1 0 0.106798
1 0 0.109255
1 0 0.109667
0 0.579751 0
0 0.53048 0
3.0518e-05 0.471031 0
0.000198367 0.535622 0
0.481132 0.587243 0
0.997818 0.359655 0.0236362
1 0.00686656 0.106844
1 1.5259e-05 0.109621
1 0 0.109606
0 0.854047 0.0011902
0 0.811475 0.000106813
0 0.747539 0
0.00511177 0.715846 0
0.000946059 0.820371 0
0.767376 0.862455 0.00177005
0.999908 0.765347 0.00192264
1 0.343526 0.0441901
1 0.331182 0.0462196
0 0.995865 0.279255
0 0.986175 0.200549
0 0.965911 0.0723278
0 0.93817 0.0216526
0.000228885 0.960861 0.0619516
0.024506 0.98674 0.201816
0.940383 0.993866 0.220218
1 0.97464 0.0318151
1 0.972747 0.0294194
0 1 0.620966
0 1 0.573388
0 1 0.486122
0 1 0.409949
0.0159609 0.999817 0.350454
0.000274662 1 0.485893
0.334661 1 0.535622
0.990463 1 0.527169
0.999908 1 0.479408
0 1 0.752346
0 1 0.751568
0 1 0.735668
0 1 0.680156
1.5259e-05 1 0.619867
0.0857404 1 0.62475
0.000518807 1 0.724788
0.720974 1 0.726497
0.999435 1 0.638025
0.00062562 0.000518807 0.000549325
0.00488289 0.00205997 0.00259403
0.0186465 0.00448615 0.00511177
0.0558633 0.0055848 0.00766003
0.155337 0.00416571 0.00875868
0.360739 0.000106813 0.0110018
0.764462 0 0.0459602
1 0 0.101366
1 0 0.109499
0.00430304 0.0191806 0.0151522
0.0198062 0.0260624 0.0217288
0.0963149 0.0309606 0.0209659
0.26099 0.020264 0.0122377
0.577813 0 0.0242161
0.896223 0 0.0663157
1 0 0.0958572
1 0 0.106722
1 0 0.109529
0 0.152453 0.000503548
6.10361e-05 0.148104 0.00132753
0.092546 0.140108 0.00164797
0.412146 0.0780957 0.027863
0.653254 0.0186313 0.0309911
0.915526 0 0.0695201
1 0 0.0971389
1 0 0.107042
1 0 0.109545
0 0.365743 0
0 0.318196 0
0.0221561 0.276814 0
0.240635 0.31664 0
0.844602 0.122835 0.0300298
0.997086 0.00601205 0.087602
1 0.000183108 0.102739
1 0 0.107866
1 0 0.109575
0 0.631113 0
0 0.567651 0
0 0.499031 0
0.0315557 0.477745 0
0.486915 0.582666 0
0.997925 0.35697 0.0247501
1 0.0382391 0.0973526
1 0 0.109453
1 0.000961318 0.109346
0 0.890974 0.00981155
0 0.844511 0.000915541
0 0.778103 0
0.00122072 0.72369 0
0.00462348 0.785321 0
0.770535 0.858885 0.00161746
0.999954 0.768277 0.00192264
1 0.350912 0.0431983
1 0.373373 0.0402228
0 0.998886 0.345068
0 0.994095 0.264256
0 0.977203 0.13521
0 0.955489 0.0332799
0.0572061 0.929732 0.0153964
0.0235599 0.978729 0.147982
0.940597 0.992523 0.211795
1 0.975814 0.0334325
1 0.970871 0.0276799
0 1 0.663035
0 1 0.608957
0 1 0.529854
0 1 0.444831
0.00424201 0.999893 0.368124
0.0555276 0.999893 0.402975
0.343526 0.999985 0.504295
0.990524 1 0.515404
0.999908 1 0.480674
0 1 0.752346
0 1 0.752056
0 1 0.748669
0 1 0.703929
0 1 0.642588
0.297765 1 0.591196
0.0372015 1 0.683909
0.666041 1 0.727413
0.999435 1 0.638025
0.000839246 0.000823987 0.00102235
0.00564584 0.00343328 0.00775158
0.0217594 0.00459297 0.00927749
0.0630198 0.00495918 0.014435
0.194491 0.00180056 0.0259861
0.473503 0 0.0304723
0.93315 0 0.0732586
1 0 0.106813
1 0 0.109834
0.00225834 0.0232242 0.0408026
0.00840772 0.0289464 0.0664378
0.112474 0.0197757 0.0675212
0.32372 0.00502022 0.0794537
0.680003 0 0.0629129
0.944137 0 0.0758526
1 0 0.0993515
1 0 0.107652
1 0 0.109697
0 0.157382 0.129473
0 0.160693 0.127596
0.0953841 0.132326 0.111803
0.330709 0.108553 0.0870527
0.634623 0.0257725 0.0705882
0.924819 3.0518e-05 0.0735637
1 0 0.0981613
1 0 0.107424
1 0 0.109606
0 0.429953 0
0 0.382239 0.000335698
0.00254826 0.330129 0.010132
0.246265 0.319112 0.0263828
0.71725 0.215793 0.120897
0.944091 0.0879377 0.0845808
0.999969 0.00813306 0.0961929
1 6.10361e-05 0.107408
1 0 0.109575
0 0.715129 0
0 0.630442 0
0 0.565606 0
0.075761 0.512383 0
0.492439 0.58114 0
0.996567 0.390204 0.0191196
1 0.139559 0.0730907
1 0.0231174 0.102571
1 0.0167391 0.105333
0 0.945373 0.0337987
0 0.887602 0.00863661
0 0.821912 0.000228885
7.62951e-05 0.754391 0
0.104799 0.735836 0
0.772824 0.854322 0.0027924
0.999969 0.76228 0.00227359
1 0.348241 0.0449989
1 0.410895 0.0355383
0 1 0.43476
0 0.998718 0.337774
0 0.989105 0.222385
0 0.966796 0.0846723
0.0287633 0.938033 0.0174716
0.0674296 0.965957 0.0889601
0.941253 0.991394 0.205509
1 0.97557 0.0389868
1 0.964858 0.0299229
0 1 0.715618
0 1 0.653147
0 1 0.580499
0 1 0.485939
0 0.999954 0.400046
0.427008 0.999496 0.337819
0.356191 0.999969 0.469001
0.990662 1 0.505608
0.999893 1 0.488853
0 1 0.752346
0 1 0.7523
0 1 0.749447
0 1 0.730175
0 1 0.667414
0.139879 1 0.605112
0.473045 1 0.625132
0.664118 1 0.705974
0.999435 1 0.63714
0.000976577 0.00112917 0.00430304
0.00553903 0.00434882 0.0174868
0.0212863 0.00466926 0.0248112
0.0789654 0.00399786 0.027039
0.1897 0.000976577 0.0437781
0.479194 0 0.0768749
0.976699 0 0.0877852
1 0 0.108598
1 0 0.10985
0.000183108 0.02533 0.0823682
0.00132753 0.0244602 0.146654
0.0563516 0.00466926 0.210651
0.308583 0.000991836 0.141146
0.660533 0 0.159167
0.980514 0 0.114168
1 0 0.103899
1 0 0.108873
1 0 0.109773
0 0.105516 0.345602
0 0.134569 0.310307
0.00523384 0.110964 0.307652
0.358358 0.0489357 0.222156
0.70106 0.00257877 0.219974
0.964111 0 0.140749
1 0 0.101686
1 0 0.10808
1 0 0.109682
0 0.381079 0.329274
0 0.376349 0.319677
1.5259e-05 0.347799 0.289204
0.256596 0.299794 0.267094
0.611154 0.267384 0.225956
0.933257 0.0985428 0.171847
0.999969 0.00769055 0.104616
1 1.5259e-05 0.107652
1 0 0.109621
0 0.754849 0.00378424
0 0.723995 0.0031281
0 0.650782 0.0245518
0.0148928 0.583581 0.0808118
0.496925 0.577356 0.123262
0.954742 0.485145 0.279179
0.999191 0.385748 0.147585
1 0.147189 0.0767987
1 0.0226139 0.103899
0 0.978058 0.161059
0 0.956603 0.0928511
0 0.881041 0.0246891
0 0.818662 0.00437934
0.236774 0.769192 0.00704967
0.768826 0.843931 0.035111
0.999695 0.764874 0.0277104
1 0.530663 0.0600595
1 0.503243 0.0323644
0 1 0.541131
0 1 0.452033
0 0.998077 0.331807
0 0.980789 0.191318
0.00411994 0.952956 0.0927749
0.428 0.938125 0.0601663
0.936095 0.987243 0.236851
1 0.969146 0.0449836
1 0.959991 0.0634623
0 1 0.752224
0 1 0.713298
0 1 0.63534
0 1 0.540215
0 0.999985 0.442725
0.299855 0.999451 0.357107
0.45864 0.999878 0.426383
0.98996 0.999969 0.500603
0.999908 1 0.484718
0 1 0.752346
0 1 0.75227
0 1 0.74995
0 1 0.746136
0 1 0.696056
0.0333104 1 0.62681
0.788205 1 0.580148
0.69276 1 0.679789
0.999374 1 0.638804
0.0010071 0.00260929 0.010956
0.0049897 0.00480659 0.0339666
0.0172427 0.00482185 0.0553292
0.0936141 0.00161746 0.0742962
0.232303 6.10361e-05 0.0816815
0.486732 0 0.0991836
0.946868 0 0.125902
1 0 0.108385
1 0 0.10985
1.5259e-05 0.0212863 0.150927
0 0.00518807 0.279622
0 0 0.508293
0.256916 0 0.437079
0.689845 0 0.263569
0.962936 0 0.217029
1 0 0.159716
1 0 0.109316
1 0 0.109773
0 0.0415961 0.553292
0 0.0472877 0.560815
0 0.0264134 0.609476
0.147738 0.00213626 0.596109
0.674449 7.62951e-05 0.344823
0.954284 0 0.342733
1 0 0.238407
1 0 0.110536
1 0 0.109712
0 0.316548 0.675242
0 0.331838 0.641611
0 0.339132 0.571267
0.02916 0.291203 0.561242
0.635752 0.14757 0.436423
0.959487 0.0235447 0.442863
1 0.00103761 0.310002
1 0 0.123934
1 0 0.109682
0 0.675441 0.612787
0 0.670588 0.601648
0 0.65127 0.576013
0.000518807 0.609735 0.525063
0.513787 0.546761 0.503532
0.878019 0.525582 0.449882
0.998596 0.395392 0.364904
1 0.151843 0.164935
1 0.0254215 0.104707
0 0.976623 0.368673
0 0.974441 0.327214
0 0.958099 0.29688
0 0.894438 0.275013
0.112444 0.840269 0.32079
0.767071 0.833066 0.370581
0.996658 0.778241 0.546365
1 0.745815 0.419944
1 0.58233 0.117311
0 1 0.613657
0 1 0.568765
0 1 0.488426
0 0.995514 0.355138
6.10361e-05 0.977218 0.295552
0.58294 0.950408 0.272084
0.929885 0.982147 0.35639
1 0.959075 0.317891
1 0.944686 0.548913
0 1 0.754177
0 1 0.754955
0 1 0.71017
0 1 0.60174
0 0.999985 0.501305
0.100908 0.999496 0.414893
0.750698 0.998398 0.38117
0.98883 0.999893 0.511696
0.999878 1 0.544411
0 1 0.752987
0 1 0.753567
0 1 0.752361
0 1 0.749081
0 1 0.728511
0.00468452 1 0.651438
0.712825 1 0.588235
0.778653 1 0.637385
0.999268 1 0.64802
0.000900282 0.00404364 0.0238651
0.00411994 0.004654 0.0558938
0.01149 0.00323491 0.105989
0.0809796 0.000228885 0.168948
0.271687 0 0.190555
0.585763 0 0.187594
0.9738 0 0.171466
1 0 0.112123
1 0 0.10985
0 0.00463874 0.260365
0 7.62951e-05 0.487739
0 0.000762951 0.825544
0.00471504 0.00189212 0.848142
0.671016 0 0.679484
0.981918 0 0.417426
1 0 0.268223
1 0 0.203159
1 0 0.139361
0 0.0238346 0.788525
0 0.0336614 0.820706
0 0.0783246 0.880247
0 0.105867 0.91783
0.548287 4.57771e-05 0.773632
0.957321 0 0.498543
0.999985 0 0.438285
1 0 0.39234
1 0 0.269718
0 0.357687 0.865538
0 0.363424 0.827893
0 0.37142 0.837461
0 0.336996 0.855619
0.411215 0.165484 0.836545
0.935988 4.57771e-05 0.592966
0.999985 0 0.61178
1 0 0.557366
1 0 0.381109
0 0.658091 0.899672
0 0.655955 0.893996
0 0.652369 0.87042
0 0.627665 0.814267
0.159991 0.575143 0.807157
0.888518 0.392035 0.694759
0.999466 0.180636 0.723293
1 0.0499275 0.630228
1 0.0204166 0.411978
0 0.911711 0.870283
0 0.910842 0.865339
0 0.904402 0.852079
0 0.882261 0.818433
0.0152895 0.848768 0.773495
0.768231 0.790784 0.755398
0.976867 0.788495 0.714229
1 0.736156 0.6486
1 0.570672 0.491203
0 1 0.755138
0 1 0.710414
0 1 0.667353
0 0.999847 0.615671
0 0.994797 0.578531
0.455268 0.973068 0.605127
0.922942 0.963912 0.652445
0.99884 0.93434 0.802396
1 0.944533 0.759472
0 1 0.765698
0 1 0.766293
0 1 0.768887
0 1 0.716045
0 1 0.608331
0.0360723 0.999924 0.563134
0.846235 0.99826 0.549096
0.985077 0.999588 0.633646
0.999313 0.998749 0.780728
0 1 0.757336
0 1 0.759426
0 1 0.759823
0 1 0.756939
0 1 0.753628
0 1 0.693828
0.509117 1 0.62855
0.920653 1 0.600412
0.998383 1 0.698756
0.000717174 0.00471504 0.0400244
0.00296025 0.00462348 0.0824903
0.00459297 0.000549325 0.1823
0.0372778 0 0.315862
0.248569 0 0.420539
0.68986 0 0.437201
1 0 0.390509
1 0 0.157214
1 0 0.110307
0 0.000854505 0.418402
0 4.57771e-05 0.744503
0 0.383398 0.980835
0 0.54313 0.996002
0.319814 0.241215 0.970153
0.979919 0 0.839872
1 0 0.598627
1 0 0.344182
1 0 0.376104
0 0.271748 0.94551
0 0.342962 0.961517
0 0.474861 0.985153
0 0.58381 0.997177
0.153155 0.397253 0.982452
0.929122 0.000549325 0.899809
1 0 0.689982
1 0 0.559396
1 0 0.654551
0 0.48777 0.953979
0 0.493675 0.954406
0 0.533715 0.969528
0 0.558251 0.980285
0.0447089 0.562707 0.988968
0.832105 0.0935988 0.938384
0.999985 0 0.759777
1 0 0.727626
1 0 0.816419
0 0.738354 0.976883
0 0.732464 0.967727
0 0.734936 0.958785
0 0.718044 0.957366
0.00210575 0.691295 0.96347
0.722896 0.560464 0.959243
0.998398 0.0472114 0.835203
1 0.00637827 0.865141
1 0.00535592 0.888212
0 0.914824 0.97557
0 0.914549 0.974823
0 0.909468 0.971878
0 0.895354 0.961151
0.00138857 0.872831 0.940566
0.527276 0.828199 0.936889
0.979507 0.704662 0.884596
1 0.599573 0.904723
1 0.508766 0.875853
0 0.992416 0.969497
0 0.991424 0.967651
0 0.989563 0.964187
0 0.984436 0.953964
0 0.974517 0.939452
0.271992 0.956893 0.917937
0.918349 0.928679 0.911116
0.993515 0.929656 0.894957
0.999924 0.923659 0.868223
0 1 0.93312
0 1 0.914015
0 1 0.888792
0 1 0.863493
0 1 0.836927
0.00961318 0.999817 0.810224
0.798825 0.996872 0.831312
0.976715 0.992752 0.860594
0.997101 0.98439 0.938094
0 1 0.808103
0 1 0.799817
0 1 0.802197
0 1 0.806088
0 1 0.803525
0 1 0.791699
0.311543 1 0.768566
0.948913 0.999985 0.771634
0.996033 1 0.832471
0.000488289 0.00485237 0.0597391
0.00140383 0.00306706 0.12488
0.000503548 3.0518e-05 0.300923
0.00115969 0 0.545129
0.0905013 0 0.707912
0.701823 0 0.82472
1 0 0.795956
1 0 0.604623
1 0 0.384298
0 0 0.612848
0 0.170626 0.942107
0 0.762341 1
0 0.830686 1
0.0141756 0.747372 1
0.817243 0.473533 0.999283
1 7.62951e-05 0.949493
1 0 0.789303
1 0 0.668345
0 0.584909 0.996292
0 0.638651 0.998215
0 0.73933 0.999908
0 0.819867 1
0 0.801831 1
0.689769 0.600946 0.999542
1 0.00267033 0.97995
1 0 0.861845
1 0 0.7823
0 0.654826 0.993988
0 0.686 0.996033
0 0.730816 0.998108
0 0.778393 0.999649
0 0.812634 0.999985
0.593866 0.693812 0.999527
0.99881 0.0945907 0.990494
1 0 0.910964
1 0 0.870176
0 0.825803 0.994141
0 0.81944 0.991562
0 0.833616 0.992432
0 0.831678 0.993866
0 0.835981 0.996429
0.448249 0.817884 0.99939
0.974105 0.517662 0.995453
1 0.000106813 0.940658
1 0 0.933425
0 0.945373 0.99205
0 0.945159 0.991257
0 0.94403 0.98938
0 0.934707 0.986694
0 0.922713 0.98616
0.229923 0.90071 0.988846
0.905364 0.826185 0.990616
1 0.44448 0.955825
1 0.175769 0.974807
0 0.993179 0.988067
0 0.992706 0.988113
0 0.991272 0.988174
0 0.986313 0.98732
0 0.980224 0.984863
0.119371 0.966735 0.979217
0.827466 0.945754 0.979736
0.993622 0.894743 0.963836
0.99968 0.89865 0.970443
0 0.999878 0.987045
0 0.999878 0.987045
0 0.999863 0.986969
0 0.999878 0.985229
0 0.999847 0.9823
0.0107729 0.997604 0.977264
0.723644 0.987976 0.972885
0.973785 0.977447 0.97229
0.996063 0.978546 0.967391
0 0.999954 0.979965
0 0.999985 0.974777
0 1 0.965331
0 1 0.947921
0 1 0.929854
0 1 0.92343
0.155932 0.999969 0.923522
0.930175 0.998703 0.940658
0.992035 0.996536 0.9514
0.000259403 0.00512703 0.0835584
0.00015259 0.000564584 0.193515
0 0 0.487434
0 0.000183108 0.8121
6.10361e-05 0.20029 0.959731
0.540413 0.48809 0.997223
0.998001 0.0944533 0.997681
1 0 0.960693
1 0 0.862348
0 0.00146487 0.82414
0 0.655406 0.999191
0 0.833661 1
0 0.832242 1
0.000289921 0.828595 1
0.553124 0.817395 1
0.99617 0.582406 1
1 1.5259e-05 0.994949
1 0 0.952209
0 0.806287 1
0 0.82533 1
0 0.832258 1
0 0.829969 1
0 0.824674 1
0.457313 0.813016 1
0.965087 0.731685 1
1 0.00244144 0.99971
1 0 0.976928
0 0.824659 0.999878
0 0.837674 0.999893
0 0.846799 0.999893
0 0.844739 0.999893
0 0.836484 0.999954
0.336294 0.820844 1
0.916365 0.780957 1
1 0.0599527 1
1 0 0.98677
0 0.891249 0.997269
0 0.893278 0.997116
0 0.89662 0.996994
0 0.895125 0.997009
0 0.887526 0.997497
0.164538 0.868757 0.998947
0.871855 0.823697 1
1 0.375326 0.999985
1 0.000610361 0.994156
0 0.955596 0.991714
0 0.958892 0.991409
0 0.962264 0.991043
0 0.958206 0.991272
0 0.951629 0.991745
0.0327459 0.94078 0.993103
0.794781 0.91014 0.996979
0.995468 0.796719 0.999786
1 0.0929885 0.995224
0 0.99443 0.987915
0 0.994263 0.98793
0 0.994095 0.987884
0 0.992386 0.98793
0 0.990005 0.988037
0.00854505 0.98381 0.988754
0.691951 0.968917 0.991653
0.969833 0.940597 0.994965
1 0.777646 0.988968
0 0.999878 0.987045
0 0.999878 0.987045
0 0.999863 0.986969
0 0.999863 0.986831
0 0.999756 0.986786
0.00231937 0.999268 0.986847
0.617182 0.991333 0.989288
0.944274 0.982712 0.991028
0.99649 0.966827 0.988357
0 0.999878 0.987045
0 0.999878 0.987045
0 0.999878 0.986984
0 0.999863 0.986847
0 0.999863 0.986725
9.15541e-05 0.999832 0.986542
0.31899 0.997269 0.987839
0.928237 0.992203 0.990021
0.989792 0.990097 0.990219
