luts/lumix_color_lab_C/S_Night_Time_1.cube
TITLE "Generated by Resolve"
LUT_3D_SIZE 5
0.000335698 0.000244144 0.000213626
0.0133669 0.00419623 0.00263981
0.115465 0.00578317 0.00256352
0.616953 0 0.0278019
1 0 0.108995
0 0.108736 0
0.0870832 0.136355 0
0.797711 0 0.0503548
1 0 0.0991531
1 0 0.109514
0 0.579751 0
3.0518e-05 0.471031 0
0.481132 0.587243 0
1 0.00686656 0.106844
1 0 0.109606
0 0.995865 0.279255
0 0.965911 0.0723278
0.000228885 0.960861 0.0619516
0.940383 0.993866 0.220218
1 0.972747 0.0294194
0 1 0.752346
0 1 0.735668
1.5259e-05 1 0.619867
0.000518807 1 0.724788
0.999435 1 0.638025
0.000839246 0.000823987 0.00102235
0.0217594 0.00459297 0.00927749
0.194491 0.00180056 0.0259861
0.93315 0 0.0732586
1 0 0.109834
0 0.157382 0.129473
0.0953841 0.132326 0.111803
0.634623 0.0257725 0.0705882
1 0 0.0981613
1 0 0.109606
0 0.715129 0
0 0.565606 0
0.492439 0.58114 0
1 0.139559 0.0730907
1 0.0167391 0.105333
0 1 0.43476
0 0.989105 0.222385
0.0287633 0.938033 0.0174716
0.941253 0.991394 0.205509
1 0.964858 0.0299229
0 1 0.752346
0 1 0.749447
0 1 0.667414
0.473045 1 0.625132
0.999435 1 0.63714
0.0010071 0.00260929 0.010956
0.0172427 0.00482185 0.0553292
0.232303 6.10361e-05 0.0816815
0.946868 0 0.125902
1 0 0.10985
0 0.0415961 0.553292
0 0.0264134 0.609476
0.674449 7.62951e-05 0.344823
1 0 0.238407
1 0 0.109712
0 0.675441 0.612787
0 0.65127 0.576013
0.513787 0.546761 0.503532
0.998596 0.395392 0.364904
1 0.0254215 0.104707
0 1 0.613657
0 1 0.488426
6.10361e-05 0.977218 0.295552
0.929885 0.982147 0.35639
1 0.944686 0.548913
0 1 0.752987
0 1 0.752361
0 1 0.728511
0.712825 1 0.588235
0.999268 1 0.64802
0.000717174 0.00471504 0.0400244
0.00459297 0.000549325 0.1823
0.248569 0 0.420539
1 0 0.390509
1 0 0.110307
0 0.271748 0.94551
0 0.474861 0.985153
0.153155 0.397253 0.982452
1 0 0.689982
1 0 0.654551
0 0.738354 0.976883
0 0.734936 0.958785
0.00210575 0.691295 0.96347
0.998398 0.0472114 0.835203
1 0.00535592 0.888212
0 0.992416 0.969497
0 0.989563 0.964187
0 0.974517 0.939452
0.918349 0.928679 0.911116
0.999924 0.923659 0.868223
0 1 0.808103
0 1 0.802197
0 1 0.803525
0.311543 1 0.768566
0.996033 1 0.832471
0.000259403 0.00512703 0.0835584
0 0 0.487434
6.10361e-05 0.20029 0.959731
0.998001 0.0944533 0.997681
1 0 0.862348
0 0.806287 1
0 0.832258 1
0 0.824674 1
0.965087 0.731685 1
1 0 0.976928
0 0.891249 0.997269
0 0.89662 0.996994
0 0.887526 0.997497
0.871855 0.823697 1
1 0.000610361 0.994156
0 0.99443 0.987915
0 0.994095 0.987884
0 0.990005 0.988037
0.691951 0.968917 0.991653
1 0.777646 0.988968
0 0.999878 0.987045
0 0.999878 0.986984
0 0.999863 0.986725
0.31899 0.997269 0.987839
0.989792 0.990097 0.990219
