luts/lumix_color_lab_C/S_Night_Time_2.cube
TITLE "Generated by Resolve"
LUT_3D_SIZE 33
0.000549325 0.000396735 0.000350958
0.000854505 0.000579843 0.000518807
0.00117494 0.00077821 0.000671397
0.00149538 0.000961318 0.000793469
0.00236515 0.00112917 0.000915541
0.00430304 0.00192264 0.00122072
0.00654612 0.00292973 0.00189212
0.00866712 0.00373846 0.00241093
0.0122988 0.00436408 0.00277714
0.016907 0.00483711 0.00303655
0.0217136 0.00517281 0.00317388
0.0289616 0.00538643 0.00321965
0.0376287 0.00569161 0.00318914
0.0480659 0.00601205 0.0030518
0.0631723 0.00610361 0.0027924
0.0813001 0.00596628 0.00244144
0.101625 0.00564584 0.00198367
0.124178 0.00508125 0.0015259
0.150484 0.00427253 0.00161746
0.180911 0.00323491 0.00205997
0.216678 0.00210575 0.00283818
0.258259 0.00106813 0.0040589
0.308125 0.000335698 0.00598154
0.366827 9.15541e-05 0.00862135
0.43595 1.5259e-05 0.012665
0.51133 0 0.0178225
0.592508 0 0.0252995
0.683925 0 0.0353399
0.790387 0 0.049546
0.896132 0 0.0663767
0.969818 0 0.0817731
0.997604 0 0.0932479
1 0 0.10071
0.00132753 0.00109865 0.000839246
0.00164797 0.00166323 0.000976577
0.00354009 0.00262455 0.00175479
0.00553903 0.00357061 0.00270085
0.00706493 0.00447089 0.00325017
0.00860609 0.00517281 0.00367742
0.0119173 0.00572213 0.0039826
0.0158083 0.00616464 0.00419623
0.0198978 0.00701915 0.0043183
0.0258488 0.00772107 0.00433356
0.0342718 0.00823987 0.00422675
0.0449836 0.00851453 0.0039826
0.0611429 0.00849927 0.00366217
0.0794385 0.00823987 0.00320439
0.100328 0.00767529 0.00270085
0.124269 0.00688182 0.00215152
0.152499 0.00573739 0.00173953
0.184604 0.00425727 0.00204471
0.222293 0.00273136 0.00294499
0.265812 0.0012665 0.00428778
0.319265 0.000396735 0.00643931
0.380713 9.15541e-05 0.00923171
0.45156 1.5259e-05 0.0136568
0.52784 0 0.0192721
0.621195 0 0.0282292
0.72755 0 0.0408331
0.836835 0 0.0566262
0.932143 0 0.0730144
0.984726 0 0.0865492
1 0 0.096025
1 0 0.1019
1 0 0.105501
1 0 0.107485
0.00364691 0.00457771 0.00244144
0.00535592 0.00531014 0.00311284
0.00709544 0.00590524 0.00373846
0.00842298 0.00657664 0.00419623
0.0120851 0.00750744 0.00485237
0.0149386 0.00849927 0.00556954
0.0179446 0.00943008 0.00601205
0.0220645 0.0102846 0.00608835
0.0298314 0.0109407 0.00601205
0.0394293 0.0112612 0.00564584
0.0547036 0.0112917 0.00495918
0.0727703 0.0110018 0.0043946
0.0937362 0.0103761 0.00383001
0.117754 0.00958267 0.00321965
0.145586 0.00852979 0.00268559
0.177432 0.00688182 0.00227359
0.215564 0.00491341 0.00265507
0.259754 0.0028687 0.0039826
0.313649 0.0012665 0.00610361
0.375113 0.000411994 0.00888075
0.448402 6.10361e-05 0.0133974
0.538964 0 0.0202945
0.642527 0 0.030396
0.750454 0 0.044007
0.856626 0 0.0596475
0.940612 0 0.0748913
0.986252 0 0.0870069
1 0 0.095491
1 0 0.101015
1 0 0.104494
1 0 0.106523
1 0 0.107713
1 0 0.108461
0.00561532 0.00862135 0.00381476
0.00704967 0.00965896 0.00430304
0.00982681 0.0104524 0.00477607
0.0121004 0.0114595 0.00509651
0.0153201 0.0124819 0.00561532
0.0210422 0.0128328 0.00677501
0.0281987 0.0131838 0.00843824
0.0358282 0.01355 0.00914015
0.0473945 0.0146944 0.00865187
0.0626078 0.0157168 0.00758373
0.0822766 0.0161135 0.00627146
0.105699 0.0157473 0.00471504
0.13286 0.0146334 0.00381476
0.163867 0.0127413 0.00326543
0.199954 0.0101472 0.00291447
0.242725 0.00723278 0.00317388
0.292149 0.00424201 0.00489815
0.356588 0.00170901 0.0077821
0.43801 0.000259403 0.0125887
0.534005 1.5259e-05 0.0198215
0.638056 0 0.0299229
0.744488 0 0.043183
0.845472 0 0.0579232
0.929046 0 0.0723888
0.976486 0 0.0839094
0.996857 0 0.0925307
1 0 0.0983444
1 0 0.102037
1 0 0.104433
1 0 0.106081
1 0 0.107179
1 0 0.107988
1 0 0.108675
0.00598154 0.0143587 0.0043183
0.00816358 0.0152132 0.00468452
0.0117342 0.0158236 0.00512703
0.0149996 0.0166934 0.00590524
0.0155337 0.0194095 0.00585946
0.0249943 0.0208286 0.00611887
0.0400397 0.0208438 0.00701915
0.0576486 0.020676 0.00895705
0.0751354 0.020798 0.010132
0.0951247 0.0208438 0.00956741
0.117113 0.0209049 0.00767529
0.143725 0.0205844 0.0053254
0.175494 0.0190433 0.00375372
0.214115 0.0160067 0.00343328
0.263767 0.0110475 0.00361639
0.32958 0.00540169 0.00601205
0.409888 0.00115969 0.0104677
0.503059 0.000106813 0.0170291
0.604761 0 0.0265507
0.70753 0 0.0382544
0.8056 0 0.0518502
0.892027 0 0.0656443
0.953124 0 0.0775616
0.985321 0 0.0866102
0.998093 0 0.09308
1 0 0.0974594
1 0 0.100725
1 0 0.103288
1 0 0.10518
1 0 0.106523
1 0 0.107561
1 0 0.108324
1 0 0.108843
0.0049897 0.0234226 0.00395209
0.00758373 0.0249485 0.0041352
0.0109865 0.0259403 0.00433356
0.0148013 0.026978 0.00480659
0.0200656 0.0285954 0.00494392
0.0225223 0.0327459 0.00411994
0.0436255 0.0346227 0.00376898
0.0745098 0.0333715 0.00433356
0.103914 0.0311284 0.00650034
0.130053 0.0301061 0.00840772
0.16051 0.0285954 0.00828565
0.197391 0.0261387 0.0059205
0.239963 0.0218204 0.00383001
0.291142 0.0153048 0.00393683
0.358923 0.00639353 0.00660716
0.439261 0.000976577 0.0119173
0.531426 0.000122072 0.0194705
0.629725 0 0.0290227
0.726375 0 0.0407111
0.81619 0 0.0534676
0.892866 0 0.0657664
0.946014 0 0.0759899
0.976791 0 0.0839399
0.993332 0 0.0902724
1 0 0.0952621
1 0 0.0991226
1 0 0.102022
1 0 0.104204
1 0 0.105882
1 0 0.107149
1 0 0.107958
1 0 0.108614
1 0 0.109071
0.0030518 0.0370489 0.00270085
0.00492866 0.039765 0.00273136
0.00762951 0.0413672 0.00283818
0.0124819 0.0428626 0.00299077
0.0203098 0.0438544 0.00299077
0.0193484 0.0492866 0.002533
0.0336614 0.0531472 0.0018616
0.0715648 0.0538949 0.00148013
0.120653 0.0496986 0.00137331
0.172305 0.0417029 0.00201419
0.21799 0.0348974 0.00300603
0.270283 0.0260929 0.00376898
0.333471 0.0154879 0.00573739
0.399268 0.00679026 0.00865187
0.468086 0.00268559 0.0135805
0.542489 0.000579843 0.0201267
0.622431 4.57771e-05 0.0281071
0.703929 0 0.0377356
0.782147 0 0.0483558
0.853254 0 0.0591135
0.91632 0 0.0698253
0.96025 0 0.0789654
0.985931 0 0.0865797
0.998245 0 0.092546
1 0 0.0970169
1 0 0.100481
1 0 0.103166
1 0 0.10518
1 0 0.106538
1 0 0.107591
1 0 0.10837
1 0 0.108843
1 0 0.109255
0.000900282 0.0582589 0.000732433
0.00151064 0.0609598 0.000747692
0.00317388 0.0622263 0.000808728
0.00683604 0.0636301 0.000900282
0.0145876 0.0641337 0.000961318
0.0294957 0.0645151 0.000823987
0.0232395 0.0734264 0.000183108
0.0498817 0.0773022 7.62951e-05
0.111406 0.076051 1.5259e-05
0.189853 0.0644541 7.62951e-05
0.275059 0.0429999 0.00109865
0.346365 0.0250095 0.0040589
0.417929 0.0119936 0.00883497
0.490837 0.00404364 0.0147555
0.56202 0.000457771 0.0213931
0.628275 0.000106813 0.0284123
0.691661 1.5259e-05 0.0361334
0.755505 0 0.0446632
0.820294 0 0.0540322
0.882597 0 0.0639811
0.934142 0 0.0734112
0.969818 0 0.0817731
0.990478 0 0.0887465
1 0 0.0943313
1 0 0.098558
1 0 0.101778
1 0 0.104036
1 0 0.105776
1 0 0.107134
1 0 0.107942
1 0 0.108568
1 0 0.109071
1 0 0.109377
6.10361e-05 0.0831922 9.15541e-05
0.00015259 0.085893 7.62951e-05
0.000656138 0.0869001 7.62951e-05
0.0016022 0.0881361 7.62951e-05
0.00791943 0.0889448 6.10361e-05
0.0227359 0.0883803 3.0518e-05
0.0291447 0.0922866 0
0.0247501 0.103639 0
0.0680858 0.107149 0
0.161654 0.102174 0
0.269429 0.0800641 0.000396735
0.388663 0.0411078 0.00451667
0.475959 0.0167391 0.0112764
0.548089 0.0056611 0.0184329
0.620645 0.00189212 0.0268101
0.693202 0.000183108 0.0359503
0.762646 0 0.0454566
0.826474 0 0.0548867
0.882094 0 0.063859
0.928954 0 0.072343
0.96347 0 0.0799268
0.985412 0 0.0865797
0.999466 0 0.0924239
1 0 0.0966506
1 0 0.100099
1 0 0.1028
1 0 0.104845
1 0 0.106294
1 0 0.107393
1 0 0.108171
1 0 0.108705
1 0 0.109163
1 0 0.109453
0 0.11313 0
0 0.116869 0
3.0518e-05 0.119234 0
0.000183108 0.121004 0
0.00184634 0.121462 0
0.00889601 0.120287 0
0.0273442 0.11754 0
0.0188144 0.129549 0
0.0243076 0.140414 0
0.0929427 0.143465 0
0.218097 0.134783 0
0.349371 0.10428 0.000823987
0.491203 0.046952 0.00889601
0.597391 0.0150912 0.0213474
0.676234 0.00248722 0.0321965
0.751644 1.5259e-05 0.0432593
0.823713 0 0.0543679
0.888319 0 0.0648661
0.939116 0 0.0742199
0.970199 0 0.0818494
0.988708 0 0.0879225
1 0 0.0930343
1 0 0.0967727
1 0 0.099855
1 0 0.102434
1 0 0.104265
1 0 0.10573
1 0 0.106966
1 0 0.107698
1 0 0.108339
1 0 0.108858
1 0 0.109209
1 0 0.109499
0 0.156313 0
0 0.159487 0
0 0.16083 0
0 0.162234 0
1.5259e-05 0.161669 0
0.00115969 0.159487 0
0.00749218 0.155459 0
0.023331 0.153658 0
0.00923171 0.174014 0
0.0300908 0.181613 0
0.126833 0.185824 0
0.28043 0.175967 3.0518e-05
0.436667 0.136034 0.002121
0.591104 0.06421 0.0142977
0.717937 0.0152438 0.0342412
0.805264 0.00285344 0.0498665
0.876204 0 0.0621653
0.933913 0 0.0729686
0.969665 0 0.0816815
0.990997 0 0.0887007
1 0 0.0941176
1 0 0.0980087
1 0 0.101106
1 0 0.10312
1 0 0.104738
1 0 0.105943
1 0 0.106981
1 0 0.107607
1 0 0.108202
1 0 0.108675
1 0 0.109071
1 0 0.109346
1 0 0.109545
0 0.211994 0
0 0.213565 0
0 0.212131 0
0 0.211307 0
0 0.20943 0
4.57771e-05 0.20528 0
0.000671397 0.199496 0
0.0118105 0.192142 0
0.0200504 0.198352 0
0.00637827 0.220981 0
0.0343023 0.229679 0
0.168048 0.237491 0
0.35407 0.226993 9.15541e-05
0.525154 0.187961 0.00210575
0.688914 0.100404 0.017319
0.828214 0.0144503 0.0479133
0.916487 0.00347906 0.0675669
0.963043 0.000183108 0.0791943
0.98819 6.10361e-05 0.0873426
1 0 0.0936446
1 0 0.0978866
1 0 0.101427
1 0 0.103487
1 0 0.10515
1 0 0.106493
1 0 0.107256
1 0 0.107897
1 0 0.108354
1 0 0.108812
1 0 0.109102
1 0 0.109361
1 0 0.109529
1 0 0.109636
0 0.275654 0
0 0.274327 0
0 0.270375 0
0 0.26685 0
0 0.262913 0
0 0.255985 0
4.57771e-05 0.24889 0
0.00209049 0.241077 0
0.0177005 0.235019 0
0.00552377 0.255665 0
0.00416571 0.27921 0
0.0516518 0.291402 0
0.221729 0.300496 0
0.43357 0.291432 3.0518e-05
0.616419 0.248997 0.00259403
0.783276 0.148165 0.0192721
0.918135 0.0289158 0.0586709
0.977508 0.00347906 0.0809339
1 0.000976577 0.0918441
1 0.000595102 0.096788
1 0.000106813 0.100801
1 1.5259e-05 0.103212
1 0 0.105043
1 0 0.106523
1 0 0.107317
1 0 0.108003
1 0 0.108507
1 0 0.108949
1 0 0.109224
1 0 0.109453
1 0 0.10956
1 0 0.109651
1 0 0.109636
0 0.342885 0
0 0.33901 0
0 0.332479 0
0 0.327764 0
0 0.324147 0
0 0.317113 0
0 0.3093 0
0.000137331 0.300923 0
0.00454719 0.292165 0
0.0169223 0.29456 0
0.00236515 0.328588 0
0.00601205 0.349615 0
0.0695964 0.363561 0
0.28397 0.374563 0
0.519753 0.364553 4.57771e-05
0.709972 0.320699 0.00169375
0.869795 0.198703 0.0218967
0.968994 0.0660868 0.0620737
1 0.0122835 0.0887312
1 0.00280766 0.0983444
1 0.000183108 0.102571
1 0 0.104662
1 7.62951e-05 0.106279
1 6.10361e-05 0.107179
1 0 0.107958
1 0 0.108522
1 0 0.108965
1 0 0.109255
1 0 0.109468
1 0 0.10959
1 0 0.109636
1 0 0.109636
1 0 0.109636
0 0.414649 0
0 0.41088 0
0 0.40444 0
0 0.400107 0
0 0.396445 0
0 0.388205 0
0 0.379309 0
0 0.369818 0
0.000381476 0.360662 0
0.00784314 0.351965 0
0.00367742 0.371328 0
0.000534066 0.409979 0
0.00653086 0.427787 0
0.0914168 0.443946 0
0.359838 0.454414 0
0.607996 0.445106 4.57771e-05
0.79501 0.399466 0.00161746
0.934691 0.288319 0.0163882
0.999481 0.106493 0.0625315
1 0.0280919 0.0906539
1 0.0084535 0.100542
1 0.00282292 0.104768
1 0.000839246 0.106706
1 0 0.107836
1 0 0.108446
1 3.0518e-05 0.108919
1 3.0518e-05 0.109239
1 0 0.109468
1 0 0.10959
1 0 0.109621
1 0 0.109621
1 0 0.109621
1 0 0.109606
0 0.493156 0
0 0.489662 0
0 0.483604 0
0 0.479759 0
0 0.476295 0
0 0.467781 0
0 0.457938 0
0 0.448173 0
0 0.437232 0
0.000137331 0.425772 0
0.00788891 0.423987 0
0.00140383 0.46041 0
0.000549325 0.495033 0
0.0091249 0.511101 0
0.131655 0.527947 0
0.437675 0.538582 0
0.691127 0.528649 1.5259e-05
0.869551 0.491691 0.000488289
0.976761 0.393027 0.010605
0.999771 0.194003 0.0481727
1 0.0620432 0.0825055
1 0.0123293 0.102129
1 0.00361639 0.106386
1 0.00302129 0.107469
1 0.00209049 0.108293
1 0.000946059 0.108949
1 1.5259e-05 0.109422
1 0 0.10959
1 0 0.109621
1 0 0.109606
1 0 0.109606
1 0 0.10959
1 0 0.10959
0 0.578027 0
0 0.574548 0
0 0.568353 0
0 0.564095 0
0 0.560388 0
0 0.551522 0
0 0.541238 0
0 0.530068 0
0 0.518486 0
1.5259e-05 0.506386 0
0.00318914 0.494102 0
0.00352483 0.509056 0
9.15541e-05 0.554635 0
0.000198367 0.582162 0
0.0167391 0.59646 0
0.186114 0.614328 0
0.521935 0.623957 0
0.766415 0.616495 0
0.921874 0.584039 4.57771e-05
0.992737 0.491081 0.00900282
0.999527 0.33547 0.0328832
1 0.184604 0.0616922
1 0.0878157 0.0842451
1 0.0328985 0.0995499
1 0.0090486 0.106569
1 3.0518e-05 0.109346
1 1.5259e-05 0.109529
1 0.00178531 0.109133
1 0.00619516 0.107988
1 0.0105135 0.106874
1 0.0149996 0.105714
1 0.019379 0.104585
1 0.0236515 0.103487
0 0.663294 0
0 0.660044 0
0 0.653819 0
0 0.649531 0
0 0.645502 0
0 0.637201 0
0 0.62536 0
0 0.614267 0
0 0.602319 0
0 0.589685 0
0.000183108 0.575998 0
0.00653086 0.571023 0
0.00141909 0.603494 0
3.0518e-05 0.646387 0
0.0010071 0.667689 0
0.0319066 0.681422 0
0.238666 0.699519 0
0.609491 0.709056 0
0.835447 0.705119 0
0.967437 0.682658 1.5259e-05
0.994675 0.624887 0.00207523
1 0.48983 0.017258
1 0.341314 0.0384833
1 0.211551 0.0616464
1 0.116594 0.0806134
1 0.0622721 0.0932479
1 0.0351263 0.100481
1 0.0399023 0.0992447
1 0.045594 0.0977646
1 0.0518502 0.0961318
1 0.0585336 0.0944228
1 0.0654307 0.0926375
1 0.0787823 0.0899214
0 0.746822 0
0 0.743343 0
0 0.736889 0
0 0.733349 0
0 0.729335 0
0 0.721828 0
0 0.709575 0
0 0.697353 0
0 0.684749 0
0 0.671687 0
1.5259e-05 0.657618 0
0.00315862 0.643915 0
0.00610361 0.655024 0
0.000534066 0.697765 0
0.000106813 0.732692 0
0.00263981 0.74876 0
0.0543221 0.762798 0
0.360098 0.779721 0
0.688518 0.78854 0
0.885054 0.786496 0
0.975662 0.77055 0
0.997848 0.730388 0.00175479
0.999939 0.664714 0.00588998
1 0.54345 0.0137026
1 0.404913 0.0263981
1 0.262135 0.0524453
1 0.163668 0.0747234
1 0.171954 0.0732433
1 0.183856 0.0711223
1 0.196826 0.0688029
1 0.213535 0.0658122
1 0.230777 0.0627298
1 0.260136 0.057908
0 0.824964 0.000442512
0 0.821683 0.000350958
0 0.815824 0.000198367
0 0.81178 9.15541e-05
0 0.808286 1.5259e-05
0 0.801511 0
0 0.788861 0
0 0.776654 0
0 0.763943 0
0 0.750668 0
0 0.736477 0
0.000564584 0.72137 0
0.00666819 0.715953 0
0.00242618 0.742824 0
6.10361e-05 0.785336 0
0.000106813 0.811734 0
0.00700389 0.824994 0
0.121569 0.840421 0
0.466331 0.852522 0.00221256
0.764599 0.859251 0.00166323
0.924849 0.858137 0.00047303
0.988159 0.849393 7.62951e-05
0.999008 0.826612 0.00030518
0.999832 0.781292 0.00155642
1 0.711589 0.00436408
1 0.602594 0.0130922
1 0.485344 0.023682
1 0.454856 0.0259098
1 0.461448 0.0248264
1 0.468055 0.023743
1 0.47837 0.0223392
1 0.491035 0.0211948
1 0.506142 0.0198215
0 0.894392 0.0110475
0 0.891539 0.0100099
0 0.886595 0.00822461
0 0.882841 0.00689708
0 0.879484 0.00581369
0 0.873884 0.0039826
0 0.863172 0.000991836
0 0.850752 0.000579843
0 0.837629 0.00030518
0 0.824292 0.000106813
0 0.809873 0
0 0.795102 0
0.00263981 0.78265 0
0.00836194 0.791577 0
0.000732433 0.829114 0
7.62951e-05 0.864088 0.00260929
0.000534066 0.879499 0.00621042
0.0259251 0.889769 0.00767529
0.206912 0.901732 0.00929274
0.585 0.912474 0.00813306
0.825742 0.919188 0.00259403
0.948272 0.918349 0.0104829
0.992767 0.912566 0.0149996
0.998535 0.903655 0.00682078
1 0.881819 0.00199893
1 0.842527 0.00135805
1 0.764462 0.00183108
1 0.705791 0.00268559
1 0.711284 0.00259403
1 0.711971 0.00257877
1 0.712657 0.00257877
1 0.714031 0.00254826
1 0.717083 0.00251774
0 0.951629 0.0370031
0 0.948684 0.0354925
0 0.944274 0.0332341
0 0.940688 0.0312352
0 0.937667 0.0292363
0 0.931792 0.0259861
0 0.921157 0.0209049
0 0.910857 0.0166934
0 0.899916 0.0129397
0 0.888151 0.00917067
0 0.875975 0.00552377
0 0.863264 0.00221256
0.000610361 0.850172 0
0.0059968 0.84712 0
0.00216678 0.867628 0.00360113
3.0518e-05 0.901823 0.0113375
1.5259e-05 0.924529 0.0173648
0.00128176 0.936584 0.018677
0.0296941 0.945571 0.0186618
0.348898 0.95024 0.0444648
0.675898 0.954635 0.0643931
0.877577 0.958038 0.0730144
0.968154 0.957824 0.0712596
0.992401 0.957382 0.0384833
0.999313 0.954635 0.00910964
1 0.950378 0.002533
1 0.922408 0.00296025
1 0.882033 0.00289921
1 0.882643 0.00341802
1 0.884199 0.00366217
1 0.883818 0.00360113
1 0.882246 0.00335698
1 0.879896 0.00299077
0 0.980407 0.156344
0 0.979202 0.148028
0 0.977279 0.134829
0 0.975906 0.125307
0 0.974624 0.116884
0 0.97203 0.100526
0 0.967544 0.0732128
0 0.962798 0.0469368
0 0.954803 0.031693
0 0.942916 0.0271458
0 0.93048 0.0223545
0 0.917983 0.0172732
1.5259e-05 0.905669 0.0122988
0.00332647 0.89691 0.00929274
0.00915541 0.905119 0.0108339
0.000701915 0.933898 0.0186618
0 0.957534 0.0469673
0.000167849 0.965484 0.0806897
0.00411994 0.969711 0.0991073
0.131502 0.973419 0.118685
0.448539 0.976852 0.149615
0.768597 0.980835 0.17052
0.916732 0.984329 0.160708
0.978134 0.983856 0.121889
0.994781 0.984283 0.0770275
0.999741 0.984909 0.0602426
0.999924 0.982071 0.0464942
1 0.971511 0.0288396
1 0.965515 0.020264
1 0.966445 0.0214542
1 0.966659 0.0217136
1 0.96614 0.0210574
1 0.965301 0.0199893
0 0.99765 0.294911
0 0.996841 0.287068
0 0.995209 0.273899
0 0.993957 0.263432
0 0.99292 0.254398
0 0.990677 0.236027
0 0.987091 0.207034
0 0.983352 0.177584
0 0.979324 0.147448
0 0.973968 0.117937
0 0.967788 0.0879377
0 0.961227 0.059266
0 0.954391 0.0326085
0.000900282 0.94522 0.0205844
0.0116426 0.944732 0.0193332
0.00447089 0.957259 0.0503243
6.10361e-05 0.973663 0.113619
1.5259e-05 0.982437 0.168307
0.000259403 0.986496 0.197818
0.0339208 0.989013 0.217121
0.214191 0.991989 0.240681
0.608759 0.993118 0.258488
0.839033 0.994553 0.259922
0.944732 0.996414 0.230777
0.984787 0.996139 0.186816
0.998856 0.99585 0.164324
0.999619 0.994965 0.138491
1 0.990646 0.0912947
1 0.986801 0.0472114
1 0.988174 0.0489357
1 0.988769 0.0503853
1 0.988739 0.0499886
1 0.987961 0.0486763
0 1 0.396887
0 1 0.391333
0 0.999756 0.380133
0 0.999557 0.37113
0 0.999374 0.363531
0 0.998947 0.347494
0 0.998245 0.32462
0 0.997375 0.300587
0 0.996048 0.274968
0 0.991852 0.241642
0 0.987182 0.205509
0 0.982437 0.169253
0 0.977737 0.134279
0.000427253 0.972045 0.10695
0.00543221 0.968032 0.09308
0.00251774 0.973342 0.112734
0.000274662 0.984298 0.182223
1.5259e-05 0.994186 0.252918
3.0518e-05 0.995895 0.285054
0.00814832 0.996735 0.301411
0.0784314 0.997681 0.316411
0.423545 0.999512 0.335485
0.730098 0.999161 0.343725
0.892622 0.998688 0.336004
0.964263 0.998535 0.31342
0.991653 0.998734 0.286122
0.99852 0.998703 0.246769
0.999817 0.997436 0.189212
1 0.995361 0.121126
1 0.995804 0.117235
1 0.996216 0.121126
1 0.996292 0.121904
1 0.996094 0.119966
0 1 0.485801
0 1 0.480125
0 1 0.469657
0 1 0.460563
0 1 0.452354
0 1 0.437034
0 1 0.415747
0 1 0.392981
0 0.999741 0.36936
0 0.998764 0.342077
0 0.997574 0.312795
0 0.996231 0.283635
0 0.993835 0.25214
6.10361e-05 0.98938 0.218448
0.00077821 0.985306 0.190738
0.02121 0.985916 0.196139
0.00015259 0.993606 0.249409
3.0518e-05 0.99736 0.310903
0 0.999847 0.353811
0.00190738 0.999908 0.372671
0.0202335 0.999863 0.384085
0.247837 0.999817 0.396536
0.582498 0.999786 0.409613
0.823514 0.999695 0.415427
0.928618 0.999512 0.406867
0.978546 0.999512 0.392157
0.995819 0.999695 0.359106
0.998856 0.999802 0.301167
1 0.999527 0.231113
1 0.99939 0.202396
1 0.999451 0.215152
1 0.999466 0.220417
1 0.999466 0.218906
0 1 0.562661
0 1 0.556893
0 1 0.545968
0 1 0.537301
0 1 0.529915
0 1 0.513436
0 1 0.493843
0 1 0.473411
0 1 0.449683
0 1 0.42414
0 1 0.397528
0 1 0.370169
0 0.998947 0.342
1.5259e-05 0.997559 0.314275
9.15541e-05 0.995865 0.286351
0.0240635 0.995102 0.277287
0.0184482 0.996872 0.30425
0.0016022 0.999893 0.359655
0 0.999954 0.406119
0.00109865 0.999985 0.43122
0.00598154 1 0.44506
0.120531 0.999985 0.453895
0.415137 0.999969 0.464378
0.703532 0.999908 0.474022
0.879789 0.999924 0.480095
0.953292 0.999954 0.473945
0.986954 0.999954 0.453513
0.996384 0.999954 0.414496
1 0.999893 0.362814
1 0.999847 0.306722
1 0.999908 0.321736
1 0.999954 0.330739
1 0.999969 0.333745
0 1 0.632502
0 1 0.625696
0 1 0.61471
0 1 0.605966
0 1 0.597604
0 1 0.580835
0 1 0.562417
0 1 0.541817
0 1 0.519158
