luts/lumix_color_lab_C/S_Teal_Orange_1.cube
TITLE "Generated by Resolve"
LUT_3D_SIZE 5
0.0170596 0.0150607 0.014023
0.0276188 0.0248112 0.0240177
0.067628 0.0300298 0.0277562
0.212116 0.019852 0.0198978
0.869688 0.00662242 0.059144
0.0280308 0.0566567 0.029633
0.153414 0.0899825 0.0110018
0.5944 0.0251926 0.0298009
0.978378 0.0225986 0.0982528
0.995651 0.0238041 0.109087
0.00503548 0.18436 0
0.0363622 0.19939 0.00135805
0.79237 0.210559 0.0157015
0.986419 0.0584268 0.0992905
1 0.0577096 0.109117
0.00154116 0.426215 0
0.0195315 0.440589 0
0.378317 0.591394 0
0.992035 0.603922 0.00917067
1 0.673213 0.0121157
0.00138857 0.747753 0
0.0196078 0.760876 0
0.0525216 0.809583 0
0.972198 0.968399 0.08748
1 0.985992 0.106386
0.0211185 0.019028 0.0179904
0.0330205 0.0283665 0.0306249
0.0768139 0.0309606 0.0435492
0.280125 0.014023 0.0422065
0.959487 0.00572213 0.0859388
0.00921645 0.0827955 0.0484474
0.0900893 0.113054 0.110765
0.472297 0.0303502 0.0657206
0.951049 0.0209812 0.088426
0.989868 0.0230259 0.109133
0 0.219745 0.00349432
0.0184482 0.235477 0.0152285
0.653574 0.366186 0.0261234
0.982879 0.129473 0.0939803
1 0.057908 0.131853
0 0.472724 0
0.0137789 0.447852 0.00503548
0.120058 0.497078 0.00927749
0.987808 0.801999 0.0169985
1 0.834577 0.0246281
0 0.787243 0
0.0135653 0.769802 0.000595102
0.0393683 0.777447 0.00689708
0.883665 0.94818 0.0982071
1 0.990311 0.175998
0.0236973 0.0218814 0.0209964
0.0367742 0.0290379 0.048188
0.0888533 0.0314488 0.0770886
0.295872 0.0136263 0.123888
0.909651 0.00790417 0.117388
0.00331121 0.0783398 0.180484
0.0147707 0.02327 0.477684
0.347707 0.0548867 0.310185
0.830259 0.0248264 0.263005
0.986557 0.0249332 0.13286
0 0.358877 0.0339361
0.00898756 0.362249 0.156603
0.449424 0.458244 0.456519
0.959075 0.109377 0.26508
0.991745 0.0496376 0.135393
0 0.607446 0.00427253
0.00633249 0.506905 0.0117647
0.0422217 0.56994 0.0594949
0.972305 0.878447 0.234302
1 0.876616 0.196246
0 0.855741 0.0028687
0.0069276 0.81178 0.0078584
0.0303502 0.762783 0.0156558
0.49659 0.847684 0.0404517
1 0.990982 0.272282
0.0250706 0.0250248 0.0277409
0.0336614 0.0250706 0.0954604
0.110994 0.0179751 0.175463
0.365667 0.0117189 0.317998
0.832197 0.0107424 0.389364
0 0.0212711 0.615122
0.00996414 0.263401 0.944015
0.184115 0.0393378 0.867704
0.736019 0.0301976 0.654047
0.976715 0.0316777 0.632624
0 0.361074 0.496315
0.00416571 0.300435 0.727443
0.0415198 0.413092 0.913314
0.879713 0.393301 0.808454
0.986572 0.0576638 0.768795
0 0.804532 0.0957351
0 0.778927 0.260914
0.0294041 0.80827 0.53521
0.889876 0.884703 0.882582
0.991623 0.716442 0.731502
0 0.970657 0.249531
0 0.938384 0.137484
0.0193484 0.822751 0.0581979
0.296696 0.913252 0.436057
0.999161 0.988907 0.796475
0.0217288 0.0275425 0.0487373
0.0234226 0.0159152 0.192721
0.042649 0.0111849 0.541299
0.39379 0.0106203 0.727977
0.843107 0.0116274 0.764889
0 0.403052 0.968292
0.00643931 0.771084 0.999207
0.0373236 0.766217 0.999527
0.735027 0.161715 0.952087
0.974105 0.035584 0.928618
0 0.437232 0.929976
0.00151064 0.621698 0.98471
0.0317693 0.773037 0.996841
0.863233 0.647456 0.989685
0.985428 0.430213 0.969329
0 0.826688 0.685603
0 0.808988 0.855314
0.0225376 0.813916 0.947753
0.607523 0.870436 0.986053
0.982666 0.891356 0.969757
0 0.988296 0.581552
0 0.986557 0.649088
0.0171206 0.97908 0.745342
0.0581064 0.974289 0.895567
0.986114 0.983948 0.98291
