luts/lumix_color_lab_C/S_Teal_Orange_2.cube
TITLE "Generated by Resolve"
LUT_3D_SIZE 33
0.0163424 0.0144045 0.0133822
0.0174411 0.0154116 0.014374
0.018555 0.0164645 0.0153964
0.0196841 0.0175631 0.016495
0.0207218 0.018616 0.0175631
0.0217288 0.0196689 0.0186618
0.0226444 0.020676 0.0197147
0.0234989 0.0216526 0.0207523
0.0242618 0.0225681 0.0217594
0.025391 0.023743 0.0229801
0.0275425 0.0246281 0.0237736
0.0302434 0.0254673 0.0244907
0.0332494 0.026215 0.0250248
0.0363165 0.0268711 0.0254215
0.0397192 0.0273747 0.0257115
0.0440833 0.0277562 0.025864
0.0506905 0.0279698 0.0258335
0.0586709 0.0279545 0.0255589
0.0678111 0.0276493 0.0251164
0.0783703 0.0272068 0.024445
0.090547 0.0265049 0.0236667
0.104234 0.0256657 0.0227207
0.120073 0.024506 0.0215152
0.138659 0.022858 0.0203403
0.161242 0.020676 0.0191806
0.188205 0.0180209 0.0178683
0.222995 0.014847 0.0162203
0.269612 0.0113069 0.0144503
0.334051 0.00917067 0.0138705
0.416999 0.00816358 0.0154726
0.514565 0.00733959 0.0196994
0.61941 0.00657664 0.0278477
0.729198 0.00578317 0.039292
0.0201419 0.0180209 0.016968
0.0210422 0.0189364 0.0178988
0.0219577 0.019913 0.0189059
0.0228275 0.0208743 0.0199283
0.0236973 0.0218814 0.0209964
0.0244755 0.0228428 0.0220493
0.0258335 0.0240787 0.023331
0.0279393 0.0252079 0.0243534
0.0301518 0.0261997 0.0251926
0.0325322 0.027039 0.0258488
0.03505 0.0277867 0.0264286
0.0378576 0.0283818 0.0268406
0.0410468 0.0288853 0.0270542
0.0461891 0.0292668 0.0272068
0.0527962 0.0294499 0.0271153
0.060914 0.0293584 0.0269017
0.0702525 0.0291295 0.0263981
0.0811475 0.0286412 0.0257725
0.0936904 0.0279393 0.0249332
0.108217 0.0269169 0.0238193
0.125078 0.0256504 0.0224918
0.145541 0.0239109 0.0210117
0.170642 0.0214084 0.0196994
0.202823 0.0180362 0.0178988
0.246555 0.0140993 0.0159762
0.302022 0.010605 0.0142061
0.375631 0.00903334 0.0147402
0.466758 0.00817884 0.0177462
0.565087 0.00746166 0.023682
0.667369 0.00675975 0.0327306
0.773251 0.00604257 0.0448463
0.875532 0.00529488 0.0590066
0.944533 0.00460822 0.071397
0.02327 0.0213779 0.0204623
0.0240177 0.0222629 0.0214237
0.024979 0.023331 0.0225681
0.0263371 0.0246586 0.0237888
0.0279698 0.0259556 0.0249332
0.0298772 0.0271916 0.0260014
0.0320592 0.0281987 0.0270848
0.0343175 0.0290532 0.0280308
0.0365759 0.0298466 0.0286564
0.0391699 0.0303807 0.0290684
0.0428473 0.0307927 0.0293431
0.0479133 0.0311284 0.0293126
0.054551 0.0312352 0.02916
0.0622873 0.0312047 0.0288853
0.0716411 0.0310063 0.0284733
0.0825666 0.0305333 0.0278019
0.0951553 0.0297856 0.0268864
0.110262 0.0287938 0.0256504
0.128588 0.0273442 0.0242466
0.15198 0.0252232 0.0223392
0.182803 0.0219272 0.0201724
0.222797 0.0177005 0.0180362
0.271717 0.013489 0.0160067
0.336721 0.0103914 0.0147555
0.418097 0.00909438 0.016434
0.508858 0.0083772 0.0201419
0.604608 0.00775158 0.0272984
0.702968 0.00715648 0.0369879
0.803235 0.00653086 0.0493324
0.896513 0.00590524 0.0627146
0.950408 0.00534066 0.0735027
0.972915 0.00489815 0.0809644
0.978332 0.00457771 0.085771
0.0263218 0.0251164 0.0240024
0.0274357 0.0265049 0.0251011
0.0289311 0.0277714 0.0262913
0.0305486 0.029099 0.027039
0.0326848 0.0302892 0.0279698
0.0345769 0.0313573 0.0288396
0.0366674 0.0323796 0.029633
0.0395209 0.0331121 0.0304875
0.0451362 0.0336156 0.0314031
0.0516213 0.0338903 0.0319066
0.0588235 0.033875 0.0320897
0.0667582 0.0336004 0.0318914
0.0758068 0.0332494 0.0314488
0.0865797 0.0326238 0.0307622
0.099321 0.0318608 0.0298466
0.115557 0.0307622 0.0285954
0.136767 0.0288853 0.0266423
0.164797 0.0258946 0.024033
0.199969 0.0219272 0.0209659
0.244846 0.01738 0.0187839
0.30016 0.0132143 0.0170291
0.371054 0.010544 0.0160983
0.454734 0.00943008 0.0186007
0.543694 0.00883497 0.0233158
0.634638 0.00830091 0.0304875
0.726543 0.00781262 0.0404517
0.818677 0.00729381 0.0521553
0.901656 0.00679026 0.0644388
0.9505 0.00634775 0.0744182
0.972045 0.00604257 0.0815137
0.977783 0.00582895 0.0862135
0.981201 0.00569161 0.0891737
0.984497 0.00564584 0.0910658
0.0284123 0.0296025 0.0266728
0.0298924 0.0308995 0.0277867
0.0316167 0.0320287 0.0289616
0.0334478 0.0331426 0.0297704
0.0357977 0.0344396 0.0299077
0.0389715 0.0353704 0.0306859
0.0435035 0.0363928 0.0313268
0.0489357 0.0377661 0.0316167
0.0560464 0.0388495 0.0320287
0.0656901 0.0394446 0.0325017
0.0789044 0.0392462 0.0328832
0.0941482 0.0382391 0.032578
0.112474 0.0363317 0.0316167
0.134081 0.0335851 0.0301823
0.160388 0.0299535 0.028275
0.192309 0.0253605 0.0258793
0.232197 0.0209659 0.0230564
0.278828 0.0163729 0.020798
0.339696 0.0128328 0.0194858
0.412634 0.0107729 0.0194095
0.494392 0.00996414 0.0218357
0.578332 0.00946059 0.0271763
0.663371 0.00903334 0.0346838
0.748577 0.00862135 0.044358
0.833112 0.00823987 0.0554208
0.905165 0.00788891 0.0665293
0.949157 0.00759899 0.0755932
0.970245 0.00740063 0.0822766
0.977005 0.00730907 0.0869154
0.980117 0.00732433 0.090074
0.983047 0.00740063 0.0922255
0.985855 0.0075227 0.0936294
0.988556 0.00770581 0.0945754
0.0296178 0.0334936 0.0282902
0.0313115 0.0347295 0.0294347
0.0331579 0.0359045 0.0305791
0.0352483 0.0370489 0.0315862
0.0381781 0.0390021 0.0312505
0.0444343 0.0413672 0.0310979
0.052903 0.0426947 0.0315251
0.0611582 0.04448 0.031632
0.070985 0.0460517 0.0306706
0.085008 0.0465858 0.029633
0.104906 0.0459449 0.0285801
0.133639 0.0430457 0.027451
0.170947 0.0375677 0.0263218
0.212726 0.0308232 0.0247501
0.260273 0.023621 0.0231479
0.316182 0.0170748 0.0221561
0.382025 0.0130007 0.0219883
0.457725 0.0115816 0.0232853
0.536538 0.010956 0.0264744
0.615854 0.0104982 0.0319982
0.694636 0.010132 0.0397955
0.773114 0.00979629 0.0492256
0.848188 0.00949111 0.0595712
0.909941 0.00924697 0.0694896
0.948852 0.00909438 0.0776837
0.968719 0.0090486 0.0838788
0.976272 0.00909438 0.0883345
0.978988 0.00921645 0.0915541
0.981537 0.00941482 0.0938888
0.983978 0.00967422 0.0956436
0.986358 0.0099794 0.096849
0.9888 0.0102998 0.0977798
0.991241 0.0106355 0.0984817
0.0300603 0.0370336 0.02916
0.0318456 0.0385901 0.0302586
0.0337835 0.0407874 0.0313115
0.0364233 0.0427863 0.0322271
0.0408942 0.0450141 0.032166
0.0480812 0.0484016 0.0304875
0.059617 0.0512703 0.0289464
0.076051 0.052018 0.0280156
0.0937057 0.0528572 0.0265049
0.113222 0.0536812 0.0238499
0.140612 0.0521706 0.0212711
0.177432 0.047837 0.0195163
0.224277 0.0403906 0.0185245
0.283146 0.0299382 0.0184176
0.359197 0.0192111 0.0200351
0.443168 0.0142061 0.0228122
0.528481 0.0132448 0.0269322
0.611841 0.012726 0.0328222
0.692058 0.0123293 0.0407721
0.770397 0.0119936 0.0504616
0.843809 0.0117189 0.0608225
0.904494 0.0115206 0.0706493
0.943648 0.0113832 0.078706
0.965347 0.0113832 0.0849622
0.97528 0.0115053 0.0896315
0.977707 0.0117189 0.0930343
0.980072 0.0119631 0.0956283
0.982437 0.0122377 0.097734
0.984802 0.0125582 0.0993973
0.987152 0.0129091 0.100526
0.989563 0.0132448 0.101381
0.991958 0.013611 0.101976
0.9944 0.0140078 0.102388
0.0296483 0.0415198 0.0291905
0.0313878 0.0438544 0.0301061
0.0331731 0.0463722 0.030869
0.0369726 0.0490578 0.0316014
0.0423285 0.0516976 0.0316625
0.0494392 0.055314 0.0290074
0.0623636 0.0600443 0.0245365
0.0840772 0.0625772 0.0212558
0.115373 0.0614023 0.0193942
0.149798 0.0595254 0.0177768
0.181628 0.0581369 0.0152132
0.225269 0.0522164 0.0131685
0.275303 0.0435187 0.0123293
0.341131 0.030869 0.0138552
0.419745 0.0203403 0.0174411
0.512734 0.0166018 0.0239261
0.607874 0.0157931 0.0321813
0.695613 0.0154726 0.0415503
0.775677 0.015259 0.0521096
0.848463 0.0151064 0.0628824
0.9075 0.0150149 0.0729534
0.94583 0.0149691 0.0813153
0.966674 0.0149996 0.0878157
0.975921 0.0151217 0.0927443
0.978546 0.0153201 0.0964828
0.981033 0.0155642 0.0992905
0.983459 0.0158389 0.101366
0.985855 0.0161593 0.102968
0.988281 0.0164645 0.104143
0.990692 0.0168002 0.105013
0.993088 0.0171359 0.105531
0.995483 0.0174716 0.105913
0.997864 0.0178378 0.106142
0.0285954 0.0462501 0.0283665
0.0299992 0.0489815 0.0290074
0.0317693 0.0521096 0.0295567
0.0358892 0.0556191 0.0298009
0.0413214 0.0587472 0.0292058
0.0483864 0.0624704 0.0267796
0.0603799 0.0681773 0.020798
0.0829328 0.07364 0.0154574
0.122759 0.0737469 0.0127718
0.175311 0.0679332 0.0113832
0.228794 0.0612039 0.0104524
0.270756 0.0564431 0.0087129
0.329656 0.0456703 0.00982681
0.393851 0.0336461 0.0125734
0.467781 0.0247349 0.0178683
0.546349 0.0201419 0.0248722
0.628016 0.019501 0.0331273
0.715053 0.019379 0.0439307
0.802853 0.0192874 0.0563668
0.882643 0.0191958 0.0690776
0.935546 0.0191806 0.0796521
0.963439 0.0192416 0.0877546
0.975814 0.019379 0.0937514
0.978698 0.0195926 0.0980697
0.981399 0.0198672 0.10135
0.983978 0.0201419 0.103685
0.986481 0.0204318 0.105409
0.988937 0.0207218 0.106691
0.99147 0.0210117 0.107637
0.993927 0.0213169 0.108293
0.996368 0.021622 0.108751
0.99881 0.0219425 0.108995
1 0.0222782 0.109163
0.026688 0.0514839 0.0268254
0.0280461 0.05449 0.0272831
0.0293278 0.0581674 0.0272068
0.0323949 0.0622416 0.0264439
0.0382849 0.0662852 0.0255283
0.0454414 0.0700694 0.0234989
0.0556191 0.0754101 0.0182345
0.0755474 0.0824903 0.011902
0.115328 0.0878157 0.00758373
0.176638 0.0844282 0.00653086
0.251301 0.0725719 0.00666819
0.323217 0.0596933 0.00830091
0.378454 0.0509346 0.0100099
0.441215 0.0408789 0.0136568
0.510185 0.0302281 0.0192569
0.580331 0.0255436 0.0263981
0.657374 0.0238346 0.0356451
0.734615 0.0234684 0.0458991
0.81323 0.023682 0.0573129
0.889891 0.0238346 0.0700389
0.942794 0.0238956 0.0814527
0.970047 0.0240024 0.0904402
0.977523 0.024155 0.0965133
0.980545 0.0244144 0.100771
0.983368 0.0247349 0.103761
0.986068 0.0250858 0.105989
0.988678 0.025452 0.107637
0.991272 0.025803 0.108827
0.993912 0.0261387 0.109728
0.996475 0.0264591 0.110369
0.999023 0.0267796 0.110765
1 0.0271 0.111055
1 0.0274205 0.111299
0.0240635 0.0582132 0.0245212
0.0249943 0.0611734 0.0242466
0.0260929 0.065095 0.0233921
0.0280461 0.0695506 0.0221561
0.0333104 0.0741894 0.0208133
0.040528 0.0780957 0.0189822
0.0495613 0.0825055 0.0158694
0.0657511 0.0899825 0.00982681
0.098436 0.0990311 0.0055848
0.160357 0.103471 0.00395209
0.242451 0.0959945 0.00408942
0.337438 0.0769818 0.00637827
0.427756 0.0575418 0.0110781
0.494728 0.0448615 0.0160678
0.554162 0.040116 0.021149
0.626215 0.0321813 0.0296483
0.695079 0.0271611 0.0388037
0.765438 0.0275578 0.0491646
0.838331 0.0279088 0.0606241
0.902785 0.0282444 0.0717479
0.945846 0.0285496 0.0814069
0.97116 0.0288701 0.0897078
0.977844 0.029221 0.0959945
0.98114 0.029572 0.100862
0.984253 0.0299535 0.104219
0.987213 0.0303502 0.106737
0.990005 0.0307317 0.108415
0.992798 0.0311131 0.109697
0.99556 0.0314794 0.110643
0.99823 0.0318303 0.111299
1 0.0321813 0.111772
1 0.032517 0.112123
1 0.0328527 0.112428
0.0193637 0.0691844 0.0194095
0.0206607 0.0713207 0.0189212
0.021973 0.0745556 0.018204
0.0235294 0.078645 0.0171359
0.0269474 0.0828717 0.0160525
0.0345006 0.0869001 0.0148165
0.0429847 0.0910201 0.012604
0.0559548 0.0974594 0.00805676
0.0801251 0.107683 0.00444038
0.132723 0.119402 0.00241093
0.217502 0.123339 0.00244144
0.319951 0.111086 0.00378424
0.438224 0.0821393 0.00885023
0.539559 0.0572061 0.0172427
0.615183 0.0444038 0.0261387
0.670893 0.0399786 0.0326696
0.738872 0.0357977 0.0429694
0.808118 0.0315404 0.0542611
0.871794 0.0319982 0.0647288
0.925704 0.0325322 0.0751354
0.956909 0.0329747 0.0837415
0.975555 0.033463 0.0908675
0.978561 0.0340124 0.0959029
0.981491 0.0345617 0.10016
0.98436 0.0350805 0.103197
0.987274 0.035584 0.105806
0.990234 0.0360418 0.107729
0.99324 0.0364385 0.10927
0.996231 0.0367895 0.110445
0.9991 0.0371252 0.111254
1 0.0374609 0.111818
1 0.0377813 0.112276
1 0.0381018 0.112657
0.0129397 0.0840925 0.0131991
0.0144656 0.0863355 0.0125734
0.0162661 0.088838 0.0119478
0.0185092 0.091722 0.0112764
0.0210269 0.0951858 0.0105135
0.0274662 0.0987716 0.00978103
0.0358282 0.102174 0.00842298
0.0463111 0.107042 0.00654612
0.0631723 0.117235 0.00366217
0.106157 0.131151 0.0015259
0.183566 0.145708 0.00115969
0.289906 0.149767 0.00198367
0.418173 0.127596 0.00480659
0.545892 0.0878309 0.013611
0.650065 0.0604868 0.0265202
0.732143 0.0488594 0.0391394
0.790021 0.0388495 0.0488899
0.849912 0.0378424 0.0589303
0.90988 0.0368505 0.0705577
0.945815 0.0366827 0.0794385
0.968872 0.0372625 0.0866712
0.977066 0.0378729 0.092195
0.979904 0.0384833 0.0967269
0.982605 0.0391089 0.100206
0.985214 0.0397192 0.102846
0.987747 0.0403296 0.105043
0.990341 0.0409094 0.10663
0.993072 0.0414282 0.108003
0.995865 0.0418555 0.109087
0.998749 0.0422522 0.109987
1 0.0425727 0.110735
1 0.0428779 0.111345
1 0.0431678 0.11191
0.00909438 0.102129 0.00679026
0.00978103 0.10454 0.00653086
0.0112764 0.106996 0.00627146
0.0137026 0.109758 0.00605783
0.0162356 0.112703 0.00585946
0.0196689 0.115755 0.00576791
0.0279393 0.118837 0.00553903
0.0365606 0.122667 0.004654
0.0508583 0.130755 0.00288396
0.0821393 0.145373 0.00106813
0.148791 0.16408 0.000289921
0.252537 0.180117 0.000610361
0.385901 0.177584 0.00201419
0.525307 0.145602 0.007187
0.654093 0.102098 0.0198672
0.760647 0.0647288 0.0388647
0.846235 0.0472877 0.0555276
0.901228 0.0439918 0.0664073
0.935805 0.0401465 0.0746929
0.962219 0.04065 0.0832074
0.976364 0.0416571 0.0899062
0.978988 0.0424506 0.0940261
0.98143 0.0427405 0.0977798
0.98381 0.0434272 0.100206
0.986252 0.0440681 0.102495
0.988663 0.0446784 0.104356
0.991089 0.0452735 0.105806
0.993545 0.0458076 0.106996
0.996048 0.0463417 0.107912
0.998596 0.0468299 0.108659
1 0.0472877 0.109285
1 0.0476692 0.109804
1 0.0480201 0.110369
0.00682078 0.123613 0.00262455
0.00770581 0.12578 0.00256352
0.00866712 0.128313 0.00257877
0.00967422 0.131121 0.00262455
0.0122377 0.134264 0.00273136
0.0150759 0.137316 0.00289921
0.0203403 0.140047 0.00303655
0.0277562 0.143267 0.0028687
0.0391241 0.149966 0.00215152
0.0629587 0.162112 0.000885023
0.116152 0.181247 0
0.211032 0.203952 0
0.343511 0.21796 0.000213626
0.491142 0.209888 0.00242618
0.631113 0.172259 0.0100557
0.761074 0.112505 0.0295872
0.866789 0.0691234 0.0526589
0.933013 0.0462959 0.0710918
0.961532 0.0482948 0.0807202
0.975769 0.0472267 0.0872358
0.978225 0.0488899 0.0908675
0.980789 0.0468452 0.0957046
0.98323 0.0466163 0.0986801
0.985473 0.0474708 0.100694
0.987625 0.0480964 0.10251
0.989807 0.0487373 0.103807
0.992096 0.0493324 0.105028
0.994461 0.0498817 0.106126
0.996887 0.0504158 0.107027
0.999329 0.0509346 0.107713
1 0.0514382 0.108248
1 0.0518959 0.108721
1 0.0523537 0.109209
0.00482185 0.147753 0
0.00585946 0.150179 0
0.00701915 0.152636 0
0.00823987 0.155184 0.000183108
0.00955215 0.158282 0.000518807
0.0120394 0.161471 0.000946059
0.0149844 0.164355 0.00140383
0.0200351 0.167391 0.00163272
0.0286259 0.17174 0.00144961
0.0474708 0.182452 0.000808728
0.085893 0.199802 0
0.170687 0.223529 0
0.292424 0.248264 0
0.444709 0.261906 0
0.595056 0.252018 0.00303655
0.736171 0.204623 0.0138094
0.864576 0.117632 0.0411536
0.939986 0.0733501 0.065568
0.975372 0.0572824 0.0823835
0.978439 0.0542458 0.0892653
0.980652 0.0530861 0.0937057
0.982696 0.0525826 0.0964523
0.984833 0.0521248 0.0988327
0.987137 0.0522774 0.100954
0.989364 0.0520943 0.102586
0.991547 0.0522469 0.103899
0.993652 0.0529641 0.10486
0.995789 0.0536355 0.105562
0.998047 0.0542306 0.106249
1 0.0547951 0.106874
1 0.055314 0.107393
1 0.0558175 0.107881
1 0.0563058 0.108415
0.00308232 0.174441 0
0.00436408 0.176272 0
0.00573739 0.178668 0
0.00717174 0.181247 0
0.00862135 0.184558 0
0.0104677 0.187778 0
0.0128023 0.190707 0.000122072
0.0162509 0.193408 0.000747692
0.0221103 0.196948 0.000946059
0.0352483 0.204898 0.000595102
0.062623 0.220645 0
0.131228 0.24419 0
0.238605 0.273976 0
0.390631 0.300359 0
0.550637 0.315038 0
0.700923 0.302068 0.00357061
0.84062 0.227604 0.0205234
0.937224 0.139345 0.0500038
0.975952 0.0823224 0.075227
0.979858 0.0655375 0.0878614
0.982864 0.0601663 0.0939498
0.985138 0.0606546 0.0962844
0.98703 0.0576181 0.0993362
0.988922 0.0568246 0.101198
0.990997 0.0558022 0.102937
0.993225 0.0560616 0.10399
0.995453 0.0565194 0.104814
0.99762 0.057023 0.10547
0.999741 0.0576944 0.105928
1 0.0583658 0.106294
1 0.0589914 0.106706
1 0.0595712 0.107149
1 0.0601053 0.107652
0.00167849 0.202579 0
0.00318914 0.204532 0
0.00480659 0.206577 0
0.00643931 0.20885 0
0.00805676 0.211749 0
0.00984207 0.215167 0
0.0120241 0.218372 0
0.0146334 0.221454 4.57771e-05
0.0188907 0.22501 0.000442512
0.0270695 0.231266 0.000350958
0.0450904 0.245045 0
0.0957046 0.267475 0
0.186007 0.298024 0
0.330358 0.332265 0
0.49781 0.362676 0
0.659724 0.375341 0
0.808225 0.347707 0.00534066
0.923278 0.254978 0.0255741
0.975662 0.146197 0.0599069
0.980392 0.100786 0.0779736
0.983948 0.077409 0.0887007
0.986969 0.0648966 0.0966964
0.989395 0.0601205 0.100587
0.991379 0.0610666 0.101884
0.993164 0.0640574 0.102113
0.995056 0.0622416 0.103456
0.997101 0.0594797 0.104967
0.999313 0.0602579 0.105409
1 0.0609903 0.10576
1 0.0616922 0.10605
1 0.0623789 0.106355
1 0.0669413 0.105684
1 0.0720684 0.104875
0.000732433 0.231937 0
0.00242618 0.233295 0
0.00422675 0.234943 0
0.00604257 0.237491 0
0.00776684 0.240757 0
0.00958267 0.244297 0
0.0117189 0.248417 0
0.0141604 0.252201 0
0.0174411 0.256626 0
0.0224308 0.262226 3.0518e-05
0.0325322 0.273655 0
0.0660868 0.294316 0
0.137484 0.323934 0
0.271183 0.360647 0
0.441276 0.399817 0
0.613367 0.430884 0
0.77052 0.433967 0.000167849
0.902831 0.386892 0.00714122
0.973938 0.275196 0.0330816
0.980301 0.163424 0.0607004
0.98439 0.104051 0.0803082
0.987823 0.0849622 0.0921492
0.990845 0.0792706 0.0962539
0.993454 0.0690318 0.100725
0.995605 0.0648661 0.103014
0.997452 0.061265 0.104845
0.999207 0.0623026 0.10518
1 0.0687572 0.104036
1 0.0755932 0.102663
1 0.0819257 0.101457
1 0.0876631 0.100435
1 0.0962234 0.0986496
1 0.105043 0.0967575
0.000259403 0.262882 0
0.00209049 0.264454 0
0.00396735 0.266545 0
0.00579843 0.269627 0
0.00756847 0.273671 0
0.00943008 0.278233 0
0.0116121 0.282612 0
0.0140688 0.287007 0
0.0168612 0.291936 0
0.0202487 0.297459 0
0.0271916 0.306722 0
0.0458686 0.324636 0
0.0976883 0.352987 0
0.209049 0.389883 0
0.381338 0.431922 0
0.56025 0.471748 0
0.728573 0.495155 0
0.878096 0.488792 0
0.966201 0.430716 0.00732433
0.979126 0.285969 0.0375677
0.984329 0.197177 0.0613107
0.988174 0.141329 0.0779583
0.991592 0.107286 0.0887007
0.994629 0.0749828 0.0992905
0.99733 0.0644999 0.103578
0.999649 0.0737316 0.102266
1 0.0810407 0.101061
1 0.0911574 0.09897
1 0.105028 0.0957351
1 0.117403 0.0929122
1 0.127901 0.0905318
1 0.151324 0.0863813
1 0.18027 0.0815137
3.0518e-05 0.296391 0
0.00192264 0.299016 0
0.0037995 0.3019 0
0.00567636 0.305852 0
0.00746166 0.310674 0
0.00933852 0.31606 0
0.0115511 0.321004 0
0.0140383 0.325658 0
0.0168002 0.330587 0
0.0197757 0.335653 0
0.0246128 0.343313 0
0.0345464 0.358679 0
0.0692302 0.384512 0
0.155566 0.420066 0
0.325032 0.461952 0
0.508247 0.506065 0
0.681926 0.540124 0
0.839078 0.551781 0
0.946899 0.533043 0
0.976516 0.439414 0.0166629
0.983749 0.342168 0.0352026
0.988098 0.230045 0.0559396
0.991882 0.157443 0.0770886
0.995224 0.120516 0.0882429
0.998245 0.101076 0.0940566
1 0.0953994 0.0966964
1 0.109071 0.0940414
1 0.123308 0.0910658
1 0.151888 0.0857557
1 0.198276 0.0777752
1 0.239414 0.070634
1 0.275898 0.0643473
1 0.319463 0.0573434
0 0.333837 0
0.0018616 0.336675 0
0.00376898 0.340063 0
0.00564584 0.345083 0
0.0074464 0.350652 0
0.00933852 0.356619 0
0.0115969 0.362005 0
0.0140993 0.367025 0
0.0168765 0.371496 0
0.0199435 0.376318 0
0.0236973 0.382589 0
0.0293736 0.395834 0
0.0510109 0.419211 0
0.109346 0.45214 0
0.261936 0.49192 0
0.45243 0.536599 0
0.63418 0.57702 0
0.798306 0.601389 0
0.922713 0.603342 0
0.972351 0.575555 0.00274662
0.982696 0.497246 0.0144045
0.987655 0.377172 0.0332799
0.99176 0.269871 0.055024
0.995438 0.198474 0.0692149
0.998718 0.145251 0.0823987
1 0.12903 0.0877699
1 0.166445 0.0818036
1 0.209979 0.074815
1 0.254017 0.0675822
1 0.305837 0.0591287
1 0.370245 0.0488289
1 0.426963 0.0396582
1 0.478523 0.0313268
9.15541e-05 0.374746 0
0.00196841 0.377859 0
0.00389105 0.381415 0
0.00575265 0.386221 0
0.00753796 0.392233 0
0.00944533 0.398764 0
0.0117342 0.404501 0
0.0142672 0.409659 0
0.0171054 0.414725 0
0.0202487 0.419745 0
0.0237278 0.424781 0
0.0277256 0.435203 0
0.0416114 0.455848 0
0.0763867 0.485512 0
0.204074 0.52282 0
0.398413 0.564889 0
0.582269 0.607767 0
0.754742 0.640681 0
0.894499 0.657984 0
0.963226 0.655009 0
0.981033 0.623957 0.0033875
0.987076 0.546578 0.0146181
0.991302 0.438819 0.0263676
0.995254 0.313313 0.0435035
0.998825 0.227497 0.066392
1 0.23183 0.0687266
1 0.274784 0.0619821
1 0.330327 0.0536049
1 0.387778 0.0449226
1 0.444373 0.0362402
1 0.50013 0.0274968
1 0.550027 0.0230106
1 0.596185 0.0187381
0.000320439 0.417258 0
0.00221256 0.421256 0
0.00411994 0.42501 0
0.00596628 0.429816 0
0.00775158 0.43566 0
0.00965896 0.442405 0
0.0119936 0.448188 0
0.0145571 0.453712 0
0.0174563 0.458869 0
0.020676 0.463554 0
0.0241703 0.468284 0
0.0280461 0.476173 0
0.0355383 0.493141 0
0.0603342 0.519982 0
0.151675 0.55288 0
0.340764 0.592599 0
0.532265 0.635523 0
0.711116 0.674586 0
0.860029 0.699168 0
0.949722 0.713756 0
0.978576 0.715175 0
0.986419 0.682017 0.00367742
0.990768 0.597162 0.00956741
0.994812 0.47219 0.0224002
0.998611 0.359411 0.0445258
1 0.362783 0.0459754
1 0.420233 0.0374609
1 0.475944 0.0291447
1 0.524132 0.0236362
1 0.567056 0.0202487
1 0.610803 0.0166781
1 0.653834 0.0130007
1 0.698283 0.00939956
0.000640879 0.461067 0
0.00250248 0.464759 0
0.00440986 0.469062 0
0.00624094 0.474174 0
0.0080415 0.480262 0
0.00999466 0.486732 0
0.0123598 0.49276 0
0.0149691 0.498299 0
0.0178683 0.503349 0
0.021149 0.507897 0
0.0246586 0.511818 0
0.0285649 0.51783 0
0.0336461 0.53135 0
0.0504005 0.554376 0
0.108095 0.583825 0
0.276967 0.619989 0
0.47715 0.661189 0
0.665843 0.702663 0
0.824262 0.73431 0
0.932921 0.758602 0
0.973617 0.774273 0
0.985412 0.768429 0
0.990158 0.722271 0.00189212
0.994278 0.637003 0.00874342
0.998154 0.530373 0.0211948
1 0.509178 0.0218509
1 0.554284 0.018555
1 0.597162 0.0153353
1 0.640055 0.0120394
1 0.679225 0.00903334
1 0.714977 0.00788891
1 0.74638 0.00782788
1 0.77969 0.00762951
0.000991836 0.505623 0
0.00283818 0.509224 0
0.00474556 0.513268 0
0.0065919 0.519326 0
0.00840772 0.525734 0
0.0103914 0.532311 0
0.0127718 0.537774 0
0.0153811 0.543221 0
0.0183261 0.548119 0
0.021622 0.551537 0
0.0251926 0.554864 0
0.0289769 0.558953 0
0.0333104 0.570108 0
0.0445411 0.588479 0
0.0842145 0.614359 0
0.219059 0.646647 0
0.412726 0.685618 0
0.611627 0.726223 0
0.782223 0.762417 0
0.908461 0.793057 0
0.962356 0.813748 0
0.983993 0.823011 0
0.98941 0.812696 0
0.993759 0.769848 0.00184634
0.997635 0.674922 0.00794995
1 0.634791 0.00941482
1 0.672358 0.00675975
1 0.70808 0.00523384
1 0.739422 0.00540169
1 0.770764 0.00552377
1 0.802106 0.00563058
1 0.830961 0.00570687
1 0.858351 0.00621042
0.00137331 0.550988 0
0.00323491 0.554665 0
0.00511177 0.558938 0
0.00694286 0.564126 0
0.00877394 0.57084 0
0.0107881 0.577035 0
0.0131991 0.58265 0
0.0158236 0.587549 0
0.0187533 0.59173 0
0.0220798 0.594858 0
0.0256809 0.596887 0
0.0294347 0.600061 0
0.033463 0.607355 0
0.0416266 0.622614 0
0.0683452 0.644099 0
0.166949 0.673198 0
0.344167 0.710018 0
0.552865 0.74876 0
0.735378 0.786206 0
0.873243 0.817655 0
0.947967 0.84416 0
0.981613 0.865003 0
0.988174 0.865309 0.000686656
0.993118 0.847669 3.0518e-05
0.997086 0.791989 0.000732433
1 0.743221 0.00218204
1 0.77203 0.00250248
1 0.799573 0.00280766
1 0.827771 0.00308232
1 0.855985 0.00328069
1 0.873442 0.00650034
1 0.88983 0.00950637
1 0.905882 0.0124208
0.00175479 0.596429 0
0.00360113 0.599786 0
0.00546273 0.603952 0
0.00729381 0.609094 0
0.0091249 0.615335 0
0.0111696 0.621439 0
0.0135653 0.626474 0
0.0161898 0.630686 0
0.0191196 0.634272 0
