luts/lumix_color_lab_C/S_Teal_Orange_1.cube
TITLE "Generated by Resolve"
LUT_3D_SIZE 9
0.0170596 0.0150607 0.014023
0.022034 0.0199893 0.0189975
0.0276188 0.0248112 0.0240177
0.0399481 0.0286107 0.0271
0.067628 0.0300298 0.0277562
0.119951 0.0276799 0.0252384
0.212116 0.019852 0.0198978
0.450874 0.00946059 0.0184176
0.869688 0.00662242 0.059144
0.0302586 0.0337224 0.02916
0.0421759 0.040589 0.0327459
0.07364 0.0473945 0.0345312
0.158343 0.0418708 0.0327306
0.300542 0.0221408 0.0266575
0.55935 0.012192 0.02916
0.877562 0.0108034 0.0643778
0.977386 0.0103761 0.0894789
0.986984 0.0109255 0.0961166
0.0280308 0.0566567 0.029633
0.048188 0.0732738 0.0289006
0.153414 0.0899825 0.0110018
0.347112 0.0652171 0.0102388
0.5944 0.0251926 0.0298009
0.897017 0.0226139 0.0723888
0.978378 0.0225986 0.0982528
0.98732 0.0231479 0.1066
0.995651 0.0238041 0.109087
0.0129702 0.0980697 0.0125582
0.0266117 0.110933 0.010544
0.0887617 0.137667 0.00309758
0.407385 0.148562 0.00437934
0.75996 0.0478218 0.0432441
0.942702 0.0368353 0.078706
0.980972 0.038529 0.0988174
0.990402 0.0402686 0.107622
1 0.0413825 0.11223
0.00503548 0.18436 0
0.0115053 0.190433 0.000396735
0.0363622 0.19939 0.00135805
0.260471 0.268132 0
0.79237 0.210559 0.0157015
0.978729 0.0611276 0.0879225
0.986419 0.0584268 0.0992905
0.994278 0.0556039 0.106203
1 0.0577096 0.109117
0.00210575 0.291707 0
0.00994888 0.293996 0
0.0200351 0.301823 0
0.103349 0.349828 0
0.628458 0.472755 0
0.978042 0.334447 0.0299687
0.992279 0.132143 0.0851453
0.99971 0.110491 0.0948501
1 0.181979 0.0817121
0.00154116 0.426215 0
0.00950637 0.431342 0
0.0195315 0.440589 0
0.0368505 0.467002 0
0.378317 0.591394 0
0.943618 0.724773 0
0.992035 0.603922 0.00917067
1 0.494682 0.0267491
1 0.673213 0.0121157
0.00117494 0.586435 0
0.00920119 0.592706 0
0.0194858 0.602014 0
0.0317235 0.614755 0
0.120943 0.697322 0
0.819287 0.838865 0
0.988754 0.913222 0.00373846
1 0.874678 0.0037232
1 0.933867 0.0156863
0.00138857 0.747753 0
0.00932326 0.754467 0
0.0196078 0.760876 0
0.0320897 0.766949 0
0.0525216 0.809583 0
0.624582 0.904372 0
0.972198 0.968399 0.08748
1 0.977859 0.0450904
1 0.985992 0.106386
0.0192111 0.0171054 0.0160372
0.0233616 0.0215 0.0205844
0.0304723 0.0266117 0.0268406
0.0433661 0.0296178 0.031632
0.0761883 0.0298619 0.0334173
0.136858 0.0259251 0.0316625
0.255772 0.0157015 0.0263066
0.556985 0.00860609 0.028275
0.940703 0.00587472 0.0755779
0.0273594 0.0367742 0.0336156
0.0405432 0.0438087 0.0431678
0.0721141 0.0475166 0.046067
0.134035 0.0436255 0.0399329
0.257572 0.0277867 0.0302434
0.520256 0.0126345 0.0285344
0.861143 0.0111543 0.0631418
0.97705 0.0106966 0.0907607
0.986709 0.0113069 0.0981765
0.0208896 0.0655222 0.0336461
0.0369116 0.0920272 0.0393683
0.130343 0.104707 0.0341802
0.299092 0.088014 0.0375982
0.583719 0.0254673 0.0561532
0.849241 0.0216068 0.0713512
0.97113 0.0213016 0.0945144
0.982971 0.0219272 0.104662
0.991089 0.0230106 0.108171
0.00842298 0.108293 0.015198
0.0159609 0.133196 0.0152743
0.0710307 0.158495 0.0191348
0.354376 0.188739 0.015671
0.676402 0.122927 0.0347753
0.92314 0.0396277 0.0805371
0.981003 0.0391852 0.107744
0.990799 0.039826 0.116915
0.999588 0.0403754 0.1196
0.00209049 0.198184 0.000946059
0.00917067 0.194385 0.00383001
0.024155 0.201022 0.00749218
0.176776 0.251637 0.00605783
0.72221 0.291905 0.0137026
0.975631 0.113313 0.0767071
0.984741 0.0822461 0.0978866
0.99292 0.0608072 0.112856
1 0.0586557 0.117708
0 0.308141 0
0.00790417 0.299779 0
0.0171206 0.303029 0.00392157
0.0626993 0.322194 0.00515755
0.496056 0.470939 0.00384527
0.971725 0.467338 0.0188754
0.990326 0.277394 0.0637827
0.997253 0.222889 0.0741436
1 0.253437 0.0767376
0 0.445182 0
0.00741588 0.438224 0
0.0167239 0.443366 0.00138857
0.0301976 0.454459 0.00393683
0.218555 0.549676 0.00166323
0.883467 0.737072 0.00355535
0.990005 0.720913 0.0113832
1 0.58349 0.0261997
1 0.762264 0.0164797
0 0.605692 0
0.00706493 0.600275 0
0.016556 0.604913 0
0.0290532 0.612009 0.002121
0.0631266 0.657511 0.00144961
0.69337 0.814588 0
0.983001 0.925948 0.02327
1 0.897063 0.0146944
1 0.954086 0.0318761
0 0.76434 0
0.00717174 0.760815 0
0.0165713 0.76376 0
0.029099 0.767163 0.000183108
0.0434424 0.786099 0.00109865
0.409155 0.874434 0.005066
0.945403 0.963882 0.111879
0.998367 0.981064 0.0889143
1 0.988708 0.132921
0.0211185 0.019028 0.0179904
0.0248112 0.0231632 0.022385
0.0330205 0.0283665 0.0306249
0.045182 0.0316625 0.0369116
0.0768139 0.0309606 0.0435492
0.139651 0.0258793 0.0462348
0.280125 0.014023 0.0422065
0.61503 0.0083772 0.0401617
0.959487 0.00572213 0.0859388
0.024979 0.037705 0.0409857
0.0361334 0.0440375 0.0592508
0.0694591 0.0500649 0.0675669
0.134127 0.0447395 0.0732586
0.270649 0.0254978 0.063386
0.56112 0.0125887 0.0493172
0.899474 0.0110933 0.0752117
0.978653 0.0108034 0.0988174
0.987823 0.0115816 0.104997
0.00921645 0.0827955 0.0484474
0.0140536 0.111559 0.0708782
0.0900893 0.113054 0.110765
0.258564 0.0877852 0.0885023
0.472297 0.0303502 0.0657206
0.747677 0.0207828 0.0621195
0.951049 0.0209812 0.088426
0.981109 0.0218204 0.104036
0.989868 0.0230259 0.109133
0.00315862 0.138125 0.0175326
0.00915541 0.161074 0.021973
0.0504921 0.202686 0.062089
0.301457 0.225269 0.0731518
0.594476 0.186175 0.095201
0.912306 0.04094 0.117052
0.978592 0.0368963 0.114351
0.986694 0.0367742 0.120073
0.99443 0.0373846 0.120928
0 0.219745 0.00349432
0.00607309 0.209339 0.00695811
0.0184482 0.235477 0.0152285
0.138445 0.279271 0.0281682
0.653574 0.366186 0.0261234
0.946868 0.283879 0.0530251
0.982879 0.129473 0.0939803
0.992142 0.0670634 0.124071
1 0.057908 0.131853
0 0.330922 0
0.00505074 0.31635 0.00306706
0.0140841 0.305577 0.00759899
0.0418708 0.314885 0.0113832
0.342458 0.433829 0.0106966
0.956359 0.578958 0.0168307
0.988052 0.481407 0.0443885
0.995239 0.396262 0.0563821
1 0.31104 0.0786755
0 0.472724 0
0.0047303 0.457191 0.000488289
0.0137789 0.447852 0.00503548
0.0259709 0.451072 0.00862135
0.120058 0.497078 0.00927749
0.783078 0.727184 0.0101472
0.987808 0.801999 0.0169985
0.999908 0.673854 0.0277714
1 0.834577 0.0246281
0 0.632624 0
0.00447089 0.618616 0
0.01355 0.610376 0.00265507
0.025742 0.610498 0.0062562
0.0461738 0.628153 0.00819409
0.500893 0.766598 0.00668345
0.972076 0.927504 0.0460059
0.999252 0.925734 0.0296941
1 0.963333 0.056199
0 0.787243 0
0.00476081 0.776059 0
0.0135653 0.769802 0.000595102
0.0256657 0.767285 0.00408942
0.0393683 0.777447 0.00689708
0.209903 0.83827 0.00784314
0.883665 0.94818 0.0982071
0.995377 0.984436 0.150332
1 0.990311 0.175998
0.0225376 0.0205386 0.0195773
0.0266423 0.0248569 0.0259709
0.0354772 0.0295262 0.0360876
0.0502937 0.0323186 0.046067
0.0793927 0.0325475 0.0565499
0.142565 0.026154 0.0682231
0.287114 0.0139467 0.076585
0.599557 0.00901808 0.0756847
0.945357 0.00657664 0.0908217
0.0222629 0.0384527 0.0531014
0.030045 0.041886 0.080415
0.0678569 0.0399939 0.121599
0.134874 0.0435035 0.121202
0.23859 0.0299535 0.126497
0.471061 0.0145113 0.122194
0.808698 0.0128023 0.10013
0.975097 0.0121767 0.105257
0.985367 0.0127108 0.114336
0.00613413 0.0876326 0.0917983
0.00914015 0.0955673 0.155688
0.0313878 0.0774548 0.256703
0.206043 0.0946517 0.194324
0.392859 0.0464637 0.178424
0.695506 0.0218967 0.136355
0.946029 0.0215305 0.103578
0.981598 0.0221256 0.114214
0.990799 0.0233158 0.118135
0 0.193484 0.0432136
0.00321965 0.205829 0.0757916
0.0166171 0.24506 0.156298
0.216831 0.240711 0.239078
0.502647 0.1776 0.193576
0.765072 0.0451514 0.139452
0.954009 0.0336156 0.107485
0.982284 0.0347295 0.116258
0.99118 0.0361944 0.1205
0 0.288548 0.00743114
0.000900282 0.256291 0.0119326
0.0138094 0.285039 0.0369268
0.102403 0.372503 0.142473
0.57554 0.432441 0.166583
0.892439 0.407568 0.193149
0.981903 0.131304 0.200397
0.98996 0.0556954 0.144472
0.997284 0.0534524 0.138506
0 0.380484 0.00270085
0.000808728 0.347478 0.00650034
0.010605 0.325429 0.0110323
0.027863 0.377615 0.024506
0.26215 0.463691 0.0480964
0.90161 0.646494 0.0376135
0.984909 0.6822 0.0438239
0.992767 0.565896 0.0523384
1 0.314977 0.0955215
0 0.512749 0
0.000671397 0.488167 0.00358587
0.0104067 0.467262 0.00834669
0.0217899 0.447822 0.0123598
0.0623178 0.470619 0.0170443
0.602167 0.669596 0.0175937
0.983871 0.847272 0.0301671
0.997055 0.822995 0.0387121
1 0.866667 0.0437629
0 0.666468 0
0.000732433 0.648753 0.00123598
0.0102388 0.629053 0.00610361
0.0216526 0.609522 0.0101015
0.0363928 0.615305 0.0134279
0.238453 0.690211 0.0140993
0.930068 0.912825 0.0502327
0.996674 0.95668 0.0648966
1 0.971328 0.0909743
0 0.816342 0
0.00131228 0.801434 0
0.0104219 0.785534 0.00418097
0.0215763 0.76878 0.00808728
0.0352636 0.770062 0.0113069
0.0786755 0.795682 0.0132143
0.740246 0.917403 0.0362707
0.990768 0.984604 0.212161
1 0.990845 0.224567
0.0236973 0.0218814 0.0209964
0.0278019 0.026215 0.0319066
0.0367742 0.0290379 0.048188
0.0559854 0.0312963 0.0607004
0.0888533 0.0314488 0.0770886
0.158419 0.0243839 0.0999313
0.295872 0.0136263 0.123888
0.573358 0.0100099 0.137148
0.909651 0.00790417 0.117388
0.018265 0.0393072 0.0744335
0.0247654 0.0384527 0.115038
0.0438697 0.023331 0.204181
0.140826 0.0221408 0.218967
0.250233 0.0208591 0.218921
0.412222 0.0171359 0.219898
0.672419 0.0157015 0.215579
0.926268 0.0148775 0.175952
0.979629 0.0148928 0.126925
0.00331121 0.0783398 0.180484
0.00703441 0.0504311 0.293568
0.0147707 0.02327 0.477684
0.158541 0.0271611 0.444999
0.347707 0.0548867 0.310185
0.541604 0.0307469 0.289448
0.830259 0.0248264 0.263005
0.975738 0.0244602 0.178927
0.986557 0.0249332 0.13286
0 0.207782 0.169512
3.0518e-05 0.19794 0.235477
0.0121004 0.189273 0.353536
0.061326 0.155779 0.494499
0.416922 0.20473 0.38439
0.679744 0.0832074 0.348074
0.933913 0.0348516 0.260868
0.981857 0.0352026 0.144289
0.991608 0.0363775 0.133806
0 0.358877 0.0339361
0 0.345449 0.0815442
0.00898756 0.362249 0.156603
0.0287633 0.45301 0.309697
0.449424 0.458244 0.456519
0.792615 0.355642 0.3729
0.959075 0.109377 0.26508
0.982757 0.0501869 0.153872
0.991745 0.0496376 0.135393
0 0.493568 0.00944533
0 0.454749 0.0133822
0.00624094 0.396841 0.020676
0.022858 0.463081 0.0841688
0.218875 0.612375 0.294545
0.836851 0.706279 0.36379
0.974243 0.731609 0.417655
0.991379 0.557458 0.454841
0.998581 0.193866 0.278157
0 0.607446 0.00427253
0 0.55845 0.00773632
0.00633249 0.506905 0.0117647
0.0171206 0.478538 0.0179141
0.0422217 0.56994 0.0594949
0.492912 0.695903 0.126238
0.972305 0.878447 0.234302
0.99382 0.916915 0.27361
1 0.876616 0.196246
0 0.729809 0.0015259
0 0.692424 0.00508125
0.00637827 0.661097 0.0090486
0.0169528 0.631998 0.0138399
0.0304112 0.600565 0.018616
0.128771 0.64654 0.0275883
0.816159 0.863981 0.0644846
0.993622 0.96994 0.162707
1 0.977661 0.245289
0 0.855741 0.0028687
0 0.833127 0.00408942
0.0069276 0.81178 0.0078584
0.0171969 0.787991 0.0117647
0.0303502 0.762783 0.0156558
0.0519265 0.772915 0.0212558
0.49659 0.847684 0.0404517
0.973495 0.980575 0.236103
1 0.990982 0.272282
0.0250401 0.0233921 0.0226139
0.0280003 0.0273442 0.0399176
0.0361028 0.0276188 0.0675517
0.0599985 0.027985 0.0870985
0.100572 0.0268711 0.111742
0.184024 0.0172885 0.155947
0.32784 0.0121462 0.199252
0.561837 0.0109712 0.228992
0.854719 0.00958267 0.23444
0.0136568 0.0378729 0.106279
0.0180667 0.0297704 0.173678
0.0173495 0.0147707 0.352789
0.0664378 0.0149386 0.475761
0.252598 0.0166781 0.387518
0.421973 0.01738 0.369955
0.611078 0.0179141 0.357321
0.827848 0.0179751 0.348089
0.970199 0.0177615 0.316716
0.000274662 0.0361944 0.348775
0.00430304 0.0214694 0.567193
0.0120089 0.0221866 0.766018
0.0274357 0.0235599 0.818936
0.338125 0.0269627 0.5393
0.533837 0.0288548 0.470848
0.733318 0.0289006 0.448569
0.931365 0.028336 0.436255
0.980896 0.0280308 0.380194
0 0.15317 0.404654
0 0.0944991 0.527474
0.00921645 0.0528115 0.649561
0.02533 0.0518807 0.766506
0.376257 0.0673075 0.696345
0.629984 0.115572 0.562341
0.829709 0.0540932 0.52961
0.975814 0.0389105 0.498619
0.986358 0.0389258 0.391348
0 0.380957 0.216922
0 0.367132 0.301823
0.00614939 0.349645 0.404639
0.0219577 0.374517 0.587243
0.175814 0.40029 0.749096
0.700496 0.431998 0.647944
0.915984 0.22034 0.603372
0.981323 0.0524453 0.499687
0.991318 0.0501869 0.288899
0 0.577203 0.0354467
0 0.564034 0.0846265
0.00323491 0.546853 0.165957
0.0168917 0.58674 0.303746
0.0447089 0.711131 0.550271
0.723079 0.718944 0.713787
0.943816 0.644312 0.631403
0.983291 0.409506 0.497459
0.991028 0.142123 0.302281
0 0.733593 0.0149081
0 0.702647 0.0188754
0.00172427 0.652003 0.0246586
0.0121004 0.577173 0.0472114
0.0347143 0.684398 0.21471
0.528954 0.829038 0.552346
0.945296 0.891325 0.647135
0.9897 0.907408 0.710201
0.999435 0.807996 0.744259
0 0.843534 0.00999466
0 0.79852 0.0119326
0.00207523 0.739467 0.0151827
0.0118715 0.676814 0.0195926
0.025803 0.64712 0.0330968
0.0803998 0.777859 0.219028
0.739544 0.878126 0.373159
0.98938 0.966964 0.568551
1 0.977768 0.669841
0 0.922896 0.0346227
0 0.889311 0.0255894
0.00289921 0.852598 0.0161593
0.0124361 0.819852 0.0174411
0.0250858 0.779843 0.02327
0.0395209 0.751705 0.0354772
0.295857 0.814206 0.112016
0.922179 0.962478 0.293614
1 0.990997 0.496681
0.0250706 0.0250248 0.0277409
0.0271458 0.0276646 0.053315
0.0336614 0.0250706 0.0954604
0.0597696 0.0216678 0.135302
0.110994 0.0179751 0.175463
0.20647 0.0126497 0.246769
0.365667 0.0117189 0.317998
0.594186 0.0111086 0.369558
0.832197 0.0107424 0.389364
0.0104982 0.0325017 0.15259
0.011429 0.0164645 0.270039
0.0130922 0.0146181 0.584375
0.0231632 0.0143587 0.801526
0.174243 0.0158541 0.667918
0.419883 0.0174105 0.57882
0.613001 0.018677 0.54313
0.802457 0.0196536 0.52932
0.944656 0.0204166 0.521035
0 0.0212711 0.615122
0.00161746 0.0302586 0.842496
0.00996414 0.263401 0.944015
0.0240482 0.383627 0.966628
0.184115 0.0393378 0.867704
0.533074 0.0286564 0.696712
0.736019 0.0301976 0.654047
0.902647 0.0312352 0.639185
0.976715 0.0316777 0.632624
0 0.0497292 0.718257
0 0.0668803 0.823835
0.0074464 0.149889 0.893065
0.0213779 0.294148 0.93695
0.0797131 0.292485 0.938979
0.63299 0.0830243 0.790906
0.826978 0.0586404 0.740932
0.951736 0.0460822 0.724346
0.981979 0.0432441 0.718761
0 0.361074 0.496315
0 0.327779 0.611124
0.00416571 0.300435 0.727443
0.0174868 0.317159 0.837263
0.0415198 0.413092 0.913314
0.689464 0.40354 0.881056
0.879713 0.393301 0.808454
0.970184 0.203281 0.785
0.986572 0.0576638 0.768795
0 0.608148 0.263752
0 0.597833 0.367559
0.00134279 0.583291 0.485557
0.0133822 0.570413 0.614969
0.0354467 0.636332 0.79498
0.525536 0.697993 0.901503
0.889097 0.716167 0.851118
0.975357 0.57351 0.817426
0.989868 0.178149 0.741497
0 0.804532 0.0957351
0 0.793851 0.170886
0 0.778927 0.260914
0.0105745 0.758022 0.352758
0.0294041 0.80827 0.53521
0.137926 0.887587 0.78706
0.889876 0.884703 0.882582
0.97322 0.849668 0.835508
0.991623 0.716442 0.731502
0 0.928801 0.138186
0 0.910048 0.139254
0 0.880186 0.133745
0.00891127 0.830137 0.127062
0.0204929 0.754879 0.160174
0.0496223 0.874464 0.460258
0.800122 0.933562 0.78294
0.977981 0.955734 0.849989
0.998505 0.960555 0.88304
0 0.970657 0.249531
0 0.958694 0.201633
0 0.938384 0.137484
0.00888075 0.883909 0.0884413
0.0193484 0.822751 0.0581979
0.0361181 0.811765 0.140642
0.296696 0.913252 0.436057
0.88336 0.95819 0.607324
0.999161 0.988907 0.796475
0.0237278 0.0266117 0.035935
0.0251469 0.0269474 0.0732891
0.0294957 0.0211185 0.135409
0.0499275 0.014847 0.207446
0.10692 0.0122683 0.295766
0.215625 0.0117494 0.407034
0.392828 0.0112612 0.498283
0.624033 0.0109865 0.558236
0.840085 0.0112306 0.580926
0.00801099 0.0220798 0.218173
0.00869764 0.0146639 0.437232
0.0115663 0.0151064 0.829587
0.02121 0.322255 0.960845
0.0467079 0.178378 0.934234
0.381704 0.0173342 0.808011
0.610864 0.0189975 0.74255
0.80383 0.0204318 0.720897
0.939681 0.0217899 0.713222
0 0.0392157 0.860548
0 0.378546 0.964782
0.00822461 0.591745 0.987884
0.0213321 0.673609 0.992584
0.0408026 0.520912 0.984207
0.500191 0.0683299 0.896101
0.738155 0.0316472 0.834592
0.904189 0.0326085 0.816861
0.976272 0.0339818 0.810468
0 0.223392 0.916228
0 0.375998 0.954772
0.00582895 0.493782 0.976547
0.018967 0.592218 0.98706
0.0386511 0.621118 0.989548
0.586038 0.345205 0.958282
0.831617 0.100282 0.898497
0.959426 0.0560159 0.882933
0.980682 0.0474861 0.877791
0 0.325963 0.773358
0 0.343557 0.860212
0.00277714 0.413321 0.925139
0.0155032 0.508339 0.962371
0.0345769 0.576883 0.979065
0.50312 0.57882 0.981659
0.884947 0.470542 0.933837
0.963302 0.374456 0.915175
0.984482 0.20441 0.908385
0 0.605951 0.568399
0 0.591302 0.675654
0 0.5785 0.784131
0.0116426 0.580987 0.875502
0.0295262 0.612299 0.931411
0.206989 0.702556 0.966384
0.88542 0.726986 0.952865
0.960739 0.725872 0.927596
0.985428 0.602441 0.915282
0 0.831159 0.384771
0 0.821378 0.486336
0 0.808606 0.595056
0.00970474 0.795239 0.704143
0.0248569 0.786404 0.80589
0.0528725 0.848356 0.915999
0.807797 0.87689 0.958358
0.951614 0.885985 0.938354
0.988632 0.816434 0.921096
0 0.955215 0.342519
0 0.950759 0.388739
0 0.943771 0.445884
0.00857557 0.931594 0.513375
0.0202335 0.911452 0.583459
0.0439612 0.931304 0.766522
0.590799 0.953033 0.912261
0.955383 0.952407 0.9514
0.989731 0.933196 0.928878
0 0.985016 0.431327
0 0.983566 0.423163
0 0.980377 0.410452
0.00747692 0.970428 0.390341
0.0167239 0.944137 0.360662
0.0313878 0.895369 0.363699
0.134524 0.957595 0.683024
0.914839 0.969589 0.902968
0.994156 0.984405 0.936812
0.0217288 0.0275425 0.0487373
0.0217746 0.0247044 0.102296
0.0234226 0.0159152 0.192721
0.025742 0.011902 0.320073
0.042649 0.0111849 0.541299
0.153811 0.0108797 0.654978
0.39379 0.0106203 0.727977
0.639658 0.0108186 0.759182
0.843107 0.0116274 0.764889
0.00633249 0.0150454 0.320897
0.00686656 0.0146944 0.681437
0.0100862 0.322972 0.95967
0.0192416 0.667185 0.992325
0.0352483 0.637354 0.991241
0.277485 0.249683 0.953353
0.600198 0.0528878 0.904372
0.801755 0.0238041 0.875959
0.941253 0.0227512 0.867842
0 0.403052 0.968292
0 0.672114 0.992111
0.00643931 0.771084 0.999207
0.0187839 0.771771 1
0.0373236 0.766217 0.999527
0.414099 0.531075 0.986572
0.735027 0.161715 0.952087
0.900633 0.0455177 0.932921
0.974105 0.035584 0.928618
0 0.539635 0.981735
0 0.64123 0.98996
0.00427253 0.726055 0.994675
0.0167544 0.775555 0.998795
0.0353704 0.778088 1
0.44213 0.713664 0.995377
0.825223 0.406928 0.975525
0.955413 0.205066 0.962264
0.981308 0.10341 0.960754
0 0.437232 0.929976
0 0.522835 0.965301
0.00151064 0.621698 0.98471
0.0138705 0.715358 0.992782
0.0317693 0.773037 0.996841
0.255207 0.777478 0.998535
0.863233 0.647456 0.989685
0.963516 0.539055 0.97409
0.985428 0.430213 0.969329
0 0.600671 0.819989
0 0.606485 0.889494
0 0.633783 0.938872
0.010605 0.686961 0.970443
0.027039 0.737758 0.985336
0.0547951 0.779919 0.992859
0.786801 0.789044 0.994522
0.960174 0.774701 0.976425
0.983749 0.748867 0.968856
0 0.826688 0.685603
0 0.816587 0.776211
0 0.808988 0.855314
0.00868238 0.810407 0.911269
0.0225376 0.813916 0.947753
0.0436255 0.828473 0.969711
0.607523 0.870436 0.986053
0.950607 0.890425 0.981521
0.982666 0.891356 0.969757
0 0.961807 0.588052
0 0.955673 0.664714
0 0.945571 0.745159
0.00773632 0.933455 0.817868
0.0196078 0.920851 0.875639
0.0382696 0.912291 0.917952
0.187533 0.938689 0.96228
0.922484 0.947799 0.984604
0.981582 0.952804 0.975662
0 0.988296 0.581552
0 0.987732 0.611246
0 0.986557 0.649088
0.00703441 0.983963 0.695521
0.0171206 0.97908 0.745342
0.0315557 0.966323 0.778103
0.0581064 0.974289 0.895567
0.841062 0.980774 0.961608
0.986114 0.983948 0.98291
