luts/lumix_color_lab_C/S_Teal_Orange_2.cube
TITLE "Generated by Resolve"
LUT_3D_SIZE 9
0.0163424 0.0144045 0.0133822
0.0207218 0.018616 0.0175631
0.0242618 0.0225681 0.0217594
0.0332494 0.026215 0.0250248
0.0506905 0.0279698 0.0258335
0.090547 0.0265049 0.0236667
0.161242 0.020676 0.0191806
0.334051 0.00917067 0.0138705
0.729198 0.00578317 0.039292
0.0284123 0.0296025 0.0266728
0.0357977 0.0344396 0.0299077
0.0560464 0.0388495 0.0320287
0.112474 0.0363317 0.0316167
0.232197 0.0209659 0.0230564
0.494392 0.00996414 0.0218357
0.833112 0.00823987 0.0554208
0.977005 0.00730907 0.0869154
0.988556 0.00770581 0.0945754
0.0285954 0.0462501 0.0283665
0.0413214 0.0587472 0.0292058
0.122759 0.0737469 0.0127718
0.329656 0.0456703 0.00982681
0.628016 0.019501 0.0331273
0.935546 0.0191806 0.0796521
0.981399 0.0198672 0.10135
0.99147 0.0210117 0.107637
1 0.0222782 0.109163
0.0129397 0.0840925 0.0131991
0.0210269 0.0951858 0.0105135
0.0631723 0.117235 0.00366217
0.418173 0.127596 0.00480659
0.790021 0.0388495 0.0488899
0.968872 0.0372625 0.0866712
0.985214 0.0397192 0.102846
0.995865 0.0418555 0.109087
1 0.0431678 0.11191
0.00308232 0.174441 0
0.00862135 0.184558 0
0.0221103 0.196948 0.000946059
0.238605 0.273976 0
0.84062 0.227604 0.0205234
0.982864 0.0601663 0.0939498
0.990997 0.0558022 0.102937
0.999741 0.0576944 0.105928
1 0.0601053 0.107652
3.0518e-05 0.296391 0
0.00746166 0.310674 0
0.0168002 0.330587 0
0.0692302 0.384512 0
0.681926 0.540124 0
0.983749 0.342168 0.0352026
0.998245 0.101076 0.0940566
1 0.151888 0.0857557
1 0.319463 0.0573434
0.000640879 0.461067 0
0.0080415 0.480262 0
0.0178683 0.503349 0
0.0336461 0.53135 0
0.47715 0.661189 0
0.973617 0.774273 0
0.998154 0.530373 0.0211948
1 0.640055 0.0120394
1 0.77969 0.00762951
0.00205997 0.641505 0
0.00943008 0.659541 0
0.019379 0.675807 0
0.0338293 0.680415 0
0.210468 0.755245 0
0.904112 0.888365 0
0.995575 0.922637 0.00128176
1 0.941207 0.0133059
1 0.964569 0.0336461
0.00289921 0.806989 0
0.00999466 0.817044 0
0.0196841 0.823392 0
0.0340734 0.816648 0
0.0721904 0.847608 0
0.762829 0.937682 0.0536507
0.990829 0.981231 0.122438
1 0.988937 0.124468
1 0.992355 0.244587
0.0183719 0.0162814 0.0152132
0.0219272 0.0198672 0.0188754
0.0258183 0.0240787 0.023331
0.0360418 0.0271305 0.0278935
0.0580148 0.0278935 0.0294957
0.104326 0.0252689 0.0280919
0.190921 0.0175174 0.0231022
0.430106 0.00794995 0.019379
0.851392 0.00474556 0.0581674
0.0268406 0.0319219 0.0297398
0.0350042 0.0362249 0.0357671
0.0557717 0.0394141 0.038407
0.0987564 0.0375677 0.0348058
0.21474 0.0232242 0.025742
0.492287 0.0102083 0.0229953
0.841199 0.00846876 0.0578317
0.977432 0.00767529 0.0891737
0.988678 0.00828565 0.0968338
0.0230716 0.05243 0.0315099
0.0335546 0.0729381 0.0353704
0.10576 0.0853437 0.0299382
0.29337 0.0628519 0.0305791
0.620783 0.0193484 0.0449836
0.888029 0.0184482 0.0738994
0.977035 0.0189364 0.097612
0.986709 0.0203098 0.10634
0.996368 0.0218967 0.108797
0.00863661 0.0931411 0.0151827
0.0146181 0.108904 0.0144808
0.0504463 0.134737 0.0162203
0.368017 0.170443 0.0133974
0.730892 0.0901808 0.0402075
0.958679 0.0396277 0.0899977
0.985641 0.0406348 0.110918
0.996628 0.0417182 0.117357
1 0.0425574 0.118944
0.000335698 0.188418 0
0.00691234 0.190539 0.0015259
0.0166476 0.198062 0.00535592
0.15465 0.254215 0.0047303
0.782834 0.327993 0.0135805
0.980346 0.11548 0.0821393
0.989288 0.0729992 0.104311
0.998169 0.0594339 0.112581
1 0.0614023 0.115129
0 0.314366 0
0.00572213 0.318822 0
0.0145876 0.333989 0.00244144
0.0403754 0.360449 0.00421149
0.568795 0.539284 0.0033875
0.981033 0.493538 0.0195773
0.996384 0.193591 0.0782483
1 0.26215 0.0726635
1 0.437842 0.0447547
0 0.481147 0
0.00633249 0.488991 0
0.0154269 0.506859 0.00105287
0.0301061 0.522408 0.00393683
0.312779 0.626352 0.00170901
0.946715 0.792004 0.00340276
0.996048 0.682094 0.0150912
1 0.72549 0.0133669
1 0.864607 0.0144045
0 0.659846 0
0.00764477 0.666606 0
0.0167239 0.678401 0.000381476
0.0310826 0.680446 0.00334173
0.10544 0.721325 0.00175479
0.815229 0.870909 0.00140383
0.992691 0.948501 0.0167697
1 0.955398 0.0276799
1 0.976196 0.0537881
0.000793469 0.821805 0
0.0081178 0.822766 0
0.0169528 0.826093 0
0.0310826 0.818341 0.00170901
0.0500801 0.826917 0.00122072
0.592844 0.920714 0.0160525
0.978454 0.980713 0.139956
1 0.990036 0.145068
1 0.993545 0.303075
0.0201877 0.0180667 0.0170138
0.023209 0.0213016 0.0203861
0.028397 0.0255741 0.0258946
0.0372015 0.0287022 0.031632
0.0596628 0.0289616 0.0353704
0.108705 0.025452 0.0362097
0.213489 0.0155489 0.0327153
0.502861 0.00740063 0.0282902
0.915969 0.00416571 0.0731212
0.0253452 0.0331273 0.034165
0.0328527 0.036408 0.0464332
0.0544747 0.0421149 0.0525368
0.102129 0.0384833 0.0562905
0.237888 0.0201877 0.0454261
0.55172 0.00991836 0.0352636
0.896712 0.00825513 0.071397
0.979538 0.00782788 0.0969711
0.990158 0.00872816 0.103151
0.0121157 0.0646525 0.0422522
0.0146334 0.0879225 0.0581064
0.0737011 0.0924849 0.0905165
0.251408 0.0641947 0.0674907
0.509819 0.0192569 0.0476692
0.807157 0.0180819 0.0625162
0.971832 0.0189517 0.0941329
0.985077 0.0204776 0.106508
0.995224 0.0221256 0.110033
0.00383001 0.116136 0.0158541
0.00807202 0.132219 0.0179141
0.0330358 0.181689 0.042359
0.317433 0.216464 0.0504921
0.668452 0.16257 0.078645
0.956512 0.0398871 0.10753
0.983749 0.0387427 0.118837
0.992721 0.0391394 0.122576
1 0.0399176 0.122164
0 0.208087 0.000579843
0.00402838 0.205188 0.00399786
0.0134585 0.21265 0.0102541
0.10898 0.263691 0.0155947
0.718685 0.405447 0.0180514
0.976287 0.287556 0.0519112
0.987274 0.129839 0.0994278
0.997055 0.0604257 0.124422
1 0.0613565 0.129061
0 0.339117 0
0.00318914 0.337224 0.000717174
0.0120546 0.338079 0.00561532
0.0298619 0.352026 0.00953689
0.415778 0.503105 0.00933852
0.973739 0.601038 0.0179599
0.994079 0.39321 0.049424
1 0.392386 0.0606394
1 0.529656 0.0424659
0 0.508827 0
0.0040589 0.5084 0
0.0127413 0.511254 0.00424201
0.0265354 0.52137 0.00823987
0.158587 0.578012 0.00849927
0.888258 0.794675 0.00952163
0.993851 0.807584 0.0165408
1 0.805402 0.0202487
1 0.919036 0.0322881
0 0.686076 0
0.00540169 0.683436 0
0.0139315 0.682536 0.00355535
0.0274357 0.680644 0.00712596
0.0584573 0.690044 0.0081178
0.666209 0.836011 0.00767529
0.987289 0.956619 0.0369879
1 0.963653 0.0453651
1 0.982345 0.105959
0 0.843137 0
0.00590524 0.836118 0
0.0141604 0.830961 0.00263981
0.0273442 0.820966 0.00546273
0.0440986 0.814923 0.00695811
0.370214 0.885206 0.0130465
0.947692 0.974044 0.164004
1 0.990204 0.161196
1 0.994598 0.361318
0.0214542 0.019379 0.0183566
0.0243229 0.0226444 0.0218357
0.0307164 0.0266423 0.0300145
0.0394446 0.0298314 0.0366369
0.0610056 0.0301518 0.0446174
0.106889 0.0260014 0.0522927
0.221164 0.0146029 0.0567483
0.504845 0.0077821 0.0545052
0.899138 0.00486763 0.0776989
0.0233005 0.0337377 0.0424659
0.0293431 0.035111 0.0615702
0.0531472 0.0362097 0.0897078
0.104875 0.0387884 0.0935378
0.210193 0.0259251 0.0983749
0.469352 0.0115663 0.0925002
0.80531 0.00999466 0.0827192
0.975647 0.00949111 0.103288
0.987106 0.0103304 0.113008
0.00805676 0.0691539 0.0768749
0.00921645 0.0722667 0.133333
0.0240787 0.0519875 0.248188
0.195544 0.07187 0.180957
0.420478 0.0275425 0.15874
0.759014 0.01944 0.118273
0.969009 0.0198367 0.105425
0.985641 0.021088 0.117082
0.996399 0.0226902 0.119524
0 0.171679 0.028748
0.0011902 0.182849 0.0518959
0.0131838 0.230854 0.130297
0.218555 0.240436 0.238773
0.560327 0.150362 0.180438
0.83093 0.0341802 0.124269
0.976333 0.0348211 0.109926
0.98706 0.0366674 0.120119
0.99707 0.0384833 0.122271
0 0.275563 0.00389105
0 0.251728 0.00767529
0.010071 0.259998 0.0186923
0.0718242 0.382696 0.104799
0.636744 0.479393 0.141634
0.9458 0.449088 0.167987
0.98584 0.151339 0.167834
0.99501 0.060853 0.143618
1 0.0572366 0.141344
0 0.390387 0
0 0.373114 0.00395209
0.00846876 0.360937 0.00856031
0.0226139 0.378134 0.0162661
0.259159 0.483406 0.0261082
0.949401 0.684916 0.030396
0.98996 0.692592 0.0417334
0.998474 0.542962 0.0595254
1 0.542657 0.0630655
0 0.550256 0
0.000137331 0.542382 0.00274662
0.00933852 0.533074 0.00755322
0.0215 0.516472 0.0119478
0.0688334 0.530022 0.0157778
0.721645 0.747387 0.0171817
0.990463 0.882033 0.0379644
1 0.866361 0.0409705
1 0.949432 0.0650339
0 0.722606 0
0.00164797 0.714366 0.0021973
0.0104829 0.700862 0.00694286
0.0224155 0.679316 0.011017
0.0412299 0.674495 0.0139925
0.423529 0.757305 0.0135042
0.969192 0.949905 0.101045
1 0.969573 0.0735637
1 0.987762 0.176379
0 0.868955 0.00462348
0.00227359 0.859724 0.0056611
0.0107271 0.846189 0.00637827
0.0224308 0.822766 0.00975052
0.0385748 0.808789 0.0119783
0.183566 0.832486 0.0143435
0.847044 0.95198 0.124849
0.99762 0.989761 0.224872
1 0.995407 0.422065
0.0225071 0.0205081 0.0195315
0.0257725 0.0241093 0.0237736
0.0321813 0.0270237 0.0367742
0.0430915 0.0294194 0.0470436
0.0679332 0.0290074 0.0591897
0.115755 0.0244907 0.0745708
0.232883 0.0138705 0.0938582
0.492241 0.00842298 0.109682
0.842069 0.00602731 0.108919
0.0199435 0.0339513 0.0583352
0.0247196 0.0332341 0.0891737
0.0383001 0.0259098 0.154742
0.108492 0.0216373 0.188128
0.223682 0.0165103 0.19324
0.406851 0.0135653 0.197528
0.668467 0.0127871 0.202167
0.920348 0.0125582 0.176043
0.979919 0.0130922 0.127916
0.00468452 0.0581216 0.163577
0.0065156 0.0295109 0.299001
0.0123598 0.0192569 0.505913
0.125261 0.0209354 0.488594
0.369406 0.031342 0.326131
0.598459 0.0246433 0.307073
0.873137 0.0237888 0.296635
0.978271 0.0241093 0.210575
0.990158 0.0251164 0.138491
0 0.183734 0.165927
0 0.177172 0.241978
0.00906386 0.153903 0.368688
0.0438544 0.12694 0.545495
0.466209 0.187335 0.424094
0.740459 0.0618906 0.38674
0.964324 0.036408 0.306035
0.985916 0.0373693 0.158633
0.996902 0.0386969 0.139116
0 0.35903 0.0196231
0 0.361105 0.0526589
0.00555428 0.366888 0.123293
0.0260471 0.490608 0.319799
0.501915 0.506828 0.504707
0.84332 0.397604 0.408881
0.975402 0.121691 0.285847
0.986023 0.0570077 0.158267
0.99556 0.0526436 0.138506
0 0.521111 0.00720226
0 0.499123 0.0109255
0.00401312 0.451698 0.0151217
0.0187381 0.472679 0.0475166
0.234089 0.641688 0.305913
0.892775 0.752728 0.403143
0.983841 0.790814 0.457588
0.996368 0.594659 0.438437
1 0.355566 0.365408
0 0.660212 0.0040589
0 0.625574 0.00741588
0.00531014 0.58117 0.0113069
0.016083 0.54313 0.0167697
0.0412757 0.600031 0.0477302
0.55378 0.723507 0.117708
0.982544 0.914015 0.269657
0.999176 0.927932 0.254475
1 0.952773 0.32163
0 0.795636 0.00257877
0 0.764904 0.00602731
0.00646983 0.73489 0.00988785
0.0172427 0.702525 0.0149996
0.0325475 0.658824 0.019791
0.194232 0.677897 0.0263828
0.876143 0.907027 0.0901198
0.998749 0.974273 0.16434
1 0.990768 0.423865
0 0.906432 0.0227359
0 0.888136 0.0186007
0.0068513 0.869398 0.0183413
0.0174411 0.843427 0.0141451
0.032517 0.80206 0.0173342
0.0722515 0.797909 0.0224308
0.591043 0.885969 0.0605478
0.988357 0.986755 0.310842
1 0.995743 0.483146
0.0234684 0.0216068 0.0207218
0.026276 0.0252384 0.0296941
0.032166 0.0266728 0.0493477
0.0465858 0.0271763 0.066392
0.0757 0.0260777 0.0822614
0.137346 0.0191501 0.114214
0.26685 0.0110628 0.160113
0.498329 0.00881971 0.201251
0.782589 0.00743114 0.22858
0.0160372 0.0327764 0.0820783
0.0185092 0.0280156 0.136187
0.0186923 0.0137484 0.278737
0.043061 0.0128481 0.450065
0.226139 0.0136416 0.377401
0.420768 0.0139162 0.368322
0.620035 0.014786 0.371695
0.822599 0.0158541 0.381964
0.970581 0.0164492 0.3738
0.00164797 0.0232395 0.345037
0.00364691 0.018616 0.593988
0.00999466 0.0200656 0.813977
0.0256962 0.0400244 0.874311
0.364477 0.0242618 0.582513
0.591989 0.0265354 0.521294
0.783261 0.0280461 0.516213
0.952682 0.0287633 0.520043
0.983581 0.0292515 0.494591
0 0.0997787 0.438575
0 0.059617 0.564904
0.0068513 0.0415808 0.696635
0.0231632 0.0663767 0.822568
0.436408 0.0754253 0.739956
0.694621 0.106294 0.621012
0.883848 0.0547646 0.604944
0.978912 0.0420539 0.592035
0.989609 0.0421912 0.512261
0 0.382208 0.217395
0 0.385779 0.315084
0.00340276 0.381659 0.433692
0.0189517 0.406851 0.617838
0.216297 0.452293 0.797894
0.749706 0.483818 0.696147
0.946624 0.282856 0.656092
0.983719 0.0647593 0.575891
0.994339 0.0532235 0.370535
0 0.616144 0.0308995
0 0.622278 0.0811322
0.00205997 0.621134 0.181079
0.0146487 0.629404 0.322896
0.04654 0.747005 0.586557
0.778805 0.771328 0.766766
0.962295 0.699992 0.685115
0.986847 0.422202 0.562539
0.994553 0.143801 0.357794
0 0.804242 0.0168917
0 0.787808 0.022797
0.00177005 0.749157 0.0304112
0.0119326 0.666682 0.0520485
0.0347143 0.712688 0.240284
0.588022 0.865736 0.607004
0.963073 0.923384 0.703777
0.994598 0.932845 0.759533
1 0.904768 0.806394
0 0.910597 0.0440528
0 0.880888 0.0391699
0.002121 0.830503 0.0198367
0.012253 0.753933 0.0230106
0.026215 0.693629 0.0392157
0.139193 0.796796 0.269963
0.782589 0.904479 0.437598
0.995346 0.978225 0.622263
1 0.992355 0.765255
0 0.95935 0.142901
0 0.945861 0.0777142
0.00262455 0.912398 0.0581979
0.0123751 0.870924 0.0444953
0.0260929 0.82356 0.0299382
0.043473 0.774929 0.0476692
0.361044 0.828595 0.156649
0.940597 0.974868 0.369757
1 0.996201 0.652293
0.0243992 0.0227207 0.0219272
0.0261845 0.026276 0.0366674
0.0310521 0.0255894 0.0673075
0.0475471 0.0230716 0.0986038
0.0827955 0.0211032 0.121675
0.159518 0.013138 0.185443
0.308415 0.00985733 0.266682
0.54081 0.00852979 0.340185
0.77937 0.00814832 0.38526
0.0127871 0.0297398 0.116258
0.0121004 0.0188754 0.207889
0.0115816 0.0129702 0.47808
0.0199283 0.0122225 0.74844
0.159609 0.0129549 0.632715
0.428717 0.014023 0.568887
0.627787 0.015671 0.556344
0.815076 0.0175021 0.56585
0.956252 0.0191043 0.573907
0 0.0182803 0.593652
0.00102235 0.0346075 0.859983
0.00813306 0.374243 0.965637
0.0225071 0.51458 0.982971
0.235157 0.0539101 0.881193
0.598474 0.0272831 0.726055
0.793576 0.0298466 0.706813
0.940261 0.0318303 0.7075
0.980224 0.0332494 0.712276
0 0.0384833 0.735012
0 0.0700084 0.847425
0.00527962 0.228489 0.921172
0.0200656 0.42327 0.96495
0.145632 0.398108 0.962951
0.700389 0.102434 0.829694
0.883604 0.0775921 0.796109
0.974823 0.0475776 0.787045
0.985016 0.0467842 0.785855
0 0.369467 0.484154
0 0.360372 0.604807
0.00192264 0.353918 0.739452
0.0158389 0.391806 0.870466
0.0442664 0.49221 0.940688
0.743587 0.485603 0.901228
0.921355 0.457404 0.852659
0.975845 0.240879 0.832044
0.989319 0.0709392 0.818112
0 0.650858 0.279728
0 0.659236 0.393851
0.000762951 0.659693 0.517998
0.0129397 0.649058 0.651347
0.0364538 0.685084 0.822034
0.606806 0.755245 0.929137
0.919493 0.774121 0.888945
0.983154 0.631373 0.862074
0.993484 0.204578 0.788571
0 0.867521 0.162234
0 0.865125 0.243336
0 0.854139 0.33051
0.0107881 0.830274 0.424857
0.029221 0.834333 0.569421
0.213428 0.915602 0.830915
0.920729 0.915541 0.913542
0.984466 0.882216 0.873228
0.995422 0.731884 0.772488
0 0.961212 0.249149
0 0.954192 0.248035
0 0.941314 0.238682
0.00923171 0.894453 0.226734
0.0210422 0.803082 0.221866
0.0612955 0.891844 0.51107
0.844495 0.951873 0.827802
0.988464 0.973861 0.886458
1 0.98233 0.919814
0 0.982971 0.357412
0 0.97966 0.320363
0 0.965759 0.257603
0.00889601 0.93756 0.168856
0.0201419 0.863783 0.113924
0.0387732 0.831388 0.189593
0.354726 0.929732 0.502022
0.909163 0.971008 0.659846
1 0.997284 0.858778
0.025452 0.0242161 0.0243229
0.0251926 0.0265507 0.0485847
0.028748 0.023331 0.0929885
0.0432746 0.0173037 0.150927
0.0829328 0.0137484 0.200855
0.175326 0.0105135 0.309606
0.343557 0.00907912 0.429267
0.577646 0.00828565 0.514092
0.801373 0.00854505 0.560403
0.00950637 0.0233005 0.168292
0.00881971 0.0132906 0.325612
0.0103304 0.0128328 0.709941
0.0183261 0.245487 0.948394
0.039826 0.0992599 0.914305
0.410422 0.0140078 0.782361
0.633753 0.0162966 0.739559
0.824506 0.0185855 0.742077
0.957961 0.0206302 0.752194
0 0.0257267 0.843549
0 0.437018 0.974304
0.00648508 0.697337 0.9935
0.0200504 0.764279 0.998383
0.0666361 0.579126 0.988281
0.582483 0.0896925 0.912047
0.796948 0.0354772 0.873747
0.944869 0.0336919 0.869444
0.98027 0.035584 0.873152
0 0.234577 0.92491
0 0.42359 0.965576
0.00395209 0.575296 0.985763
0.0180056 0.704936 0.993866
0.0475013 0.728328 0.99559
0.674388 0.402289 0.967056
0.881712 0.178668 0.92668
0.970336 0.0874342 0.917952
0.984329 0.0522774 0.916518
0 0.337835 0.760311
0 0.374456 0.859098
0.000869764 0.464744 0.933608
0.0145266 0.591196 0.975708
0.0368658 0.67274 0.988556
0.61059 0.657099 0.988281
0.922332 0.545266 0.953124
0.977127 0.466728 0.943786
0.988022 0.276066 0.941772
0 0.659449 0.559487
0 0.662882 0.68249
0 0.661921 0.801175
0.0116732 0.667124 0.895705
0.0307012 0.681773 0.947494
0.301991 0.758587 0.978103
0.918593 0.790997 0.968872
0.971847 0.788678 0.949752
0.990387 0.661601 0.939544
0 0.887861 0.427665
0 0.884459 0.518868
0 0.873457 0.62031
0.00967422 0.852323 0.732845
0.0251926 0.82504 0.828122
0.0593729 0.879103 0.931914
0.856916 0.909377 0.973709
0.968566 0.916487 0.957687
0.993301 0.845258 0.941833
0 0.977722 0.418097
0 0.974716 0.455406
0 0.968475 0.503273
0.00820935 0.95584 0.562188
0.0205234 0.932769 0.625376
0.0477302 0.946273 0.793683
0.672114 0.968109 0.934768
0.973342 0.970352 0.969314
0.997696 0.95494 0.949783
0 0.987976 0.49659
0 0.986938 0.488487
0 0.985397 0.476402
0.00704967 0.98088 0.455543
0.0170291 0.959472 0.42385
0.0334478 0.907835 0.41323
0.175906 0.967834 0.727718
0.937697 0.982422 0.927947
0.997208 0.995102 0.95967
0.0240024 0.0254826 0.032166
0.023209 0.025864 0.0667277
0.0246128 0.0193179 0.133059
0.0325017 0.0119478 0.231006
0.0546883 0.010605 0.373388
0.15317 0.00949111 0.515862
0.36434 0.00830091 0.631022
0.60174 0.00808728 0.705425
0.814298 0.00898756 0.7393
0.00709544 0.0153811 0.246387
0.00727855 0.0130617 0.520867
0.00891127 0.126558 0.918502
0.0166476 0.663203 0.992096
0.0345006 0.62768 0.990784
0.325811 0.171344 0.941268
0.626657 0.0464637 0.905364
0.82742 0.0235447 0.895201
0.961746 0.0218357 0.900435
0 0.401465 0.969329
0 0.746746 0.995911
0.00483711 0.771038 1
0.0178836 0.769955 1
0.0406958 0.76611 1
0.534112 0.544869 0.987884
0.794614 0.25594 0.969284
0.9467 0.103304 0.962264
0.981201 0.0537118 0.964187
0 0.58555 0.986542
0 0.706996 0.993713
0.00262455 0.780377 0.999237
0.0160983 0.782788 1
0.0388495 0.777798 1
0.596246 0.759075 0.999008
0.874311 0.505165 0.986099
0.965606 0.318685 0.977508
0.985428 0.161273 0.976455
0 0.446586 0.930312
0 0.558892 0.970748
1.5259e-05 0.686732 0.989471
0.0131991 0.792203 0.99765
0.0339666 0.804303 1
0.449271 0.795102 1
0.89955 0.718013 0.994018
0.977676 0.626902 0.986603
0.989181 0.504967 0.984726
0 0.657267 0.820081
0 0.67776 0.897032
0 0.711177 0.948226
0.0106813 0.762173 0.9794
0.0283513 0.807492 0.992218
0.110521 0.829313 0.997528
0.842557 0.842603 0.999878
0.972244 0.83566 0.987778
0.990906 0.802701 0.982086
0 0.884199 0.698726
0 0.877562 0.788495
0 0.868055 0.86598
0.00854505 0.859876 0.923949
0.0230564 0.854704 0.957687
0.0475624 0.859159 0.977661
0.690745 0.905058 0.993622
0.967483 0.922332 0.991699
0.990433 0.919844 0.982849
0 0.979644 0.610895
0 0.975509 0.678264
0 0.967514 0.754803
0.00729381 0.955108 0.830716
0.0199588 0.941268 0.890501
0.0417487 0.928527 0.929473
0.310445 0.955718 0.974899
0.947234 0.967224 0.993439
0.992126 0.971359 0.988144
0 0.99086 0.619196
0 0.990417 0.642771
0 0.989639 0.674846
0.0065156 0.988052 0.719142
0.0174411 0.985046 0.769711
0.0340887 0.973022 0.799451
0.0618753 0.982864 0.913222
0.872618 0.991318 0.976883
0.993439 0.992874 0.992523
