luts/lumix_color_lab_C/S_Teal_Orange_2.cube
TITLE "Generated by Resolve"
LUT_3D_SIZE 5
0.0163424 0.0144045 0.0133822
0.0242618 0.0225681 0.0217594
0.0506905 0.0279698 0.0258335
0.161242 0.020676 0.0191806
0.729198 0.00578317 0.039292
0.0285954 0.0462501 0.0283665
0.122759 0.0737469 0.0127718
0.628016 0.019501 0.0331273
0.981399 0.0198672 0.10135
1 0.0222782 0.109163
0.00308232 0.174441 0
0.0221103 0.196948 0.000946059
0.84062 0.227604 0.0205234
0.990997 0.0558022 0.102937
1 0.0601053 0.107652
0.000640879 0.461067 0
0.0178683 0.503349 0
0.47715 0.661189 0
0.998154 0.530373 0.0211948
1 0.77969 0.00762951
0.00289921 0.806989 0
0.0196841 0.823392 0
0.0721904 0.847608 0
0.990829 0.981231 0.122438
1 0.992355 0.244587
0.0201877 0.0180667 0.0170138
0.028397 0.0255741 0.0258946
0.0596628 0.0289616 0.0353704
0.213489 0.0155489 0.0327153
0.915969 0.00416571 0.0731212
0.0121157 0.0646525 0.0422522
0.0737011 0.0924849 0.0905165
0.509819 0.0192569 0.0476692
0.971832 0.0189517 0.0941329
0.995224 0.0221256 0.110033
0 0.208087 0.000579843
0.0134585 0.21265 0.0102541
0.718685 0.405447 0.0180514
0.987274 0.129839 0.0994278
1 0.0613565 0.129061
0 0.508827 0
0.0127413 0.511254 0.00424201
0.158587 0.578012 0.00849927
0.993851 0.807584 0.0165408
1 0.919036 0.0322881
0 0.843137 0
0.0141604 0.830961 0.00263981
0.0440986 0.814923 0.00695811
0.947692 0.974044 0.164004
1 0.994598 0.361318
0.0225071 0.0205081 0.0195315
0.0321813 0.0270237 0.0367742
0.0679332 0.0290074 0.0591897
0.232883 0.0138705 0.0938582
0.842069 0.00602731 0.108919
0.00468452 0.0581216 0.163577
0.0123598 0.0192569 0.505913
0.369406 0.031342 0.326131
0.873137 0.0237888 0.296635
0.990158 0.0251164 0.138491
0 0.35903 0.0196231
0.00555428 0.366888 0.123293
0.501915 0.506828 0.504707
0.975402 0.121691 0.285847
0.99556 0.0526436 0.138506
0 0.660212 0.0040589
0.00531014 0.58117 0.0113069
0.0412757 0.600031 0.0477302
0.982544 0.914015 0.269657
1 0.952773 0.32163
0 0.906432 0.0227359
0.0068513 0.869398 0.0183413
0.032517 0.80206 0.0173342
0.591043 0.885969 0.0605478
1 0.995743 0.483146
0.0243992 0.0227207 0.0219272
0.0310521 0.0255894 0.0673075
0.0827955 0.0211032 0.121675
0.308415 0.00985733 0.266682
0.77937 0.00814832 0.38526
0 0.0182803 0.593652
0.00813306 0.374243 0.965637
0.235157 0.0539101 0.881193
0.793576 0.0298466 0.706813
0.980224 0.0332494 0.712276
0 0.369467 0.484154
0.00192264 0.353918 0.739452
0.0442664 0.49221 0.940688
0.921355 0.457404 0.852659
0.989319 0.0709392 0.818112
0 0.867521 0.162234
0 0.854139 0.33051
0.029221 0.834333 0.569421
0.920729 0.915541 0.913542
0.995422 0.731884 0.772488
0 0.982971 0.357412
0 0.965759 0.257603
0.0201419 0.863783 0.113924
0.354726 0.929732 0.502022
1 0.997284 0.858778
0.0240024 0.0254826 0.032166
0.0246128 0.0193179 0.133059
0.0546883 0.010605 0.373388
0.36434 0.00830091 0.631022
0.814298 0.00898756 0.7393
0 0.401465 0.969329
0.00483711 0.771038 1
0.0406958 0.76611 1
0.794614 0.25594 0.969284
0.981201 0.0537118 0.964187
0 0.446586 0.930312
1.5259e-05 0.686732 0.989471
0.0339666 0.804303 1
0.89955 0.718013 0.994018
0.989181 0.504967 0.984726
0 0.884199 0.698726
0 0.868055 0.86598
0.0230564 0.854704 0.957687
0.690745 0.905058 0.993622
0.990433 0.919844 0.982849
0 0.99086 0.619196
0 0.989639 0.674846
0.0174411 0.985046 0.769711
0.0618753 0.982864 0.913222
0.993439 0.992874 0.992523
