luts/lumix_color_lab_C/S_Teal_Orange_1.cube
TITLE "Generated by Resolve"
LUT_3D_SIZE 33
0.0170596 0.0150607 0.014023
0.0183261 0.0162356 0.0151827
0.0196078 0.0174868 0.0164187
0.0208743 0.0187686 0.017731
0.022034 0.0199893 0.0189975
0.0230869 0.0211795 0.0202487
0.0240482 0.0223087 0.0214694
0.02533 0.023682 0.0229191
0.0276188 0.0248112 0.0240177
0.0304723 0.0259861 0.0250095
0.0334936 0.0269474 0.0258335
0.0366522 0.0278172 0.0265354
0.0399481 0.0286107 0.0271
0.0447089 0.0292058 0.0275425
0.0512245 0.0297398 0.0277867
0.0587778 0.0300145 0.027924
0.067628 0.0300298 0.0277562
0.078172 0.0298009 0.0274662
0.0902113 0.0293736 0.0269017
0.104173 0.0285954 0.0261845
0.119951 0.0276799 0.0252384
0.137697 0.0264591 0.0239872
0.158526 0.0247196 0.0227207
0.182467 0.0226444 0.0211948
0.212116 0.019852 0.0198978
0.251743 0.0164034 0.0183566
0.302403 0.0129244 0.0168612
0.3682 0.0105745 0.016022
0.450874 0.00946059 0.0184176
0.547829 0.0087892 0.0235294
0.657755 0.00802625 0.0327153
0.770108 0.00729381 0.0454719
0.869688 0.00662242 0.059144
0.0213474 0.0192569 0.0182345
0.0223697 0.0203555 0.019379
0.0233768 0.0215 0.0205997
0.0243229 0.0226444 0.0218509
0.0258183 0.0240787 0.023331
0.0280308 0.0255589 0.0247196
0.0304112 0.0268406 0.0259098
0.0329137 0.0280003 0.0269627
0.0355077 0.0290227 0.0277562
0.0383001 0.0299535 0.0285039
0.0415961 0.0306554 0.0289464
0.0470741 0.0311894 0.0293278
0.053193 0.0316014 0.029572
0.0608682 0.0318456 0.029633
0.0695506 0.0319371 0.029572
0.0803082 0.0317235 0.0292363
0.0923934 0.0312505 0.0287175
0.106447 0.0305333 0.027924
0.122576 0.0294957 0.0268711
0.141375 0.0281987 0.0256809
0.163455 0.0263218 0.0242924
0.190936 0.0237583 0.0222629
0.226719 0.0202182 0.0203098
0.270848 0.0161898 0.0185092
0.327825 0.0128634 0.0172732
0.399084 0.0107271 0.0171054
0.485084 0.00984207 0.0203098
0.581918 0.00918593 0.0264439
0.688319 0.00851453 0.036347
0.792462 0.00788891 0.0488136
0.884367 0.00733959 0.061799
0.943282 0.0068513 0.0725872
0.969573 0.00646983 0.0802472
0.0248722 0.0232242 0.022446
0.026276 0.0247807 0.0238499
0.027863 0.0263828 0.0253452
0.0299535 0.0279088 0.0265812
0.0319982 0.0293584 0.0278019
0.0344091 0.0305943 0.0291447
0.0370489 0.0316472 0.0304112
0.0399786 0.0325475 0.0313115
0.0449226 0.0331884 0.0319829
0.0502937 0.0336919 0.0323491
0.0563821 0.0341344 0.0325322
0.0636606 0.0342412 0.0324865
0.071931 0.034287 0.0322423
0.0822156 0.0342718 0.0318151
0.0940108 0.0340276 0.03122
0.108186 0.0334783 0.0303502
0.124727 0.0326085 0.0293278
0.145251 0.03093 0.0278782
0.170871 0.0282902 0.0259556
0.202106 0.0246433 0.0234836
0.241245 0.0207218 0.0210422
0.288655 0.0164645 0.0193484
0.350179 0.013138 0.0183566
0.424018 0.0112001 0.0186618
0.508629 0.0104219 0.0220493
0.6038 0.00984207 0.0288396
0.704875 0.00926223 0.0387121
0.802258 0.00872816 0.0507973
0.886397 0.00827039 0.0627909
0.941756 0.00787366 0.0729992
0.96817 0.00758373 0.0804761
0.976654 0.00737011 0.08542
0.979873 0.00726329 0.0885939
0.0282902 0.0286564 0.0264897
0.029984 0.0302281 0.0278935
0.0319524 0.0316472 0.0292973
0.0341344 0.033051 0.0300603
0.0369116 0.0342718 0.0310521
0.0400092 0.0354772 0.0319982
0.0449226 0.0366217 0.0328527
0.0510109 0.0381781 0.0338293
0.0588998 0.0391394 0.0347601
0.0678874 0.0396124 0.0353094
0.0783246 0.0396582 0.0354467
0.0897536 0.0393683 0.0353094
0.102815 0.0388342 0.0347753
0.118227 0.0378271 0.033814
0.137148 0.0361639 0.0323949
0.160433 0.0337224 0.0305791
0.187808 0.0304875 0.0284276
0.221744 0.0263066 0.0259861
0.262364 0.0213779 0.0233768
0.31281 0.0167239 0.021622
0.373617 0.0133669 0.0207523
0.446525 0.0118105 0.0214237
0.528481 0.0112154 0.0245518
0.618311 0.0107271 0.0310979
0.712795 0.0102541 0.0407111
0.80238 0.00981155 0.0518654
0.880629 0.00946059 0.0630045
0.935927 0.00915541 0.072755
0.964736 0.00892653 0.0802167
0.975601 0.0087892 0.085359
0.978668 0.00874342 0.0888838
0.981506 0.00874342 0.0912184
0.984192 0.0087892 0.0927901
0.0302586 0.0337224 0.02916
0.0323186 0.0351263 0.0306554
0.0345617 0.036408 0.0320745
0.036759 0.0380713 0.0329137
0.0421759 0.040589 0.0327459
0.0492103 0.0423438 0.0335699
0.0557107 0.0442359 0.0341497
0.0632639 0.046067 0.034287
0.07364 0.0473945 0.0345312
0.0876936 0.0479286 0.0344091
0.107927 0.0469825 0.0342412
0.13196 0.044831 0.0337224
0.158343 0.0418708 0.0327306
0.187167 0.0380713 0.0314946
0.220142 0.0332647 0.0300603
0.257191 0.0277867 0.0283665
0.300542 0.0221408 0.0266575
0.353017 0.0170596 0.0253147
0.414405 0.0137942 0.0249485
0.483467 0.0126802 0.0260471
0.55935 0.012192 0.02916
0.641611 0.0118105 0.0349737
0.72636 0.0114137 0.0440986
0.806714 0.0110628 0.0542458
0.877562 0.0108034 0.0643778
0.929137 0.010605 0.0733501
0.959731 0.0104524 0.0805829
0.973358 0.0103761 0.0858167
0.977386 0.0103761 0.0894789
0.979995 0.0104372 0.0920424
0.982452 0.010544 0.093904
0.984756 0.0107118 0.0952621
0.986984 0.0109255 0.0961166
0.0312352 0.0383307 0.0307927
0.0332189 0.0407721 0.032166
0.0358282 0.0431525 0.0335241
0.0407874 0.045243 0.034638
0.0464485 0.0479744 0.0337224
0.0559091 0.0510262 0.0330968
0.0684367 0.0525216 0.0331884
0.0816052 0.0542 0.0324559
0.0965744 0.0557412 0.0307317
0.116197 0.0563211 0.0290074
0.142077 0.0549783 0.0278325
0.17406 0.0518196 0.026688
0.215335 0.0456245 0.026276
0.26247 0.0369268 0.026215
0.315068 0.027863 0.0263218
0.373693 0.0193179 0.0264134
0.440055 0.0154574 0.0274052
0.511543 0.0144656 0.0295109
0.586191 0.0139315 0.0332189
0.664225 0.0135195 0.039292
0.742199 0.013138 0.0480354
0.814939 0.0128328 0.0575265
0.878325 0.012604 0.066804
0.925032 0.0124208 0.0749676
0.954269 0.0123293 0.0816815
0.969711 0.0122988 0.0867933
0.976272 0.0123293 0.0906081
0.978607 0.0124208 0.0934462
0.980789 0.012604 0.0955062
0.982834 0.0128328 0.0970016
0.984863 0.0130465 0.0982376
0.986847 0.0133059 0.0990311
0.988861 0.01355 0.0996719
0.0309606 0.0445869 0.0313115
0.0330358 0.0473487 0.0326238
0.0374914 0.0500496 0.0337377
0.0429389 0.052781 0.0347143
0.049424 0.0556497 0.0340734
0.0596323 0.06009 0.0307622
0.0771191 0.0633555 0.0280308
0.101305 0.0637369 0.026688
0.126772 0.0640116 0.0250248
0.149584 0.0650034 0.0223239
0.180026 0.063386 0.0200504
0.215991 0.0592813 0.0186618
0.259815 0.0516976 0.0184787
0.313756 0.0408637 0.0191958
0.381338 0.0272221 0.021561
0.460456 0.0198367 0.0257267
0.541344 0.0171664 0.0305028
0.62327 0.016495 0.0359655
0.704555 0.0160983 0.0442206
0.781262 0.0157626 0.0540627
0.848646 0.0154726 0.0637675
0.902907 0.0152895 0.072694
0.939605 0.0151369 0.0800336
0.962066 0.0150607 0.0860151
0.973129 0.0150607 0.090547
0.976898 0.0151369 0.0939345
0.979065 0.0152285 0.0966049
0.98114 0.0153811 0.0986954
0.983169 0.0155947 0.100206
0.985153 0.0158083 0.101427
0.987152 0.016022 0.102281
0.989105 0.0162661 0.102861
0.991119 0.0165103 0.103319
0.0298161 0.0506752 0.0308995
0.0320287 0.0538033 0.0318761
0.0373083 0.0572671 0.0328374
0.0432593 0.0608682 0.0332952
0.0501564 0.0640726 0.0323339
0.0598764 0.0691234 0.0279088
0.0786603 0.0747539 0.0220798
0.110018 0.0767224 0.018677
0.148959 0.074342 0.0175631
0.186816 0.0722972 0.0166018
0.218753 0.0710765 0.014786
0.258595 0.0663615 0.0133669
0.304311 0.0583505 0.0131075
0.359976 0.045716 0.0146029
0.42385 0.0336156 0.0181125
0.495888 0.0238651 0.023331
0.5776 0.0201419 0.0305333
0.665339 0.0195773 0.0393988
0.749462 0.0192569 0.0498665
0.823651 0.0190433 0.0603647
0.885832 0.0188907 0.0703136
0.930236 0.0187533 0.0787823
0.956756 0.0187076 0.0857557
0.971222 0.0186618 0.0911421
0.97673 0.018677 0.0952163
0.979065 0.0187228 0.0983597
0.981277 0.0188449 0.100893
0.983368 0.018967 0.102586
0.985397 0.0191196 0.103975
0.987411 0.0193179 0.105058
0.989441 0.019501 0.105714
0.991455 0.0196994 0.106218
0.993439 0.019913 0.106538
0.0280308 0.0566567 0.029633
0.0302892 0.0603342 0.0303807
0.0351568 0.0647593 0.0304112
0.0406348 0.0693523 0.0298466
0.048188 0.0732738 0.0289006
0.0579538 0.0778363 0.0252537
0.0745708 0.084535 0.0177768
0.107515 0.0904402 0.0130159
0.153414 0.0899825 0.0110018
0.207355 0.084062 0.010544
0.258747 0.0775464 0.0105745
0.301091 0.0725872 0.0102998
0.347112 0.0652171 0.0102388
0.402182 0.0535744 0.0121309
0.459617 0.0413062 0.0160678
0.524086 0.0304265 0.0222171
0.5944 0.0251926 0.0298009
0.669551 0.0233158 0.0386206
0.751247 0.0229191 0.0493019
0.830686 0.0227665 0.0610819
0.897017 0.0226139 0.0723888
0.940337 0.0225223 0.0816205
0.96434 0.0225071 0.0888685
0.975814 0.0225376 0.0943008
0.978378 0.0225986 0.0982528
0.980774 0.0227054 0.101259
0.983032 0.0228275 0.103471
0.985214 0.0229953 0.105257
0.98732 0.0231479 0.1066
0.989395 0.0233158 0.107515
0.99147 0.0234531 0.108232
0.993591 0.0236362 0.108751
0.995651 0.0238041 0.109087
0.0257877 0.0631876 0.0277562
0.0272068 0.0675212 0.0274968
0.0310369 0.0724804 0.026627
0.0365454 0.0777142 0.0257115
0.0441444 0.0822614 0.0245823
0.053315 0.0865187 0.0216831
0.0680858 0.0931106 0.01561
0.097612 0.100893 0.00932326
0.144717 0.10634 0.00665293
0.20499 0.103288 0.00624094
0.272908 0.0929427 0.00668345
0.339025 0.0800183 0.00827039
0.391745 0.0711681 0.0102388
0.437629 0.0631723 0.0124056
0.4972 0.0498207 0.0167086
0.557458 0.0396124 0.0224765
0.62298 0.0312657 0.030457
0.695064 0.0262608 0.040238
0.767376 0.0263218 0.0506447
0.835996 0.0264134 0.0611429
0.897368 0.0264897 0.0716564
0.941772 0.0265049 0.0813458
0.966949 0.0265049 0.0893873
0.976715 0.0265354 0.0953384
0.979477 0.0266423 0.0995956
0.98201 0.0267948 0.1028
0.98436 0.026978 0.105135
0.986618 0.0271763 0.106828
0.988846 0.0273747 0.108156
0.991043 0.0275883 0.109209
0.99324 0.0277409 0.109926
0.995392 0.0279088 0.11046
0.997528 0.0280919 0.110872
0.0227359 0.0713054 0.0241703
0.0237583 0.0755322 0.0233005
0.0260166 0.0805829 0.0220951
0.0311894 0.0861677 0.020798
0.0387274 0.091249 0.019501
0.0476539 0.0954604 0.0174258
0.0604715 0.101106 0.0135958
0.0846876 0.109621 0.00747692
0.126909 0.119432 0.00482185
0.190066 0.123278 0.00401312
0.262608 0.117556 0.00442512
0.345052 0.101137 0.00624094
0.42269 0.0838788 0.00979629
0.487831 0.0691234 0.0140993
0.537026 0.0605478 0.0179446
0.597726 0.0477607 0.0247654
0.664881 0.0359045 0.0335241
0.728649 0.0322576 0.0428931
0.793729 0.0302586 0.053193
0.856916 0.0298009 0.0635538
0.909743 0.0300145 0.073106
0.944793 0.0302281 0.0813153
0.967498 0.0304417 0.0885328
0.976852 0.0306401 0.0944228
0.979767 0.0308232 0.0990768
0.982544 0.0310063 0.102708
0.985122 0.0312047 0.105394
0.987564 0.0314336 0.107515
0.989914 0.0316625 0.108888
0.992218 0.0319066 0.110002
0.994568 0.0321202 0.110887
0.996811 0.0323186 0.111528
0.999039 0.0325017 0.111955
0.0181735 0.0823377 0.0185092
0.01944 0.0856184 0.0178836
0.0212558 0.0901656 0.0169985
0.0256504 0.0953536 0.0159457
0.0328527 0.100343 0.0149233
0.0408942 0.104707 0.0137636
0.0528878 0.109163 0.0111391
0.0713207 0.117678 0.00674449
0.107744 0.128878 0.0037232
0.164874 0.140352 0.00254826
0.241077 0.143832 0.00288396
0.329 0.133165 0.00408942
0.426246 0.109911 0.00750744
0.515862 0.0844739 0.0137942
0.591226 0.0643015 0.0218814
0.647135 0.053315 0.0285496
0.704646 0.0467536 0.0363775
0.770657 0.0380407 0.0473182
0.830442 0.0326696 0.0575265
0.882292 0.0331121 0.0666514
0.927184 0.033463 0.0757153
0.954604 0.0337835 0.0831922
0.973648 0.0340887 0.089662
0.977462 0.0344549 0.094377
0.980056 0.0347906 0.0984054
0.982635 0.0351415 0.101762
0.985214 0.035462 0.104494
0.987793 0.0357519 0.106859
0.990372 0.0360113 0.108568
0.99292 0.0362554 0.109987
0.995422 0.0364843 0.11107
0.997818 0.0367285 0.111879
1 0.0369573 0.112459
0.0129702 0.0980697 0.0125582
0.0152743 0.100114 0.0122683
0.0175937 0.102724 0.0118563
0.0199588 0.106615 0.0111543
0.0266117 0.110933 0.010544
0.0345312 0.115129 0.00985733
0.044831 0.119371 0.00817884
0.0585641 0.126543 0.00590524
0.0887617 0.137667 0.00309758
0.137987 0.152117 0.00157168
0.212253 0.163912 0.00164797
0.303044 0.165789 0.0024567
0.407385 0.148562 0.00437934
0.517281 0.115007 0.0104677
0.615549 0.0840772 0.0205386
0.699474 0.0626688 0.0326085
0.75996 0.0478218 0.0432441
0.810422 0.0386358 0.0517739
0.86511 0.039353 0.0614023
0.91429 0.0370031 0.0714885
0.942702 0.0368353 0.078706
0.963561 0.0372625 0.0850996
0.976013 0.0376593 0.0906996
0.978546 0.0380865 0.0950484
0.980972 0.038529 0.0988174
0.983307 0.0389868 0.101503
0.985611 0.0394446 0.103853
0.987976 0.0398718 0.105974
0.990402 0.0402686 0.107622
0.99295 0.0406043 0.109087
0.99559 0.0408789 0.110369
0.998184 0.0411383 0.111406
1 0.0413825 0.11223
0.0093843 0.115831 0.00686656
0.0110018 0.117937 0.00682078
0.0135958 0.120089 0.00675975
0.0162356 0.122805 0.00669871
0.0204623 0.125811 0.00663767
0.0279088 0.128985 0.00653086
0.0365759 0.13225 0.00605783
0.0488594 0.13756 0.00477607
0.0723278 0.148104 0.00273136
0.112596 0.162509 0.000991836
0.180255 0.179294 0.000610361
0.270298 0.191302 0.00112917
0.379614 0.189151 0.00234989
0.497566 0.163714 0.00584421
0.615427 0.123369 0.0149996
0.719387 0.0814832 0.0311284
0.803525 0.0492866 0.0474098
0.861082 0.0462043 0.0587167
0.900938 0.0442969 0.0663767
0.933089 0.0398108 0.0742046
0.957488 0.0401312 0.0818036
0.97528 0.0404212 0.0886244
0.977569 0.0413367 0.0922866
0.979797 0.0419165 0.0957809
0.98204 0.0422065 0.0990463
0.984283 0.04271 0.101564
0.986465 0.0431983 0.103685
0.988663 0.0437018 0.105486
0.990875 0.0442054 0.106981
0.99321 0.0446784 0.108293
0.995651 0.0451209 0.109422
0.998169 0.0455177 0.110445
1 0.0458686 0.111376
0.00776684 0.136889 0.00335698
0.00883497 0.138567 0.00350958
0.0104677 0.140276 0.00363165
0.0129091 0.14255 0.00378424
0.0155947 0.145251 0.00399786
0.0214847 0.147906 0.00419623
0.027863 0.150454 0.00415045
0.0389258 0.153933 0.00349432
0.0583047 0.161791 0.00228885
0.0919051 0.175341 0.000762951
0.151568 0.192645 0
0.235569 0.211566 4.57771e-05
0.344549 0.222171 0.000747692
0.467689 0.214923 0.00242618
0.594354 0.181308 0.00738537
0.718273 0.119799 0.0242924
0.817624 0.0783246 0.0429694
0.891249 0.0542 0.0609293
0.932876 0.0422675 0.0726024
0.953918 0.0468299 0.0785687
0.971069 0.0466163 0.0848554
0.976898 0.0460212 0.0897383
0.979248 0.0461738 0.0936294
0.981399 0.0451362 0.0974746
0.983398 0.0457313 0.0995651
0.985412 0.0462959 0.101625
0.987503 0.0469368 0.103655
0.989654 0.0475166 0.10518
0.991821 0.0480659 0.1066
0.994049 0.0486152 0.107881
0.996338 0.049134 0.108934
0.998627 0.0496376 0.109804
1 0.0501106 0.110567
0.00630198 0.160037 0.000915541
0.00759899 0.161212 0.00114443
0.00889601 0.162631 0.00140383
0.0107881 0.164706 0.00169375
0.0129702 0.167086 0.00201419
0.0163119 0.169314 0.00236515
0.0207065 0.171496 0.00263981
0.0301213 0.173938 0.00247196
0.0465095 0.179873 0.00180056
0.0747082 0.190845 0.000747692
0.123415 0.20763 0
0.200305 0.228 0
0.303624 0.247501 0
0.429831 0.256062 0.000411994
0.562158 0.241932 0.00300603
0.695476 0.191562 0.0126955
0.813809 0.126909 0.0323644
0.900999 0.0707103 0.0566262
0.946075 0.0559854 0.0723735
0.971969 0.0522621 0.0832227
0.976852 0.0533608 0.0871595
0.978729 0.0528572 0.0906996
0.980743 0.050721 0.0950027
0.982879 0.05037 0.0977951
0.984985 0.0503853 0.100114
0.986969 0.0503853 0.10219
0.988891 0.0508888 0.10367
0.99086 0.0512093 0.105119
0.99295 0.0518349 0.10634
0.995102 0.05243 0.107454
0.997284 0.0529641 0.108446
0.999481 0.0534981 0.109255
1 0.0540169 0.109926
0.00503548 0.18436 0
0.00648508 0.185473 0
0.00799573 0.186404 0
0.00953689 0.188113 0
0.0115053 0.190433 0.000396735
0.0138857 0.192569 0.000961318
0.0171359 0.194141 0.00146487
0.0238956 0.195834 0.00163272
0.0363622 0.19939 0.00135805
0.0592966 0.208209 0.000701915
0.0984665 0.223362 0
0.165576 0.244266 0
0.260471 0.268132 0
0.385107 0.287587 0
0.523079 0.291966 0.000366217
0.66305 0.269932 0.00411994
0.79237 0.210559 0.0157015
0.896391 0.120775 0.0442359
0.948699 0.0897993 0.0645609
0.975799 0.0632029 0.0809033
0.978729 0.0611276 0.0879225
0.980926 0.0561532 0.0937362
0.982696 0.0569009 0.0958114
0.984451 0.06009 0.0966354
0.986419 0.0584268 0.0992905
0.988464 0.054963 0.102419
0.990463 0.0546731 0.104128
0.99234 0.0552071 0.105165
0.994278 0.0556039 0.106203
0.996216 0.0561532 0.107042
0.998245 0.056672 0.107805
1 0.0572061 0.108522
1 0.0577096 0.109117
0.00393683 0.209583 0
0.00555428 0.210239 0
0.00724804 0.210925 0
0.00891127 0.212284 0
0.0106966 0.21442 0
0.012726 0.216281 0
0.0153201 0.217655 0.000518807
0.0204929 0.218982 0.00102235
0.0296788 0.221286 0.0010071
0.045182 0.228092 0.000564584
0.0766766 0.241382 0
0.13341 0.261418 0
0.217227 0.286732 0
0.335195 0.313115 0
0.476326 0.331884 0
0.623774 0.331853 0.000244144
0.761639 0.301411 0.00517281
0.876738 0.221393 0.0239414
0.945357 0.147097 0.0506905
0.97612 0.0919661 0.0728618
0.979629 0.0779583 0.0842298
0.982483 0.0712749 0.0904097
0.98471 0.0679789 0.0942397
0.986465 0.0669413 0.0969558
0.988098 0.062623 0.100267
0.989837 0.0611124 0.10219
0.99173 0.0661936 0.102159
0.993759 0.0625315 0.104326
0.995651 0.0612039 0.105531
0.997513 0.0594034 0.106798
0.999344 0.0600595 0.107286
1 0.0606394 0.107713
1 0.0611734 0.108171
0.0030518 0.236179 0
0.00482185 0.23621 0
0.00668345 0.2365 0
0.00846876 0.237293 0
0.0103151 0.239002 0
0.0123903 0.240406 0
0.0147097 0.241581 0
0.0183871 0.243137 0.000411994
0.0244144 0.24535 0.000610361
0.0347753 0.250675 0.000320439
0.0583505 0.262043 0
0.104555 0.280644 0
0.17615 0.305715 0
0.285145 0.33547 0
0.423484 0.363058 0
0.57644 0.379263 0
0.724712 0.372854 0.00062562
0.849256 0.336263 0.00613413
0.93341 0.24831 0.0296635
0.975616 0.167468 0.0556191
0.979965 0.121248 0.0723278
0.9832 0.0975052 0.0823835
0.985992 0.0810407 0.0914778
0.988235 0.0742351 0.097261
0.990036 0.0838941 0.0965896
0.991577 0.0846876 0.0974441
0.993164 0.079057 0.099855
0.994904 0.0708629 0.102861
0.996796 0.0622263 0.105959
0.998718 0.0624552 0.106538
1 0.0674296 0.105791
1 0.0725567 0.104891
1 0.0772869 0.104112
0.00242618 0.2636 0
0.0043183 0.263233 0
0.00631724 0.263081 0
0.00822461 0.263905 0
0.0101167 0.265675 0
0.0122072 0.267323 0
0.0145266 0.268894 0
0.0175021 0.270191 0
0.0213169 0.272251 0.000137331
0.0270542 0.275837 3.0518e-05
0.0440223 0.286122 0
0.078233 0.302922 0
0.136706 0.326833 0
0.236652 0.356023 0
0.368627 0.389487 0
0.523415 0.417014 0
0.680323 0.429679 0
0.815213 0.421408 0.000274662
0.915084 0.373632 0.0107729
0.9738 0.296925 0.0292515
0.979736 0.198489 0.0525978
0.983429 0.148196 0.0696574
0.986511 0.132387 0.0802014
0.989212 0.116014 0.0871138
0.991501 0.104631 0.0917678
0.993393 0.086244 0.098085
0.994965 0.078584 0.101076
0.996429 0.0892042 0.0991836
0.998032 0.0930495 0.0986343
0.999802 0.0872816 0.100664
1 0.0928206 0.0996414
1 0.101152 0.0978866
1 0.109468 0.0961471
0.00210575 0.291707 0
0.00408942 0.291157 0
0.00613413 0.290806 0
0.0080415 0.292042 0
0.00994888 0.293996 0
0.0120546 0.29633 0
0.014374 0.2981 0
0.0170291 0.299718 0
0.0200351 0.301823 0
0.0243076 0.305196 0
0.034699 0.312673 0
0.057084 0.327352 0
0.103349 0.349828 0
0.185443 0.379507 0
0.313024 0.413336 0
0.466682 0.447852 0
0.628458 0.472755 0
0.774975 0.485252 0
0.892042 0.480278 0.000717174
0.966445 0.444724 0.00601205
0.978042 0.334447 0.0299687
0.983154 0.260624 0.0486152
0.986664 0.215778 0.061387
0.989593 0.172946 0.0722972
0.992279 0.132143 0.0851453
0.994629 0.118502 0.0909895
0.996597 0.11281 0.0930953
0.998245 0.11342 0.0935531
0.99971 0.110491 0.0948501
1 0.117922 0.0933089
1 0.128939 0.0908064
1 0.153643 0.0864576
1 0.181979 0.0817121
0.00190738 0.322118 0
0.00390631 0.321569 0
0.00596628 0.321447 0
0.00790417 0.32311 0
0.00981155 0.325093 0
0.0119173 0.327245 0
0.0142672 0.329198 0
0.0168307 0.331151 0
0.0195773 0.333196 0
0.0229038 0.336507 0
0.0295567 0.342718 0
0.0423438 0.355261 0
0.076051 0.375311 0
0.137224 0.403494 0
0.255772 0.436927 0
0.406149 0.474815 0
0.57348 0.509117 0
0.730663 0.535698 0
0.861204 0.550622 0
0.946853 0.544717 0
0.974807 0.485054 0.011368
0.9823 0.423697 0.0224765
0.986465 0.330617 0.0388952
0.9897 0.268101 0.054902
0.992615 0.21561 0.0679484
0.99527 0.180209 0.0759289
0.997665 0.153872 0.0823072
0.999741 0.127626 0.0901808
1 0.141482 0.0880751
1 0.186069 0.0804761
1 0.228885 0.0730907
1 0.266484 0.0666056
1 0.306401 0.0600595
0.00173953 0.354742 0
0.00376898 0.354376 0
0.00581369 0.354635 0
0.00776684 0.356359 0
0.00968948 0.358602 0
0.0118105 0.361318 0
0.0141604 0.363485 0
0.0167544 0.365286 0
0.0195315 0.367224 0
0.0225223 0.369894 0
0.026276 0.374716 0
0.0332341 0.385351 0
0.0570687 0.403723 0
0.100923 0.429786 0
0.200473 0.462348 0
0.340093 0.500084 0
0.511193 0.53843 0
0.677592 0.572717 0
0.819486 0.60061 0
0.922271 0.612375 0
0.969207 0.601404 0.00125124
0.98085 0.561929 0.0074464
0.985977 0.476555 0.0205692
0.989487 0.399603 0.0345312
0.992706 0.329625 0.04477
0.995575 0.262409 0.0555581
0.998245 0.20914 0.0700847
1 0.195438 0.0774548
1 0.237125 0.0708476
1 0.279896 0.0638437
1 0.341695 0.054078
1 0.40264 0.0443275
1 0.455894 0.0357366
0.00163272 0.389334 0
0.00364691 0.389197 0
0.00572213 0.389822 0
0.00766003 0.391318 0
0.00959792 0.394034 0
0.0117037 0.397101 0
0.0140841 0.399359 0
0.0167086 0.401495 0
0.0195163 0.403342 0
0.0224155 0.406073 0
0.0256352 0.409934 0
0.0297704 0.418708 0
0.0442664 0.434348 0
0.0725109 0.45803 0
0.149157 0.488838 0
0.273503 0.525231 0
0.449821 0.565789 0
0.623499 0.604257 0
0.775677 0.639231 0
0.893446 0.664317 0
0.958068 0.67277 0
0.978775 0.668101 0
0.985397 0.617029 0.00816358
0.989029 0.559152 0.0140688
0.992493 0.462669 0.0229801
0.995651 0.374884 0.0381628
0.998505 0.308888 0.0540627
1 0.301091 0.0582895
1 0.357641 0.0499428
1 0.41416 0.0414893
1 0.470695 0.0328527
1 0.52401 0.0261692
1 0.573175 0.0217136
0.00154116 0.426215 0
0.00355535 0.426276 0
0.00564584 0.426764 0
0.00758373 0.428519 0
0.00950637 0.431342 0
0.0116274 0.434165 0
0.0140536 0.436637 0
0.0166934 0.438804 0
0.0195315 0.440589 0
0.0224155 0.443275 0
0.0253452 0.446998 0
0.0288548 0.453773 0
0.0368505 0.467002 0
0.0527199 0.488289 0
0.107332 0.517174 0
0.20911 0.552499 0
0.378317 0.591394 0
0.562722 0.631907 0
0.729061 0.671946 0
0.859586 0.703532 0
0.943618 0.724773 0
0.973739 0.737255 0
0.984588 0.720562 0.00134279
0.988373 0.684001 0.004654
0.992035 0.603922 0.00917067
0.995422 0.510628 0.0216983
0.99852 0.438804 0.035111
1 0.439002 0.0349279
1 0.494682 0.0267491
1 0.540536 0.0228885
1 0.585687 0.0194247
1 0.628656 0.0159457
1 0.673213 0.0121157
0.00144961 0.464714 0
0.0034638 0.464759 0
0.00555428 0.465339 0
0.00750744 0.467216 0
0.00944533 0.470146 0
0.0115663 0.473228 0
0.0140383 0.475456 0
0.0166934 0.477378 0
0.0195468 0.47921 0
0.0224613 0.48159 0
0.0254063 0.485069 0
0.0285496 0.490578 0
0.0333562 0.502129 0
0.0439612 0.520897 0
0.0785229 0.546746 0
0.149813 0.57966 0
0.301854 0.616846 0
0.500252 0.657923 0
0.680064 0.69987 0
0.823362 0.736004 0
0.926268 0.765393 0
0.964019 0.782101 0
0.982757 0.788235 0
0.987655 0.779248 0
0.991485 0.730251 0.00318914
0.994965 0.6636 0.00918593
0.998276 0.582589 0.0163272
1 0.564004 0.0180056
1 0.608362 0.0148013
1 0.651987 0.0115816
1 0.692638 0.00857557
1 0.724849 0.00859083
1 0.756817 0.00857557
0.00132753 0.504402 0
0.0033875 0.504448 0
0.00544747 0.505364 0
0.00741588 0.507134 0
0.00936904 0.510002 0
0.0115053 0.513283 0
0.0139925 0.515679 0
0.0166629 0.517815 0
0.0195163 0.519631 0
0.0225071 0.522164 0
0.0254826 0.524956 0
0.0285344 0.529259 0
0.0319524 0.538567 0
0.0385748 0.554589 0
0.0595102 0.577737 0
0.102861 0.607935 0
0.231647 0.643595 0
0.425315 0.682246 0
0.62501 0.723339 0
0.779995 0.762875 0
0.89398 0.795361 0
0.95137 0.8168 0
0.978576 0.832532 0
0.986694 0.843656 0
0.990936 0.822797 0.000320439
0.99443 0.778058 0.00303655
0.997818 0.706752 0.00653086
1 0.67686 0.00653086
1 0.71368 0.00549325
1 0.745602 0.00579843
1 0.77818 0.00604257
1 0.807614 0.00627146
1 0.835813 0.00643931
0.00123598 0.54522 0
0.00329595 0.545571 0
0.00535592 0.546471 0
0.00732433 0.548257 0
0.00929274 0.551385 0
0.011429 0.554421 0
0.0139467 0.556909 0
0.0166476 0.559152 0
0.0195315 0.561013 0
