luts/changyun_kodaklike/kodaG200.cube
TITLE "Generated by Resolve"
LUT_3D_SIZE 33
0.0323949 0.0207675 0.040116
0.0328374 0.0207218 0.0399176
0.033463 0.020737 0.0399329
0.0345769 0.0206302 0.0401923
0.0367895 0.0205386 0.0404974
0.0403143 0.0208896 0.0403906
0.0466926 0.0218967 0.0418097
0.0566262 0.0230411 0.0429084
0.0778363 0.0244297 0.0459449
0.0979782 0.026154 0.0480507
0.12607 0.0250248 0.0499428
0.178561 0.00968948 0.0513924
0.262287 0 0.052903
0.372702 0 0.0504158
0.500404 0 0.04271
0.633356 0 0.0269322
0.758587 0 0.00572213
0.871122 0 0
0.960723 0 0
1 0 0.0309606
1 0 0.106737
1 0 0.125628
1 0 0.144747
1 0 0.144747
1 0 0.144747
1 0 0.144747
1 0 0.144747
1 0 0.144747
1 0 0.144747
1 0 0.144747
1 0 0.144747
1 0 0.144747
1 0 0.144747
0.0324254 0.0207523 0.0403143
0.0331579 0.0206912 0.0400549
0.0337377 0.0207828 0.0399023
0.0344854 0.0209354 0.0399329
0.0362097 0.0209049 0.0401617
0.0399023 0.0208896 0.0403601
0.0461738 0.0218051 0.0416876
0.0559091 0.0229648 0.0428626
0.0764782 0.0243381 0.0457465
0.0968643 0.0261082 0.0479591
0.124529 0.0252689 0.049836
0.175937 0.0106813 0.0513924
0.258549 0 0.0528878
0.368292 0 0.0505684
0.495689 0 0.043061
0.629267 0 0.0275883
0.754955 0 0.00636301
0.868025 0 0
0.95816 0 0
1 0 0.0286259
1 0 0.104677
1 0 0.124819
1 0 0.144747
1 0 0.144747
1 0 0.144747
1 0 0.144747
1 0 0.144747
1 0 0.144747
1 0 0.144747
1 0 0.144747
1 0 0.144747
1 0 0.144747
1 0 0.144747
0.0325017 0.021622 0.0409705
0.0330968 0.0213626 0.0405585
0.0338293 0.021088 0.040116
0.0344549 0.0211643 0.0397803
0.0356451 0.0213474 0.039826
0.0394751 0.0209812 0.0402533
0.0456092 0.0217136 0.0415351
0.0553292 0.0228885 0.0428016
0.075227 0.0242618 0.0455482
0.0960098 0.0260624 0.0478828
0.123201 0.0253605 0.0497597
0.173953 0.011429 0.0514076
0.25536 0 0.0528878
0.364523 0 0.0506752
0.491676 0 0.0433661
0.625391 0 0.0281987
0.75111 0 0.00703441
0.864759 0 0
0.955596 0 0
1 0 0.0265354
1 0 0.102724
1 0 0.123659
1 0 0.144747
1 0 0.144747
1 0 0.144747
1 0 0.144747
1 0 0.144747
1 0 0.144747
1 0 0.144747
1 0 0.144747
1 0 0.144747
1 0 0.144747
1 0 0.144747
0.0328374 0.0227207 0.041825
0.032929 0.0227359 0.041474
0.0333562 0.0225986 0.041062
0.034226 0.0223697 0.0404822
0.0351568 0.0222477 0.0399329
0.0390173 0.0214237 0.040116
0.0450294 0.021622 0.0413519
0.0550546 0.0227512 0.0427405
0.0738689 0.0241703 0.0451667
0.0947738 0.0260166 0.0477607
0.121813 0.025452 0.0496834
0.171054 0.0125277 0.0514229
0.251621 0 0.0528725
0.360113 0 0.0508278
0.48719 0 0.0437018
0.620768 0 0.0288701
0.747036 0 0.00775158
0.861295 0 0
0.952575 0 0
1 0 0.0240787
1 0 0.100435
1 0 0.122499
1 0 0.144747
1 0 0.144747
1 0 0.144747
1 0 0.144747
1 0 0.144747
1 0 0.144747
1 0 0.144747
1 0 0.144747
1 0 0.144747
1 0 0.144747
1 0 0.144747
0.0329595 0.0252384 0.0437629
0.0328832 0.0249485 0.043183
0.0328679 0.0247501 0.0426184
0.0337987 0.024094 0.0415656
0.03505 0.0235294 0.0406195
0.0385901 0.0230106 0.0401465
0.0444343 0.0226749 0.0407874
0.0545815 0.0228885 0.0424811
0.0726787 0.024033 0.0444648
0.0935073 0.0259556 0.047303
0.119966 0.0255741 0.0495766
0.168017 0.0136873 0.0514382
0.247318 0 0.0528573
0.355032 0 0.0509804
0.481514 0 0.0441138
0.614878 0 0.0296025
0.741695 0 0.00868238
0.856733 0 0
0.949111 0 0
1 0 0.0212558
1 0 0.0975814
1 0 0.121218
1 0 0.144747
1 0 0.144747
1 0 0.144747
1 0 0.144747
1 0 0.144747
1 0 0.144747
1 0 0.144747
1 0 0.144747
1 0 0.144747
1 0 0.144747
1 0 0.144747
0.0326848 0.0297398 0.0469368
0.0326848 0.0285954 0.0461585
0.0326848 0.0281224 0.0456245
0.0332189 0.0277409 0.0446784
0.0343481 0.0271305 0.0433051
0.0376898 0.0261845 0.0415351
0.0436713 0.0250248 0.0404212
0.0537423 0.0243992 0.0413214
0.071519 0.0248722 0.0433509
0.0919356 0.0260929 0.0463264
0.117449 0.0262608 0.0493935
0.163867 0.0153201 0.0514076
0.24152 0 0.0528267
0.34818 0 0.051194
0.474205 0 0.0446632
0.608042 0 0.0304723
0.735485 0 0.00978103
0.851453 0 0
0.944427 0 0
1 0 0.0174411
1 0 0.094255
1 0 0.119371
1 0 0.144747
1 0 0.144747
1 0 0.144747
1 0 0.144747
1 0 0.144747
1 0 0.144747
1 0 0.144747
1 0 0.144747
1 0 0.144747
1 0 0.144747
1 0 0.144747
0.032166 0.0391394 0.0523842
0.032517 0.0376135 0.0514229
0.0325475 0.0364691 0.05066
0.0326696 0.0353399 0.0497597
0.0331884 0.0341039 0.0481117
0.035584 0.0326085 0.045655
0.0416571 0.0307012 0.0421454
0.052903 0.0288396 0.040238
0.071107 0.0280766 0.0415656
0.09131 0.0284428 0.0455024
0.115084 0.0281834 0.0484016
0.15819 0.0185245 0.0505531
0.234012 0 0.0522927
0.340017 0 0.0514534
0.465705 0 0.045304
0.598856 0 0.031632
0.727047 0 0.0112612
0.844343 0 0
0.938552 0 0
1 0 0.0128939
1 0 0.0897841
1 0 0.117174
1 0 0.142885
1 0 0.144747
1 0 0.144747
1 0 0.144747
1 0 0.144747
1 0 0.144747
1 0 0.144747
1 0 0.144747
1 0 0.144747
1 0 0.144747
1 0 0.144747
0.0259098 0.060029 0.0615702
0.0270085 0.0569009 0.0600443
0.0277714 0.05449 0.0588083
0.028397 0.0522316 0.0575113
0.0293584 0.0496529 0.0552834
0.0311589 0.0463722 0.0526741
0.0356909 0.0424659 0.0493629
0.0466163 0.0394598 0.0444343
0.0685893 0.037705 0.0401007
0.0916609 0.0349584 0.0418555
0.11371 0.0341344 0.0460212
0.153964 0.0242466 0.0493629
0.224872 0 0.0512703
0.328145 0 0.050782
0.45388 0 0.0459449
0.588006 0 0.0330053
0.717083 0 0.0130159
0.835035 0 0
0.931579 0 0
1 0 0.00724804
1 0 0.0833295
1 0 0.114397
1 0 0.14023
1 0 0.144747
1 0 0.144747
1 0 0.144747
1 0 0.144747
1 0 0.144747
1 0 0.144747
1 0 0.144747
1 0 0.144747
1 0 0.144747
1 0 0.144747
0.00956741 0.0919509 0.0770733
0.0115053 0.089662 0.075349
0.0133211 0.0875868 0.0736706
0.0155642 0.0850538 0.0717174
0.0183719 0.0821241 0.0682536
0.0203098 0.0773938 0.0630045
0.0261234 0.0703441 0.0585489
0.0370947 0.0632029 0.0536507
0.0572213 0.0577096 0.0459449
0.0893721 0.0557107 0.0389563
0.114214 0.0486152 0.0398566
0.15288 0.0369116 0.0442359
0.219898 0.00358587 0.0476234
0.317647 0 0.0483711
0.439155 0 0.0448005
0.573053 0 0.034699
0.703838 0 0.0153353
0.82414 0 0
0.922469 0 0
0.994705 0 0.00483711
1 0 0.0727245
1 0 0.111315
1 0 0.137102
1 0 0.144747
1 0 0.144747
1 0 0.144747
1 0 0.144747
1 0 0.144747
1 0 0.144747
1 0 0.144747
1 0 0.144747
1 0 0.144747
1 0 0.144747
0 0.12668 0.0927443
7.62951e-05 0.123247 0.0914168
0.00030518 0.120577 0.0902113
0.000534066 0.117647 0.0887007
0.000610361 0.114199 0.0867781
0.00125124 0.109606 0.0826581
0.00274662 0.103868 0.0757
0.013077 0.0977188 0.0675212
0.0344396 0.0924392 0.0593576
0.0753643 0.0893111 0.0467231
0.114 0.0832074 0.0357061
0.157565 0.0646525 0.0353246
0.22002 0.021622 0.0398108
0.311131 0 0.0417334
0.427039 0 0.0393378
0.556924 0 0.0310216
0.687678 0 0.0142519
0.807233 0 0
0.909468 0 0
0.987442 0 0.0033875
1 0 0.0606241
1 0 0.10753
1 0 0.133501
1 0 0.144747
1 0 0.144747
1 0 0.144747
1 0 0.144747
1 0 0.144747
1 0 0.144747
1 0 0.144747
1 0 0.144747
1 0 0.144747
1 0 0.144747
0 0.18764 0.113603
0 0.182925 0.111513
0 0.178378 0.109712
0 0.17322 0.107652
0 0.166857 0.105043
0 0.159243 0.101259
0 0.150759 0.0957504
0 0.141665 0.0875257
0 0.131029 0.0792401
0.0224765 0.122042 0.0652934
0.0944686 0.117754 0.0456703
0.158465 0.109758 0.0278477
0.233814 0.0800946 0.0221408
0.318364 0.00311284 0.0253605
0.422278 0 0.0251469
0.546151 0 0.017319
0.672557 0 0.0041352
0.790982 0 0
0.893629 0 0
0.975296 0 0
1 0 0.0404822
1 0 0.101137
1 0 0.128557
1 0 0.144747
1 0 0.144747
1 0 0.144747
1 0 0.144747
1 0 0.144747
1 0 0.144747
1 0 0.144747
1 0 0.144747
1 0 0.144747
1 0 0.144747
0 0.273457 0.147753
0 0.267292 0.144869
0 0.261646 0.142214
0 0.255375 0.139254
0 0.247791 0.135607
0 0.238972 0.13106
0 0.227878 0.124269
0 0.215015 0.113191
0 0.199405 0.0999008
0 0.182681 0.0894331
0.0102693 0.169482 0.0677958
0.128511 0.162463 0.0327764
0.228199 0.146212 0.00717174
0.330556 0.104875 0.00166323
0.433722 0 0.000900282
0.550759 0 0
0.669871 0 0
0.795941 0 0
0.886748 0 0
0.963195 0 0
1 0 0.00270085
1 0 0.0804608
1 0 0.116854
1 0 0.139345
1 0 0.140551
1 0 0.141512
1 0 0.142214
1 0 0.142535
1 0 0.142718
1 0 0.142794
1 0 0.142824
1 0 0.14287
1 0 0.142916
0 0.376501 0.193042
0 0.370733 0.190005
0 0.364965 0.187015
0 0.358404 0.183597
0 0.35024 0.179355
0 0.340291 0.173587
0 0.327825 0.165759
0 0.312154 0.153307
0 0.294316 0.134508
0 0.27393 0.117037
0 0.251331 0.100191
0.00952163 0.23505 0.060853
0.190768 0.226108 0.00521859
0.320714 0.200137 0
0.443503 0.148409 0
0.555627 0.0352789 0
0.671672 0 0
0.785306 0 0
0.886091 0 0
0.968658 0 0
1 0 0
1 0 0.020798
1 0 0.0916457
1 0 0.121752
1 0 0.127367
1 0 0.129747
1 0 0.131548
1 0 0.132738
1 0 0.133135
1 0 0.133318
1 0 0.13341
1 0 0.133486
1 0 0.133577
0 0.494469 0.254856
0 0.487999 0.25037
0 0.482109 0.246555
0 0.475959 0.242725
0 0.468101 0.237949
0 0.458289 0.231891
0 0.445853 0.223743
0 0.430381 0.211398
0 0.409857 0.191043
0 0.385275 0.160525
0 0.359747 0.13959
0 0.333852 0.113252
0.0650339 0.319249 0.0451972
0.284962 0.31078 0
0.447333 0.283146 0
0.575357 0.222416 0
0.679896 0.133318 0
0.782834 0.0192874 0
0.875608 0 0
0.956176 0 0
1 0 0
1 0 0
1 0 0.0059968
1 0.0509957 0.0709239
1 0.0466926 0.104753
1 0.0320134 0.110506
1 0.0213474 0.114687
1 0.0144503 0.117388
1 0.0100099 0.119127
1 0.0084535 0.119738
1 0.00755322 0.120089
1 0.00666819 0.120439
1 0.00578317 0.12079
0 0.604379 0.326574
0 0.599557 0.322606
0 0.59472 0.318624
0 0.589181 0.314137
0 0.5823 0.308492
0 0.573922 0.30222
0 0.564584 0.294774
0 0.552926 0.28426
0 0.53611 0.265797
0 0.511849 0.235111
0 0.48603 0.197986
0 0.455512 0.169787
0 0.42269 0.131243
0.181521 0.405432 0.0213931
0.388739 0.399756 0
0.560739 0.371847 0
0.69041 0.315206 0
0.797864 0.252857 0
0.884321 0.193408 0
0.950622 0.0832532 0
0.996643 0.0717479 0
1 0.085832 0
1 0.144106 0
1 0.170535 0
1 0.188739 0
1 0.177691 0.00331121
1 0.168627 0.011017
1 0.162524 0.0162051
1 0.15938 0.0188907
1 0.1579 0.0201419
1 0.157153 0.0207675
1 0.15642 0.0214084
1 0.155673 0.022034
0 0.711727 0.421286
0 0.70631 0.415427
0 0.701228 0.409934
0 0.69575 0.403952
0 0.688487 0.396109
0 0.679225 0.386038
0 0.667887 0.373938
0 0.654841 0.360769
0 0.640101 0.342779
0 0.622538 0.31693
0 0.601175 0.278523
0 0.575998 0.241138
0 0.546578 0.205295
0.0425879 0.515938 0.154025
0.301854 0.499031 0.0234226
0.499397 0.491814 0
0.662257 0.464347 0
0.777081 0.410803 0
0.872038 0.356527 0
0.946044 0.313039 0
0.996582 0.286122 0
1 0.27631 0
1 0.285161 0
1 0.287663 0
1 0.291325 0
1 0.278981 0
1 0.269825 0
1 0.263661 0
1 0.260868 0
1 0.259266 0
1 0.25864 0
1 0.258 0
1 0.257679 0
0.238804 0.79762 0.528847
0.222385 0.793835 0.522805
0.205386 0.78999 0.51667
0.185763 0.785626 0.509697
0.151736 0.779446 0.500923
0.114046 0.772519 0.491112
0.0702068 0.764324 0.479454
0.0154421 0.753613 0.463859
0 0.740871 0.445212
0 0.725887 0.419242
0 0.707256 0.382086
0 0.683162 0.3299
0 0.656596 0.290532
7.62951e-05 0.625147 0.243503
0.224445 0.597726 0.182177
0.425498 0.588403 0.0413977
0.605539 0.580484 0
0.750088 0.55494 0
0.847639 0.504982 0
0.930327 0.458061 0
0.994705 0.416831 0
1 0.396048 0
1 0.388235 0
1 0.38439 0
1 0.382864 0
1 0.376379 0
1 0.369192 0
1 0.364645 0
1 0.361868 0
1 0.360693 0
1 0.360098 0
1 0.359518 0
1 0.358923 0
0.465721 0.86508 0.639673
0.455573 0.86186 0.633494
0.445731 0.858732 0.627527
0.434165 0.8551 0.620539
0.419379 0.850462 0.611658
0.400214 0.844526 0.600214
0.375097 0.836927 0.586679
0.344823 0.827878 0.570901
0.311116 0.818524 0.553307
0.257023 0.80708 0.52987
0.181704 0.795254 0.500069
0.0626688 0.778881 0.454307
0.0108644 0.757061 0.400443
0.0552987 0.733577 0.356161
0.235065 0.703243 0.298741
0.37731 0.673701 0.221057
0.530953 0.658915 0.0721141
0.689937 0.652079 0
0.821988 0.63537 0
0.906889 0.594003 0
0.975525 0.553841 0
1 0.515816 0
1 0.49305 0
1 0.482765 0
1 0.475792 0
1 0.469581 0
1 0.462181 0
1 0.457572 0
1 0.454734 0
1 0.453544 0
1 0.452949 0
1 0.452354 0
1 0.451911 0
0.620127 0.914824 0.741482
0.61326 0.912749 0.736553
0.606989 0.910735 0.732082
0.599985 0.908476 0.727077
0.59057 0.905562 0.7205
0.578775 0.901946 0.712261
0.563302 0.8972 0.701457
0.540429 0.890166 0.685954
0.511971 0.881407 0.666712
0.477287 0.871351 0.642588
0.426841 0.857908 0.609018
0.367544 0.843763 0.566979
0.291676 0.829252 0.51548
0.286824 0.811749 0.46952
0.330312 0.79057 0.418738
0.39733 0.763058 0.35346
0.509728 0.745296 0.277577
0.641016 0.732845 0.152392
0.774533 0.724681 0
0.882612 0.708782 0
0.95082 0.672023 0
0.997757 0.637552 0
1 0.60734 0
1 0.580056 0
1 0.566857 0
1 0.559609 0
1 0.552575 0
1 0.547723 0
1 0.545235 0
1 0.54406 0
1 0.543481 0
1 0.542885 0
1 0.542306 0
0.744778 0.952667 0.828687
0.7393 0.950942 0.824689
0.734127 0.949325 0.82092
0.728191 0.947478 0.816571
0.720119 0.945022 0.810742
0.709621 0.941848 0.803159
0.696101 0.937789 0.793393
0.677897 0.932631 0.780499
0.654734 0.925887 0.763973
0.627985 0.918227 0.744106
0.596078 0.909758 0.719341
0.556497 0.899763 0.686839
0.504448 0.887831 0.641718
0.459831 0.873793 0.589609
0.454124 0.855863 0.540169
0.473045 0.835859 0.481163
0.522194 0.813855 0.411597
0.619058 0.800565 0.335485
0.728847 0.789746 0.23151
0.840085 0.781872 0.0387884
0.926314 0.766583 0
0.980255 0.740261 0
1 0.714961 0
1 0.69247 0
1 0.674006 0
1 0.657816 0
1 0.646708 0
1 0.639948 0
1 0.636057 0
1 0.634409 0
1 0.633799 0
1 0.632975 0
1 0.632166 0
0.758404 0.957031 0.838911
0.755901 0.956222 0.837018
0.753506 0.955459 0.835218
0.751003 0.954635 0.83331
0.747662 0.953567 0.830777
0.743648 0.95227 0.82771
0.738643 0.950668 0.82388
0.732265 0.948623 0.818967
0.722606 0.945739 0.811734
0.708904 0.942031 0.801389
0.691905 0.937881 0.787823
0.673198 0.933959 0.77113
0.641306 0.926986 0.741634
0.595514 0.91693 0.695262
0.574151 0.903853 0.651301
0.57232 0.88925 0.602396
0.587625 0.871839 0.541894
0.632486 0.854322 0.469154
0.708461 0.840681 0.38497
0.801755 0.831769 0.28893
0.891691 0.824628 0.120638
0.956924 0.811917 0
0.995483 0.790936 0
1 0.772091 0
1 0.756405 0
1 0.744549 0
1 0.735759 0
1 0.730678 0
1 0.727764 0
1 0.726528 0
1 0.725902 0
1 0.725292 0
1 0.724681 0
0.77583 0.962341 0.851667
0.77525 0.962173 0.851133
0.774639 0.962005 0.850568
0.774044 0.961852 0.850019
0.77377 0.961761 0.849638
0.774685 0.961975 0.850095
0.775906 0.962249 0.850675
0.777325 0.96257 0.851362
0.77467 0.961624 0.849058
0.76553 0.95874 0.841871
0.749996 0.954772 0.82974
0.732647 0.950774 0.815
0.712505 0.946731 0.795895
0.688045 0.942489 0.769589
0.675319 0.937804 0.743648
0.664942 0.927459 0.705318
0.662806 0.914321 0.654902
0.678218 0.899443 0.595331
0.726497 0.88835 0.530663
0.792523 0.878752 0.455131
0.862715 0.868269 0.356786
0.926482 0.858976 0.228534
0.980652 0.849882 0.0525368
0.999664 0.835981 0
1 0.822568 0
1 0.811826 0
1 0.803876 0
1 0.799313 0
1 0.796811 0
1 0.795758 0
1 0.795239 0
1 0.794842 0
1 0.794308 0
0.778103 0.962951 0.853758
0.777493 0.962783 0.853193
0.776974 0.962646 0.852705
0.776287 0.962463 0.852094
0.775525 0.962249 0.851377
0.774517 0.961975 0.850446
0.773709 0.961746 0.849622
0.775158 0.962081 0.850324
0.776959 0.962493 0.851194
0.779065 0.962982 0.852033
0.779873 0.963409 0.851484
0.776089 0.963272 0.84715
0.764843 0.961425 0.835782
0.745846 0.957977 0.815763
0.725353 0.953323 0.789044
0.721935 0.947936 0.765957
0.727764 0.942504 0.739986
0.734173 0.933257 0.697948
0.75404 0.921538 0.641016
0.798413 0.913024 0.581094
0.852079 0.904173 0.507286
0.906065 0.896864 0.424689
0.959625 0.89099 0.324819
0.9944 0.883345 0.207919
1 0.871595 0.0496986
1 0.862364 0.00157168
1 0.855497 0.000213626
1 0.85127 0
1 0.849226 0
1 0.848325 0
1 0.847868 0
1 0.847532 0
1 0.847074 0
0.780072 0.963485 0.855558
0.779461 0.963317 0.854994
0.778943 0.96318 0.85452
0.778256 0.962997 0.853895
0.777493 0.962783 0.853193
0.776486 0.962509 0.852262
0.775311 0.962188 0.851179
0.773739 0.961761 0.849744
0.77499 0.962051 0.850248
0.777508 0.962585 0.851377
0.779431 0.963104 0.851621
0.778042 0.963455 0.84892
0.773663 0.963607 0.842863
0.773281 0.965209 0.837705
0.768719 0.96611 0.826688
0.763729 0.961746 0.807767
0.762661 0.956405 0.783368
0.770474 0.951217 0.756466
0.786664 0.945724 0.724407
0.814176 0.93872 0.677516
0.852445 0.930922 0.618189
0.893996 0.923506 0.551171
0.93875 0.917128 0.474342
0.979217 0.912016 0.388602
0.999832 0.90692 0.309651
1 0.899184 0.204105
1 0.894011 0.13431
1 0.890394 0.0934005
1 0.888594 0.0772869
1 0.887861 0.0709697
1 0.88751 0.0678111
1 0.887236 0.0654459
1 0.886885 0.0623026
0.781155 0.96379 0.856703
0.781125 0.963775 0.856519
0.780545 0.963607 0.855985
0.779889 0.963439 0.85539
0.779126 0.963226 0.854688
0.778164 0.962966 0.853803
0.776913 0.962631 0.852659
0.775372 0.962203 0.85124
0.773556 0.961715 0.849577
0.776074 0.962249 0.850767
0.778729 0.962829 0.851484
0.778851 0.963409 0.849836
0.775296 0.963714 0.844495
0.77377 0.965011 0.838712
0.770291 0.966278 0.828763
0.776608 0.966018 0.821271
0.787396 0.965713 0.812634
0.797299 0.963226 0.795666
0.807889 0.958282 0.767926
0.830121 0.954589 0.738018
0.859281 0.950835 0.700435
0.890669 0.943801 0.644144
0.927047 0.937774 0.581796
0.962951 0.932479 0.513649
0.99202 0.928252 0.44184
1 0.924636 0.377203
1 0.918944 0.330694
1 0.915511 0.297932
1 0.913848 0.282536
1 0.913283 0.278355
1 0.913069 0.276814
1 0.912764 0.274662
1 0.91249 0.272633
0.78027 0.963623 0.856489
0.780682 0.963699 0.85658
0.781033 0.963775 0.856672
0.781186 0.96379 0.85658
0.780423 0.963577 0.855879
0.7794 0.963302 0.854932
0.778164 0.962966 0.853803
0.776669 0.962554 0.85243
0.774884 0.962081 0.850782
0.774868 0.961975 0.850233
0.778012 0.9626 0.851286
0.778912 0.963195 0.850172
0.776516 0.963806 0.845716
0.774136 0.964858 0.83949
0.770794 0.966186 0.829892
0.776822 0.966201 0.822553
0.787213 0.965896 0.814084
0.802304 0.96585 0.804715
0.822889 0.966583 0.79646
0.843015 0.964797 0.77644
0.867292 0.961532 0.744656
0.892668 0.957763 0.706966
0.921263 0.952392 0.654582
0.952468 0.947723 0.599252
0.981048 0.94403 0.543801
0.998123 0.940932 0.488228
1 0.938033 0.443717
1 0.935302 0.416205
1 0.933486 0.4
1 0.932891 0.396948
1 0.932555 0.395224
1 0.932219 0.393469
1 0.931868 0.39173
0.779644 0.963485 0.856336
0.780041 0.963561 0.856428
0.780423 0.963653 0.856535
0.78085 0.963729 0.856626
0.781369 0.963836 0.856748
0.780346 0.963561 0.855817
0.779126 0.963226 0.854688
0.777615 0.962814 0.8533
0.77583 0.962341 0.851667
0.774319 0.961868 0.85008
0.777417 0.962432 0.851102
0.778927 0.963043 0.850385
0.777249 0.963806 0.846525
0.774411 0.964736 0.84007
0.771023 0.966064 0.830594
0.777005 0.966339 0.823499
0.787091 0.966018 0.815122
0.801022 0.965728 0.804898
0.821393 0.96643 0.796643
0.845731 0.967697 0.787793
0.87425 0.969635 0.777691
0.896315 0.966278 0.744793
0.921675 0.963088 0.706554
0.946838 0.958511 0.657145
0.972229 0.954681 0.607584
0.992889 0.951949 0.560937
0.999039 0.949935 0.520958
0.999725 0.948425 0.49543
0.999969 0.947677 0.480522
1 0.947234 0.476448
1 0.947005 0.474815
1 0.946761 0.473182
1 0.946517 0.47155
0.779217 0.963409 0.856245
0.779599 0.963485 0.856336
0.779995 0.963561 0.856428
0.780423 0.963653 0.856535
0.780957 0.96376 0.856657
0.781033 0.963745 0.856443
0.779767 0.963409 0.855283
0.778225 0.962982 0.853864
0.77641 0.962493 0.852201
