luts/changyun_kodaklike/kodaE100VS.cube
TITLE "Generated by Resolve"
LUT_3D_SIZE 33
0.000640879 0.000518807 0.000991836
0.00128176 0.000350958 0.00077821
0.00205997 0.000427253 0.000564584
0.00280766 0.00062562 0.000289921
0.00476081 0.0010071 0.000259403
0.0103304 0.00187686 0.000564584
0.0222477 0.00315862 0.00106813
0.0490272 0.00436408 0.00151064
0.0915084 0.00556954 0.00164797
0.125734 0.00471504 0.00103761
0.17435 9.15541e-05 3.0518e-05
0.24802 0 0
0.342275 0 0
0.449256 0 0
0.560052 0 0
0.670466 0 0
0.773373 0 0
0.863645 0 0
0.942382 0 0
0.995666 0 0
1 0 0
1 0 0
1 0 0
1 0 0
1 0 0
1 0 0
1 0 0
1 0 0
1 0 0
1 0 0
1 0 0
1 0 0
1 0 0
0.000350958 0.000991836 0.00148013
0.000839246 0.000808728 0.00129702
0.00166323 0.00077821 0.00102235
0.00283818 0.000991836 0.00062562
0.004654 0.00132753 0.000366217
0.00968948 0.00202945 0.000610361
0.0213016 0.0030518 0.00103761
0.0474708 0.00430304 0.00149538
0.089601 0.00550851 0.00164797
0.124102 0.00497444 0.00106813
0.172396 0.000183108 4.57771e-05
0.245274 0 0
0.339162 0 0
0.447135 0 0
0.557641 0 0
0.66807 0 0
0.771496 0 0
0.861631 0 0
0.940719 0 0
0.995254 0 0
1 0 0
1 0 0
1 0 0
1 0 0
1 0 0
1 0 0
1 0 0
1 0 0
1 0 0
1 0 0
1 0 0
1 0 0
1 0 0
0.000183108 0.00256352 0.0021973
0.00047303 0.00195315 0.00192264
0.00112917 0.00146487 0.00158694
0.00271611 0.00135805 0.00102235
0.00459297 0.00164797 0.000534066
0.00906386 0.00239567 0.000595102
0.0204013 0.00314336 0.000976577
0.0456245 0.00427253 0.00143435
0.0870527 0.00544747 0.00164797
0.122408 0.00521859 0.00111391
0.169909 0.000350958 9.15541e-05
0.242329 0 0
0.336309 0 0
0.443015 0 0
0.553979 0 0
0.664149 0 0
0.768231 0 0
0.858763 0 0
0.938613 0 0
0.994354 0 0
1 0 0
1 0 0
1 0 0
1 0 0
1 0 0
1 0 0
1 0 0
1 0 0
1 0 0
1 0 0
1 0 0
1 0 0
1 0 0
4.57771e-05 0.00471504 0.00306706
0.000167849 0.0041352 0.0027924
0.000427253 0.00357061 0.00248722
0.00155642 0.00334173 0.00181582
0.00340276 0.00303655 0.00102235
0.00852979 0.00311284 0.000671397
0.019028 0.00332647 0.000946059
0.0437324 0.00444038 0.00109865
0.0847791 0.00553903 0.00143435
0.120073 0.00556954 0.00115969
0.167895 0.000488289 0.000137331
0.239155 0 0
0.331991 0 0
0.438911 0 0
0.549523 0 0
0.659785 0 0
0.765255 0 0
0.856184 0 0
0.935592 0 0
0.993454 0 0
1 0 0
1 0 0
1 0 0
1 0 0
1 0 0
1 0 0
1 0 0
1 0 0
1 0 0
1 0 0
1 0 0
1 0 0
1 0 0
0 0.00947585 0.00471504
0 0.00833143 0.00428779
0 0.00700389 0.00383001
0.000350958 0.00607309 0.00288396
0.00131228 0.00572213 0.00184634
0.00721752 0.00560006 0.000885023
0.0178378 0.00531014 0.000610361
0.0411383 0.00505074 0.000762951
0.0815442 0.0059968 0.000686656
0.117968 0.00627146 0.000823987
0.164324 0.000762951 0.000213626
0.234455 0 0
0.326696 0 0
0.433417 0 0
0.544091 0 0
0.655161 0 0
0.760204 0 0
0.851545 0 0
0.931716 0 0
0.992065 0 0
1 0 0
1 0 0
1 0 0
1 0 0
1 0 0
1 0 0
1 0 0
1 0 0
1 0 0
1 0 0
1 0 0
1 0 0
1 0 0
0 0.017731 0.0074464
0 0.0158083 0.00674449
0 0.0146029 0.00628672
6.10361e-05 0.0133059 0.00576791
0.000289921 0.0118257 0.00494392
0.00404364 0.0108339 0.00285344
0.0156558 0.00965896 0.000610361
0.0389105 0.0087129 0.000228885
0.0786145 0.00889601 0.000167849
0.114763 0.00773632 3.0518e-05
0.160189 0.00166323 0.000106813
0.229007 0 0
0.320439 0 0
0.42707 0 0
0.538231 0 0
0.648539 0 0
0.754391 0 0
0.84654 0 0
0.927413 0 0
0.990707 0 0
1 0 0
1 0 0
1 0 0
1 0 0
1 0 0
1 0 0
1 0 0
1 0 0
1 0 0
1 0 0
1 0 0
1 0 0
1 0 0
0 0.0336767 0.0130312
0 0.0315557 0.0121157
0 0.029572 0.0113375
0 0.0272221 0.0104677
0 0.0240177 0.00933852
0.000885023 0.0211643 0.00770581
0.00732433 0.0195773 0.00369268
0.0345006 0.0185245 0.000274662
0.076112 0.0166323 1.5259e-05
0.112978 0.0124056 0
0.156283 0.00407416 0
0.222095 0 0
0.313329 0 0
0.41915 0 0
0.530221 0 0
0.640558 0 0
0.74725 0 0
0.84033 0 0
0.922271 0 0
0.988785 0 0
1 0 0
1 0 0
1 0 0
1 0 0
1 0 0
1 0 0
1 0 0
1 0 0
1 0 0
1 0 0
1 0 0
1 0 0
1 0 0
0 0.0634012 0.0220951
0 0.0599527 0.020737
0 0.056611 0.0191501
0 0.0530404 0.0174258
0 0.0482185 0.0156558
0 0.0426032 0.0141146
0.000137331 0.0364385 0.0131533
0.0161746 0.0368963 0.00550851
0.0710765 0.0346532 0.000167849
0.112276 0.0270085 0
0.153994 0.0133516 0
0.217197 0.000167849 0
0.304173 0 0
0.409033 0 0
0.520638 0 0
0.6309 0 0
0.738994 0 0
0.833722 0 0
0.915694 0 0
0.98645 0 0
0.999954 0 0
1 0 0
1 0 0
1 0 0
1 0 0
1 0 0
1 0 0
1 0 0
1 0 0
1 0 0
1 0 0
1 0 0
1 0 0
0 0.0972 0.0342565
0 0.0949569 0.032517
0 0.0928054 0.0308843
0 0.0903029 0.0290379
0 0.0870527 0.0263676
0 0.0805676 0.0228122
0 0.0716259 0.021088
0.00123598 0.0632792 0.0187533
0.0402686 0.0666972 0.00712596
0.109438 0.0612345 0.000106813
0.154864 0.0394598 0
0.216602 0.00450141 0
0.299947 0 0
0.400031 0 0
0.509316 0 0
0.619883 0 0
0.728649 0 0
0.824613 0 0
0.907759 0 0
0.979294 0 0
0.99968 0 0
1 0 0
1 0 0
1 0 0
1 0 0
1 0 0
1 0 0
1 0 0
1 0 0
1 0 0
1 0 0
1 0 0
1 0 0
0 0.12903 0.0519722
0 0.126177 0.0502785
0 0.123613 0.0484932
0 0.12079 0.0461585
0 0.117189 0.0432593
0 0.112337 0.0393988
0 0.106004 0.0340429
0 0.0979934 0.0310216
0.00550851 0.0926833 0.027039
0.0798047 0.0971695 0.0081178
0.154894 0.0894636 0
0.222873 0.0432136 0
0.301747 0.000671397 0
0.396353 0 0
0.502251 0 0
0.608957 0 0
0.715816 0 0
0.811505 0 0
0.896849 0 0
0.971023 0 0
0.999435 0 0
1 0 0
1 0 0
1 0 0
1 0 0
1 0 0
1 0 0
1 0 0
1 0 0
1 0 0
1 0 0
1 0 0
1 0 0
0 0.180697 0.0708476
0 0.177371 0.0689097
0 0.173281 0.0670024
0 0.168856 0.0650034
0 0.163302 0.0624857
0 0.156313 0.0587015
0 0.148135 0.053193
0 0.138415 0.046479
0 0.125292 0.0446174
0.00756847 0.118318 0.0385138
0.112795 0.128634 0.00852979
0.225254 0.118074 1.5259e-05
0.318456 0.0527657 0
0.408057 0 0
0.503273 0 0
0.605249 0 0
0.70631 0 0
0.799481 0 0
0.884535 0 0
0.95877 0 0
0.998779 0 0
1 0 0
1 0 0
1 0 0
1 0 0
1 0 0
1 0 0
1 0 0
1 0 0
1 0 0
1 0 0
1 0 0
1 0 0
0 0.252064 0.0896925
0 0.247044 0.087953
0 0.241932 0.0860456
0 0.236576 0.0840314
0 0.229938 0.0817121
0 0.222049 0.0788281
0 0.212573 0.0736248
0 0.2 0.0645304
0 0.183658 0.0550088
0 0.163775 0.0606546
0.013489 0.157244 0.0472572
0.159838 0.17528 0.00166323
0.31664 0.16173 0
0.425803 0.0923629 0
0.521874 0.00189212 0
0.617624 0 0
0.710842 0 0
0.805219 0 0
0.880812 0 0
0.948363 0 0
0.996643 0 0
1 0 0
1 0.00115969 0
1 0 0
1 0 0
1 0 0
1 0 0
1 0 0
1 0 0
1 0 0
1 0 0
1 0 0
1 0 0
0 0.337621 0.108095
0 0.333089 0.106416
0 0.327932 0.104707
0 0.322087 0.102754
0 0.31548 0.100481
0 0.306676 0.0974289
0 0.295079 0.0930648
0 0.280064 0.0860151
0 0.262226 0.0737926
0 0.240269 0.0634623
0 0.21323 0.0786755
0.0143435 0.211383 0.0453498
0.227619 0.240757 0.000564584
0.422538 0.23064 0
0.541085 0.176684 0
0.637247 0.057969 0
0.722728 0.000579843 0
0.804685 0 0
0.883253 0 0
0.95314 0 0
0.998123 0 0
1 0.00947585 0
1 0.0359045 0
1 0.0937514 0
1 0.0785077 0
1 0.0556344 0
1 0.0395056 0
1 0.0295415 0
1 0.0286259 0
1 0.0294194 0
1 0.0306859 0
1 0.0323491 0
1 0.0344396 0
0 0.435737 0.131975
0 0.430289 0.129503
0 0.42501 0.127306
0 0.419913 0.125063
0 0.413001 0.122515
0 0.40441 0.119127
0 0.392981 0.114687
0 0.378119 0.107851
0 0.358038 0.0973831
0 0.333455 0.0811017
0 0.303624 0.0789197
0 0.269978 0.0944228
0.0427253 0.280827 0.0340276
0.310567 0.328908 0
0.54168 0.334478 0
0.655802 0.286732 0
0.740505 0.220996 0
0.812772 0.116503 0
0.881758 0.0658427 0
0.946609 0.0151827 0
0.99765 0.0522011 0
1 0.109545 0
1 0.178927 0
1 0.216297 0
1 0.22414 0
1 0.216632 0
1 0.210361 0
1 0.207874 0
1 0.206363 0
1 0.206363 0
1 0.206302 0
1 0.20705 0
1 0.207614 0
0 0.530205 0.164782
0 0.525856 0.162142
0 0.52224 0.159731
0 0.51696 0.156741
0 0.510353 0.15285
0 0.50222 0.148577
0 0.492668 0.143374
0 0.481376 0.137041
0 0.464469 0.126207
0 0.439811 0.109941
0 0.410285 0.088304
0 0.372992 0.0964981
4.57771e-05 0.329732 0.111009
0.0895705 0.358968 0.0153964
0.390646 0.42208 0
0.638148 0.443 0
0.744305 0.403647 0
0.829953 0.365286 0
0.894194 0.318608 0
0.947219 0.281193 0
0.993362 0.269047 0
1 0.280354 0
1 0.302373 0
1 0.315923 0
1 0.321004 0
1 0.312154 0
1 0.306035 0
1 0.301259 0
1 0.299504 0
1 0.299199 0
1 0.300084 0
1 0.300252 0
1 0.299916 0
0 0.628244 0.213474
0 0.62359 0.209995
0 0.618769 0.20679
0 0.612985 0.202655
0 0.605798 0.197696
0 0.596551 0.19118
0 0.586358 0.184054
0 0.573236 0.174823
0 0.557748 0.163012
0 0.538155 0.147295
0 0.512734 0.124102
0 0.48011 0.101823
0 0.438697 0.116869
0 0.401221 0.122789
0.1411 0.446616 0.00247196
0.473411 0.513787 0
0.720088 0.542504 0
0.812238 0.506432 0
0.889067 0.47808 0
0.948425 0.448371 0
0.992599 0.42707 0
1 0.420233 0
1 0.425879 0
1 0.428122 0
1 0.427131 0
1 0.416754 0
1 0.409613 0
1 0.404852 0
1 0.402701 0
1 0.401923 0
1 0.400748 0
1 0.400153 0
1 0.399893 0
0 0.721553 0.280125
0 0.717494 0.275853
0 0.712932 0.27097
0 0.707286 0.265187
0 0.700618 0.259007
0 0.693202 0.252247
0 0.683711 0.2439
0 0.671229 0.232319
0 0.655909 0.218662
0 0.637263 0.200443
0 0.613901 0.175814
0 0.583322 0.14168
0 0.545342 0.126848
0 0.497948 0.141405
0.00332647 0.473777 0.131685
0.258595 0.534432 0
0.560723 0.598444 0
0.789014 0.626001 0
0.872862 0.597162 0
0.938094 0.57467 0
0.990372 0.558389 0
1 0.542275 0
1 0.535714 0
1 0.531807 0
1 0.527825 0
1 0.520012 0
1 0.513069 0
1 0.50811 0
1 0.505577 0
1 0.504021 0
1 0.503426 0
1 0.502693 0
1 0.501945 0
0 0.810605 0.373098
0 0.806195 0.367071
0 0.801846 0.361151
0 0.796841 0.354253
0 0.790448 0.345464
0 0.781918 0.333761
0 0.771908 0.321553
0 0.75996 0.307332
0 0.747112 0.291905
0 0.731258 0.272847
0 0.713466 0.248798
0 0.688029 0.213901
0 0.65565 0.170184
0 0.616724 0.167727
0 0.566003 0.175738
0.0333257 0.561395 0.137301
0.36553 0.614084 0.00819409
0.638315 0.667262 0
0.841611 0.69453 0
0.923247 0.675593 0
0.976165 0.65716 0
1 0.645945 0
1 0.63801 0
1 0.63006 0
1 0.622492 0
1 0.615076 0
1 0.608667 0
1 0.603983 0
1 0.600748 0
1 0.599863 0
1 0.599069 0
1 0.59826 0
1 0.59794 0
0 0.893584 0.502098
0 0.890242 0.494743
0 0.886503 0.487892
0 0.882887 0.481071
0 0.877607 0.471382
0 0.870848 0.458915
0 0.862455 0.443442
0 0.851286 0.424384
0 0.838376 0.402853
0 0.821515 0.374044
0 0.801144 0.341833
0 0.778225 0.302495
0 0.752056 0.257023
0 0.721019 0.221393
0 0.681224 0.217716
0 0.634607 0.216007
0.169329 0.651255 0.157717
0.485771 0.693629 0.0237888
0.71516 0.732021 0
0.889876 0.754574 0
0.962615 0.740124 0
0.997421 0.724498 0
1 0.714778 0
1 0.709758 0
1 0.704372 0
1 0.69955 0
1 0.693782 0
1 0.689387 0
1 0.687205 0
1 0.686305 0
1 0.685359 0
1 0.685283 0
1 0.68455 0
0.134493 0.963821 0.675883
0.0882429 0.961471 0.668177
0.0405737 0.958541 0.658808
0 0.95523 0.648692
0 0.950683 0.636088
0 0.945541 0.62153
0 0.938384 0.601083
0 0.929061 0.574975
0 0.917098 0.546471
0 0.903197 0.513588
0 0.887282 0.478019
0 0.868147 0.436011
0 0.844663 0.385138
0 0.816999 0.32697
0 0.781994 0.297551
0 0.740597 0.282185
0.0371557 0.70573 0.264439
0.360571 0.727062 0.203159
0.590204 0.756619 0.0439002
0.780301 0.783154 0.00321965
0.924437 0.800275 0
0.988922 0.792554 0
0.999954 0.781582 0
1 0.774365 0
1 0.769436 0
1 0.764553 0
1 0.759762 0
1 0.755993 0
1 0.753796 0
1 0.753307 0
1 0.752728 0
1 0.75201 0
1 0.751431 0
0.280064 0.974411 0.708873
0.25478 0.972885 0.704021
0.229908 0.971389 0.699245
0.205951 0.96997 0.694652
0.173495 0.968048 0.688411
0.138354 0.966018 0.681666
0.0909285 0.963272 0.672541
0.0376135 0.959869 0.661234
0.0253452 0.954894 0.64622
0.0188144 0.948547 0.626749
0.0175021 0.940734 0.60235
0.00985733 0.931624 0.573495
0.00962844 0.91574 0.528496
0 0.893553 0.466911
0 0.866682 0.415961
0 0.833768 0.386831
0.0344701 0.79469 0.362554
0.299092 0.775204 0.327199
0.507301 0.789807 0.259174
0.684016 0.807614 0.126955
0.835523 0.824857 0.0204623
0.949722 0.837644 0
0.997009 0.833768 0
1 0.825849 0
1 0.820325 0
1 0.8159 0
1 0.812146 0
1 0.808927 0
1 0.807431 0
1 0.806668 0
1 0.806012 0
1 0.805539 0
1 0.80502 0
0.423865 0.983734 0.73933
0.422019 0.983566 0.738399
0.420096 0.983413 0.737453
0.417624 0.983215 0.73637
0.416617 0.983154 0.735729
0.41709 0.98323 0.735576
0.419776 0.983551 0.736202
0.419455 0.983719 0.736339
0.387411 0.981918 0.730282
0.325429 0.977981 0.717098
0.267536 0.97258 0.69839
0.201648 0.966339 0.676249
0.187869 0.957351 0.645197
0.160067 0.945449 0.604761
0.097734 0.931304 0.561181
0.130114 0.907286 0.522866
0.249149 0.877775 0.489448
0.36408 0.844602 0.458854
0.494148 0.839796 0.408194
0.636454 0.846983 0.342306
0.768963 0.854215 0.241382
0.876585 0.861372 0.0714885
0.96611 0.870268 0.0147707
0.998337 0.870527 0.000366217
1 0.865064 0
1 0.860288 0
1 0.856718 0
1 0.854063 0
1 0.852262 0
1 0.851499 0
1 0.850889 0
1 0.850278 0
1 0.850278 0
0.432151 0.984421 0.743481
0.429801 0.984253 0.742473
0.42829 0.984115 0.741634
0.42652 0.983978 0.740719
0.423682 0.983719 0.739269
0.419867 0.983413 0.737438
0.416754 0.983169 0.735805
0.418875 0.983398 0.735973
0.423117 0.983886 0.737011
0.42948 0.984421 0.73814
0.436118 0.984573 0.737636
0.435401 0.983551 0.732876
0.414359 0.979706 0.719036
0.386114 0.9729 0.695094
0.374487 0.964401 0.664881
0.398795 0.951232 0.639094
0.454978 0.934691 0.621759
0.498817 0.911208 0.595392
0.547097 0.889204 0.554253
0.635889 0.88835 0.490379
0.738155 0.889326 0.419409
0.832227 0.891539 0.338903
0.91754 0.895521 0.216831
0.981033 0.899977 0.0589151
0.999435 0.901015 0.0116732
1 0.897688 0.000915541
1 0.893996 0
1 0.891142 0
1 0.889433 0
1 0.888747 0
1 0.888197 0
1 0.888014 0
1 0.887678 0
0.440253 0.985092 0.747234
0.437903 0.984924 0.746273
0.435492 0.98471 0.745159
0.432868 0.984482 0.743954
0.429923 0.984253 0.742519
0.426566 0.983963 0.74078
0.422431 0.983627 0.738674
0.417823 0.98323 0.736233
0.419348 0.983429 0.736065
0.424323 0.983932 0.737133
0.43447 0.984466 0.738018
0.442832 0.984283 0.736156
0.4542 0.983642 0.732754
0.484642 0.98407 0.733776
0.503517 0.982147 0.726909
0.517998 0.97438 0.711528
0.558663 0.963455 0.703487
0.599939 0.950134 0.69485
0.6374 0.934386 0.681666
0.679149 0.927184 0.632227
0.741787 0.92372 0.564355
0.811276 0.921065 0.491997
0.883162 0.920668 0.414572
0.944686 0.921324 0.326207
0.98677 0.923186 0.214191
0.999847 0.924941 0.0999466
0.999969 0.924163 0.0356756
1 0.922637 0.0059205
1 0.921141 0.0019379
1 0.920439 0.00135805
1 0.920211 0.00129702
1 0.919768 0.00120546
1 0.919356 0.000946059
0.44419 0.985382 0.74931
0.443687 0.985351 0.748867
0.442176 0.985245 0.748119
0.439582 0.985046 0.746944
0.435767 0.984726 0.745296
0.432227 0.984436 0.743572
0.427741 0.98407 0.74136
0.422385 0.983612 0.738659
0.41735 0.9832 0.735958
0.422156 0.983642 0.73666
0.429801 0.984085 0.737346
0.443168 0.984375 0.737179
0.454047 0.983795 0.733898
0.481041 0.983963 0.733852
0.508919 0.983337 0.731472
0.549065 0.981384 0.732754
0.609476 0.977584 0.745388
0.658244 0.970596 0.752529
0.696803 0.96054 0.753094
0.729732 0.954681 0.733104
0.767636 0.953216 0.686748
0.812238 0.94818 0.62031
0.86685 0.944991 0.550423
0.919936 0.943297 0.479561
0.964675 0.942153 0.405203
0.996017 0.941634 0.330922
0.99884 0.941787 0.256947
0.999756 0.941588 0.204746
0.999985 0.941146 0.181155
0.999985 0.940749 0.174044
0.999969 0.940475 0.169284
0.999969 0.9402 0.164126
0.999985 0.939956 0.159045
0.442802 0.985183 0.749432
0.443458 0.985275 0.749401
0.444144 0.985367 0.749355
0.443732 0.985351 0.748867
0.441505 0.985199 0.747768
0.436759 0.984817 0.745754
0.431952 0.984405 0.743435
0.42652 0.983963 0.740764
0.420706 0.983459 0.737713
0.421103 0.983474 0.736522
0.42858 0.983932 0.737285
0.440116 0.984192 0.737011
0.454658 0.983978 0.734997
0.478294 0.983886 0.733898
0.507515 0.983505 0.732341
0.545617 0.981674 0.732769
0.608331 0.978531 0.746746
0.668299 0.975387 0.764492
0.7252 0.973312 0.786999
0.763806 0.97055 0.789471
0.794263 0.971405 0.759457
0.825086 0.968933 0.713436
0.863844 0.965301 0.654643
0.906447 0.962158 0.591699
0.946059 0.960082 0.529931
0.977707 0.958556 0.471
0.992279 0.957519 0.418708
0.997742 0.956664 0.384863
0.999741 0.956161 0.367056
0.999847 0.955505 0.360967
0.999847 0.955139 0.357458
0.999847 0.954833 0.35465
0.999847 0.954513 0.351583
0.441718 0.985031 0.749493
0.442435 0.985122 0.749447
0.443107 0.985229 0.749416
0.44387 0.985336 0.749371
0.443961 0.985367 0.749004
0.440589 0.985122 0.747433
0.434989 0.984665 0.744961
0.429725 0.984222 0.742306
0.423804 0.983734 0.739284
0.420035 0.983368 0.736568
0.427878 0.983841 0.737255
0.43743 0.983993 0.736721
0.454292 0.984054 0.735622
0.475959 0.98381 0.733883
0.505821 0.983536 0.732677
0.544945 0.982101 0.7337
0.605402 0.978882 0.746395
0.664378 0.975509 0.763027
0.722103 0.973541 0.785885
0.771786 0.974716 0.805066
0.810605 0.981674 0.800061
0.837659 0.981582 0.7682
0.869688 0.980407 0.727611
0.901839 0.976913 0.673289
0.934691 0.973526 0.615366
0.96437 0.971771 0.564294
0.983886 0.970535 0.52079
0.99321 0.96936 0.49131
0.997696 0.968734 0.475273
0.998322 0.968261 0.470314
0.998413 0.967865 0.467369
0.99852 0.967529 0.464759
0.998611 0.967239 0.462684
0.441062 0.984939 0.749523
0.441703 0.985031 0.749493
0.44242 0.985122 0.749447
0.443198 0.985229 0.749416
0.44416 0.985382 0.74934
0.442802 0.98529 0.748409
0.437812 0.984894 0.746151
0.431708 0.984405 0.743313
0.425757 0.983886 0.740246
