luts/changyun_kodaklike/kodaEI502.cube
TITLE "Generated by Resolve"
LUT_3D_SIZE 33
0.000656138 0.0034638 0.00364691
0.00146487 0.00285344 0.00289921
0.0037232 0.00289921 0.00231937
0.00665293 0.00329595 0.00178531
0.0126192 0.00434882 0.00166323
0.0244602 0.00672923 0.00285344
0.045716 0.012253 0.0053254
0.078294 0.021088 0.00807202
0.103166 0.0345312 0.0129549
0.130694 0.051545 0.0170901
0.171115 0.0598154 0.0204013
0.227039 0.0534066 0.0256199
0.29868 0.0173495 0.026978
0.383673 0 0.0232548
0.47631 0 0.0123903
0.570184 0 0
0.658701 0 0
0.742916 0 0
0.819196 0 0
0.881971 0 0
0.935149 0 0
0.952163 0 0
0.969085 0 0
0.969085 0 0
0.969085 0 0
0.969085 0 0
0.969085 0 0
0.969085 0 0
0.969085 0 0
0.969085 0 0
0.969085 0 0
0.969085 0 0
0.969085 0 0
9.15541e-05 0.00621042 0.00471504
0.000411994 0.00547799 0.00390631
0.00231937 0.00523384 0.00314336
0.00584421 0.00550851 0.00238041
0.0112612 0.00614939 0.0018616
0.0229191 0.00750744 0.00254826
0.0439765 0.0117952 0.00512703
0.0759594 0.0204471 0.00788891
0.101884 0.0336767 0.0126497
0.128939 0.0509651 0.0167849
0.169207 0.0597543 0.0202029
0.22446 0.0539254 0.0254673
0.295628 0.0192569 0.026978
0.380362 0 0.0234836
0.472923 0 0.0127718
0.567285 0 0
0.656199 0 0
0.740337 0 0
0.816983 0 0
0.879805 0 0
0.933257 0 0
0.951446 0 0
0.969085 0 0
0.969085 0 0
0.969085 0 0
0.969085 0 0
0.969085 0 0
0.969085 0 0
0.969085 0 0
0.969085 0 0
0.969085 0 0
0.969085 0 0
0.969085 0 0
0 0.015259 0.00770581
0 0.0123293 0.00614939
0.000991836 0.00955215 0.00468452
0.00489815 0.00758373 0.00311284
0.0101778 0.00801099 0.00224308
0.0214847 0.00929274 0.00218204
0.0418555 0.0130007 0.00453193
0.0737011 0.0201419 0.00769055
0.100725 0.0329137 0.0123751
0.127642 0.0505226 0.0165713
0.167346 0.0594644 0.0201419
0.222538 0.0543069 0.0253605
0.29305 0.0208743 0.0269932
0.377554 0 0.0236667
0.470039 0 0.0131075
0.564538 0 0
0.653559 0 0
0.737621 0 0
0.814771 0 0
0.877852 0 0
0.931456 0 0
0.950423 0 0
0.969085 0 0
0.969085 0 0
0.969085 0 0
0.969085 0 0
0.969085 0 0
0.969085 0 0
0.969085 0 0
0.969085 0 0
0.969085 0 0
0.969085 0 0
0.969085 0 0
0 0.0269017 0.0115053
0 0.0242313 0.00987259
0.000213626 0.0214237 0.00833143
0.00233463 0.0189059 0.0065156
0.00640879 0.0158541 0.00436408
0.0194705 0.0133059 0.00256352
0.0395209 0.0147097 0.00381476
0.0707713 0.0216068 0.00720226
0.0994278 0.0328069 0.0117647
0.125719 0.0498817 0.0162356
0.165377 0.0591592 0.0200656
0.219699 0.0548867 0.0252079
0.290013 0.0227817 0.0270085
0.374243 0 0.0238956
0.466819 0 0.0134737
0.561273 0 0.00015259
0.650752 0 0
0.734737 0 0
0.812161 0 0
0.875578 0 0
0.929351 0 0
0.949401 0 0
0.969085 0 0
0.969085 0 0
0.969085 0 0
0.969085 0 0
0.969085 0 0
0.969085 0 0
0.969085 0 0
0.969085 0 0
0.969085 0 0
0.969085 0 0
0.969085 0 0
0 0.0500038 0.0189975
0 0.04477 0.0164645
0 0.0396887 0.0140841
6.10361e-05 0.0339818 0.0110475
0.00109865 0.0301671 0.00839246
0.0140536 0.0272526 0.00569162
0.0354314 0.0249485 0.0037232
0.0674296 0.0256199 0.00624094
0.0979477 0.0343786 0.0105898
0.12369 0.0504158 0.0156863
0.162799 0.0587625 0.0199588
0.216739 0.0554818 0.0250248
0.286503 0.024979 0.0270085
0.370443 0 0.024155
0.46276 0 0.0139467
0.557122 0 0.000610361
0.647074 0 0
0.730953 0 0
0.809155 0 0
0.872953 0 0
0.926711 0 0
0.948272 0 0
0.969085 0 0
0.969085 0 0
0.969085 0 0
0.969085 0 0
0.969085 0 0
0.969085 0 0
0.969085 0 0
0.969085 0 0
0.969085 0 0
0.969085 0 0
0.969085 0 0
0 0.0818189 0.0308995
0 0.0785687 0.0277104
0 0.0737163 0.0255436
1.5259e-05 0.068101 0.0227817
6.10361e-05 0.0612802 0.0191501
0.00675975 0.0534676 0.014313
0.027863 0.04477 0.00755322
0.0630198 0.0410163 0.00349432
0.0958572 0.0446479 0.00810254
0.12108 0.0528878 0.014725
0.159426 0.0606546 0.0196841
0.212711 0.0564584 0.0247349
0.281788 0.027924 0.0270237
0.365332 0 0.024506
0.457496 0 0.0145418
0.5523 0 0.00111391
0.642771 0 0
0.726558 0 0
0.805127 0 0
0.869413 0 0
0.923659 0 0
0.946639 0 0
0.969085 0 0
0.969085 0 0
0.969085 0 0
0.969085 0 0
0.969085 0 0
0.969085 0 0
0.969085 0 0
0.969085 0 0
0.969085 0 0
0.969085 0 0
0.969085 0 0
0 0.105776 0.053727
0 0.102876 0.0494392
0 0.0999008 0.0460059
0 0.0968185 0.0428168
0 0.0928817 0.037995
0.00128176 0.0882124 0.031693
0.0111086 0.0830549 0.0232242
0.0511788 0.0745861 0.0128786
0.0933394 0.0677806 0.00640879
0.120073 0.0663767 0.0109407
0.15668 0.0686809 0.0174411
0.20734 0.0598306 0.0234379
0.275792 0.0329595 0.026566
0.359213 0 0.024918
0.451392 0 0.0152438
0.54583 0 0.00181582
0.636744 0 0
0.720653 0 0
0.800046 0 0
0.865187 0 0
0.919554 0 0
0.944686 0 0
0.967437 0 0
0.969085 0 0
0.969085 0 0
0.969085 0 0
0.969085 0 0
0.969085 0 0
0.969085 0 0
0.969085 0 0
0.969085 0 0
0.969085 0 0
0.969085 0 0
0 0.134386 0.0746777
0 0.131014 0.0721599
0 0.128038 0.0692607
0 0.124773 0.0652934
0 0.121172 0.0612192
0 0.116487 0.0563516
0 0.110582 0.0494392
0.0298161 0.103944 0.0382086
0.0881208 0.0977646 0.02121
0.120729 0.0921645 0.00682078
0.15639 0.0856184 0.0113985
0.204288 0.0767376 0.0199893
0.269032 0.0466621 0.0244755
0.350561 0 0.0252079
0.44303 0 0.016022
0.538186 0 0.00262455
0.629648 0 0
0.713619 0 0
0.794018 0 0
0.859922 0 0
0.914443 0 0
0.942214 0 0
0.965087 0 0
0.969085 0 0
0.969085 0 0
0.969085 0 0
0.969085 0 0
0.969085 0 0
0.969085 0 0
0.969085 0 0
0.969085 0 0
0.969085 0 0
0.969085 0 0
0 0.174319 0.090959
0 0.17055 0.0892653
0 0.167147 0.0875105
0 0.162982 0.085359
0 0.158053 0.0826276
0 0.15285 0.078706
0 0.14583 0.0729534
0 0.137942 0.0654002
0.0642557 0.128481 0.0527962
0.119921 0.118547 0.0315404
0.159274 0.108049 0.0107118
0.206348 0.098436 0.0103456
0.267247 0.07776 0.0179751
0.34432 0.0103914 0.020325
0.433539 0 0.0153201
0.527794 0 0.00257877
0.620233 0 0
0.705562 0 0
0.786267 0 0
0.853101 0 0
0.908324 0 0
0.939361 0 0
0.962325 0 0
0.969085 0 0
0.969085 0 0
0.969085 0 0
0.969085 0 0
0.969085 0 0
0.969085 0 0
0.969085 0 0
0.969085 0 0
0.969085 0 0
0.969085 0 0
0 0.227527 0.105379
0 0.222934 0.103853
0 0.218982 0.102434
0 0.214481 0.100816
0 0.209171 0.0988022
0 0.202197 0.0959945
0 0.19379 0.0923781
0 0.184512 0.087068
0.00540169 0.173877 0.0792554
0.110567 0.16112 0.0644388
0.166644 0.145251 0.0416876
0.214878 0.128099 0.018204
0.272496 0.110658 0.00773632
0.344152 0.0711681 0.00756847
0.428351 0.00138857 0.00715648
0.519005 0 0.000457771
0.609751 0 0
0.693843 0 0
0.775601 0 0
0.845472 0 0
0.901335 0 0
0.935882 0 0
0.959136 0 0
0.969085 0 0
0.969085 0 0
0.969085 0 0
0.969085 0 0
0.969085 0 0
0.969085 0 0
0.969085 0 0
0.969085 0 0
0.969085 0 0
0.969085 0 0
0 0.303181 0.122118
0 0.297673 0.120134
0 0.292348 0.118669
0 0.286305 0.11696
0 0.278843 0.114778
0 0.269841 0.112047
0 0.259297 0.108537
0 0.24744 0.103944
0 0.233783 0.0979324
0.0129244 0.219257 0.0905928
0.157458 0.202884 0.0758373
0.230289 0.17969 0.0480964
0.292622 0.155123 0.020737
0.358541 0.127123 0.00268559
0.433021 0.0741436 3.0518e-05
0.517372 7.62951e-05 0
0.603143 0 0
0.684199 0 0
0.764035 0 0
0.832898 0 0
0.890593 0 0
0.930541 0 0
0.954833 0 0
0.969085 0 0
0.969085 0 0
0.969085 0 0
0.969085 0 0
0.969085 0 0
0.969085 0 0
0.969085 0 0
0.969085 0 0
0.969085 0 0
0.969085 0 0
0 0.396063 0.142901
0 0.389639 0.140642
0 0.38378 0.138567
0 0.377264 0.136202
0 0.36939 0.133486
0 0.36025 0.130343
0 0.348241 0.126635
0 0.334173 0.122026
0 0.31722 0.11603
0 0.298741 0.107942
0.0547646 0.278767 0.0983749
0.221775 0.257313 0.0831311
0.3093 0.225498 0.0469215
0.380362 0.191806 0.0087892
0.452705 0.153292 0
0.531044 0.0960861 0
0.609537 0.00131228 0
0.692317 0 0
0.76202 0 0
0.824369 0 0
0.881056 0 0
0.924468 0 0
0.947814 0 0
0.966064 0 0
0.9664 0 0
0.966674 0 0
0.966873 0 0
0.967132 0 0
0.967315 0 0
0.967376 0 0
0.967407 0 0
0.967437 0 0
0.967468 0 0
0 0.495674 0.17203
0 0.490364 0.169528
0 0.485069 0.167071
0 0.479042 0.164248
0 0.471565 0.160784
0 0.462379 0.15642
0 0.450767 0.150927
0 0.435294 0.144442
0 0.417639 0.13756
0 0.397879 0.128679
0 0.37525 0.117464
0.125277 0.350698 0.103517
0.299947 0.324254 0.081239
0.400198 0.286336 0.0269474
0.474845 0.243427 0
0.548012 0.200183 0
0.621439 0.152728 0
0.696208 0.0959029 0
0.76878 0.0415503 0
0.832807 0 0
0.886763 0.00578317 0
0.927352 0.0074464 0
0.946258 0.0180362 0
0.963165 0 0
0.965179 0 0
0.96524 0 0
0.965301 0 0
0.965331 0 0
0.965362 0 0
0.965377 0 0
0.965393 0 0
0.965393 0 0
0.965408 0 0
0 0.595544 0.2177
0 0.590539 0.213626
0 0.585855 0.210285
0 0.58085 0.20705
0 0.574456 0.203143
0 0.566476 0.198001
0 0.556329 0.191455
0 0.543328 0.183185
0 0.525475 0.17258
0 0.503929 0.159869
0 0.481453 0.146395
0.00297551 0.458808 0.130205
0.240482 0.434485 0.110002
0.398459 0.407767 0.0719615
0.51223 0.370657 0.00144961
0.581643 0.320256 0
0.642954 0.269856 0
0.707118 0.230365 0
0.770153 0.20058 0
0.829389 0.186313 0
0.879591 0.172 0
0.92047 0.171069 0
0.948394 0.170748 0
0.967254 0.173007 0
0.973846 0.165713 0
0.974227 0.153841 0
0.974502 0.145205 0
0.974685 0.13962 0
0.974807 0.136034 0
0.974838 0.134768 0
0.974868 0.134051 0
0.974899 0.133333 0
0.974914 0.132616 0
0 0.676417 0.275547
0 0.673136 0.271992
0 0.669856 0.268421
0 0.666087 0.264378
0 0.661402 0.259236
0 0.655436 0.253605
0 0.648798 0.24712
0 0.640467 0.239277
0 0.628061 0.228367
0 0.609277 0.212634
0 0.589487 0.195102
0 0.565713 0.175845
0.115679 0.540078 0.152987
0.338018 0.510811 0.123888
0.4907 0.486412 0.0757916
0.60238 0.451133 0
0.669474 0.403922 0
0.730724 0.361807 0
0.786572 0.3299 0
0.831373 0.302464 0
0.874525 0.287739 0
0.913619 0.284291 0
0.944305 0.279835 0
0.962478 0.274281 0
0.9729 0.268116 0
0.97293 0.257389 0
0.972915 0.249195 0
0.972915 0.243671 0
0.972915 0.240833 0
0.972915 0.23949 0
0.972915 0.238819 0
0.972915 0.238148 0
0.972915 0.237476 0
0 0.749554 0.350668
0 0.745892 0.345922
0 0.742458 0.341451
0 0.738766 0.336553
0 0.733867 0.330114
0 0.727626 0.321813
0 0.719997 0.311727
0 0.711147 0.301045
0 0.701091 0.288746
0 0.688975 0.274952
0 0.674037 0.258045
0 0.656977 0.237919
0 0.637186 0.215351
0.276524 0.613642 0.188571
0.440162 0.585931 0.153903
0.576822 0.561196 0.109758
0.67628 0.528771 0
0.733349 0.485893 0
0.786343 0.448173 0
0.834287 0.419471 0
0.876692 0.400168 0
0.91281 0.389059 0
0.946166 0.386297 0
0.962692 0.379385 0
0.975448 0.371466 0
0.974395 0.359426 0
0.973617 0.350484 0
0.973098 0.344457 0
0.973037 0.341619 0
0.973022 0.339971 0
0.973022 0.339315 0
0.973007 0.338659 0
0.973007 0.338338 0
0.0601968 0.809979 0.431601
0.0402075 0.807202 0.426886
0.0209812 0.804395 0.422065
0 0.80119 0.416587
0 0.796857 0.409598
0 0.791974 0.401907
0 0.786191 0.393042
0 0.778607 0.381262
0 0.769757 0.367819
0 0.759274 0.352422
0 0.746105 0.333577
0 0.729198 0.310338
0.0106508 0.711955 0.28632
0.227573 0.691997 0.258671
0.397864 0.67042 0.230228
0.534066 0.649592 0.198672
0.650065 0.62884 0.159411
0.735683 0.600488 0.0657664
0.783795 0.562387 0
0.829664 0.5308 0
0.87158 0.505974 0
0.906065 0.488579 0
0.938323 0.478218 0
0.958221 0.470069 0
0.97229 0.464088 0
0.976181 0.456413 0
0.976287 0.449454 0
0.976364 0.445045 0
0.97641 0.442344 0
0.976425 0.441199 0
0.97644 0.440635 0
0.97644 0.44007 0
0.976455 0.43949 0
0.325597 0.863706 0.515221
0.316121 0.860945 0.510246
0.306813 0.858305 0.505409
0.29575 0.855222 0.499718
0.281498 0.851301 0.49247
0.262699 0.846311 0.483055
0.234592 0.840269 0.472175
0.19884 0.833234 0.459648
0.168429 0.825864 0.447288
0.122789 0.817029 0.432609
0.110704 0.807767 0.417319
0.133028 0.795178 0.396475
0.203616 0.7794 0.370535
0.289586 0.76405 0.345724
0.381888 0.744839 0.315343
0.497154 0.719417 0.278279
0.603174 0.6972 0.243091
0.702022 0.680476 0.209171
0.781582 0.662089 0.160342
0.825895 0.631907 0.0190738
0.865248 0.605859 0
0.899153 0.584924 0
0.931273 0.570397 0
0.954879 0.55996 0
0.96878 0.551522 0
0.976364 0.544427 0
0.976318 0.537575 0
0.976349 0.533211 0
0.976364 0.530541 0
0.976379 0.529412 0
0.976379 0.528847 0
0.976379 0.528283 0
0.976379 0.527871 0
0.451865 0.91313 0.597223
0.446403 0.910689 0.592798
0.441444 0.908553 0.589044
0.43592 0.906142 0.584833
0.428672 0.903044 0.579431
0.419516 0.899184 0.572595
0.407355 0.894148 0.563622
0.388388 0.88716 0.550652
0.364981 0.878843 0.534844
0.341253 0.869261 0.516533
0.315328 0.857359 0.494438
0.304692 0.844648 0.470954
0.31696 0.832181 0.448631
0.35346 0.818891 0.425116
0.406592 0.804364 0.398962
0.485618 0.786297 0.36817
0.580713 0.766629 0.335378
0.669779 0.748012 0.303243
0.75108 0.732708 0.271962
0.820417 0.718288 0.235172
0.858854 0.691936 0.144289
0.890364 0.669657 0.00308232
0.921599 0.653315 0
0.949508 0.642023 0
0.964202 0.632776 0
0.976211 0.625925 0
0.97641 0.619715 0
0.976547 0.615442 0
0.976608 0.613245 0
0.976638 0.612207 0
0.976654 0.611688 0
0.976669 0.61117 0
0.976699 0.610651 0
0.552468 0.962219 0.678874
0.547463 0.959686 0.674449
0.542702 0.957275 0.670283
0.537255 0.954559 0.665476
0.530587 0.951263 0.659739
0.521843 0.947005 0.652247
0.510521 0.941558 0.642557
0.495705 0.934585 0.63006
0.477974 0.926329 0.615305
0.459632 0.917159 0.598795
0.442725 0.907256 0.58056
0.429053 0.89601 0.55996
0.421424 0.883116 0.535195
0.427832 0.86923 0.508202
0.452247 0.854597 0.480262
0.492683 0.839292 0.45008
0.566934 0.822568 0.420493
0.645594 0.805112 0.389471
0.720134 0.789212 0.359014
0.789181 0.776074 0.330938
0.848798 0.763363 0.298146
0.884459 0.744945 0.246754
0.914916 0.728954 0.173724
0.94229 0.716731 0.0544594
0.96051 0.707454 0.000549325
0.971847 0.699702 0
0.975418 0.693446 0
0.975189 0.689036 0
0.975067 0.686488 0
0.975006 0.68542 0
0.97499 0.685023 0
0.97496 0.684489 0
0.974929 0.683955 0
0.56495 0.968643 0.690257
0.562676 0.967453 0.688167
0.560494 0.966323 0.686152
0.55819 0.965133 0.684016
0.555093 0.963546 0.681147
0.551339 0.961639 0.677684
0.546624 0.959274 0.673289
0.540536 0.956268 0.667613
0.532387 0.9523 0.660258
0.522225 0.947219 0.650507
0.512795 0.94139 0.63917
0.507561 0.935546 0.627558
0.501305 0.926024 0.609583
0.498024 0.912718 0.58468
0.506844 0.899123 0.558358
0.529793 0.885405 0.531243
0.570428 0.870756 0.502007
0.634501 0.853513 0.46978
0.697795 0.835538 0.434623
0.762051 0.822217 0.407614
0.821012 0.810727 0.382345
0.871244 0.800748 0.35552
0.905882 0.786297 0.317464
0.932738 0.774273 0.270756
0.95433 0.765179 0.227756
0.966598 0.758556 0.187274
0.974304 0.753582 0.153872
0.974487 0.749996 0.138415
0.974594 0.747921 0.129534
0.97464 0.747051 0.12578
0.974655 0.746609 0.123903
0.974685 0.746166 0.122042
0.974701 0.745739 0.120165
0.581628 0.97644 0.704845
0.580804 0.976211 0.704021
0.57995 0.975982 0.703166
0.579141 0.975769 0.702342
0.578592 0.975647 0.701671
0.579385 0.975998 0.702052
0.580423 0.97644 0.702556
0.581643 0.976974 0.703136
0.579187 0.975586 0.70042
0.571298 0.971298 0.692653
0.560296 0.965194 0.680797
0.551675 0.958816 0.668223
0.547341 0.952178 0.655009
0.549142 0.94522 0.641123
0.559365 0.938567 0.62739
0.57113 0.926436 0.603754
0.591073 0.91223 0.575494
0.637049 0.89836 0.549233
0.691585 0.883253 0.520378
0.747127 0.869108 0.491875
0.799359 0.854871 0.461494
0.845014 0.841901 0.43212
0.890898 0.834531 0.41181
0.924849 0.825757 0.391165
0.948043 0.816693 0.359167
0.961196 0.809735 0.333745
0.970642 0.804669 0.314382
0.972076 0.80119 0.304479
0.972091 0.799176 0.299336
0.972091 0.798321 0.297169
0.972107 0.797909 0.296086
0.972107 0.797589 0.295277
0.972107 0.797162 0.294194
0.584802 0.977295 0.708034
0.583947 0.977066 0.707179
0.583215 0.976867 0.706447
0.582269 0.976608 0.705486
0.581201 0.976318 0.704417
0.579782 0.975937 0.702983
0.578546 0.975631 0.701656
0.579782 0.976165 0.702251
0.581353 0.976822 0.702983
0.583566 0.977569 0.703822
0.586389 0.978134 0.703975
0.587869 0.977539 0.701427
0.58735 0.974121 0.693858
0.587533 0.967895 0.681834
0.589578 0.95996 0.665431
0.600946 0.952804 0.650187
0.621637 0.946609 0.636759
0.647715 0.935912 0.615122
0.692271 0.921767 0.589288
0.739452 0.908125 0.563165
0.786847 0.894667 0.535622
0.830243 0.883574 0.511894
0.872602 0.874174 0.490791
0.911177 0.867369 0.471458
0.940673 0.860182 0.456306
0.957397 0.8533 0.438575
0.966567 0.848112 0.422721
0.970687 0.844724 0.412665
0.970748 0.842954 0.408347
0.970794 0.842176 0.406439
0.97081 0.841779 0.405493
0.970825 0.841489 0.404776
0.97084 0.841093 0.40383
0.587549 0.978027 0.710796
0.586694 0.977798 0.709941
0.585962 0.9776 0.709209
0.585016 0.97734 0.708247
0.583947 0.977066 0.707179
0.582528 0.976684 0.705745
0.580896 0.976242 0.704112
0.578714 0.975647 0.701915
0.579644 0.976104 0.702174
0.582055 0.976959 0.703227
0.585153 0.977707 0.703853
0.588663 0.97792 0.702983
0.593332 0.977478 0.700542
0.606851 0.978988 0.702373
0.620172 0.979065 0.700511
0.628367 0.972961 0.687083
0.641489 0.965805 0.671382
0.66212 0.959319 0.656916
0.700908 0.953017 0.645045
0.740581 0.941436 0.623163
0.781918 0.928496 0.598321
0.8206 0.916625 0.574319
0.859159 0.906371 0.552392
0.894286 0.897963 0.533806
0.925841 0.892638 0.519341
0.951659 0.889311 0.510887
0.963149 0.885359 0.505058
0.970977 0.882643 0.500084
0.971344 0.880812 0.496345
0.97142 0.880079 0.49485
0.971466 0.879713 0.494102
0.971481 0.879438 0.493538
0.971527 0.879072 0.49279
0.589227 0.978439 0.712627
0.588998 0.978424 0.712261
0.58819 0.97821 0.711452
0.587289 0.977966 0.710536
0.586221 0.977676 0.709468
0.584878 0.97731 0.708125
0.583124 0.976837 0.706355
0.580987 0.976257 0.704204
0.578454 0.975586 0.701656
0.580728 0.97641 0.702678
0.58407 0.97731 0.703609
0.58851 0.97789 0.703639
0.593652 0.977737 0.701808
0.605539 0.978805 0.702556
0.62005 0.979431 0.701915
0.636545 0.979232 0.699168
0.657145 0.979294 0.696315
0.678706 0.97644 0.688685
0.709377 0.97023 0.676524
0.747127 0.963775 0.664378
0.783536 0.956191 0.648844
0.817853 0.944411 0.625834
0.85275 0.933974 0.604837
0.885405 0.925246 0.58677
0.913588 0.918029 0.570871
0.936233 0.912291 0.557656
0.952453 0.909697 0.550393
0.96202 0.907866 0.546563
0.965347 0.906676 0.544518
0.965591 0.906081 0.543572
0.965682 0.905867 0.543221
0.965805 0.905562 0.542718
0.965927 0.905272 0.54226
0.588678 0.978134 0.712718
0.588922 0.978271 0.712688
0.589151 0.978393 0.712642
0.58909 0.978439 0.712352
0.588022 0.978149 0.711269
0.586603 0.977768 0.70985
0.584878 0.97731 0.708125
0.582788 0.976745 0.706004
0.580301 0.976074 0.703502
0.579629 0.975967 0.70219
0.583154 0.976944 0.70338
0.587701 0.97763 0.703624
0.593866 0.977935 0.702739
0.604547 0.978668 0.702693
0.619028 0.979385 0.702296
0.636027 0.979492 0.700206
0.656229 0.979507 0.697337
0.680919 0.980133 0.695644
0.715816 0.981842 0.69778
0.754726 0.978836 0.692851
0.789654 0.972015 0.679576
0.820691 0.964782 0.664469
0.851011 0.955322 0.644678
0.881651 0.947112 0.628412
0.908385 0.940337 0.614725
0.930205 0.934768 0.602762
0.946258 0.930983 0.594141
0.95494 0.928344 0.587854
0.960067 0.926818 0.584085
0.960189 0.926207 0.582773
0.960266 0.925856 0.582025
0.960342 0.925521 0.581277
0.960403 0.92517 0.58053
0.588296 0.977905 0.712795
0.588525 0.978042 0.712749
0.588769 0.978195 0.712703
0.589029 0.978332 0.712673
0.589349 0.978515 0.712612
0.58793 0.978134 0.711192
0.586221 0.977676 0.709468
0.584115 0.977111 0.707347
0.581628 0.97644 0.704845
0.579232 0.975769 0.702159
0.582467 0.976684 0.703182
0.587091 0.977432 0.703609
0.593805 0.977996 0.703273
0.6038 0.978561 0.702785
0.618128 0.979294 0.702434
0.635645 0.979675 0.700969
0.655543 0.979675 0.6981
0.679194 0.979904 0.695384
0.713207 0.981598 0.697276
0.755322 0.983154 0.700923
0.795041 0.984039 0.702983
0.82533 0.977539 0.689906
0.855421 0.971374 0.677058
0.881437 0.963317 0.6598
0.905898 0.95639 0.645502
0.927474 0.951308 0.635462
0.943633 0.947524 0.627649
0.952132 0.944808 0.622003
0.957397 0.943389 0.619013
0.958007 0.942687 0.617609
0.958022 0.942321 0.616876
0.958022 0.941955 0.616144
0.958038 0.941588 0.615412
0.588037 0.977768 0.71284
0.588266 0.97789 0.712795
0.58851 0.978042 0.712749
0.588769 0.978195 0.712703
0.58909 0.978363 0.712657
0.588876 0.978393 0.712139
0.587121 0.97792 0.710369
0.58497 0.97734 0.708217
0.582437 0.976654 0.705669
