luts/changyun_kodaklike/kodaG100.cube
TITLE "Generated by Resolve"
LUT_3D_SIZE 5
0.0015259 0.00125124 0.00227359
0.119112 0.00544747 0.0214847
0.819745 0 0
1 0.223453 0.148592
1 0.223453 0.148592
0.00733959 0.114488 0.0900893
0.0942397 0.0858778 0.0369573
0.774838 0 0
1 0.223453 0.148592
1 0.223453 0.148592
0.218723 0.763653 0.478294
0 0.709178 0.409247
0.618418 0.608957 0.0394598
1 0.46804 0
1 0.448493 0
0.680827 0.945953 0.789349
0.664698 0.941741 0.775952
0.724041 0.942824 0.772625
0.933135 0.918471 0.5364
0.995071 0.909148 0.459174
0.6795 0.944823 0.78912
0.672312 0.943755 0.782238
0.723812 0.944015 0.776165
0.91397 0.966766 0.734249
0.968093 0.959411 0.662852
0.00859083 0.0108034 0.0966964
0.10901 0.0116121 0.079118
0.800809 0 0
1 0.223453 0.148592
1 0.223453 0.148592
0.00682078 0.120821 0.137713
0.0909895 0.090425 0.111131
0.752544 0 0
1 0.223453 0.148592
1 0.223453 0.148592
0.361364 0.766659 0.554314
0.253468 0.717617 0.485176
0.620996 0.616846 0.160464
1 0.466026 0
1 0.444282 0
0.702907 0.943755 0.814191
0.693889 0.943343 0.805356
0.728954 0.944106 0.784115
0.933227 0.923278 0.568902
0.992432 0.912596 0.486381
0.711513 0.945403 0.821363
0.692744 0.941894 0.805676
0.72459 0.943603 0.78436
0.919081 0.969741 0.751522
0.969863 0.964706 0.694224
0 0.0925307 0.503548
0.00517281 0.0831922 0.465003
0.791989 0.0818647 0.415061
1 0.288808 0.329793
1 0.284352 0.310857
0 0.196689 0.552926
0 0.155184 0.512505
0.758923 0.122774 0.454124
1 0.317433 0.383612
1 0.304433 0.359716
0.310185 0.773098 0.743801
0.220554 0.719432 0.697902
0.58999 0.595987 0.592172
1 0.533684 0.49836
1 0.512932 0.478874
0.643946 0.950515 0.889677
0.641215 0.949187 0.877745
0.745052 0.949401 0.860075
0.919524 0.927184 0.742763
0.979599 0.919478 0.708415
0.641138 0.950164 0.893629
0.642847 0.949874 0.883192
0.730495 0.949371 0.859754
0.914656 0.968978 0.828946
0.966354 0.970245 0.806882
0.322545 0.305989 0.889662
0.354391 0.273899 0.870817
0.839109 0.410681 0.826459
1 0.549828 0.753719
1 0.53962 0.741497
0.401114 0.374594 0.917845
0.383902 0.318471 0.892989
0.806012 0.385016 0.840757
1 0.561013 0.776303
1 0.562112 0.768963
0 0.789837 0.937896
0 0.735683 0.932601
0.628107 0.629313 0.888487
0.969345 0.693309 0.841337
0.97171 0.676814 0.83035
0.537438 0.955596 0.964599
0.537438 0.955596 0.964599
0.653178 0.958511 0.9664
0.903288 0.920638 0.919936
0.959686 0.914733 0.913603
0.537438 0.955596 0.964599
0.537438 0.955596 0.964599
0.646723 0.958312 0.966323
0.919402 0.968399 0.952087
0.971756 0.977951 0.947143
0.405524 0.39147 0.929519
0.420935 0.354665 0.91371
0.841535 0.442695 0.869108
1 0.562554 0.793683
1 0.559808 0.784283
0.416861 0.394522 0.930358
0.438239 0.393301 0.929671
0.811246 0.421485 0.883482
0.997818 0.558923 0.810529
0.999939 0.566094 0.805783
0 0.791119 0.938033
0 0.737346 0.932784
0.647089 0.642145 0.929671
0.967865 0.69041 0.871168
0.968307 0.676539 0.860929
0.537438 0.955596 0.964599
0.537438 0.955596 0.964599
0.652888 0.958511 0.9664
0.917784 0.93283 0.966094
0.966506 0.938262 0.959106
0.537438 0.955596 0.964599
0.537438 0.955596 0.964599
0.646372 0.958297 0.966323
0.92488 0.977829 0.978668
0.984894 0.987854 0.987732
