luts/changyun_kodaklike/kodaUM800.cube
TITLE "Generated by Resolve"
LUT_3D_SIZE 33
0.0791943 0.0987259 0.0864424
0.0794995 0.0986648 0.086305
0.0800031 0.0986648 0.0862135
0.0806744 0.0987259 0.0861524
0.0821393 0.0987869 0.0862593
0.0850385 0.0988632 0.0866712
0.0901198 0.0990311 0.087068
0.0964065 0.0994278 0.0879072
0.105608 0.100038 0.0886854
0.121889 0.100023 0.0894636
0.148104 0.0992599 0.0900893
0.189837 0.0953078 0.0909743
0.249271 0.0792248 0.0913863
0.327535 0.0115358 0.0910201
0.422782 0 0.0902113
0.531243 0 0.0885634
0.644572 0 0.0859846
0.756436 0 0.0855726
0.866255 0 0.0936141
0.956893 0 0.113787
1 0 0.14548
1 0 0.159396
1 0 0.17438
1 0 0.17438
1 0 0.17438
1 0 0.17438
1 0 0.17438
1 0 0.17438
1 0 0.17438
1 0 0.17438
1 0 0.17438
1 0 0.17438
1 0 0.17438
0.0789807 0.0989395 0.0865034
0.079408 0.098909 0.0864118
0.0800031 0.0988785 0.0862898
0.080827 0.0988785 0.0861524
0.0820325 0.098909 0.086183
0.0846723 0.0989395 0.0866102
0.0897078 0.0990311 0.0870375
0.0959793 0.0993973 0.0878309
0.105013 0.100008 0.0886397
0.12079 0.100053 0.0894331
0.146777 0.0993515 0.0900587
0.187854 0.0955215 0.0909438
0.246662 0.0802472 0.091371
0.324376 0.0147402 0.0910353
0.419196 0 0.0902419
0.527642 0 0.0886397
0.641245 0 0.0860914
0.753048 0 0.085481
0.863005 0 0.0932174
0.953811 0 0.11281
1 0 0.144091
1 0 0.158755
1 0 0.17438
1 0 0.17438
1 0 0.17438
1 0 0.17438
1 0 0.17438
1 0 0.17438
1 0 0.17438
1 0 0.17438
1 0 0.17438
1 0 0.17438
1 0 0.17438
0.0787976 0.0994888 0.0868544
0.0791943 0.099321 0.086656
0.0798047 0.0991836 0.0864576
0.0808881 0.0990463 0.086183
0.082063 0.0990463 0.0861067
0.0843214 0.0990921 0.0865339
0.089128 0.0991531 0.0869764
0.0955673 0.0993973 0.0877699
0.104494 0.0999619 0.0886091
0.119966 0.100069 0.0894026
0.145571 0.099382 0.0900282
0.186358 0.0956893 0.0909285
0.244434 0.0811322 0.0913558
0.321706 0.0174563 0.0910658
0.416129 0 0.0902571
0.524254 0 0.0887007
0.637705 0 0.0861982
0.749477 0 0.0853742
0.859739 0 0.0928206
0.951064 0 0.11194
1 0 0.142779
1 0 0.157855
1 0 0.17438
1 0 0.17438
1 0 0.17438
1 0 0.17438
1 0 0.17438
1 0 0.17438
1 0 0.17438
1 0 0.17438
1 0 0.17438
1 0 0.17438
1 0 0.17438
0.0786755 0.100221 0.0873121
0.0789349 0.0999771 0.087068
0.0793317 0.099794 0.0868544
0.0804303 0.0996414 0.0865644
0.0818036 0.0994583 0.0862287
0.0840925 0.099321 0.0864424
0.0884871 0.099321 0.0869001
0.0949722 0.0995346 0.0876783
0.103883 0.0999466 0.0885634
0.118746 0.100099 0.0893568
0.144274 0.0994278 0.0899977
0.184161 0.0959182 0.090898
0.24184 0.0821546 0.0913405
0.318563 0.0206607 0.0910811
0.412726 0 0.0902876
0.520302 0 0.088777
0.633967 0 0.086305
0.745693 0 0.0852674
0.855909 0 0.0923629
0.947829 0 0.110933
1 0 0.141238
1 0 0.156939
1 0 0.17438
1 0 0.17438
1 0 0.17438
1 0 0.17438
1 0 0.17438
1 0 0.17438
1 0 0.17438
1 0 0.17438
1 0 0.17438
1 0 0.17438
1 0 0.17438
0.0786145 0.101839 0.0879377
0.0788281 0.10132 0.0876631
0.078996 0.100847 0.0873884
0.0798657 0.10045 0.087068
0.0812085 0.100206 0.0867018
0.0840925 0.0999466 0.0864424
0.0880751 0.0998093 0.086717
0.0943313 0.099794 0.0875257
0.103136 0.0999619 0.0885023
0.117433 0.100252 0.0892958
0.14258 0.0994736 0.0899672
0.181872 0.0961624 0.0908522
0.238834 0.0833295 0.09131
0.314946 0.0243534 0.0911116
0.408408 0 0.0903182
0.515435 0 0.0888533
0.629068 0 0.0864576
0.740719 0 0.0851301
0.851499 0 0.0918288
0.944106 0 0.109758
1 0 0.1393
1 0 0.155932
1 0 0.17438
1 0 0.17438
1 0 0.17438
1 0 0.17438
1 0 0.17438
1 0 0.17438
1 0 0.17438
1 0 0.17438
1 0 0.17438
1 0 0.17438
1 0 0.17438
0.0784924 0.104509 0.088716
0.0789044 0.103716 0.0885481
0.0791028 0.103212 0.0883955
0.0796216 0.102754 0.0881056
0.0805371 0.102251 0.0877241
0.0831006 0.10164 0.0869764
0.0876631 0.100893 0.0865492
0.0936904 0.100542 0.0872358
0.102373 0.100603 0.0883345
0.115633 0.100633 0.089189
0.140261 0.099794 0.0898909
0.178714 0.0965286 0.0908064
0.234791 0.0849165 0.0912947
0.310079 0.0293126 0.0911421
0.402838 0 0.0903487
0.509789 0 0.0889296
0.623346 0 0.0866255
0.734951 0 0.0849622
0.845563 0 0.0910964
0.939101 0 0.108186
1 0 0.137072
1 0 0.154482
1 0 0.17438
1 0 0.17438
1 0 0.17438
1 0 0.17438
1 0 0.17438
1 0 0.17438
1 0 0.17438
1 0 0.17438
1 0 0.17438
1 0 0.17438
1 0 0.17438
0.0768902 0.109346 0.0901198
0.0775616 0.108583 0.0897993
0.0782025 0.107912 0.0896162
0.0788739 0.107164 0.0894789
0.079942 0.106081 0.0892805
0.0817273 0.105013 0.0884871
0.0854658 0.10399 0.0870527
0.0930037 0.103014 0.0868238
0.101625 0.102235 0.087892
0.114611 0.101549 0.0889448
0.137865 0.10074 0.0897078
0.174289 0.0974136 0.0907149
0.229419 0.0873121 0.091249
0.304265 0.0352483 0.0911727
0.396353 0 0.0903944
0.50219 0 0.0890516
0.615549 0 0.0868086
0.727199 0 0.0847334
0.838087 0 0.0901961
0.933104 0 0.106294
1 0 0.134051
1 0 0.152758
1 0 0.17293
1 0 0.17438
1 0 0.17438
1 0 0.17438
1 0 0.17438
1 0 0.17438
1 0 0.17438
1 0 0.17438
1 0 0.17438
1 0 0.17438
1 0 0.17438
0.0713512 0.11809 0.0923781
0.0728161 0.116701 0.0920424
0.0743267 0.115587 0.0917372
0.0755932 0.114534 0.0913558
0.0775921 0.113069 0.0910964
0.0800946 0.111238 0.0908675
0.0832532 0.109316 0.0898756
0.0904097 0.108125 0.0870527
0.100404 0.106447 0.0869154
0.114 0.104662 0.0882887
0.135866 0.103258 0.0892348
0.170291 0.100069 0.0903029
0.222583 0.0915084 0.0909895
0.29546 0.0461128 0.0912337
0.387366 0 0.0904555
0.493217 0 0.089189
0.606348 0 0.0870069
0.717845 0 0.0847486
0.829236 0 0.0891432
0.925673 0 0.10396
0.998245 0 0.130587
1 0 0.150668
1 0 0.17084
1 0 0.17438
1 0 0.17438
1 0 0.17438
1 0 0.17438
1 0 0.17438
1 0 0.17438
1 0 0.17438
1 0 0.17438
1 0 0.17438
1 0 0.17438
0.052903 0.134829 0.0954757
0.0550698 0.132982 0.0950484
0.0574044 0.131243 0.0946059
0.0605783 0.129122 0.0941329
0.0655833 0.126345 0.0936141
0.0711681 0.123583 0.0931716
0.0790112 0.119875 0.0929274
0.0866255 0.116854 0.091249
0.095964 0.114626 0.08748
0.113161 0.112093 0.0866407
0.134234 0.108659 0.0882124
0.167666 0.105379 0.0892958
0.21767 0.0972305 0.0901961
0.287266 0.0649271 0.0906386
0.375753 0 0.0902113
0.480751 0 0.0889906
0.594034 0 0.0870527
0.707088 0 0.0848249
0.817823 0 0.0885023
0.91577 0 0.101915
0.990646 0 0.127321
1 0 0.148577
1 0 0.168383
1 0 0.17438
1 0 0.17438
1 0 0.17438
1 0 0.17438
1 0 0.17438
1 0 0.17438
1 0 0.17438
1 0 0.17438
1 0 0.17438
1 0 0.17438
0.0117647 0.163058 0.100435
0.0140993 0.160266 0.0998093
0.0177615 0.157992 0.0992905
0.0228885 0.155291 0.0986496
0.0286564 0.152117 0.0979171
0.0398108 0.147478 0.0972763
0.0561074 0.141405 0.0965286
0.0755016 0.134417 0.0959182
0.0901503 0.129854 0.0928511
0.108248 0.126452 0.0870985
0.135042 0.122698 0.0846113
0.167239 0.115953 0.0868238
0.214527 0.108797 0.0881361
0.28011 0.0911879 0.0888685
0.36556 0.013077 0.0887007
0.466896 0 0.0878157
0.578836 0 0.0860304
0.690822 0 0.0841382
0.802579 0 0.0873884
0.904662 0 0.0998703
0.981979 0 0.123598
1 0 0.146029
1 0 0.165576
1 0 0.17438
1 0 0.17438
1 0 0.17438
1 0 0.17438
1 0 0.17438
1 0 0.17438
1 0 0.17438
1 0 0.17438
1 0 0.17438
1 0 0.17438
0 0.211032 0.110445
0 0.207156 0.109133
0 0.203525 0.108217
0 0.199374 0.107256
0 0.194186 0.106081
0 0.187655 0.104738
0.00395209 0.179675 0.103441
0.0263218 0.169909 0.102419
0.0694896 0.158068 0.100862
0.0967422 0.150942 0.0947433
0.128435 0.147265 0.0845197
0.169909 0.141009 0.0782483
0.218845 0.129854 0.0808576
0.280644 0.116243 0.0823072
0.358785 0.0775006 0.083238
0.456092 0.000595102 0.0820783
0.564095 0 0.080705
0.674388 0 0.0803845
0.785183 0 0.0833295
0.88661 0 0.0957351
0.968978 0 0.117525
0.999969 0 0.142077
1 0 0.1617
1 0 0.17438
1 0 0.17438
1 0 0.17438
1 0 0.17438
1 0 0.17438
1 0 0.17438
1 0 0.17438
1 0 0.17438
1 0 0.17438
1 0 0.17438
0 0.279911 0.129381
0 0.274769 0.127581
0 0.270054 0.125917
0 0.26482 0.124041
0 0.258366 0.121828
0 0.250706 0.119356
0 0.240879 0.117006
0 0.228534 0.114961
0.00411994 0.212055 0.112764
0.0634012 0.19408 0.109651
0.10988 0.184527 0.0972152
0.159579 0.178668 0.0765393
0.220157 0.170489 0.056733
0.284031 0.151873 0.061738
0.361639 0.130098 0.0636454
0.455879 0.0649424 0.0628061
0.558831 0 0.0613565
0.673625 0 0.061326
0.776242 0 0.0662242
0.87158 0 0.0856947
0.954498 0 0.108537
0.99884 0 0.135775
1 0 0.154742
1 0 0.170977
1 0 0.171481
1 0 0.171878
1 0 0.172168
1 0 0.172427
1 0 0.17261
1 0 0.172671
1 0 0.172702
1 0 0.172732
1 0 0.172763
0 0.367025 0.158129
0 0.361944 0.156039
0 0.356878 0.153979
0 0.35111 0.151629
0 0.343938 0.14873
0 0.334951 0.145144
0 0.3234 0.140963
0 0.30837 0.136584
0 0.289845 0.132921
0.00137331 0.26685 0.129732
0.0674449 0.243168 0.123369
0.134783 0.231876 0.0990311
0.209033 0.225757 0.0464942
0.287846 0.213092 0.0124971
0.365225 0.184176 0.020798
0.454002 0.156497 0.0209049
0.55436 0.0930953 0.0217594
0.661494 0.00192264 0.0221103
0.773938 0 0.0254368
0.875578 0 0.0539406
0.957641 0 0.0979934
0.999435 0 0.129351
1 0 0.147738
1 0 0.164294
1 0 0.166827
1 0 0.167483
1 0 0.167987
1 0 0.168322
1 0 0.168475
1 0 0.168536
1 0 0.168582
1 0 0.168612
1 0 0.168658
0 0.474556 0.203601
0 0.468025 0.199954
0 0.462272 0.196872
0 0.456428 0.193912
0 0.449042 0.190372
0 0.439658 0.185901
0 0.427512 0.180316
0 0.41181 0.173846
0 0.390494 0.166766
0 0.363058 0.159487
0 0.332296 0.154955
0.0898146 0.306798 0.140658
0.176059 0.296651 0.0995193
0.277592 0.290333 0.00352483
0.384268 0.278325 0
0.470634 0.240513 0
0.55787 0.20032 0
0.659297 0.155154 0
0.763531 0.0710613 0
0.860899 0.00283818 0
0.941268 0 0.0363165
0.995315 0 0.104906
1 0 0.135546
1 0 0.158373
1 0 0.166979
1 0 0.168505
1 0 0.169604
1 0 0.170321
1 0 0.170779
1 0 0.170947
1 0 0.171038
1 0 0.17113
1 0 0.171221
0 0.58645 0.260258
0 0.581033 0.256916
0 0.575601 0.253559
0 0.56939 0.249775
0 0.561639 0.244999
0 0.552804 0.239811
0 0.542794 0.23415
0 0.529854 0.22742
0 0.510643 0.21886
0 0.482094 0.207965
0 0.449332 0.198077
0 0.409552 0.19089
0.134112 0.38262 0.162341
0.232319 0.367697 0.100633
0.356191 0.363882 0
0.482887 0.352071 0
0.578882 0.312047 0
0.676051 0.269245 0
0.773968 0.239734 0
0.854215 0.198016 0
0.926375 0.14641 0
0.984146 0.105074 0.0198367
1 0.108736 0.100298
1 0.0818952 0.133135
1 0.0493324 0.150179
1 0.0222477 0.152529
1 0.0176089 0.154009
1 0.0144808 0.155016
1 0.0128786 0.155535
1 0.0121157 0.155779
1 0.0117342 0.155901
1 0.0113527 0.156024
1 0.0109865 0.156146
0 0.709865 0.341787
0 0.703349 0.336538
0 0.697215 0.331579
0 0.690593 0.326207
0 0.681834 0.319142
0 0.670619 0.310079
0 0.656931 0.299443
0 0.641123 0.289097
0 0.622354 0.277653
0 0.598917 0.265812
0 0.569085 0.25417
0 0.532357 0.243091
0.0536202 0.489937 0.233005
0.199344 0.467979 0.188128
0.307652 0.451759 0.0953231
0.444907 0.446097 0
0.579721 0.434974 0
0.673823 0.394354 0
0.765988 0.349386 0
0.850385 0.324605 0
0.923751 0.304585 0
0.980514 0.288548 0
1 0.281544 0.0191653
1 0.272816 0.0755474
1 0.265141 0.12372
1 0.249775 0.126436
1 0.238361 0.128435
1 0.230686 0.129793
1 0.226535 0.130587
1 0.224079 0.13106
1 0.223102 0.131258
1 0.22211 0.131441
1 0.221622 0.131533
0 0.8121 0.446021
0 0.807599 0.43975
0 0.803021 0.433387
0 0.797803 0.426169
0 0.790295 0.41735
0 0.781857 0.407675
0 0.771862 0.396551
0 0.758694 0.381842
0 0.742321 0.366552
0 0.721981 0.34966
0 0.694896 0.330983
0 0.657908 0.310918
0.00015259 0.615717 0.295094
0.171313 0.567773 0.276753
0.275731 0.551873 0.213901
0.395392 0.541894 0.092546
0.53753 0.535225 0
0.673594 0.527871 0
0.759823 0.486961 0
0.841871 0.441764 0
0.912902 0.414313 0
0.967987 0.400381 0
1 0.391623 0
1 0.383688 0.00355535
1 0.377829 0.0272679
1 0.368826 0.0486915
1 0.360433 0.0607156
1 0.355123 0.0683146
1 0.351873 0.0729839
1 0.3505 0.0749371
1 0.349813 0.0759136
1 0.349126 0.0769055
1 0.34844 0.0778821
0.199954 0.88632 0.566567
0.167468 0.882933 0.559518
0.137453 0.879652 0.552682
0.103639 0.875807 0.544671
0.0622568 0.870893 0.534447
0.012726 0.864576 0.521233
0 0.856107 0.50605
0 0.845838 0.488777
0 0.834852 0.471641
0 0.820157 0.452628
0 0.803311 0.433814
0 0.77789 0.410605
0 0.743114 0.384405
0.136584 0.703334 0.365087
0.276295 0.665324 0.327352
0.364813 0.639887 0.244007
0.479789 0.623468 0.0968032
0.618585 0.617792 0
0.754009 0.619333 0
0.833158 0.5823 0
0.90193 0.542031 0
0.956725 0.507362 0
0.996216 0.494255 0
1 0.486427 0
1 0.47895 0
1 0.471916 0
1 0.463996 0
1 0.458946 0
1 0.455863 0
1 0.454566 0
1 0.45391 0
1 0.453254 0
1 0.452766 0
0.487877 0.933242 0.683299
0.47805 0.931487 0.677531
0.468406 0.929656 0.672343
0.457603 0.927581 0.666499
0.443534 0.924926 0.659022
0.425803 0.921614 0.649622
0.40235 0.917266 0.637247
0.363912 0.910536 0.619486
0.313954 0.901762 0.59794
0.261677 0.891264 0.573129
0.156039 0.87541 0.542962
0.0946975 0.856855 0.51165
0.130343 0.834089 0.48484
0.233158 0.80621 0.459342
0.317937 0.769345 0.435966
0.380041 0.745098 0.378042
0.464469 0.728328 0.288487
0.576638 0.714763 0.133074
0.704295 0.708064 0
0.822293 0.705928 0
0.886931 0.669566 0
0.938735 0.633677 0
0.984527 0.601404 0
0.999954 0.581064 0
1 0.572168 0
1 0.566415 0
1 0.559228 0
1 0.554269 0
1 0.55172 0
1 0.55053 0
1 0.54992 0
1 0.549325 0
1 0.54873 0
0.657771 0.963302 0.783413
0.650523 0.96202 0.778881
0.643656 0.96083 0.774609
0.635767 0.959442 0.76968
0.62475 0.957504 0.762936
0.610422 0.955001 0.754116
0.591989 0.951812 0.742763
0.568048 0.947738 0.728115
0.536645 0.942077 0.709392
0.502266 0.935302 0.687999
0.467338 0.926986 0.664439
0.4327 0.915892 0.637293
0.403357 0.900679 0.605951
0.393622 0.881071 0.572946
0.408148 0.854582 0.540871
0.439017 0.824994 0.504875
0.481819 0.81062 0.432471
0.558297 0.796735 0.336599
0.658991 0.785321 0.180987
0.770962 0.777081 0.000900282
0.871015 0.773449 0
0.922911 0.745876 0
0.9673 0.718944 0
0.996078 0.694621 0
1 0.675517 0
1 0.660502 0
1 0.650462 0
1 0.644068 0
1 0.640391 0
1 0.638834 0
1 0.638254 0
1 0.637476 0
1 0.636698 0
0.676066 0.966598 0.79501
0.672709 0.965988 0.792859
0.66949 0.965393 0.790814
0.666102 0.964782 0.788647
0.661585 0.963973 0.785748
0.656138 0.962997 0.782269
0.649332 0.961776 0.777874
0.64065 0.960235 0.772244
0.62768 0.957946 0.763973
0.610849 0.954818 0.752911
0.593668 0.950988 0.740261
0.580667 0.946639 0.727596
0.560204 0.938598 0.706554
0.537514 0.926024 0.676982
0.527352 0.909331 0.646143
0.534035 0.888518 0.616587
0.547402 0.871382 0.568276
0.5794 0.858351 0.485481
0.640925 0.844434 0.376806
0.731365 0.835233 0.230182
0.827771 0.829129 0
0.905776 0.823713 0
0.948486 0.80087 0
0.982437 0.780423 0
1 0.763516 0
1 0.750942 0
1 0.741741 0
1 0.736385 0
1 0.733303 0
1 0.732006 0
1 0.731365 0
1 0.730709 0
1 0.730068 0
0.699489 0.970535 0.809567
0.698543 0.970413 0.808896
0.697551 0.970275 0.808194
0.696605 0.970153 0.807523
0.695994 0.970062 0.807019
0.697017 0.970184 0.807462
0.69836 0.970352 0.808057
0.699931 0.970535 0.808759
0.696147 0.969772 0.806119
0.684306 0.967514 0.79826
0.667735 0.964172 0.786664
0.652934 0.960342 0.774517
0.64094 0.955642 0.761501
0.63299 0.949538 0.74725
0.633768 0.94255 0.734112
0.629068 0.929549 0.709789
0.629191 0.912169 0.680323
0.63711 0.903975 0.621805
0.66717 0.895018 0.541924
0.7234 0.886076 0.438697
0.794507 0.875196 0.287343
0.864515 0.865095 0.0296178
0.933013 0.862425 0
0.968139 0.847181 0
0.993027 0.832441 0
0.998383 0.821057 0
0.999832 0.812711 0
1 0.808026 0
1 0.805478 0
1 0.80441 0
1 0.803876 0
1 0.803464 0
1 0.80293 0
0.703166 0.971038 0.812177
0.702174 0.970901 0.811475
0.70132 0.970779 0.810864
0.700221 0.970642 0.810086
0.698985 0.970474 0.809216
0.697353 0.970245 0.808042
0.695933 0.970062 0.806989
0.697536 0.970245 0.807691
0.699565 0.970489 0.808606
0.702235 0.970718 0.809659
0.705058 0.970718 0.810193
0.705577 0.96997 0.80853
0.700908 0.967391 0.801907
0.693492 0.962722 0.790738
0.686503 0.95639 0.77641
0.688075 0.949187 0.763867
0.697475 0.940734 0.753002
0.699245 0.932937 0.722026
0.707073 0.926116 0.662531
0.735775 0.919249 0.585916
0.783856 0.911284 0.482078
0.84126 0.90399 0.352926
0.903227 0.897856 0.100511
0.956985 0.89427 0
0.983215 0.881926 0
0.994415 0.871855 0
0.99826 0.864729 0
1 0.86041 0
1 0.858381 0
1 0.857481 0
1 0.857023 0
1 0.856687 0
1 0.856229 0
0.70634 0.971466 0.814435
0.705348 0.971328 0.813733
0.704509 0.971206 0.813123
0.70341 0.971069 0.812345
0.702174 0.970901 0.811475
0.700526 0.970672 0.8103
0.698634 0.970428 0.808957
0.696101 0.970077 0.807172
0.697368 0.97023 0.80763
0.700374 0.97052 0.808927
0.703655 0.970642 0.809827
0.706691 0.97026 0.80972
0.70985 0.969268 0.808377
0.722133 0.96878 0.811231
0.73254 0.967163 0.811353
0.731762 0.961425 0.800626
0.734051 0.954009 0.788739
0.740719 0.947692 0.775051
0.749279 0.946303 0.744945
0.761334 0.941619 0.690593
0.788891 0.93547 0.613581
0.828504 0.928969 0.51667
0.877958 0.922667 0.392233
0.927901 0.91751 0.20557
0.970718 0.915099 0.00828565
0.991211 0.907988 0.0197757
0.996521 0.902281 0.0452735
0.999924 0.898329 0.0532387
1 0.896574 0.0445869
1 0.895888 0.0409552
1 0.895537 0.0391394
1 0.895277 0.0377661
1 0.894942 0.0359503
0.708354 0.97171 0.815946
0.708034 0.971679 0.815625
0.707088 0.971557 0.814969
0.70605 0.97142 0.814221
0.704799 0.971252 0.813336
0.703258 0.971038 0.812253
0.701228 0.970779 0.810803
0.698741 0.970443 0.809033
0.695811 0.970047 0.806958
0.698756 0.970336 0.808255
0.702373 0.970535 0.80943
0.7066 0.970352 0.810101
0.710445 0.969528 0.809277
0.720974 0.968856 0.81117
0.732906 0.967529 0.812345
0.745022 0.965286 0.812161
0.75996 0.96257 0.812711
0.770993 0.957992 0.80766
0.774853 0.955917 0.783917
0.785397 0.954498 0.751171
0.802853 0.952056 0.70399
0.827909 0.946456 0.629038
0.864973 0.941253 0.535348
0.906737 0.935943 0.418524
0.945998 0.931609 0.283452
0.97818 0.929763 0.195651
0.991196 0.925399 0.170962
0.997955 0.922438 0.16614
1 0.920913 0.16437
1 0.920363 0.162142
1 0.92015 0.161379
1 0.91986 0.160037
1 0.9196 0.159152
0.708064 0.971603 0.816037
0.708202 0.971664 0.815991
0.708324 0.971695 0.815946
0.708125 0.971695 0.815702
0.706889 0.971527 0.814817
0.705257 0.971313 0.813657
0.703258 0.971038 0.812253
0.700832 0.970718 0.810513
0.697948 0.970336 0.808469
0.697398 0.970184 0.807675
0.701289 0.970428 0.809064
0.705684 0.970306 0.809903
0.710857 0.969711 0.809949
0.720073 0.968917 0.811124
0.732082 0.967666 0.812436
0.74493 0.965606 0.812833
0.759579 0.962921 0.813291
0.776761 0.960357 0.81474
0.792737 0.962188 0.808804
0.804211 0.962448 0.787228
0.816571 0.960418 0.748638
0.834363 0.957778 0.699321
0.860319 0.953506 0.625162
0.894743 0.949248 0.53576
0.92958 0.945525 0.434958
0.958297 0.942306 0.3673
0.978897 0.940444 0.324926
0.989303 0.938628 0.30016
0.995071 0.937407 0.28629
0.995331 0.93695 0.282063
0.995468 0.93669 0.279667
0.995621 0.936431 0.277241
0.995773 0.936172 0.274815
0.707851 0.971527 0.816114
0.707988 0.971572 0.816068
0.70811 0.971633 0.816022
0.708263 0.971679 0.815976
0.708431 0.97174 0.815915
0.706798 0.971527 0.814755
0.704799 0.971252 0.813336
0.702373 0.970932 0.811612
0.699489 0.970535 0.809567
0.69688 0.970123 0.807553
0.700465 0.970352 0.808774
0.705013 0.970275 0.80975
0.710918 0.969818 0.8103
0.719402 0.968963 0.811078
0.731304 0.967727 0.81239
0.744869 0.965835 0.813321
0.759304 0.96318 0.813703
0.775555 0.960311 0.814557
0.791531 0.961944 0.809064
0.809049 0.964675 0.798077
0.828061 0.96672 0.781323
0.842039 0.964431 0.739254
0.863874 0.962005 0.684489
0.889342 0.95819 0.609888
0.919005 0.954681 0.5252
0.945678 0.951736 0.471702
0.966461 0.949874 0.43328
0.978286 0.948714 0.409491
0.985534 0.948211 0.396475
0.986786 0.94789 0.39173
0.98706 0.947707 0.389502
0.987335 0.947524 0.387274
0.987625 0.947341 0.385061
0.707713 0.971481 0.816159
0.707835 0.971527 0.816114
0.707973 0.971572 0.816068
0.70811 0.971633 0.816022
0.708293 0.971695 0.815961
0.707881 0.971664 0.815534
0.705852 0.971389 0.814084
0.703365 0.971054 0.812314
0.700435 0.970672 0.810239
