luts/changyun_kodaklike/kodaG100.cube
TITLE "Generated by Resolve"
LUT_3D_SIZE 9
0.0015259 0.00125124 0.00227359
0.0188754 0.000762951 0.00283818
0.119112 0.00544747 0.0214847
0.377783 0 0.0490578
0.819745 0 0
1 0.154376 0.113344
1 0.223453 0.148592
1 0.223453 0.148592
1 0.223453 0.148592
0.0055848 0.0139925 0.0153658
0.0129397 0.00839246 0.00645457
0.112428 0.00646983 0.0193637
0.36202 0 0.0488136
0.807233 0 0
1 0.133562 0.104753
1 0.223453 0.148592
1 0.223453 0.148592
1 0.223453 0.148592
0.00733959 0.114488 0.0900893
0.0155337 0.101793 0.0818036
0.0942397 0.0858778 0.0369573
0.325872 0 0.037583
0.774838 0 0
1 0.0779736 0.0814679
1 0.223453 0.148592
1 0.223453 0.148592
1 0.223453 0.148592
0 0.391836 0.20145
0 0.368948 0.190356
0 0.317357 0.165118
0.267292 0.278553 0.0333104
0.715602 0.118929 0
0.999924 0.157839 0
1 0.229435 0.129763
1 0.223148 0.13576
1 0.22269 0.136202
0.218723 0.763653 0.478294
0.146075 0.74551 0.453422
0 0.709178 0.409247
0.155612 0.624964 0.32398
0.618418 0.608957 0.0394598
0.935637 0.495354 0
1 0.46804 0
1 0.450767 0
1 0.448493 0
0.649668 0.93579 0.764355
0.639704 0.931701 0.75613
0.615427 0.922087 0.736126
0.56524 0.895384 0.680171
0.568124 0.829007 0.554833
0.833265 0.81973 0.310109
1 0.766247 0
1 0.743145 0
1 0.740658 0
0.680827 0.945953 0.789349
0.676265 0.944808 0.785504
0.664698 0.941741 0.775952
0.679301 0.943984 0.778805
0.724041 0.942824 0.772625
0.794659 0.931441 0.700969
0.933135 0.918471 0.5364
0.994369 0.910353 0.462882
0.995071 0.909148 0.459174
0.679652 0.944961 0.789151
0.680583 0.945754 0.789303
0.671412 0.943526 0.781491
0.679332 0.944244 0.780194
0.723751 0.943877 0.775753
0.818662 0.955062 0.770779
0.912825 0.960204 0.709712
0.965866 0.953368 0.638788
0.968765 0.952285 0.631998
0.6795 0.944823 0.78912
0.68043 0.945617 0.789273
0.672312 0.943755 0.782238
0.678996 0.944167 0.780102
0.723812 0.944015 0.776165
0.817792 0.954849 0.770733
0.91397 0.966766 0.734249
0.965225 0.960571 0.670115
0.968093 0.959411 0.662852
0.00151064 0.00207523 0.0146792
0.0155795 0.00131228 0.00982681
0.116289 0.00552377 0.0205844
0.376989 0 0.0490425
0.81912 0 0
1 0.153338 0.112917
1 0.223453 0.148592
1 0.223453 0.148592
1 0.223453 0.148592
0.00476081 0.0148165 0.0306096
0.0118868 0.00846876 0.0192416
0.110109 0.00624094 0.0197147
0.361227 0 0.0487984
0.806912 0 0
1 0.133043 0.10454
1 0.223453 0.148592
1 0.223453 0.148592
1 0.223453 0.148592
0.0187228 0.118242 0.104189
0.0249027 0.105562 0.0952163
0.0931563 0.086244 0.0496986
0.320516 0 0.037171
0.774334 0 0
1 0.0771496 0.081117
1 0.223453 0.148592
1 0.223453 0.148592
1 0.223453 0.148592
0 0.39556 0.22269
0 0.370306 0.206928
0 0.322118 0.176043
0.26659 0.279423 0.0468147
0.710018 0.1205 0
0.999908 0.158145 0
1 0.229755 0.129458
1 0.223346 0.135576
1 0.222873 0.136019
0.257176 0.765118 0.49575
0.208286 0.7514 0.475868
0.0152743 0.71313 0.423987
0.165103 0.626108 0.332387
0.613489 0.606226 0.0486
0.930938 0.492195 0
1 0.47042 0
1 0.451667 0
1 0.449393 0
0.664714 0.938918 0.777737
0.653117 0.934707 0.768383
0.616098 0.921492 0.739101
0.569055 0.896132 0.685557
0.568276 0.828809 0.558221
0.833448 0.82153 0.319753
0.999969 0.765743 0
1 0.742718 0
1 0.740124 0
0.684092 0.94461 0.794034
0.679927 0.943908 0.790463
0.679667 0.944961 0.789151
0.678157 0.943282 0.779904
0.729152 0.944656 0.778851
0.797467 0.934478 0.711284
0.936309 0.923552 0.555825
0.993545 0.913725 0.4757
0.994171 0.912108 0.470146
0.689357 0.94548 0.798566
0.685145 0.944778 0.794949
0.678508 0.943969 0.788952
0.681376 0.944518 0.783871
0.72549 0.944396 0.778897
0.815961 0.953643 0.768521
0.920684 0.966415 0.732387
0.970581 0.95874 0.661295
0.970397 0.956863 0.653086
0.689906 0.945571 0.799039
0.68574 0.944884 0.795453
0.67837 0.943862 0.788922
0.681697 0.94464 0.784298
0.725002 0.944335 0.77882
0.815442 0.953613 0.769024
0.921035 0.970733 0.748913
0.970657 0.965347 0.689921
0.970489 0.963394 0.681361
0.00859083 0.0108034 0.0966964
0.0239414 0.00888075 0.0884871
0.10901 0.0116121 0.079118
0.366995 0 0.0551766
0.800809 0 0
1 0.151247 0.112062
1 0.223453 0.148592
1 0.223453 0.148592
1 0.223453 0.148592
0.00706493 0.0251621 0.104707
0.0200809 0.0168002 0.0979629
0.101869 0.0128023 0.0834974
0.354238 0 0.0608377
0.785702 0 0
1 0.130953 0.103685
1 0.223453 0.148592
1 0.223453 0.148592
1 0.223453 0.148592
0.00682078 0.120821 0.137713
0.0164034 0.108858 0.128511
0.0909895 0.090425 0.111131
0.311147 0 0.0830243
0.752544 0 0
1 0.0476844 0.0732128
1 0.223453 0.148592
1 0.223453 0.148592
1 0.223453 0.148592
0 0.406561 0.281682
0 0.383215 0.265476
0 0.334386 0.231922
0.2701 0.28397 0.132006
0.700572 0.128862 0
0.991669 0.10399 0
1 0.219486 0.122393
1 0.218509 0.131975
1 0.218494 0.13286
0.361364 0.766659 0.554314
0.330312 0.752285 0.533578
0.253468 0.717617 0.485176
0.208347 0.63299 0.370535
0.620996 0.616846 0.160464
0.926421 0.491569 0
1 0.466026 0
1 0.446708 0
1 0.444282 0
0.682673 0.93814 0.796933
0.671824 0.933959 0.788052
0.638819 0.921981 0.761913
0.581262 0.898283 0.7037
0.577569 0.83209 0.580819
0.831235 0.82327 0.357778
0.999756 0.765667 0.0080415
1 0.742962 0
1 0.740398 0
0.702907 0.943755 0.814191
0.696727 0.94258 0.809049
0.693889 0.943343 0.805356
0.691279 0.945678 0.796155
0.728954 0.944106 0.784115
0.796338 0.934035 0.719249
0.933227 0.923278 0.568902
0.991699 0.914137 0.491676
0.992432 0.912596 0.486381
0.710552 0.94522 0.820554
0.704448 0.944045 0.815473
0.692882 0.942046 0.805631
0.692393 0.94519 0.798474
0.724605 0.943496 0.783917
0.81416 0.95227 0.77232
0.919295 0.967041 0.741238
0.969879 0.960098 0.675074
0.969894 0.958267 0.667231
0.711513 0.945403 0.821363
0.705486 0.944244 0.816327
0.692744 0.941894 0.805676
0.692515 0.945129 0.798749
0.72459 0.943603 0.78436
0.813809 0.952316 0.773083
0.919081 0.969741 0.751522
0.969497 0.966186 0.700618
0.969863 0.964706 0.694224
0 0.0334478 0.229969
0 0.031632 0.221347
0.112612 0.0296788 0.200092
0.356283 0 0.186694
0.790448 0 0.148272
1 0.15758 0.0820478
1 0.201572 0.128985
1 0.20499 0.132342
1 0.205447 0.132815
0 0.0546883 0.242451
0 0.0432441 0.231937
0.102937 0.0327153 0.210925
0.340047 0 0.193118
0.775036 0 0.160998
1 0.143832 0.0690013
1 0.207431 0.130388
1 0.202197 0.12961
1 0.202609 0.130007
0 0.14696 0.281407
0 0.134005 0.270756
0.0670634 0.110567 0.246769
0.305226 0.049546 0.210269
0.746944 0 0.18938
1 0.100572 0.0766918
1 0.221775 0.134325
1 0.213611 0.132097
1 0.212482 0.131777
0 0.407858 0.388128
0 0.386511 0.37229
0 0.340246 0.336614
0.274739 0.286824 0.290547
0.689754 0.184222 0.227192
0.988159 0.184482 0.151644
1 0.235691 0.113313
1 0.227619 0.116075
1 0.226841 0.117052
0.396216 0.777279 0.640925
0.37258 0.761013 0.622461
0.327062 0.72546 0.584192
0.365438 0.661601 0.518761
0.606714 0.606912 0.351568
0.920897 0.496773 0.136538
1 0.476936 0.0708171
1 0.456992 0.0506294
1 0.454826 0.046952
0.673686 0.940597 0.822934
0.667857 0.936049 0.816724
0.654673 0.926116 0.802167
0.639368 0.903105 0.769085
0.60502 0.841123 0.6495
0.820005 0.82121 0.476463
0.997879 0.768002 0.266041
1 0.742885 0.176272
1 0.740093 0.167178
0.676448 0.947448 0.834745
0.67863 0.946609 0.832837
0.681712 0.944442 0.828031
0.715312 0.945907 0.832486
0.73521 0.945586 0.808133
0.802777 0.936889 0.760616
0.926894 0.924163 0.630961
0.986496 0.916808 0.573327
0.987137 0.915297 0.569162
0.668513 0.947417 0.834943
0.674861 0.947433 0.834775
0.679927 0.945693 0.830808
0.708949 0.945739 0.832181
0.735103 0.946548 0.812329
0.817639 0.952255 0.79971
0.915984 0.96759 0.769406
0.966155 0.960952 0.713726
0.966628 0.959381 0.707652
0.667536 0.947417 0.834958
0.673808 0.947433 0.834806
0.679728 0.94583 0.831128
0.708064 0.945708 0.832105
0.735149 0.94667 0.812894
0.816861 0.952026 0.799924
0.915007 0.967712 0.77052
0.96524 0.967025 0.735759
0.966796 0.965621 0.729702
0 0.0925307 0.503548
0 0.0889754 0.48983
0.00517281 0.0831922 0.465003
0.422614 0.0934005 0.442695
0.791989 0.0818647 0.415061
1 0.287221 0.383551
1 0.288808 0.329793
1 0.284749 0.312642
1 0.284352 0.310857
0 0.110491 0.518471
0 0.102678 0.50692
0.00135805 0.0894636 0.478584
0.410407 0.0942702 0.45333
0.779309 0.0969253 0.425193
1 0.29482 0.402213
1 0.297505 0.346456
1 0.287831 0.326268
1 0.287388 0.324331
0 0.196689 0.552926
0 0.182223 0.539834
0 0.155184 0.512505
0.383841 0.126818 0.481193
0.758923 0.122774 0.454124
0.994995 0.309346 0.439979
1 0.317433 0.383612
1 0.305699 0.362127
1 0.304433 0.359716
0 0.428367 0.601389
0 0.407324 0.586679
0 0.364187 0.55671
0.302937 0.323491 0.540505
0.686809 0.299962 0.502434
0.964569 0.350271 0.488273
1 0.364828 0.445609
1 0.353307 0.428336
1 0.351736 0.425986
0.310185 0.773098 0.743801
0.279652 0.756817 0.729366
0.220554 0.719432 0.697902
0.304112 0.650553 0.640818
0.58999 0.595987 0.592172
0.894362 0.544656 0.5355
1 0.533684 0.49836
1 0.515267 0.481239
1 0.512932 0.478874
0.637079 0.946624 0.875486
0.630961 0.941878 0.869322
0.617044 0.931517 0.855177
0.605173 0.910842 0.826246
0.657298 0.856779 0.768444
0.806592 0.820447 0.657847
0.986465 0.756848 0.51136
1 0.732448 0.470665
1 0.730236 0.468589
0.643946 0.950515 0.889677
0.643717 0.95024 0.886061
0.641215 0.949187 0.877745
0.657786 0.949645 0.866835
0.745052 0.949401 0.860075
0.809735 0.937881 0.824308
0.919524 0.927184 0.742763
0.978973 0.92079 0.711055
0.979599 0.919478 0.708415
0.641413 0.95021 0.893248
0.643488 0.950454 0.890318
0.642664 0.949798 0.882551
0.655222 0.949645 0.870588
0.732082 0.949371 0.8598
0.821378 0.951705 0.846464
0.915618 0.969131 0.828428
0.96379 0.965377 0.796689
0.965728 0.964111 0.792355
0.641138 0.950164 0.893629
0.643153 0.950423 0.890806
0.642847 0.949874 0.883192
0.654688 0.949584 0.870893
0.730495 0.949371 0.859754
0.820829 0.95169 0.846769
0.914656 0.968978 0.828946
0.963409 0.971542 0.81146
0.966354 0.970245 0.806882
0.0441444 0.174807 0.769024
0.00015259 0.167666 0.7579
0.183886 0.159411 0.737484
0.485359 0.162463 0.707164
0.772473 0.223163 0.651514
0.99649 0.445609 0.645304
1 0.470268 0.626551
1 0.45977 0.611841
1 0.458549 0.610147
0.0868086 0.191455 0.777371
0.0457465 0.181292 0.766354
0.178866 0.165698 0.746242
0.47567 0.16611 0.717891
0.775967 0.225956 0.672648
0.99353 0.444602 0.653574
1 0.477012 0.637156
1 0.468147 0.623575
1 0.466926 0.621881
0.151736 0.276249 0.801175
0.150179 0.264683 0.796048
0.182986 0.227085 0.767285
0.45449 0.197604 0.740139
0.776562 0.255512 0.708919
0.981842 0.448783 0.675227
1 0.484047 0.65507
1 0.480018 0.644785
1 0.479545 0.64361
0 0.467033 0.818051
0 0.446845 0.807355
0 0.417548 0.795193
0.386633 0.379721 0.773129
0.752041 0.423117 0.756939
0.944305 0.471366 0.70721
1 0.518746 0.693782
1 0.505898 0.680446
1 0.504189 0.678599
0 0.759258 0.863066
0 0.74345 0.854261
0 0.70985 0.835325
0 0.636454 0.79202
0.605585 0.616312 0.784115
0.864836 0.650752 0.765332
0.987991 0.664988 0.759716
0.990188 0.643732 0.743679
0.990539 0.641596 0.742016
0.483055 0.934295 0.927947
0.480476 0.929976 0.922759
0.469612 0.916747 0.907271
0.4822 0.895979 0.882399
0.594339 0.847883 0.843229
0.786831 0.809094 0.808728
0.950332 0.790448 0.789334
0.974914 0.779553 0.780606
0.974853 0.778408 0.779614
0.529992 0.95288 0.960174
0.510826 0.945907 0.94876
0.484077 0.935088 0.928618
0.541115 0.942657 0.920134
0.709072 0.952087 0.916777
0.83093 0.94844 0.900298
0.913466 0.928038 0.851133
0.970428 0.917464 0.827314
0.970504 0.915526 0.824674
0.500679 0.942214 0.942718
0.491218 0.938766 0.937087
0.483772 0.935058 0.928725
0.526894 0.939147 0.920607
0.692973 0.951522 0.918563
0.828031 0.956756 0.907881
0.912749 0.96762 0.893904
0.964279 0.969848 0.881941
0.967941 0.968902 0.879545
0.502037 0.942702 0.943526
0.492348 0.939162 0.937758
0.483146 0.934981 0.928954
0.525078 0.938659 0.920668
0.690852 0.951431 0.918776
0.826841 0.956725 0.908217
0.911696 0.9673 0.894255
0.964141 0.976303 0.890379
0.968658 0.97525 0.88777
0.322545 0.305989 0.889662
0.317784 0.297017 0.884169
0.354391 0.273899 0.870817
0.546731 0.254826 0.84416
0.839109 0.410681 0.826459
0.981979 0.51165 0.768185
1 0.549828 0.753719
1 0.540627 0.742748
1 0.53962 0.741497
0.340749 0.318837 0.896254
0.329229 0.30547 0.889433
0.355627 0.283223 0.876387
0.540566 0.259602 0.852033
0.829801 0.405524 0.831388
0.973983 0.498558 0.771832
1 0.557107 0.762402
1 0.547906 0.751415
1 0.546944 0.750271
0.401114 0.374594 0.917845
0.38471 0.356435 0.90956
0.383902 0.318471 0.892989
0.52845 0.288136 0.867491
0.806012 0.385016 0.840757
0.958251 0.478264 0.784192
1 0.561013 0.776303
1 0.562005 0.769665
1 0.562112 0.768963
0.290013 0.532494 0.933272
0.268986 0.503197 0.925978
0.314809 0.479347 0.914382
0.479088 0.437217 0.89015
0.761593 0.46276 0.865278
0.92903 0.480339 0.814206
0.999069 0.569284 0.798337
0.999695 0.560037 0.787961
0.999786 0.559426 0.786816
0 0.789837 0.937896
0 0.773358 0.9364
0 0.735683 0.932601
0 0.646845 0.911513
0.628107 0.629313 0.888487
0.891096 0.692927 0.874144
0.969345 0.693309 0.841337
0.971237 0.677638 0.831006
0.97171 0.676814 0.83035
0.537438 0.955596 0.964599
0.525338 0.951049 0.963638
0.499687 0.941299 0.961593
0.48835 0.924269 0.959396
0.515816 0.862028 0.936538
0.788739 0.81297 0.900374
0.933074 0.841367 0.894041
0.954711 0.840421 0.892042
0.954894 0.839216 0.891127
0.537438 0.955596 0.964599
0.537438 0.955596 0.964599
0.537438 0.955596 0.964599
0.55668 0.956237 0.965148
0.653178 0.958511 0.9664
0.78703 0.945022 0.942031
0.903288 0.920638 0.919936
0.959945 0.916259 0.914488
0.959686 0.914733 0.913603
0.537438 0.955596 0.964599
0.537438 0.955596 0.964599
0.537438 0.955596 0.964599
0.554269 0.956207 0.965118
0.647364 0.958328 0.966339
0.790372 0.957061 0.95523
0.920089 0.968475 0.951461
0.965179 0.970901 0.942657
0.970535 0.96994 0.940993
0.537438 0.955596 0.964599
0.537438 0.955596 0.964599
0.537438 0.955596 0.964599
0.554025 0.956191 0.965118
0.646723 0.958312 0.966323
0.789929 0.957702 0.956466
0.919402 0.968399 0.952087
0.964935 0.97734 0.947738
0.971756 0.977951 0.947143
0.398886 0.383459 0.926192
0.392996 0.371878 0.921386
0.413123 0.345006 0.909072
0.574884 0.305303 0.885664
0.840558 0.437751 0.863966
0.973037 0.51017 0.801968
1 0.561181 0.789258
1 0.560189 0.781689
1 0.560327 0.780865
0.403525 0.388861 0.928573
0.398993 0.380499 0.925002
0.420264 0.359747 0.916014
0.568826 0.31487 0.892119
0.832883 0.434592 0.870604
0.966155 0.496437 0.806104
1 0.563348 0.796231
1 0.560693 0.787701
1 0.560388 0.786709
0.416861 0.394522 0.930358
0.41883 0.395438 0.930938
0.433463 0.384771 0.926177
0.555703 0.3393 0.903426
0.811337 0.418921 0.87985
0.95555 0.478782 0.823102
0.998825 0.562295 0.808301
1 0.565332 0.802625
1 0.564981 0.80148
0.291447 0.534874 0.933791
0.274098 0.506035 0.927459
0.346929 0.489311 0.928801
0.520104 0.468727 0.926177
0.764828 0.479896 0.897688
0.951583 0.532815 0.873884
0.990158 0.558724 0.824308
0.992569 0.555886 0.817319
0.99292 0.556115 0.816815
0 0.79089 0.938003
0 0.774838 0.936538
0 0.737072 0.932754
0 0.654139 0.923903
0.645823 0.641627 0.925689
0.900023 0.716106 0.905135
0.966995 0.690166 0.867216
0.968368 0.679103 0.859113
0.968643 0.678233 0.858244
0.537438 0.955596 0.964599
0.526436 0.951476 0.963714
0.500771 0.941711 0.961685
0.489189 0.924697 0.959472
0.536492 0.873304 0.952819
0.800671 0.822385 0.939986
0.94638 0.847639 0.925429
0.952987 0.839017 0.912016
0.952911 0.83798 0.911162
0.537438 0.955596 0.964599
0.537438 0.955596 0.964599
0.537438 0.955596 0.964599
0.556588 0.956237 0.965148
0.652888 0.958511 0.9664
0.797818 0.960372 0.968566
0.915694 0.930678 0.96022
0.964233 0.937224 0.955749
0.962997 0.935256 0.953918
0.537438 0.955596 0.964599
0.537438 0.955596 0.964599
0.537438 0.955596 0.964599
0.554192 0.956207 0.965118
0.647196 0.958328 0.966339
0.795911 0.964843 0.9691
0.926253 0.978012 0.978821
0.975601 0.980346 0.979232
0.979171 0.978759 0.97734
0.537438 0.955596 0.964599
0.537438 0.955596 0.964599
0.537438 0.955596 0.964599
0.553948 0.956191 0.965118
0.646494 0.958297 0.966323
0.794965 0.964782 0.96907
0.925078 0.977844 0.978683
0.977081 0.985214 0.982467
0.982269 0.985855 0.982101
0.405524 0.39147 0.929519
0.399619 0.380056 0.924758
0.420935 0.354665 0.91371
0.577539 0.312383 0.889906
0.841535 0.442695 0.869108
0.971817 0.507454 0.804974
1 0.562554 0.793683
1 0.559945 0.785321
1 0.559808 0.784283
0.403525 0.388861 0.928573
0.404883 0.38822 0.928237
0.42475 0.367041 0.918975
0.571588 0.322469 0.896452
0.832029 0.435523 0.873854
0.965042 0.493751 0.809522
1 0.564721 0.800656
1 0.562066 0.792126
1 0.561761 0.79115
0.416861 0.394522 0.930358
0.418814 0.395422 0.930938
0.438239 0.393301 0.929671
0.559579 0.349233 0.908003
0.811246 0.421485 0.883482
0.957061 0.483375 0.829923
0.997818 0.558923 0.810529
0.999695 0.56524 0.806348
0.999939 0.566094 0.805783
0.291447 0.534874 0.933791
0.274357 0.506477 0.927565
0.346929 0.489311 0.928801
0.525277 0.47274 0.930373
0.766186 0.483742 0.901762
0.952239 0.535668 0.878065
0.989395 0.558724 0.827924
0.991699 0.555383 0.820829
0.99205 0.555581 0.820233
0 0.791119 0.938033
0 0.774838 0.936538
0 0.737346 0.932784
0 0.654154 0.923903
0.647089 0.642145 0.929671
0.900587 0.717052 0.908171
0.967865 0.69041 0.871168
0.968063 0.677592 0.861692
0.968307 0.676539 0.860929
0.537438 0.955596 0.964599
0.526436 0.951476 0.963714
0.500771 0.941711 0.961685
0.489189 0.924697 0.959472
0.53666 0.873472 0.952819
0.803128 0.824643 0.945434
0.949798 0.849256 0.930434
0.953796 0.838605 0.914885
0.953704 0.837491 0.914046
0.537438 0.955596 0.964599
0.537438 0.955596 0.964599
0.537438 0.955596 0.964599
0.556588 0.956237 0.965148
0.652888 0.958511 0.9664
0.798154 0.960616 0.968612
0.917784 0.93283 0.966094
0.967483 0.940124 0.960632
0.966506 0.938262 0.959106
0.537438 0.955596 0.964599
0.537438 0.955596 0.964599
0.537438 0.955596 0.964599
0.554192 0.956207 0.965118
0.647074 0.958312 0.966339
0.795758 0.964828 0.969085
0.926253 0.978012 0.978821
0.978225 0.982666 0.984878
0.981964 0.981704 0.983551
0.537438 0.955596 0.964599
0.537438 0.955596 0.964599
0.537438 0.955596 0.964599
0.553948 0.956191 0.965118
0.646372 0.958297 0.966323
0.794888 0.964782 0.969055
0.92488 0.977829 0.978668
0.979217 0.986862 0.986816
0.984894 0.987854 0.987732
