luts/changyun_kodaklike/kodaP100T.cube
TITLE "Generated by Resolve"
LUT_3D_SIZE 5
0.00428779 0.00418097 0.00277714
0.150134 0.0400244 0.00946059
0.544656 0.17615 0.0580758
0.854154 0.280613 0.105989
0.854154 0.280613 0.105989
0.0788281 0.179782 0.090959
0.134859 0.141314 0.0548104
0.517555 0.168521 0.0533608
0.854154 0.280613 0.105989
0.854154 0.280613 0.105989
0.239368 0.723049 0.422629
0.20798 0.66566 0.3691
0.492897 0.538277 0.242008
0.880293 0.46836 0.18381
0.882673 0.450004 0.17583
0.585122 0.963058 0.71722
0.578592 0.961196 0.71017
0.670069 0.967758 0.721233
0.852384 0.911833 0.61059
0.901762 0.901106 0.584298
0.584161 0.962539 0.717876
0.581689 0.962097 0.713436
0.66601 0.96788 0.721874
0.89456 0.985061 0.748028
0.927901 0.970397 0.714488
0.0626841 0.0529335 0.109117
0.152361 0.0541238 0.0919661
0.541115 0.175784 0.0648203
0.854154 0.280613 0.105989
0.854154 0.280613 0.105989
0.120211 0.1897 0.152819
0.149203 0.149462 0.129168
0.514076 0.170428 0.0803845
0.854154 0.280613 0.105989
0.854154 0.280613 0.105989
0.27425 0.726207 0.473579
0.239689 0.670695 0.41825
0.495689 0.544686 0.276066
0.882994 0.471199 0.192584
0.879805 0.450858 0.179858
0.586801 0.962051 0.735927
0.585473 0.961868 0.730007
0.673182 0.968032 0.73228
0.858427 0.918471 0.629587
0.901198 0.905394 0.599115
0.589334 0.962829 0.740001
0.583856 0.961166 0.731044
0.66772 0.967437 0.732509
0.899123 0.986526 0.756741
0.933104 0.975174 0.730129
0.154696 0.180789 0.403204
0.195422 0.17499 0.379187
0.556085 0.208621 0.332753
0.841474 0.303609 0.311208
0.843473 0.302876 0.299718
0.186679 0.259236 0.452598
0.200183 0.226505 0.418601
0.5346 0.207874 0.362219
0.839673 0.307622 0.340368
0.840436 0.305776 0.327474
0.348638 0.727062 0.673732
0.325017 0.673793 0.635248
0.521675 0.568246 0.570733
0.86836 0.487282 0.467857
0.865934 0.468391 0.449699
0.548608 0.963012 0.83592
0.539223 0.962936 0.819974
0.646845 0.969772 0.800031
0.873045 0.927886 0.744228
0.922301 0.918425 0.722286
0.550683 0.962432 0.842084
0.543618 0.963027 0.827161
0.628672 0.969497 0.79881
0.907469 0.987701 0.822828
0.949905 0.983886 0.811826
0.27097 0.341924 0.783123
0.277272 0.321111 0.747631
0.603891 0.318486 0.690578
0.86302 0.323949 0.623819
0.862226 0.318532 0.609262
0.310811 0.409277 0.83093
0.293843 0.365072 0.787533
0.58143 0.327413 0.71516
0.863432 0.335409 0.655116
0.863951 0.330861 0.642267
0.419837 0.827436 0.917021
0.3953 0.783871 0.905394
0.518578 0.588403 0.824216
0.874372 0.523217 0.758816
0.871183 0.501823 0.743008
0.632715 0.998535 0.979797
0.632715 0.998535 0.979797
0.695216 0.998901 0.982528
0.91249 0.939498 0.933745
0.955154 0.917525 0.912993
0.632715 0.998535 0.979797
0.632715 0.998535 0.979797
0.691203 0.998886 0.982345
0.922972 0.990097 0.958648
0.985306 0.994751 0.957931
0.343511 0.405417 0.863355
0.330755 0.372457 0.824323
0.620844 0.350561 0.752041
0.863905 0.346609 0.68275
0.862882 0.340352 0.669062
0.344228 0.437873 0.866651
0.358862 0.424109 0.864958
0.600885 0.36228 0.778775
0.863706 0.358373 0.711131
0.865248 0.354711 0.700282
0.420645 0.828504 0.917311
0.395895 0.785183 0.905745
0.552285 0.627604 0.896071
0.886976 0.54342 0.815503
0.879652 0.522576 0.79794
0.632715 0.998535 0.979797
0.632715 0.998535 0.979797
0.695033 0.998901 0.982528
0.908705 0.937484 0.976715
0.968948 0.922515 0.96141
0.632715 0.998535 0.979797
0.632715 0.998535 0.979797
0.690974 0.998886 0.982345
0.930648 0.999313 0.994873
1 1 1
