luts/changyun_kodaklike/kodaG100.cube
TITLE "Generated by Resolve"
LUT_3D_SIZE 33
0.0015259 0.00125124 0.00227359
0.00241093 0.00112917 0.00199893
0.00560006 0.000991836 0.00195315
0.0102083 0.000808728 0.002121
0.0188754 0.000762951 0.00283818
0.0345006 0.00122072 0.00450141
0.0645762 0.00137331 0.00840772
0.0934768 0.00289921 0.0139315
0.119112 0.00544747 0.0214847
0.156237 0.00364691 0.0305486
0.210285 0 0.0382391
0.284215 0 0.0448005
0.377783 0 0.0490578
0.486458 0 0.044892
0.601267 0 0.030518
0.712978 0 0.00946059
0.819745 0 0
0.90016 0 0
0.964096 0 0
0.999496 0 0.0404212
1 0.154376 0.113344
1 0.19118 0.130922
1 0.223453 0.148592
1 0.223453 0.148592
1 0.223453 0.148592
1 0.223453 0.148592
1 0.223453 0.148592
1 0.223453 0.148592
1 0.223453 0.148592
1 0.223453 0.148592
1 0.223453 0.148592
1 0.223453 0.148592
1 0.223453 0.148592
0.00157168 0.00184634 0.00289921
0.00233463 0.00164797 0.0024567
0.00497444 0.00146487 0.00215152
0.00993362 0.00125124 0.00201419
0.0176242 0.00111391 0.00244144
0.0329442 0.00132753 0.00428779
0.062089 0.00137331 0.00808728
0.091722 0.00276188 0.01355
0.117601 0.00529488 0.0210117
0.153872 0.00415045 0.0301213
0.207767 0 0.0379797
0.280827 0 0.0445106
0.373846 0 0.0489967
0.482292 0 0.0450904
0.597131 0 0.0311284
0.70927 0 0.0102693
0.81706 0 0
0.897963 0 0
0.962234 0 0
0.999313 0 0.0375219
1 0.149691 0.111406
1 0.189807 0.130175
1 0.223453 0.148592
1 0.223453 0.148592
1 0.223453 0.148592
1 0.223453 0.148592
1 0.223453 0.148592
1 0.223453 0.148592
1 0.223453 0.148592
1 0.223453 0.148592
1 0.223453 0.148592
1 0.223453 0.148592
1 0.223453 0.148592
0.00234989 0.00407416 0.00527962
0.00276188 0.00328069 0.00421149
0.00448615 0.00248722 0.00309758
0.00958267 0.00167849 0.00207523
0.0167849 0.00148013 0.00210575
0.031754 0.00172427 0.00402838
0.0599527 0.00172427 0.00741588
0.0900893 0.00271611 0.013138
0.116289 0.00515755 0.0205997
0.152102 0.00453193 0.0298161
0.20528 0 0.0376593
0.278279 0 0.0442817
0.370489 0 0.0489357
0.478752 0 0.0452735
0.593622 0 0.0316472
0.70576 0 0.0110475
0.814206 0 0
0.895659 0 0
0.960388 0 0
0.999146 0 0.0349279
1 0.145266 0.10959
1 0.187854 0.129107
1 0.223453 0.148592
1 0.223453 0.148592
1 0.223453 0.148592
1 0.223453 0.148592
1 0.223453 0.148592
1 0.223453 0.148592
1 0.223453 0.148592
1 0.223453 0.148592
1 0.223453 0.148592
1 0.223453 0.148592
1 0.223453 0.148592
0.00335698 0.00700389 0.00830091
0.00367742 0.00624094 0.00740063
0.0043946 0.00549325 0.00634775
0.00877394 0.00491341 0.00488289
0.0148775 0.00390631 0.00329595
0.0305943 0.00283818 0.00386053
0.0575875 0.00221256 0.00675975
0.0883955 0.00308232 0.0124056
0.114611 0.00540169 0.0200656
0.149508 0.00508125 0.0293584
0.20267 0 0.0373236
0.27454 0 0.0439612
0.366552 0 0.0488746
0.474571 0 0.0454871
0.5897 0 0.0322271
0.701747 0 0.011902
0.8112 0 0
0.893202 0 0
0.95819 0 0
0.998947 0 0.0318608
1 0.140063 0.107439
1 0.185885 0.128038
1 0.223453 0.148592
1 0.223453 0.148592
1 0.223453 0.148592
1 0.223453 0.148592
1 0.223453 0.148592
1 0.223453 0.148592
1 0.223453 0.148592
1 0.223453 0.148592
1 0.223453 0.148592
1 0.223453 0.148592
1 0.223453 0.148592
0.0055848 0.0139925 0.0153658
0.00550851 0.0122377 0.0133974
0.00541695 0.0105287 0.0115969
0.00820935 0.00906386 0.00885023
0.0129397 0.00839246 0.00645457
0.0291447 0.00709545 0.00444038
0.0552529 0.00552377 0.00535592
0.0868544 0.00430304 0.0110323
0.112428 0.00646983 0.0193637
0.146609 0.00614939 0.0284428
0.199222 0 0.0368811
0.270649 0 0.0436255
0.36202 0 0.0488136
0.46978 0 0.045716
0.584741 0 0.0329442
0.696941 0 0.0129091
0.807233 0 0
0.889998 0 0
0.955688 0 0
0.998718 0 0.0283513
1 0.133562 0.104753
1 0.183734 0.126864
1 0.223453 0.148592
1 0.223453 0.148592
1 0.223453 0.148592
1 0.223453 0.148592
1 0.223453 0.148592
1 0.223453 0.148592
1 0.223453 0.148592
1 0.223453 0.148592
1 0.223453 0.148592
1 0.223453 0.148592
1 0.223453 0.148592
0.00924697 0.0259556 0.0270848
0.00880446 0.0230259 0.0241703
0.00854505 0.0213321 0.0220645
0.00993362 0.0194553 0.019852
0.0129854 0.01738 0.016907
0.0256809 0.01561 0.0110781
0.0521401 0.0123598 0.00553903
0.0857252 0.00947585 0.00753796
0.110826 0.00987259 0.0163577
0.142702 0.00831617 0.026627
0.194202 0.000396735 0.0360113
0.265248 0 0.0431373
0.355917 0 0.0487221
0.46331 0 0.0460365
0.578332 0 0.0338903
0.691356 0 0.0140841
0.802518 0 0
0.886259 0 0
0.9523 0 0
0.998413 0 0.0236057
1 0.126009 0.10164
1 0.180606 0.125154
1 0.223453 0.148592
1 0.223453 0.148592
1 0.223453 0.148592
1 0.223453 0.148592
1 0.223453 0.148592
1 0.223453 0.148592
1 0.223453 0.148592
1 0.223453 0.148592
1 0.223453 0.148592
1 0.223453 0.148592
1 0.223453 0.148592
0.01355 0.0479438 0.0451209
0.0135958 0.0446937 0.0418097
0.0136416 0.0419318 0.0389258
0.0141604 0.0390478 0.0363928
0.0163729 0.0350652 0.0334325
0.023331 0.0312657 0.0271916
0.0429084 0.0285191 0.0158999
0.0826734 0.0244755 0.00799573
0.109789 0.0198978 0.0106508
0.140108 0.0141604 0.0217899
0.188861 0.00300603 0.0332494
0.257023 0 0.0423896
0.347356 0 0.0481727
0.455589 0 0.0464179
0.570901 0 0.0349889
0.683848 0 0.0156558
0.795331 0 0
0.881239 0 0
0.948043 0 0
0.998062 0 0.0179599
1 0.115862 0.0974441
1 0.176898 0.12311
1 0.220325 0.146883
1 0.223453 0.148592
1 0.223453 0.148592
1 0.223453 0.148592
1 0.223453 0.148592
1 0.223453 0.148592
1 0.223453 0.148592
1 0.223453 0.148592
1 0.223453 0.148592
1 0.223453 0.148592
1 0.223453 0.148592
0.0162051 0.0835279 0.0682841
0.0163272 0.0808423 0.0651102
0.0166934 0.07776 0.0620584
0.0168154 0.0732433 0.0582895
0.0192264 0.0679332 0.0547341
0.0241398 0.0612497 0.0506752
0.0356603 0.0542 0.0428931
0.0687572 0.0514534 0.0257115
0.106096 0.0460059 0.0122835
0.138705 0.0344244 0.0131533
0.184512 0.0163577 0.0260319
0.24947 0 0.0378424
0.335592 0 0.0454566
0.442725 0 0.0462043
0.560052 0 0.036286
0.674998 0 0.0175174
0.786862 0 0
0.874693 0 0
0.943008 0 0
0.997604 0 0.0109255
1 0.101335 0.0913863
1 0.171817 0.120546
1 0.215824 0.144411
1 0.223453 0.148592
1 0.223453 0.148592
1 0.223453 0.148592
1 0.223453 0.148592
1 0.223453 0.148592
1 0.223453 0.148592
1 0.223453 0.148592
1 0.223453 0.148592
1 0.223453 0.148592
1 0.223453 0.148592
0.00733959 0.114488 0.0900893
0.00877394 0.111574 0.0883955
0.010132 0.108919 0.086656
0.0119936 0.105684 0.084596
0.0155337 0.101793 0.0818036
0.0197604 0.0972763 0.0767376
0.0314031 0.09131 0.0709544
0.0532082 0.0870069 0.0602274
0.0942397 0.0858778 0.0369573
0.134432 0.0752575 0.0169985
0.180835 0.0514076 0.0116121
0.242893 0.0126192 0.0265202
0.325872 0 0.037583
0.428794 0 0.0408637
0.544305 0 0.0350652
0.660975 0 0.0186313
0.774838 0 0
0.867063 0 0
0.936538 0 0
0.992767 0 0.00758373
1 0.0779736 0.0814679
1 0.164782 0.117647
1 0.210544 0.141527
1 0.223453 0.148592
1 0.223453 0.148592
1 0.223453 0.148592
1 0.223453 0.148592
1 0.223453 0.148592
1 0.223453 0.148592
1 0.223453 0.148592
1 0.223453 0.148592
1 0.223453 0.148592
1 0.223453 0.148592
0 0.157488 0.10695
1.5259e-05 0.153582 0.105257
6.10361e-05 0.15024 0.103761
0.00015259 0.146426 0.1019
0.000259403 0.141924 0.099733
0.00180056 0.135943 0.09691
0.009308 0.128649 0.0934005
0.0303349 0.12079 0.0888533
0.0687724 0.115801 0.0780804
0.119417 0.116625 0.0469215
0.17818 0.108339 0.0202335
0.238911 0.0826886 0.0111543
0.316258 0.0180514 0.0182193
0.414282 0 0.0263066
0.527398 0 0.0232395
0.64361 0 0.0112612
0.758068 0 0
0.851606 0 0
0.925856 0 0
0.986297 0 0.00531014
1 0.0512856 0.0701457
1 0.156191 0.114092
1 0.204471 0.138201
1 0.223453 0.148592
1 0.223453 0.148592
1 0.223453 0.148592
1 0.223453 0.148592
1 0.223453 0.148592
1 0.223453 0.148592
1 0.223453 0.148592
1 0.223453 0.148592
1 0.223453 0.148592
1 0.223453 0.148592
0 0.221637 0.131487
0 0.216846 0.128969
0 0.212161 0.12697
0 0.206821 0.124666
0 0.200198 0.121736
0 0.192233 0.118242
0 0.182971 0.114137
0.000915541 0.172503 0.109331
0.0202792 0.160098 0.103426
0.0865949 0.153872 0.0917983
0.154574 0.157519 0.0521401
0.236301 0.146273 0.0161135
0.317906 0.116335 0.00149538
0.409293 0.0470893 0.00267033
0.512078 0 0.000503548
0.626154 0 7.62951e-05
0.738521 0 0
0.833661 0 0
0.910674 0 0
0.972137 0 0.000106813
1 0.0186923 0.0474098
1 0.140322 0.107286
1 0.195758 0.133227
1 0.223453 0.148592
1 0.223453 0.148592
1 0.223453 0.148592
1 0.223453 0.148592
1 0.223453 0.148592
1 0.223453 0.148592
1 0.223453 0.148592
1 0.223453 0.148592
1 0.223453 0.148592
1 0.223453 0.148592
0 0.301305 0.164141
0 0.29546 0.161303
0 0.290181 0.158679
0 0.284352 0.155718
0 0.277378 0.152209
0 0.269352 0.148241
0 0.258701 0.143542
0 0.246052 0.137743
0 0.230533 0.13051
0.0156863 0.213169 0.121843
0.10985 0.206226 0.104021
0.201343 0.211246 0.0486305
0.307134 0.19733 0.000320439
0.402213 0.160983 0
0.50663 0.10602 0
0.620142 0.0201114 0
0.730938 0 0
0.839323 0 0
0.903151 0 0
0.959152 0 0
0.998657 0.00570687 0.00627146
1 0.138918 0.0864424
1 0.185016 0.120104
1 0.217609 0.141878
1 0.21767 0.143008
1 0.217716 0.143893
1 0.217746 0.144533
1 0.218387 0.145022
1 0.218845 0.145342
1 0.218997 0.145449
1 0.219089 0.14551
1 0.219165 0.145571
1 0.219257 0.145632
0 0.391836 0.20145
0 0.386801 0.199039
0 0.381781 0.196628
0 0.376059 0.193835
0 0.368948 0.190356
0 0.360174 0.185885
0 0.348974 0.180102
0 0.334218 0.172824
0 0.317357 0.165118
0 0.298192 0.155734
0.0268711 0.275868 0.144656
0.147005 0.270909 0.116869
0.267292 0.278553 0.0333104
0.393133 0.262135 0
0.495964 0.219867 0
0.606149 0.178363 0
0.715602 0.118929 0
0.814313 0.0756237 0
0.897871 0.055787 0
0.964172 0.0965133 0
0.999924 0.157839 0
1 0.198398 0.0346227
1 0.211994 0.098436
1 0.229679 0.124193
1 0.229435 0.129763
1 0.226825 0.13225
1 0.224857 0.134127
1 0.223545 0.135378
1 0.223148 0.13576
1 0.222965 0.135927
1 0.222873 0.136019
1 0.222782 0.13611
1 0.22269 0.136202
0 0.493904 0.252277
0 0.488136 0.248264
0 0.483009 0.244923
0 0.477836 0.24184
0 0.471275 0.238163
0 0.462974 0.233433
0 0.452369 0.227375
0 0.438499 0.219425
0 0.419287 0.209125
0 0.395651 0.196597
0 0.371679 0.184192
0.0801556 0.349615 0.169619
0.207858 0.351522 0.132433
0.357671 0.366064 0.0178073
0.514702 0.358419 0
0.611246 0.308141 0
0.696773 0.261021 0
0.791913 0.236378 0
0.873533 0.222202 0
0.942687 0.221347 0
0.993988 0.230838 0
1 0.250492 0
1 0.268376 0.013962
1 0.282032 0.0823529
1 0.284367 0.112642
1 0.280995 0.117952
1 0.278553 0.121813
1 0.276967 0.1243
1 0.275944 0.125902
1 0.275593 0.126467
1 0.275395 0.126787
1 0.275181 0.127108
1 0.274983 0.127428
0 0.586679 0.309255
0 0.58262 0.306111
0 0.578546 0.302922
0 0.573861 0.29929
0 0.568032 0.294682
0 0.561227 0.289677
0 0.554238 0.284428
0 0.545342 0.278202
0 0.530648 0.268086
0 0.507103 0.252888
0 0.482414 0.236606
0 0.453681 0.21976
0.165194 0.426688 0.198047
0.2795 0.42739 0.147127
0.444709 0.446571 0.00270085
0.604242 0.44213 0
0.700603 0.398001 0
0.785672 0.359472 0
0.866224 0.342046 0
0.924193 0.322683 0
0.975402 0.314168 0
1 0.317342 0
1 0.324773 0
1 0.329671 0
1 0.33106 0
1 0.325032 0.00495918
1 0.320821 0.0165408
1 0.317968 0.0243381
1 0.316503 0.0283513
1 0.315816 0.0302434
1 0.315465 0.0311894
1 0.315129 0.0321355
1 0.314778 0.0330816
0 0.683818 0.388403
0 0.678676 0.383337
0 0.673838 0.378576
0 0.668635 0.373388
0 0.661707 0.366567
0 0.652827 0.357794
0 0.642054 0.347402
0 0.630274 0.337194
0 0.616983 0.32546
0 0.600977 0.312398
0 0.580743 0.296727
0 0.557076 0.27834
0.140002 0.529961 0.258808
0.252323 0.50869 0.229313
0.368994 0.511864 0.167666
0.534386 0.52871 0.0130922
0.681727 0.524407 0
0.763973 0.4804 0
0.835401 0.439704 0
0.90367 0.420203 0
0.961456 0.410254 0
1 0.404761 0
1 0.404425 0
1 0.400839 0
1 0.397894 0
1 0.388876 0
1 0.382177 0
1 0.377676 0
1 0.375814 0
1 0.374777 0
1 0.374365 0
1 0.373953 0
1 0.373739 0
0.218723 0.763653 0.478294
0.206455 0.759884 0.472953
0.193698 0.756039 0.467506
0.179019 0.751644 0.461326
0.146075 0.74551 0.453422
0.110094 0.738872 0.445045
0.068925 0.731319 0.435798
0.0155642 0.721141 0.422995
0 0.709178 0.409247
4.57771e-05 0.695033 0.393378
0 0.676204 0.373327
0.0315099 0.650782 0.348272
0.155612 0.624964 0.32398
0.248157 0.593927 0.297368
0.337331 0.580652 0.259617
0.463249 0.59234 0.196017
0.618418 0.608957 0.0394598
0.747692 0.602136 0
0.817227 0.558648 0
0.879332 0.520806 0
0.935637 0.495354 0
0.98291 0.484764 0
1 0.478737 0
1 0.472786 0
1 0.46804 0
1 0.462013 0
1 0.456443 0
1 0.452918 0
1 0.450767 0
1 0.449851 0
1 0.449393 0
1 0.448951 0
1 0.448493 0
0.393088 0.830228 0.573709
0.384375 0.826795 0.568078
0.375769 0.823453 0.562554
0.365484 0.819516 0.555993
0.352132 0.814435 0.547555
0.334371 0.807813 0.536431
0.312612 0.799863 0.523827
0.287175 0.790616 0.509606
0.265827 0.78172 0.496483
0.244404 0.770687 0.480964
0.237522 0.759441 0.465537
0.235172 0.741985 0.44271
0.252674 0.718395 0.412802
0.302266 0.695872 0.386404
0.356603 0.665125 0.352728
0.426551 0.64947 0.296742
0.537804 0.652537 0.224948
0.678004 0.667887 0.0726024
0.800839 0.669734 0
0.8645 0.633463 0
0.917571 0.599649 0
0.961074 0.57142 0
0.996643 0.556649 0
1 0.548959 0
1 0.542046 0
1 0.53608 0
1 0.530098 0
1 0.526421 0
1 0.524163 0
1 0.523217 0
1 0.522728 0
1 0.522255 0
1 0.521904 0
0.521248 0.88426 0.665141
0.515038 0.881804 0.660319
0.510033 0.879652 0.656443
0.504494 0.877287 0.65214
0.497078 0.874144 0.646479
0.487633 0.870192 0.639277
0.474968 0.864942 0.629679
0.455268 0.857008 0.61529
0.43093 0.847059 0.597498
0.404761 0.835447 0.576699
0.373709 0.819776 0.550546
0.351919 0.803082 0.522896
0.34963 0.786542 0.497734
0.366781 0.768551 0.471199
0.401221 0.747341 0.44181
0.444526 0.72192 0.402914
0.518151 0.7187 0.349081
0.621683 0.722591 0.281163
0.742245 0.732372 0.168307
0.848875 0.732967 0.00410468
0.900893 0.698299 0
0.942428 0.667506 0
0.98172 0.643702 0
0.999298 0.625544 0
1 0.614786 0
1 0.60824 0
1 0.602686 0
1 0.598856 0
1 0.596887 0
1 0.595972 0
1 0.595499 0
1 0.595041 0
1 0.594583 0
0.636835 0.930571 0.753872
0.631418 0.92842 0.749569
0.626261 0.92639 0.74548
0.62034 0.924056 0.74078
0.612802 0.92105 0.734798
0.602869 0.917128 0.72694
0.589899 0.912062 0.71667
0.572396 0.905379 0.702998
0.551644 0.897108 0.686702
0.529702 0.887816 0.668482
0.508644 0.877562 0.648768
0.487907 0.865171 0.625742
0.46894 0.849683 0.597406
0.459907 0.832151 0.566155
0.465812 0.812314 0.533013
0.486213 0.790265 0.496529
0.525902 0.774014 0.454246
0.59588 0.772824 0.400473
0.687404 0.775509 0.336385
0.791394 0.781994 0.252598
0.882902 0.780545 0.119036
0.928054 0.755535 0.00975052
0.967163 0.73257 0
0.994553 0.713726 0
1 0.699718 0
1 0.688182 0
1 0.679988 0
1 0.674754 0
1 0.671748 0
1 0.670481 0
1 0.670008 0
1 0.669367 0
1 0.668727 0
0.649668 0.93579 0.764355
0.647395 0.934844 0.762478
0.645167 0.933928 0.760647
0.642832 0.932982 0.758724
0.639704 0.931701 0.75613
0.635874 0.930144 0.752956
0.631037 0.928206 0.748943
0.62475 0.925719 0.743725
0.615427 0.922087 0.736126
0.602579 0.917021 0.725307
0.589609 0.911223 0.712932
0.57969 0.905333 0.700359
0.56524 0.895384 0.680171
0.549706 0.881178 0.652155
0.543816 0.865339 0.62211
0.55079 0.848478 0.59089
0.568124 0.829007 0.554833
0.603449 0.818662 0.505013
0.661265 0.813184 0.44303
0.744121 0.815641 0.383978
0.833265 0.81973 0.310109
0.907332 0.817411 0.229053
0.948867 0.797711 0.119539
0.981567 0.77998 0.0331884
1 0.766247 0
1 0.756603 0
1 0.749599 0
1 0.74551 0
1 0.743145 0
1 0.742153 0
1 0.74165 0
1 0.741161 0
1 0.740658 0
0.669429 0.942992 0.779858
0.668223 0.942672 0.778851
0.666941 0.942336 0.777798
0.665721 0.942016 0.776791
0.664973 0.941833 0.776089
0.6663 0.942275 0.776898
0.668086 0.942855 0.777981
0.670161 0.943526 0.779263
0.668238 0.942596 0.777325
0.659754 0.939025 0.769985
0.645426 0.933181 0.757305
0.632609 0.927031 0.743923
0.622324 0.920455 0.729534
0.61619 0.913161 0.714092
0.617105 0.905974 0.698756
0.615671 0.892927 0.672343
0.619974 0.876616 0.63975
0.637827 0.862165 0.604944
0.675181 0.858106 0.55967
0.730495 0.855833 0.507988
0.795697 0.852537 0.443091
0.861234 0.849577 0.370214
0.926284 0.848508 0.307118
0.96614 0.837354 0.254963
0.992782 0.823926 0.188495
0.998306 0.813931 0.121096
0.999832 0.806683 0.0786297
1 0.80264 0.0555276
1 0.800443 0.0428168
1 0.799512 0.0374609
1 0.799039 0.0347906
1 0.798703 0.0327764
1 0.79823 0.0301061
0.674159 0.944244 0.783764
0.672877 0.943908 0.782712
0.671794 0.943618 0.781811
0.67039 0.943252 0.780652
0.668788 0.942824 0.779324
0.666682 0.942275 0.777584
0.664881 0.941802 0.776028
0.667002 0.942504 0.777325
0.669642 0.943343 0.778927
0.672953 0.944305 0.780728
0.67599 0.94493 0.781613
0.675196 0.943923 0.778561
0.670604 0.940337 0.770321
0.665537 0.934615 0.758221
0.65832 0.926329 0.739971
0.659983 0.9187 0.723278
0.671 0.911711 0.708431
0.679988 0.899641 0.682811
0.698848 0.891325 0.645777
0.73402 0.887602 0.602991
0.781964 0.883986 0.552468
0.835843 0.882048 0.500801
0.894392 0.881376 0.44445
0.945663 0.87892 0.390051
0.978668 0.869932 0.346899
0.992996 0.860548 0.311116
0.997864 0.853468 0.284276
1 0.849165 0.268116
1 0.847288 0.261357
1 0.846479 0.258366
1 0.846067 0.256855
1 0.845747 0.255726
1 0.84535 0.254231
0.678248 0.945327 0.787152
0.676966 0.944991 0.786084
0.675883 0.944701 0.785199
0.674479 0.944335 0.784024
0.672877 0.943908 0.782712
0.670771 0.943358 0.780972
0.668345 0.942702 0.778958
0.66508 0.941848 0.776272
0.666773 0.942428 0.777188
0.670512 0.943542 0.779355
0.674235 0.944427 0.780896
0.676799 0.944503 0.780377
0.678309 0.943542 0.777371
0.69044 0.945098 0.780377
0.699046 0.944472 0.77818
0.697978 0.937758 0.763012
0.701122 0.930007 0.745785
0.712169 0.922972 0.730388
0.730175 0.918318 0.713542
0.751324 0.914427 0.678782
0.783886 0.910216 0.636637
0.823163 0.90631 0.591333
0.86923 0.903624 0.542992
0.915831 0.901869 0.493706
0.956847 0.900404 0.451179
0.984176 0.896132 0.424079
0.994018 0.891554 0.407233
0.999863 0.888136 0.394797
1 0.88632 0.389242
1 0.885603 0.387076
1 0.885252 0.385977
1 0.884978 0.385168
1 0.884627 0.38407
0.680827 0.945953 0.789349
0.68043 0.945907 0.788937
0.67921 0.945586 0.787945
0.677867 0.945235 0.786831
0.676265 0.944808 0.785504
0.674296 0.944289 0.783871
0.671672 0.943587 0.781704
0.668467 0.942748 0.779065
0.664698 0.941741 0.775952
0.66836 0.94287 0.778134
0.672572 0.943938 0.780087
0.676768 0.944533 0.78085
0.679301 0.943984 0.778805
0.68925 0.94493 0.780316
0.699962 0.945098 0.779934
0.710155 0.943938 0.776272
0.724041 0.942824 0.772625
0.738064 0.939345 0.764614
0.751583 0.933608 0.750072
0.771435 0.93312 0.729915
0.794659 0.931441 0.700969
0.822614 0.926741 0.660807
0.858534 0.9234 0.619928
0.897017 0.920745 0.578027
0.933135 0.918471 0.5364
0.963333 0.916396 0.498711
0.98085 0.913527 0.479438
0.99089 0.911528 0.46804
0.994369 0.910353 0.462882
0.994675 0.90985 0.461326
0.994781 0.909667 0.460746
0.994934 0.909392 0.459922
0.995071 0.909148 0.459174
0.680339 0.945541 0.789258
0.680568 0.945724 0.789303
0.680751 0.945891 0.789334
0.680552 0.945937 0.789044
0.67895 0.945525 0.787732
0.676844 0.944961 0.785977
0.674296 0.944289 0.783871
0.671153 0.94345 0.781277
0.667445 0.942473 0.778225
0.666575 0.942306 0.777096
0.671153 0.943496 0.779355
0.675639 0.944244 0.780453
0.680018 0.94432 0.779873
0.688334 0.944808 0.78027
0.699245 0.945113 0.780224
0.710445 0.944381 0.777569
0.723918 0.943252 0.773892
0.742336 0.942824 0.771847
0.766842 0.944228 0.774182
0.788327 0.945861 0.76379
0.807965 0.944595 0.739376
0.829374 0.942229 0.710582
0.855421 0.938109 0.672648
0.887968 0.935714 0.638025
0.919509 0.933989 0.605966
0.947021 0.932235 0.574914
0.967483 0.930571 0.550103
0.978393 0.928832 0.534676
0.98468 0.927718 0.525689
0.984985 0.927199 0.523674
0.985153 0.926909 0.52253
0.985336 0.926619 0.52137
0.985504 0.926314 0.520211
0.680003 0.945251 0.789212
0.680217 0.945434 0.789242
0.68043 0.945617 0.789273
0.680659 0.9458 0.789319
0.680934 0.946044 0.789364
0.678828 0.94548 0.787625
0.676265 0.944808 0.785504
0.673136 0.943984 0.782925
0.669429 0.942992 0.779858
0.665888 0.942077 0.776791
0.670069 0.943175 0.77879
0.6748 0.944015 0.780133
0.680217 0.944457 0.780438
0.687648 0.944701 0.780209
0.698451 0.945022 0.780194
0.710674 0.944717 0.778531
0.723827 0.943557 0.774823
0.740642 0.94258 0.771344
0.764935 0.943893 0.77351
0.792004 0.949218 0.773404
0.819165 0.954726 0.768429
0.837888 0.952667 0.742992
0.861479 0.950774 0.715404
0.885222 0.94696 0.680369
0.911894 0.944625 0.650004
0.937682 0.943389 0.624491
0.957839 0.942321 0.602869
0.96907 0.941238 0.58851
0.975952 0.940734 0.580179
0.97702 0.940322 0.577615
0.977203 0.940078 0.576486
0.977386 0.939818 0.575357
0.977584 0.939574 0.574228
0.679774 0.945068 0.789166
0.679988 0.945235 0.789197
0.680201 0.945418 0.789242
0.68043 0.945617 0.789273
0.680705 0.945846 0.789319
0.680232 0.945861 0.788785
0.677607 0.945159 0.786618
0.674418 0.94432 0.783978
0.670649 0.943313 0.780865
