luts/changyun_kodaklike/kodaUM400.cube
TITLE "Generated by Resolve"
LUT_3D_SIZE 9
0.041474 0.0602731 0.0813916
0.049424 0.0601968 0.0815595
0.102571 0.0646525 0.0842145
0.305806 0.002533 0.0843366
0.776928 0 0
1 0 0
1 0 0
1 0 0
1 0 0
0.0400092 0.0703288 0.0838636
0.0451362 0.0654459 0.0819715
0.0985885 0.0650797 0.0838788
0.29163 0.00596628 0.0847639
0.760784 0 0
1 0 0
1 0 0
1 0 0
1 0 0
0.00660716 0.12256 0.0966964
0.0157015 0.111879 0.093431
0.0860609 0.096788 0.0843977
0.258946 0.0475319 0.084123
0.724437 0 0.010193
1 0 0
1 0 0
1 0 0
1 0 0
0 0.408026 0.134066
0 0.381842 0.126162
0 0.321874 0.114107
0.223545 0.251026 0.0172274
0.665736 0.0784314 0
1 0 0
1 0 0
1 0 0
1 0 0
0 0.841093 0.36112
0 0.821866 0.332235
0 0.780148 0.283085
0 0.672862 0.209125
0.605173 0.593011 0
0.970504 0.486702 0
1 0.448142 0
1 0.422934 0
1 0.419669 0
0.557702 0.977722 0.70901
0.537575 0.975601 0.697093
0.48661 0.970687 0.668132
0.400046 0.953277 0.595239
0.520027 0.890913 0.445686
0.875761 0.847196 0
1 0.794827 0
1 0.771359 0
1 0.768841 0
0.614557 0.981643 0.743999
0.605798 0.98143 0.738003
0.58407 0.980774 0.723461
0.607782 0.980774 0.72221
0.703258 0.973861 0.715175
0.819776 0.958343 0.574777
0.976349 0.93611 0.0469062
1 0.930648 0
1 0.929427 0
0.614481 0.981125 0.745495
0.614542 0.981537 0.744305
0.596674 0.981155 0.731884
0.607263 0.980972 0.724498
0.700908 0.97467 0.719066
0.831785 0.97322 0.675624
0.944503 0.9691 0.457618
0.998398 0.960662 0.0971237
1 0.959747 0.0742046
0.614466 0.981064 0.745693
0.614527 0.981476 0.744503
0.598352 0.981201 0.733013
0.606699 0.980972 0.724483
0.700755 0.974762 0.719585
0.830839 0.973159 0.676204
0.942138 0.973648 0.499397
0.997574 0.965682 0.186282
0.999878 0.964691 0.152728
0.0418402 0.0610361 0.0858015
0.0491798 0.0607614 0.0834669
0.101442 0.0639506 0.0842756
0.305104 0.00270085 0.0843519
0.77612 0 0
1 0 0
1 0 0
1 0 0
1 0 0
0.0386358 0.0720531 0.0894026
0.0459297 0.0662852 0.0860456
0.0973831 0.0650339 0.0838941
0.290929 0.00613413 0.0847791
0.760388 0 0
1 0 0
1 0 0
1 0 0
1 0 0
0.00560006 0.126879 0.108186
0.0159915 0.115969 0.102602
0.0861219 0.0972915 0.0884718
0.255055 0.0512093 0.0839094
0.723918 0 0.0103456
1 0 0
1 0 0
1 0 0
1 0 0
0 0.413657 0.168322
0 0.385199 0.15523
0 0.327871 0.127474
0.223423 0.252461 0.0246586
0.661341 0.0830701 0
1 0 0
1 0 0
1 0 0
1 0 0
0 0.842588 0.396567
0 0.827436 0.373388
0 0.784436 0.313146
0 0.675013 0.224216
0.600519 0.591073 0
0.965972 0.483619 0
1 0.451102 0
1 0.424247 0
1 0.420966 0
0.58999 0.978103 0.731731
0.569558 0.976013 0.71902
0.500847 0.969863 0.679881
0.41091 0.953674 0.605402
0.520943 0.890654 0.453574
0.876081 0.848981 0
1 0.79443 0
1 0.771084 0
1 0.768444 0
0.624933 0.980514 0.755428
0.617624 0.980453 0.749966
0.614481 0.98114 0.74548
0.607858 0.980453 0.726375
0.709667 0.974517 0.724178
0.8215 0.960418 0.591913
0.978347 0.939803 0.0831159
1 0.9337 0
1 0.932204 0
0.634165 0.980575 0.762356
0.62678 0.980529 0.756817
0.614404 0.980621 0.74696
0.612116 0.980957 0.731991
0.703731 0.974823 0.724743
0.829984 0.97258 0.675441
0.948867 0.972534 0.491478
1 0.963851 0.191241
1 0.962585 0.167849
0.635142 0.980575 0.763088
0.627832 0.980529 0.75761
0.614389 0.980575 0.747143
0.612543 0.981018 0.73257
0.702983 0.974838 0.724712
0.829328 0.972595 0.676722
0.946639 0.97554 0.520302
1 0.968368 0.258701
0.999985 0.967056 0.236515
0.0386969 0.0703899 0.114687
0.0512245 0.0684825 0.109361
0.100786 0.0674907 0.0959335
0.298451 0.0146792 0.0825818
0.762295 0 0.00224308
1 0 0
1 0 0
1 0 0
1 0 0
0.0285039 0.0810712 0.121645
0.0430152 0.0753338 0.114809
0.096788 0.0690166 0.0999313
0.287053 0.0281987 0.0828717
0.744488 0 0.00276188
1 0 0
1 0 0
1 0 0
1 0 0
0 0.13698 0.1523
0 0.124987 0.142672
0.0879835 0.102556 0.117922
0.252399 0.0813764 0.0874952
0.707393 0 0.0111238
1 0 0
1 0 0
1 0 0
1 0 0
0 0.436027 0.259419
0 0.408728 0.243244
0 0.347402 0.207675
0.229404 0.260533 0.109773
0.65536 0.109331 0
1 0 0
1 0 0
1 0 0
1 0 0
0 0.844678 0.49659
0 0.829511 0.472801
0 0.79057 0.417624
0 0.685374 0.285023
0.614176 0.605859 0
0.961959 0.486015 0
1 0.447547 0
1 0.419776 0
1 0.416342 0
0.631022 0.976226 0.768658
0.613367 0.974075 0.757229
0.558907 0.968338 0.724208
0.446281 0.954726 0.640009
0.536522 0.892622 0.494591
0.875181 0.851301 0
1 0.795026 0
1 0.772061 0
1 0.769451 0
0.66424 0.9785 0.792508
0.654521 0.978302 0.785412
0.647654 0.978973 0.777859
0.640223 0.980255 0.758511
0.712367 0.974273 0.737148
0.821042 0.96025 0.615061
0.975814 0.939925 0.171405
1 0.93434 0
1 0.932921 0
0.67628 0.978729 0.801297
0.666682 0.978546 0.794278
0.648081 0.978302 0.780301
0.643488 0.979904 0.763638
0.70605 0.974426 0.738003
0.829572 0.971756 0.690486
0.946303 0.973068 0.523354
0.999847 0.964828 0.271366
0.999908 0.963577 0.255314
0.677821 0.978759 0.802441
0.668299 0.978576 0.795468
0.648127 0.978225 0.780591
0.64387 0.979858 0.764233
0.705837 0.974517 0.738628
0.829068 0.971801 0.692119
0.944442 0.97499 0.54139
0.999435 0.969024 0.320455
0.999695 0.967971 0.307057
0 0.0873121 0.27393
0 0.0854963 0.262165
0.104906 0.0793774 0.22974
0.316915 0.00173953 0.160433
0.762097 0 0.00450141
1 0 0
1 0 0
1 0 0
1 0 0
0 0.0960555 0.286854
0 0.0917372 0.27425
0.0823682 0.0817578 0.243748
0.302525 0.00892653 0.173037
0.745602 0 0.0102388
1 0 0
1 0 0
1 0 0
1 0 0
0 0.164981 0.320989
0 0.151995 0.308064
0 0.124285 0.278386
0.275898 0.0743114 0.20061
0.715816 0 0.0810101
1 0 0
1 0 0
1 0 0
1 0 0
0 0.461219 0.451499
0 0.434409 0.432715
0 0.373816 0.386984
0.249866 0.280781 0.294484
0.669825 0.132586 0.165957
1 0 0
1 0 0
1 0 0
1 0 0
0 0.867124 0.647593
0 0.85156 0.628214
0 0.813993 0.587884
0 0.725612 0.504051
0.621103 0.609979 0.302159
0.960815 0.501686 0.0033875
1 0.464393 0
1 0.437339 0
1 0.434318 0
0.606165 0.981308 0.814511
0.600412 0.978332 0.808728
0.589563 0.971862 0.794247
0.592111 0.954253 0.759686
0.583932 0.900359 0.609751
0.868803 0.852262 0.333562
1 0.800763 0.00225834
1 0.776532 0
1 0.773785 0
0.592233 0.986923 0.826291
0.601801 0.985763 0.824201
0.618845 0.983246 0.819043
0.693217 0.978882 0.824796
0.726467 0.975082 0.782376
0.829038 0.961456 0.705119
0.96817 0.941161 0.421637
1 0.936309 0.23209
1 0.934905 0.226047
0.568505 0.988281 0.826993
0.587488 0.987198 0.826429
0.609003 0.984695 0.822019
0.680125 0.979843 0.824567
0.724895 0.97586 0.788159
0.836545 0.971084 0.755047
0.939178 0.973495 0.62591
0.996857 0.965591 0.457694
0.997864 0.964492 0.447395
0.565576 0.988449 0.82707
0.584329 0.987366 0.82652
0.607858 0.984863 0.82237
0.678203 0.979965 0.824491
0.724773 0.975967 0.788937
0.835813 0.971023 0.755917
0.938018 0.973678 0.629023
0.993606 0.969787 0.491035
0.995773 0.968734 0.478737
0 0.13373 0.596536
0 0.129519 0.581552
0 0.122011 0.55108
0.452354 0.0263676 0.504829
0.802258 0 0.335409
1 0 0.139437
1 0 4.57771e-05
1 0 0
1 0 0
0 0.149157 0.611017
0 0.141604 0.59852
0 0.127382 0.566217
0.433387 0.0485237 0.518822
0.788693 0 0.358038
1 0 0.174395
1 0 0.00123598
1 0 0
1 0 0
0 0.226169 0.639475
0 0.211612 0.626276
0 0.183688 0.597238
0.393362 0.125139 0.551598
0.766644 0 0.410101
1 0 0.236988
1 0 0.012253
1 0 0.00236515
1 0 0.0021973
0 0.47335 0.68574
0 0.45034 0.670176
0 0.401709 0.635599
0.256382 0.33669 0.603098
0.709712 0.262989 0.495415
1 0.0292515 0.33051
1 0.0570993 0.191363
1 0.0143282 0.154711
1 0.0101015 0.146395
0 0.865858 0.821256
0 0.847761 0.807553
0 0.807599 0.778653
0 0.72781 0.719417
0.631037 0.618387 0.615793
0.951324 0.532006 0.481117
1 0.487129 0.33196
1 0.461143 0.301549
1 0.457969 0.297597
0.420279 0.997436 0.895186
0.415579 0.994537 0.889967
0.406714 0.988159 0.877623
0.439078 0.972534 0.84892
0.653712 0.916579 0.787182
0.860029 0.858259 0.649592
1 0.808072 0.543786
1 0.785779 0.504128
1 0.783322 0.50042
0.421912 1 0.9131
0.425498 0.99968 0.907912
0.427527 0.998734 0.896269
0.503349 0.995254 0.877333
0.738262 0.979873 0.863371
0.84303 0.961501 0.823133
0.950774 0.943999 0.694896
0.999954 0.937713 0.630381
0.999985 0.936599 0.626963
0.409766 1 0.918563
0.419715 1 0.914092
0.426352 0.999283 0.902998
0.490333 0.996094 0.883497
0.711635 0.981994 0.863081
0.848508 0.96968 0.843778
0.932128 0.973739 0.785245
0.97998 0.9682 0.713252
0.982437 0.967239 0.706538
0.408484 1 0.919127
0.418097 1 0.914824
0.4262 0.999359 0.903899
0.488228 0.99617 0.884062
0.708293 0.982254 0.86305
0.847929 0.969757 0.84419
0.931273 0.973709 0.786801
0.977066 0.97232 0.72842
0.980499 0.971283 0.720775
0 0.251072 0.852995
0 0.241856 0.843748
0.0205081 0.228565 0.825727
0.511727 0.200992 0.792279
0.846571 0.18883 0.698299
1 0.230243 0.55581
1 0.134112 0.468437
1 0.0640269 0.440604
1 0.0559396 0.4374
0 0.266804 0.859205
0 0.255055 0.850263
0.0154116 0.235874 0.833097
0.499489 0.21001 0.802762
0.856886 0.196521 0.728069
1 0.25658 0.579187
1 0.181003 0.490013
1 0.119951 0.462821
1 0.111864 0.459602
0 0.345495 0.876692
6.10361e-05 0.333974 0.873121
0.0335546 0.291447 0.849104
0.470787 0.246342 0.822995
0.862013 0.246052 0.773068
1 0.313649 0.629648
1 0.240742 0.534615
1 0.20647 0.509026
1 0.202548 0.506096
0 0.535317 0.885679
0 0.513085 0.877226
0 0.479896 0.866896
0.381582 0.42652 0.84712
0.829908 0.433265 0.823133
0.997406 0.42118 0.70222
1 0.356939 0.614267
1 0.320287 0.588479
1 0.31519 0.584863
0 0.834531 0.923613
0 0.818006 0.916762
0 0.7832 0.902281
0 0.704616 0.866667
0.652491 0.65893 0.841413
0.92314 0.667704 0.786175
1 0.609735 0.715129
1 0.572747 0.688853
1 0.568856 0.68603
0.429496 0.975128 0.962982
0.421866 0.973098 0.959686
0.390951 0.966354 0.949599
0.395743 0.954421 0.932021
0.595789 0.911131 0.897276
0.84773 0.85626 0.843015
0.980743 0.823621 0.792737
1 0.805676 0.769085
1 0.803708 0.767315
0.516045 0.983749 0.976761
0.483207 0.98024 0.972061
0.4309 0.975586 0.963409
0.467628 0.984497 0.95613
0.652949 0.99057 0.94374
0.856794 0.971328 0.91252
0.939818 0.9467 0.866957
0.977813 0.938796 0.848936
0.977966 0.93753 0.847257
0.465812 0.978378 0.969573
0.449592 0.976654 0.967254
0.430823 0.975509 0.963485
0.467155 0.981414 0.957641
0.640558 0.990448 0.947662
0.847059 0.977935 0.918166
0.931655 0.973251 0.895842
0.969375 0.97142 0.87538
0.972412 0.970748 0.872908
0.468132 0.978637 0.969909
0.451514 0.976852 0.967544
0.430671 0.975372 0.963623
0.467353 0.980987 0.957839
0.639002 0.990433 0.948135
0.845243 0.978164 0.918669
0.930983 0.973144 0.896513
0.967651 0.975204 0.880323
0.971344 0.97438 0.877409
0.387411 0.389563 0.944121
0.375479 0.380621 0.940246
0.393912 0.360815 0.930388
0.587716 0.339269 0.908232
0.919173 0.443626 0.886229
1 0.492226 0.777783
1 0.479423 0.732998
1 0.454658 0.714168
1 0.45185 0.711971
0.405814 0.408682 0.948043
0.388693 0.393301 0.943648
0.399985 0.370809 0.93431
0.581598 0.348348 0.914275
0.907546 0.439689 0.890623
1 0.48455 0.786709
1 0.498985 0.74789
1 0.474235 0.729046
1 0.471641 0.727077
0.464012 0.492805 0.959731
0.44033 0.4701 0.954635
0.424826 0.425864 0.944091
0.570672 0.38262 0.925261
0.87985 0.42884 0.899199
1 0.479393 0.809644
1 0.528862 0.773617
1 0.515145 0.760647
1 0.513695 0.759289
0.402945 0.634424 0.967758
0.382452 0.608545 0.963485
0.404517 0.582895 0.955398
0.530404 0.525887 0.938674
0.828336 0.523171 0.916472
0.995605 0.513695 0.856535
1 0.56759 0.809354
1 0.550317 0.795605
1 0.548775 0.794003
0.161135 0.860868 0.972015
0.140215 0.850004 0.971954
0.0493935 0.824506 0.971405
0.0665141 0.743557 0.956802
0.695628 0.701381 0.930602
0.946151 0.753964 0.910094
1 0.725246 0.857893
1 0.703548 0.846342
1 0.702251 0.845472
0.528801 0.985107 0.978576
0.523919 0.980819 0.979004
0.514229 0.971542 0.97995
0.538781 0.95668 0.980484
0.607294 0.91194 0.965545
0.849165 0.866453 0.929229
0.957168 0.879622 0.909148
0.971923 0.873869 0.902449
0.972183 0.872587 0.901488
0.528801 0.985107 0.978576
0.528801 0.985107 0.978576
0.528801 0.985107 0.978576
0.558587 0.984726 0.978622
0.690532 0.982452 0.977783
0.826749 0.969726 0.963211
0.935302 0.944503 0.934737
0.968734 0.93875 0.926329
0.968719 0.937499 0.925231
0.528801 0.985107 0.978576
0.528801 0.985107 0.978576
0.528801 0.985107 0.978576
0.55491 0.984771 0.978637
0.683284 0.982574 0.977829
0.829969 0.977111 0.970092
0.934173 0.977111 0.955642
0.968414 0.973312 0.945418
0.971588 0.972564 0.944259
0.528801 0.985107 0.978576
0.528801 0.985107 0.978576
0.528801 0.985107 0.978576
0.554543 0.984787 0.978637
0.68249 0.982589 0.977844
0.829953 0.977417 0.970703
0.933242 0.977264 0.95642
0.967819 0.976822 0.947601
0.971801 0.976699 0.946593
0.499901 0.469062 0.967956
0.488472 0.45771 0.964843
0.490089 0.433005 0.956405
0.626963 0.406928 0.937804
0.911681 0.492683 0.915434
1 0.520012 0.826795
1 0.551202 0.796323
1 0.539971 0.784115
1 0.538262 0.782498
0.504829 0.478416 0.969268
0.496773 0.468894 0.967041
0.503426 0.448951 0.960952
0.623438 0.417182 0.942458
0.90251 0.495598 0.920729
1 0.512276 0.835004
1 0.558923 0.806073
1 0.549477 0.794156
1 0.548379 0.792782
0.498283 0.514748 0.968109
0.503807 0.511345 0.968795
0.515694 0.492576 0.966186
0.613901 0.446082 0.950011
0.878981 0.4907 0.928344
1 0.513451 0.860151
1 0.568154 0.82356
1 0.566018 0.815
1 0.564752 0.813397
0.404242 0.636454 0.968063
0.388571 0.611749 0.964446
0.455238 0.604089 0.964904
0.596719 0.582361 0.962509
0.829847 0.563409 0.940063
1 0.598901 0.913436
1 0.580652 0.847028
1 0.57142 0.837949
1 0.571115 0.837217
0.162097 0.86154 0.972015
0.142092 0.85098 0.971954
0.0545052 0.825467 0.971435
0.117174 0.755566 0.965393
0.73286 0.739345 0.958099
0.946792 0.787076 0.935927
0.999268 0.741253 0.890669
0.999954 0.725093 0.881987
1 0.723629 0.88098
0.528801 0.985107 0.978576
0.524361 0.981216 0.978958
0.514641 0.971939 0.979919
0.53904 0.957015 0.980484
0.643259 0.919615 0.975631
0.862211 0.880613 0.95906
0.9682 0.892729 0.941039
0.97142 0.88217 0.926436
0.97145 0.881132 0.925643
0.528801 0.985107 0.978576
0.528801 0.985107 0.978576
0.528801 0.985107 0.978576
0.558434 0.984726 0.978622
0.690166 0.982467 0.977783
0.843839 0.976776 0.976974
0.941604 0.952468 0.967147
0.971176 0.95288 0.958389
0.970474 0.951553 0.956985
0.528801 0.985107 0.978576
0.528801 0.985107 0.978576
0.528801 0.985107 0.978576
0.554788 0.984787 0.978637
0.68307 0.982574 0.977829
0.839353 0.980606 0.976699
0.940627 0.981796 0.97789
0.974502 0.979263 0.974227
0.97705 0.978042 0.972595
0.528801 0.985107 0.978576
0.528801 0.985107 0.978576
0.528801 0.985107 0.978576
0.554421 0.984787 0.978637
0.682185 0.982589 0.977844
0.838499 0.980606 0.976699
0.939818 0.981765 0.977859
0.974762 0.982055 0.976226
0.97821 0.981903 0.975418
0.509972 0.476982 0.970077
0.498589 0.465797 0.96701
0.502129 0.442908 0.959457
0.631418 0.414878 0.940749
0.911528 0.501152 0.91928
1 0.520256 0.831205
1 0.556115 0.802518
1 0.546838 0.790829
1 0.545327 0.789166
0.504829 0.478416 0.969268
0.506386 0.476326 0.969131
0.511193 0.455909 0.962875
0.628275 0.425299 0.945464
0.900999 0.499306 0.92314
1 0.512886 0.839902
1 0.563836 0.812253
1 0.554376 0.800336
1 0.553292 0.798962
0.498253 0.514794 0.968109
0.503731 0.511406 0.96878
0.52549 0.500328 0.96849
0.620874 0.456001 0.953079
0.878325 0.496269 0.930953
1 0.523323 0.867765
1 0.567117 0.827207
1 0.56907 0.820371
1 0.569329 0.81944
0.404242 0.636454 0.968063
0.3888 0.612116 0.964492
0.455238 0.604089 0.964904
0.605097 0.589685 0.965225
0.831128 0.570459 0.94284
1 0.604532 0.916838
1 0.583932 0.851789
1 0.574166 0.842634
1 0.573739 0.841794
0.16231 0.861692 0.972015
0.142092 0.85098 0.971954
0.0554818 0.825666 0.971435
0.116869 0.755566 0.965393
0.736996 0.743694 0.961089
0.946426 0.788556 0.938308
0.99942 0.744518 0.895079
0.999924 0.725719 0.885374
1 0.724193 0.88452
0.528801 0.985107 0.978576
0.524361 0.981216 0.978958
0.514641 0.971939 0.979919
0.53904 0.957015 0.980484
0.643305 0.919738 0.975631
0.864897 0.883482 0.963027
0.970718 0.894942 0.945708
0.972107 0.882933 0.929488
0.972137 0.881895 0.928725
0.528801 0.985107 0.978576
0.528801 0.985107 0.978576
0.528801 0.985107 0.978576
0.558434 0.984726 0.978622
0.690166 0.982467 0.977783
0.843976 0.976944 0.976974
0.942901 0.954177 0.971679
0.973358 0.955276 0.9626
0.972824 0.95404 0.961456
0.528801 0.985107 0.978576
0.528801 0.985107 0.978576
0.528801 0.985107 0.978576
0.554788 0.984787 0.978637
0.682918 0.982589 0.977829
0.8392 0.980606 0.976699
0.940627 0.981796 0.97789
0.975998 0.980636 0.978515
0.978683 0.979736 0.977203
0.528801 0.985107 0.978576
0.528801 0.985107 0.978576
0.528801 0.985107 0.978576
0.554421 0.984787 0.978637
0.682048 0.982605 0.977844
0.838422 0.980606 0.976699
0.939681 0.981765 0.977859
0.975952 0.983017 0.979553
0.979736 0.983093 0.979675
