luts/changyun_kodaklike/kodaEK25.cube
TITLE "Generated by Resolve"
LUT_3D_SIZE 5
0.00132753 0.00215152 0.00218204
0.127871 0.0312047 0.00030518
0.691279 0.145312 0
0.98526 0.314855 0
0.98526 0.314855 0
0 0.143969 0.0545663
0.088777 0.109636 0.0206455
0.657771 0.129534 0
0.98526 0.314855 0
0.98526 0.314855 0
0 0.671977 0.275288
0 0.619379 0.241535
0.498558 0.510491 0.018143
0.991669 0.479042 0
0.995483 0.463737 0
0 0.930632 0.523629
0 0.927642 0.509041
0.454978 0.926894 0.485801
0.860792 0.866484 0.265339
0.931563 0.865049 0.19147
0 0.930205 0.52668
0 0.929061 0.515755
0.443198 0.927672 0.489693
0.875319 0.960174 0.479362
0.934829 0.943832 0.404593
0 0.0103914 0.112566
0.134112 0.0221256 0.0707561
0.685252 0.142458 0
0.98526 0.314855 0
0.98526 0.314855 0
0 0.16083 0.150423
0.102556 0.119493 0.118029
0.651286 0.127794 0
0.98526 0.314855 0
0.98526 0.314855 0
0 0.685039 0.341192
0 0.634699 0.305028
0.503044 0.517708 0.142229
0.993912 0.481224 0
0.992844 0.463996 0
0 0.934142 0.553353
0 0.932448 0.54667
0.454765 0.928679 0.515572
0.865125 0.874357 0.303685
0.928222 0.868101 0.236194
0 0.935729 0.559808
0 0.932265 0.545754
0.440543 0.928588 0.519921
0.879835 0.962829 0.50132
0.938796 0.951003 0.440589
0 0 0.543847
0.0711528 0 0.508629
0.701427 0 0.314092
0.970947 0.307851 0.17348
0.973037 0.309209 0.145495
0 0.176562 0.584176
0 0.124773 0.547097
0.693507 0 0.367468
0.968551 0.307225 0.223346
0.969589 0.307439 0.201511
0 0.735943 0.701946
0 0.687694 0.665187
0.57908 0.581842 0.585092
0.978271 0.477455 0.356786
0.977584 0.460777 0.336675
0 0.95758 0.817563
0 0.955169 0.785245
0.239292 0.948272 0.696773
0.869047 0.886732 0.581918
0.946746 0.888212 0.556893
0 0.95787 0.829786
0 0.956329 0.799847
0.0957961 0.949783 0.701228
0.874479 0.965011 0.673411
0.946578 0.965423 0.656138
0.180758 0 0.921431
0.225452 0 0.893324
0.758129 0 0.807721
1 0.225116 0.603021
1 0.222782 0.58349
0.219059 0.19527 0.9523
0.228061 0.130877 0.922255
0.720424 0 0.838621
1 0.228183 0.645838
1 0.227955 0.627802
0 0.776776 0.980194
0 0.723171 0.978332
0.539574 0.526696 0.920836
1 0.472389 0.776501
1 0.450034 0.756268
0 0.980652 0.994171
0 0.980652 0.994171
0.310887 0.98175 0.994598
0.920653 0.928649 0.940597
0.974899 0.896574 0.909026
0 0.980652 0.994171
0 0.980652 0.994171
0.280049 0.981674 0.994568
0.886305 0.979873 0.949172
0.978012 0.988052 0.938735
0.282521 0.0117037 0.975525
0.29572 0 0.949447
0.760113 0 0.870497
1 0.230671 0.685573
1 0.228412 0.665446
0.260731 0.201129 0.975921
0.305837 0.152438 0.975189
0.727062 0 0.89749
1 0.230915 0.728618
1 0.233585 0.711498
0 0.778058 0.980209
0 0.724788 0.978424
0.557778 0.52781 0.977111
1 0.47451 0.85481
1 0.453086 0.83444
0 0.980652 0.994171
0 0.980652 0.994171
0.309483 0.981735 0.994598
0.916548 0.922026 0.990616
0.993179 0.90518 0.969924
0 0.980652 0.994171
0 0.980652 0.994171
0.27837 0.981659 0.994568
0.901534 0.993439 0.997192
1 1 1
