luts/changyun_kodaklike/kodaUM400.cube
TITLE "Generated by Resolve"
LUT_3D_SIZE 33
0.041474 0.0602731 0.0813916
0.0420386 0.06009 0.0812238
0.043534 0.06009 0.0811933
0.045716 0.0601663 0.0813001
0.049424 0.0601968 0.0815595
0.0554055 0.0602579 0.0819409
0.0692454 0.0612955 0.0822919
0.0865339 0.0627604 0.0831311
0.102571 0.0646525 0.0842145
0.12781 0.0653086 0.0856794
0.166247 0.0606699 0.0866255
0.224521 0.0395514 0.0865949
0.305806 0.002533 0.0843366
0.409567 0 0.0776532
0.530968 0 0.0592203
0.657786 0 0.0308537
0.776928 0 0
0.887831 0 0
0.975952 0 0
1 0 0
1 0 0
1 0 0
1 0 0
1 0 0
1 0 0
1 0 0
1 0 0
1 0 0
1 0 0
1 0 0
1 0 0
1 0 0
1 0 0
0.0417029 0.0607156 0.0815137
0.0420844 0.0605631 0.0813916
0.0431373 0.0605325 0.0812848
0.0451667 0.0606394 0.0812848
0.0485237 0.0606699 0.0814832
0.054902 0.0604715 0.0818799
0.0680858 0.0612039 0.0822766
0.085359 0.0626535 0.0830701
0.10164 0.0645304 0.0841382
0.126177 0.0654154 0.0856489
0.164355 0.0610819 0.0865949
0.221744 0.0408179 0.0866255
0.302266 0.0033875 0.0844434
0.405417 0 0.0780041
0.526467 0 0.06009
0.653895 0 0.0319677
0.773465 0 0
0.884764 0 0
0.973449 0 0
1 0 0
1 0 0
1 0 0
1 0 0
1 0 0
1 0 0
1 0 0
1 0 0
1 0 0
1 0 0
1 0 0
1 0 0
1 0 0
1 0 0
0.0413825 0.062623 0.0819867
0.0418708 0.0619974 0.0817884
0.0427558 0.0614023 0.0815442
0.0446784 0.0610819 0.0813153
0.0476387 0.0611582 0.0814069
0.0544594 0.060914 0.0818036
0.0673228 0.0614786 0.0822156
0.0842908 0.0626383 0.0829938
0.100816 0.0644236 0.0840925
0.124971 0.0654917 0.0856336
0.16257 0.0613413 0.0865492
0.219669 0.0417792 0.0866407
0.299245 0.00411994 0.084535
0.401907 0 0.0783093
0.522652 0 0.0608225
0.650233 0 0.0330358
0.769787 0 0
0.881498 0 0
0.970947 0 0
1 0 0
1 0 0
1 0 0
1 0 0
1 0 0
1 0 0
1 0 0
1 0 0
1 0 0
1 0 0
1 0 0
1 0 0
1 0 0
1 0 0
0.0409247 0.0651713 0.0825666
0.0412604 0.0646067 0.082414
0.041825 0.0640116 0.0822309
0.0438087 0.063386 0.0818341
0.0463417 0.0627298 0.0815137
0.053666 0.0618296 0.0817121
0.0664988 0.0618601 0.0821393
0.0831922 0.0630503 0.082887
0.0998245 0.0645151 0.0840009
0.123186 0.0655985 0.0856031
0.160678 0.0616007 0.0864881
0.216617 0.0431678 0.0866712
0.295705 0.00497444 0.0846418
0.397757 0 0.0786603
0.51838 0 0.0616312
0.645838 0 0.0342107
0.765896 0 0
0.878065 0 0
0.968002 0 0
1 0 0
1 0 0
1 0 0
1 0 0
1 0 0
1 0 0
1 0 0
1 0 0
1 0 0
1 0 0
1 0 0
1 0 0
1 0 0
1 0 0
0.0400092 0.0703288 0.0838636
0.0403449 0.0691539 0.0834669
0.0406958 0.0680705 0.0831769
0.0426184 0.0665599 0.0825818
0.0451362 0.0654459 0.0819715
0.0521096 0.0647593 0.0816663
0.0643473 0.0640879 0.0819104
0.0819562 0.0639658 0.0827039
0.0985885 0.0650797 0.0838788
0.121065 0.0662242 0.0855268
0.158206 0.0619516 0.0864271
0.213428 0.0446174 0.0867018
0.29163 0.00596628 0.0847639
0.392996 0 0.079057
0.512993 0 0.0626688
0.640223 0 0.0355688
0.760784 0 0
0.873549 0 0
0.964614 0 0
1 0 0
1 0 0
1 0 0
1 0 0
1 0 0
1 0 0
1 0 0
1 0 0
1 0 0
1 0 0
1 0 0
1 0 0
1 0 0
1 0 0
0.0384222 0.0780957 0.0860304
0.0389715 0.0766613 0.0853132
0.0393835 0.0755322 0.0847791
0.0411078 0.0740673 0.0843519
0.0438697 0.0721752 0.0837873
0.0500343 0.0704967 0.0825208
0.0616159 0.0685588 0.0816663
0.0794385 0.0671702 0.0823072
0.0968032 0.0678264 0.0837415
0.118074 0.0677501 0.0853895
0.154391 0.0635233 0.086305
0.209033 0.0467689 0.0867323
0.286137 0.00729381 0.0849317
0.386587 0 0.0796063
0.50602 0 0.0640116
0.633707 0 0.0371252
0.754849 0 0.000350958
0.868299 0 0
0.960037 0 0
1 0 0
1 0 0
1 0 0
1 0 0
1 0 0
1 0 0
1 0 0
1 0 0
1 0 0
1 0 0
1 0 0
1 0 0
1 0 0
1 0 0
0.0352636 0.0887465 0.0890822
0.0357824 0.0874342 0.0884108
0.0362707 0.0860609 0.0877852
0.037583 0.0845502 0.0872511
0.0414282 0.0822766 0.0866712
0.0472114 0.0800031 0.0852827
0.0577096 0.078172 0.082536
0.0762646 0.0758373 0.0816358
0.0943923 0.0739757 0.0834363
0.115389 0.0728618 0.0848554
0.149981 0.068452 0.0858778
0.202518 0.0514534 0.086717
0.278599 0.0103609 0.0851148
0.378912 0 0.0802625
0.497932 0 0.065568
0.624949 0 0.0392462
0.746822 0 0.0030518
0.86125 0 0
0.954299 0 0
1 0 0
1 0 0
1 0 0
1 0 0
1 0 0
1 0 0
1 0 0
1 0 0
1 0 0
1 0 0
1 0 0
1 0 0
1 0 0
1 0 0
0.0264591 0.100496 0.0924086
0.028397 0.0987259 0.0917525
0.0302892 0.0972915 0.0910353
0.0317235 0.0959335 0.0902113
0.0349584 0.0941176 0.0897841
0.0406653 0.0917372 0.0893263
0.0508125 0.0891432 0.0880293
0.0703441 0.0869917 0.0833143
0.0919051 0.0846265 0.0821241
0.111925 0.0826429 0.0844282
0.145129 0.0784772 0.0852979
0.195407 0.0634928 0.0861524
0.268147 0.0209354 0.0849775
0.366735 0 0.081117
0.486381 0 0.0673991
0.614618 0 0.0417334
0.737346 0 0.00624094
0.851942 0 0
0.947494 0 0
1 0 0
1 0 0
1 0 0
1 0 0
1 0 0
1 0 0
1 0 0
1 0 0
1 0 0
1 0 0
1 0 0
1 0 0
1 0 0
1 0 0
0.00660716 0.12256 0.0966964
0.00813306 0.120195 0.0960555
0.00967422 0.117998 0.0953231
0.0116579 0.115267 0.0944533
0.0157015 0.111879 0.093431
0.0236362 0.108644 0.0925612
0.0374762 0.103975 0.0921187
0.0573739 0.0997787 0.090074
0.0860609 0.096788 0.0843977
0.109087 0.095079 0.0821698
0.138964 0.0915541 0.0841535
0.18819 0.0839857 0.0848096
0.258946 0.0475319 0.084123
0.353567 0.000534066 0.0803998
0.470298 0 0.0679789
0.599237 0 0.0448005
0.724437 0 0.010193
0.841047 0 0
0.938521 0 0
0.997406 0 0
1 0 0
1 0 0
1 0 0
1 0 0
1 0 0
1 0 0
1 0 0
1 0 0
1 0 0
1 0 0
1 0 0
1 0 0
1 0 0
0 0.159609 0.102068
0 0.155993 0.10135
0 0.153033 0.100679
0 0.149599 0.0997635
0 0.145571 0.0987411
0 0.13991 0.0973831
0.00337224 0.132525 0.0962081
0.0249943 0.124407 0.0951247
0.0639048 0.118227 0.0920882
0.10341 0.114305 0.0844282
0.138003 0.111498 0.079408
0.181064 0.104158 0.0818494
0.248539 0.0914015 0.0805982
0.339559 0.0220798 0.0766766
0.453529 0 0.0655985
0.580774 0 0.0442817
0.70724 0 0.0128939
0.823163 0 0
0.925063 0 0
0.993835 0 0
1 0 0
1 0 0
1 0 0
1 0 0
1 0 0
1 0 0
1 0 0
1 0 0
1 0 0
1 0 0
1 0 0
1 0 0
1 0 0
0 0.222187 0.10959
0 0.217273 0.108217
0 0.212558 0.107408
0 0.207172 0.106493
0 0.200488 0.105303
0 0.192309 0.103838
0 0.18265 0.102251
0 0.171176 0.100938
0.00962844 0.156924 0.0994125
0.0709087 0.147341 0.0940108
0.128573 0.144076 0.0805371
0.182818 0.139361 0.068925
0.245686 0.127916 0.0683146
0.332448 0.105119 0.0633402
0.438239 0.00849927 0.0542306
0.562982 0 0.0348058
0.688029 0 0.00675975
0.804471 0 0
0.907561 0 0
0.98497 0 0
1 0 0
1 0 0
1 0 0
1 0 0
1 0 0
1 0 0
1 0 0
1 0 0
1 0 0
1 0 0
1 0 0
1 0 0
1 0 0
0 0.307195 0.119661
0 0.300923 0.11809
0 0.295201 0.116655
0 0.288884 0.115038
0 0.281209 0.113008
0 0.272251 0.110643
0 0.260487 0.109163
0 0.245991 0.10782
0 0.227222 0.106432
0.0018616 0.205722 0.104875
0.0737316 0.193103 0.0937667
0.165469 0.187549 0.0648203
0.24538 0.181048 0.0402228
0.325322 0.162646 0.0327001
0.431968 0.128923 0.0255131
0.555825 0.0195163 0.0093843
0.677684 0 0.000976577
0.807568 0 0
0.898604 0 0
0.97438 0 0
1 0 0
1 0 0
1 0 0
1 0 0
1 0 0
1 0 0
1 0 0
1 0 0
1 0 0
1 0 0
1 0 0
1 0 0
1 0 0
0 0.408026 0.134066
0 0.402274 0.13228
0 0.396521 0.130556
0 0.389975 0.128573
0 0.381842 0.126162
0 0.371725 0.122972
0 0.358892 0.119219
0 0.342077 0.115923
0 0.321874 0.114107
0 0.297414 0.112779
0 0.269474 0.110231
0.0855879 0.255299 0.0862898
0.223545 0.251026 0.0172274
0.329 0.237491 0.00103761
0.423758 0.208011 0
0.540368 0.167865 0
0.665736 0.0784314 0
0.786801 0.000717174 0
0.893568 0 0
0.978958 0 0
1 0 0
1 0 0
1 0 0
1 0 0
1 0 0
1 0 0
1 0 0
1 0 0
1 0 0
1 0 0
1 0 0
1 0 0
1 0 0
0 0.525246 0.160708
0 0.518547 0.157076
0 0.512566 0.154177
0 0.506447 0.151629
0 0.498695 0.148836
0 0.48893 0.144976
0 0.476371 0.139849
0 0.459953 0.133532
0 0.437186 0.128496
0 0.408515 0.123857
0 0.377264 0.121675
0 0.347036 0.114565
0.133761 0.335973 0.0516976
0.304829 0.331609 0
0.454215 0.320653 0
0.555962 0.278325 0
0.655253 0.231006 0
0.769879 0.183536 0
0.872145 0.105348 0
0.958373 0.0131685 0
1 0.0151827 0
1 0 0
1 0.0115053 0
1 0.0163119 0
1 0 0
1 0 0
1 0 0
1 0 0
1 0 0
1 0 0
1 0 0
1 0 0
1 0 0
0 0.636072 0.202914
0 0.631128 0.199435
0 0.626154 0.195895
0 0.620462 0.191959
0 0.613367 0.186801
0 0.604929 0.181399
0 0.595773 0.175128
0 0.584024 0.16907
0 0.565698 0.161456
0 0.537331 0.151843
0 0.506004 0.14287
0 0.467933 0.137926
0 0.434684 0.116915
0.205936 0.418067 0.00433356
0.399558 0.416297 0
0.567178 0.405905 0
0.673259 0.363928 0
0.772931 0.325887 0
0.870634 0.299596 0
0.942565 0.264881 0
0.995605 0.238529 0
1 0.22739 0
1 0.225269 0
1 0.220981 0
1 0.216037 0
1 0.200763 0
1 0.18735 0
1 0.178317 0
1 0.173663 0
1 0.171466 0
1 0.170367 0
1 0.169268 0
1 0.168185 0
0 0.750454 0.271473
0 0.744488 0.266331
0 0.738872 0.261448
0 0.73283 0.256031
0 0.724804 0.248966
0 0.714534 0.239734
0 0.701991 0.228733
0 0.687831 0.217517
0 0.671412 0.205585
0 0.650996 0.194446
0 0.62475 0.183185
0 0.592706 0.171786
0 0.55436 0.163302
0.0601511 0.526696 0.117891
0.310399 0.509316 0.000488289
0.503655 0.503899 0
0.667338 0.495872 0
0.762722 0.454261 0
0.847608 0.418585 0
0.926513 0.394232 0
0.988235 0.37789 0
1 0.365423 0
1 0.359625 0
1 0.350759 0
1 0.342412 0
1 0.328359 0
1 0.317922 0
1 0.310887 0
1 0.30753 0
1 0.305592 0
1 0.304829 0
1 0.304051 0
1 0.303655 0
0 0.841093 0.36112
0 0.83714 0.354879
0 0.833127 0.34847
0 0.82855 0.341207
0 0.821866 0.332235
0 0.81445 0.322835
0 0.805783 0.31284
0 0.794263 0.298711
0 0.780148 0.283085
0 0.762783 0.266804
0 0.739452 0.248096
0 0.707607 0.227039
0 0.672862 0.209125
0 0.630152 0.192386
0.220569 0.608911 0.117693
0.427329 0.599298 0
0.605173 0.593011 0
0.755169 0.588602 0
0.836179 0.546242 0
0.908309 0.514244 0
0.970504 0.486702 0
0.999908 0.47335 0
1 0.464286 0
1 0.45539 0
1 0.448142 0
1 0.439124 0
1 0.431113 0
1 0.426047 0
1 0.422934 0
1 0.421622 0
1 0.420966 0
1 0.420325 0
1 0.419669 0
0 0.906203 0.46656
0 0.903197 0.459617
0 0.900298 0.452827
0 0.896864 0.44477
0 0.89247 0.434455
0 0.886763 0.420844
0 0.879301 0.405722
0 0.870359 0.388449
0 0.861067 0.373129
0 0.848753 0.356146
0 0.835172 0.3393
0 0.814023 0.316518
0 0.785016 0.288762
0 0.753735 0.267033
0.160937 0.714595 0.236866
0.366796 0.687922 0.132418
0.52517 0.671244 0
0.68365 0.666712 0
0.82504 0.672709 0
0.89659 0.636454 0
0.955093 0.606424 0
0.995361 0.579126 0
1 0.563653 0
1 0.554498 0
1 0.545907 0
1 0.538369 0
1 0.53077 0
1 0.525917 0
1 0.522942 0
1 0.521691 0
1 0.521065 0
1 0.520439 0
1 0.519982 0
0.247761 0.947799 0.580377
0.226047 0.946242 0.573648
0.197787 0.944686 0.568215
0.166262 0.942962 0.562127
0.129046 0.940658 0.554543
0.0847334 0.937804 0.544839
0.0307622 0.93402 0.531929
0 0.9281 0.513039
0 0.920348 0.489845
0 0.911055 0.46331
0 0.896864 0.433295
0 0.88072 0.402289
0 0.861891 0.375982
0 0.839658 0.350149
0.12903 0.811185 0.324193
0.353765 0.782376 0.276646
0.494377 0.765438 0.175204
0.631022 0.75198 0
0.765957 0.746624 0
0.882719 0.749325 0
0.938949 0.714366 0
0.982208 0.685359 0
1 0.662699 0
1 0.64535 0
1 0.63476 0
1 0.628 0
1 0.621271 0
1 0.616648 0
1 0.614267 0
1 0.613153 0
1 0.612589 0
1 0.612024 0
1 0.61146 0
0.532357 0.975021 0.694163
0.522271 0.973938 0.68838
0.512718 0.97293 0.682918
0.501549 0.971756 0.676585
0.484688 0.970077 0.668482
0.462409 0.96788 0.657816
0.433265 0.965087 0.6439
0.395499 0.96144 0.626078
0.33254 0.956344 0.604318
0.261463 0.950286 0.579675
0.192126 0.942901 0.553613
0.0780194 0.933104 0.524285
0.102922 0.919738 0.489815
0.0705119 0.902998 0.453544
0.260975 0.881224 0.419135
0.377676 0.855299 0.383734
0.484977 0.837201 0.320806
0.598169 0.822934 0.217517
0.713741 0.811536 0.00541695
0.825833 0.804059 0
0.92221 0.805692 0
0.966918 0.78027 0
1 0.758007 0
1 0.73962 0
1 0.725704 0
1 0.714351 0
1 0.706065 0
1 0.700618 0
1 0.697475 0
1 0.696147 0
1 0.695644 0
1 0.694987 0
1 0.694331 0
0.557702 0.977722 0.70901
0.553094 0.977218 0.706279
0.548653 0.976745 0.703685
0.543908 0.976257 0.700862
0.537575 0.975601 0.697093
0.529854 0.974807 0.692485
0.520058 0.973846 0.68661
0.507332 0.972641 0.678935
0.48661 0.970687 0.668132
0.459571 0.967941 0.653681
0.435019 0.964508 0.637476
0.421576 0.960601 0.621073
0.400046 0.953277 0.595239
0.388586 0.942 0.559625
0.407446 0.927626 0.523522
0.457771 0.910384 0.488212
0.520027 0.890913 0.445686
0.596201 0.876707 0.365133
0.683436 0.86183 0.251041
0.782467 0.852628 0.0399939
0.875761 0.847196 0
0.949844 0.846601 0
0.98706 0.825986 0
1 0.808392 0
1 0.794827 0
1 0.78497 0
1 0.777905 0
1 0.773754 0
1 0.771359 0
1 0.770352 0
1 0.769848 0
1 0.769345 0
1 0.768841 0
0.59295 0.981048 0.729397
0.590661 0.980972 0.727871
0.588266 0.980911 0.726268
0.585992 0.980835 0.724743
0.584207 0.980835 0.723415
0.585519 0.981018 0.723842
0.587243 0.981262 0.724392
0.589273 0.981537 0.725048
0.583963 0.981018 0.721447
0.567208 0.979171 0.710826
0.543786 0.976226 0.69453
0.525307 0.972808 0.677363
0.514244 0.968551 0.659007
0.514076 0.962982 0.639643
0.53196 0.956664 0.620966
0.550027 0.945205 0.588998
0.580041 0.929976 0.551232
0.627283 0.917845 0.496864
0.689754 0.907591 0.415213
0.765438 0.897612 0.312276
0.840665 0.886427 0.121401
0.906554 0.876753 0.00114443
0.970596 0.877821 0
0.997177 0.865354 0
1 0.851835 0
1 0.841917 0
1 0.83476 0
1 0.830823 0
1 0.828687 0
1 0.827802 0
1 0.827344 0
1 0.827008 0
1 0.826566 0
0.601831 0.981308 0.735348
0.599435 0.981231 0.733745
0.597391 0.98117 0.732372
0.594751 0.981094 0.730602
0.591745 0.981003 0.728603
0.587793 0.980896 0.725948
0.584115 0.980819 0.723384
0.586191 0.981109 0.724056
0.588846 0.98146 0.72491
0.592401 0.981842 0.725734
0.596674 0.981949 0.725612
0.597894 0.981277 0.721584
0.594446 0.978927 0.71104
0.592676 0.974701 0.695491
0.593591 0.968887 0.673136
0.611032 0.962356 0.653101
0.642237 0.954879 0.636088
0.671305 0.944625 0.603738
0.709239 0.936431 0.537194
0.761913 0.928222 0.454444
0.823545 0.919173 0.348104
0.883009 0.911635 0.192691
0.940383 0.905867 0.0135958
0.987686 0.905364 0
1 0.895872 0
1 0.886076 0
1 0.879255 0
1 0.875196 0
1 0.873442 0
1 0.872679 0
1 0.872282 0
1 0.871992 0
1 0.871611 0
0.609522 0.981537 0.74049
0.607111 0.98146 0.738888
0.605066 0.981399 0.737514
0.602426 0.981323 0.735744
0.599435 0.981231 0.733745
0.595468 0.981125 0.73109
0.590906 0.980987 0.728038
0.584787 0.980804 0.723934
0.585977 0.981079 0.723995
0.590051 0.981521 0.7252
0.594537 0.981796 0.725505
0.600061 0.981506 0.724086
0.606638 0.98056 0.720195
0.630488 0.980041 0.723491
0.650813 0.978424 0.72079
0.659815 0.973098 0.702541
0.677089 0.966384 0.682155
0.704875 0.959213 0.664805
0.737408 0.95552 0.630411
0.771893 0.949538 0.56466
0.817426 0.942214 0.478202
0.865797 0.934874 0.375525
0.915969 0.928222 0.215869
0.961227 0.923278 0.0450904
0.993759 0.922835 0
1 0.919264 0
1 0.913649 0
1 0.909743 0
1 0.90811 0
1 0.907469 0
1 0.907164 0
1 0.90692 0
1 0.9066 0
0.614557 0.981643 0.743999
0.613596 0.981659 0.743221
0.611322 0.981598 0.741695
0.608789 0.981521 0.740001
0.605798 0.98143 0.738003
0.602075 0.981323 0.7355
0.597147 0.98117 0.732204
0.59115 0.980987 0.728191
0.58407 0.980774 0.723461
0.587991 0.981247 0.724666
0.592706 0.981613 0.725261
0.599954 0.981552 0.725032
0.607782 0.980774 0.72221
0.628321 0.980087 0.723705
0.65127 0.978759 0.723049
0.674861 0.976516 0.71902
0.703258 0.973861 0.715175
0.730922 0.969177 0.706188
0.756222 0.96463 0.679942
0.786099 0.962081 0.636271
0.819776 0.958343 0.574777
0.857588 0.951797 0.487999
0.90071 0.945876 0.385183
0.941695 0.940352 0.247623
0.976349 0.93611 0.0469062
1 0.934539 0
1 0.933333 0
1 0.931762 0
1 0.930648 0
1 0.930129 0
1 0.929931 0
1 0.929671 0
1 0.929427 0
0.614527 0.98143 0.744625
0.614527 0.981521 0.744335
0.614542 0.981613 0.744091
0.61384 0.981674 0.743374
0.610834 0.981582 0.741375
0.606867 0.98146 0.73872
0.602075 0.981323 0.7355
0.596185 0.98114 0.731563
0.589227 0.980941 0.726909
0.586267 0.981003 0.724208
0.591226 0.981445 0.725032
0.598245 0.981491 0.724895
0.608576 0.980926 0.723674
0.626627 0.980133 0.723857
0.64976 0.978866 0.723583
0.674495 0.976806 0.720653
0.702327 0.974182 0.716762
0.734752 0.971481 0.715038
0.769863 0.970565 0.712703
0.798459 0.969818 0.682704
0.826627 0.966705 0.629816
0.856626 0.962997 0.565087
0.891279 0.957778 0.474693
0.928679 0.953094 0.375357
0.962097 0.949294 0.257221
0.988907 0.946105 0.0248264
0.996826 0.944884 0
0.999054 0.94403 0
1 0.943572 0
1 0.943282 0
1 0.943114 0
1 0.942931 0
1 0.942763 0
0.614496 0.981277 0.745052
0.614511 0.981369 0.744778
0.614527 0.981476 0.744503
0.614542 0.981567 0.744213
0.614557 0.981689 0.743862
0.61059 0.981567 0.741207
0.605798 0.98143 0.738003
0.599908 0.981247 0.734066
0.59295 0.981048 0.729397
0.585962 0.98088 0.724407
0.590112 0.981323 0.724849
0.596963 0.98143 0.724758
0.608713 0.981003 0.724529
0.62536 0.980148 0.72398
0.64831 0.978912 0.723735
0.67425 0.97702 0.721859
0.701656 0.974426 0.717906
0.732418 0.971511 0.714504
0.767651 0.970367 0.712978
0.800778 0.972 0.696605
0.832883 0.972976 0.671061
0.859129 0.969696 0.613184
0.889952 0.966384 0.541894
0.920806 0.961852 0.45008
0.951644 0.958068 0.352575
0.97818 0.955154 0.209064
0.992264 0.953307 0.0870222
0.997177 0.952163 0.0426337
0.999725 0.951659 0.0244602
1 0.951354 0.0211185
1 0.951171 0.0199741
1 0.951003 0.0188296
1 0.95082 0.0177005
0.614481 0.981186 0.745342
0.614496 0.981277 0.745083
0.614511 0.981369 0.744808
0.614527 0.981476 0.744503
0.614542 0.981598 0.744152
0.61323 0.981643 0.742977
0.608316 0.981506 0.739681
0.602319 0.981323 0.735668
0.595224 0.981109 0.730922
