luts/changyun_kodaklike/kodaP160.cube
TITLE "Generated by Resolve"
LUT_3D_SIZE 5
0.0191348 0.0255589 0.0210269
0.180423 0.0483864 0.0306249
0.798535 0.0334173 0.0894636
1 0.320287 0.20737
1 0.320287 0.20737
0 0.202029 0.0610971
0.129458 0.152346 0.0386511
0.768154 0 0.0783856
1 0.320287 0.20737
1 0.320287 0.20737
0.389151 0.734325 0.312978
0.345403 0.691875 0.268406
0.558312 0.565988 0.138476
0.999985 0.509575 0
1 0.493278 0.0676738
0.584314 0.946593 0.550683
0.579858 0.944015 0.538445
0.665034 0.944335 0.53576
0.872038 0.868894 0.397116
0.923018 0.862165 0.372869
0.583871 0.946166 0.553475
0.581964 0.945235 0.54406
0.660822 0.945006 0.53782
0.90042 0.968536 0.54815
0.940414 0.9467 0.505623
0.00631724 0.0627146 0.148501
0.17496 0.0602121 0.116335
0.793805 0.0288853 0.0951095
1 0.320287 0.20737
1 0.320287 0.20737
0 0.226184 0.180468
0.147936 0.166476 0.153292
0.762554 0.00456245 0.106416
1 0.320287 0.20737
1 0.320287 0.20737
0.413657 0.743816 0.403723
0.37464 0.702556 0.357687
0.563897 0.573327 0.208942
1 0.511925 0.0493935
1 0.494285 0.0769818
0.588602 0.948196 0.596063
0.586725 0.947143 0.583093
0.667033 0.945739 0.560342
0.876753 0.87686 0.424735
0.920607 0.865049 0.393866
0.590692 0.949432 0.603464
0.586145 0.946746 0.587091
0.661967 0.945571 0.562997
0.903914 0.970687 0.563684
0.944396 0.954009 0.529961
0 0.216358 0.676097
0 0.204608 0.640009
0.791699 0.274708 0.529625
1 0.401541 0.481224
1 0.39852 0.467628
0 0.354482 0.701579
0.0236362 0.296513 0.671748
0.761471 0.269398 0.567239
1 0.380087 0.494865
1 0.388434 0.488212
0.505592 0.805524 0.722789
0.468956 0.766339 0.696193
0.634562 0.638651 0.632395
0.991653 0.576776 0.590997
0.993164 0.561318 0.578637
0.614801 0.971588 0.798642
0.603586 0.969177 0.776654
0.686748 0.959869 0.734295
0.88426 0.88922 0.628061
0.941817 0.885679 0.608362
0.619211 0.972427 0.80795
0.608637 0.970275 0.78648
0.685222 0.960983 0.744213
0.907012 0.973449 0.692348
0.956786 0.968582 0.678904
0.383612 0.479088 0.948928
0.392767 0.454658 0.927916
0.750317 0.48188 0.850584
1 0.536385 0.789502
1 0.533715 0.778775
0.452934 0.566049 0.968353
0.427512 0.517571 0.947677
0.726452 0.491951 0.874876
0.999405 0.54139 0.812985
0.999969 0.539742 0.803113
0.59794 0.874159 0.984192
0.59234 0.844007 0.984726
0.704082 0.745785 0.93901
0.982773 0.676921 0.87628
0.98352 0.664149 0.865965
0.627253 1 0.980987
0.627253 1 0.980987
0.718532 1 0.983566
0.942672 0.931884 0.931975
0.995865 0.920211 0.923079
0.627253 1 0.980987
0.627253 1 0.980987
0.713069 1 0.983413
0.940291 0.988602 0.946593
0.990112 0.991409 0.927749
0.449775 0.540093 0.987915
0.445991 0.511864 0.967941
0.750179 0.522637 0.89604
0.997894 0.545922 0.834073
0.99881 0.543175 0.823713
0.48011 0.589487 0.986694
0.481743 0.570123 0.986603
0.727993 0.535882 0.919295
0.995026 0.550896 0.857038
0.996689 0.549462 0.84741
0.598047 0.874952 0.984161
0.592538 0.844877 0.984726
0.718791 0.763958 0.98175
0.977066 0.693706 0.918349
0.978363 0.677714 0.908293
0.627253 1 0.980987
0.627253 1 0.980987
0.718288 1 0.983566
0.960174 0.958663 0.99353
0.994186 0.943648 0.980636
0.627253 1 0.980987
0.627253 1 0.980987
0.712779 1 0.983413
0.953185 1 0.995163
1 1 1
