luts/changyun_kodaklike/kodaUM800.cube
TITLE "Generated by Resolve"
LUT_3D_SIZE 5
0.0791943 0.0987259 0.0864424
0.105608 0.100038 0.0886854
0.644572 0 0.0859846
1 0 0.17438
1 0 0.17438
0.052903 0.134829 0.0954757
0.095964 0.114626 0.08748
0.594034 0 0.0870527
1 0 0.17438
1 0 0.17438
0 0.8121 0.446021
0 0.742321 0.366552
0.53753 0.535225 0
1 0.377829 0.0272679
1 0.34844 0.0778821
0.708354 0.97171 0.815946
0.695811 0.970047 0.806958
0.75996 0.96257 0.812711
0.945998 0.931609 0.283452
1 0.9196 0.159152
0.70753 0.97142 0.81622
0.701717 0.97084 0.811154
0.758953 0.963546 0.814328
0.912505 0.970184 0.672267
0.970047 0.961532 0.549889
0.0804456 0.102358 0.106188
0.106142 0.100526 0.0930648
0.633112 0 0.0853132
1 0 0.17438
1 0 0.17438
0.0134737 0.15108 0.134981
0.10103 0.121065 0.107851
0.581521 0 0.0849012
1 0 0.17438
1 0 0.17438
0.0451362 0.824826 0.537362
0 0.762173 0.452979
0.546944 0.550088 0.0100557
1 0.378805 0.00637827
1 0.34609 0.0560311
0.729686 0.971893 0.837552
0.721523 0.971481 0.830396
0.765759 0.963989 0.821729
0.94548 0.935653 0.352361
1 0.923491 0.174014
0.737011 0.972564 0.842786
0.721035 0.971115 0.831296
0.762066 0.964401 0.821729
0.915892 0.971511 0.687129
0.970092 0.964675 0.581628
0 0.151919 0.550225
0 0.140993 0.504463
0.693217 0 0.294331
1 0 0.158679
1 0 0.16054
0 0.227405 0.599512
0 0.190417 0.55404
0.660014 0 0.361837
1 0 0.159777
1 0 0.159213
0 0.871382 0.824186
0 0.812741 0.783139
0.579644 0.600244 0.606226
1 0.430594 0.289693
1 0.39852 0.251347
0.640558 0.993973 0.912245
0.649363 0.991455 0.902129
0.798779 0.975784 0.886732
0.921965 0.942061 0.735485
0.978653 0.931395 0.657542
0.630945 0.994919 0.916136
0.646052 0.992599 0.906691
0.782422 0.977676 0.886213
0.913207 0.971649 0.832395
0.958846 0.96939 0.773877
0.325902 0.394965 0.93254
0.321416 0.361685 0.918547
0.866987 0.359121 0.882399
1 0.314519 0.709529
1 0.287404 0.686778
0.418555 0.499748 0.947372
0.364416 0.427665 0.932647
0.820371 0.361456 0.894408
1 0.356542 0.753491
1 0.347784 0.737972
0.393164 0.877363 0.953918
0.330816 0.841749 0.953521
0.644236 0.696101 0.921004
0.992767 0.659236 0.85211
0.997955 0.626993 0.838773
0.696071 0.990723 0.956603
0.696071 0.990723 0.956603
0.766644 0.989013 0.956359
0.921675 0.948852 0.924208
0.954543 0.941939 0.917052
0.696071 0.990723 0.956603
0.696071 0.990723 0.956603
0.762585 0.98912 0.956374
0.932891 0.979477 0.942733
0.966018 0.977584 0.934722
0.471962 0.493126 0.957443
0.449683 0.449866 0.947494
0.861128 0.430701 0.914717
1 0.381964 0.78677
1 0.366064 0.770336
0.465187 0.530587 0.95552
0.487602 0.515084 0.956039
0.82356 0.442206 0.925246
1 0.403296 0.818051
1 0.402487 0.807752
0.394537 0.878157 0.953918
0.332982 0.842893 0.953552
0.700832 0.751934 0.948028
0.990555 0.683864 0.892546
0.993469 0.656153 0.882109
0.696071 0.990723 0.956603
0.696071 0.990723 0.956603
0.766461 0.989029 0.956359
0.932204 0.956695 0.952789
0.965026 0.955673 0.944732
0.696071 0.990723 0.956603
0.696071 0.990723 0.956603
0.762371 0.989136 0.956374
0.941283 0.984771 0.957092
0.979065 0.984222 0.958434
