luts/changyun_kodaklike/kodaP400.cube
TITLE "Generated by Resolve"
LUT_3D_SIZE 9
0.0280308 0.0252079 0.0241703
0.0548104 0.0256352 0.0236057
0.160632 0.0403906 0.0296483
0.463279 0 0.0233921
0.822278 0.0425574 0
0.999329 0.363394 0.105592
1 0.395789 0.135927
1 0.395789 0.135927
1 0.395789 0.135927
0.0298619 0.0537728 0.0319066
0.0451209 0.0411536 0.0267948
0.151354 0.0421759 0.0286107
0.447898 0 0.0252537
0.81297 0.00991836 0
0.998596 0.355245 0.0982986
1 0.395789 0.135927
1 0.395789 0.135927
1 0.395789 0.135927
0.00163272 0.164416 0.0781872
0.00672923 0.146975 0.0695659
0.123583 0.124804 0.0434272
0.416922 0 0.0223392
0.789548 0 0
0.992294 0.337453 0.0764935
1 0.395789 0.135927
1 0.395789 0.135927
1 0.395789 0.135927
0 0.448203 0.174838
0 0.427695 0.162417
0 0.380407 0.136202
0.317327 0.329107 0.010193
0.756542 0.271901 0
0.969696 0.353964 0.0187839
1 0.404028 0.129503
1 0.399741 0.130434
1 0.39942 0.130556
0.128099 0.728817 0.386938
0.0535134 0.715602 0.368719
0 0.687709 0.334447
0.0900893 0.620584 0.267414
0.580926 0.581674 0.127275
0.920913 0.585458 0
1 0.569223 0.121553
1 0.55671 0.128695
1 0.555032 0.128756
0.523568 0.914229 0.631418
0.512352 0.906661 0.620951
0.486915 0.890303 0.597192
0.450614 0.853727 0.541192
0.523888 0.784817 0.426459
0.771176 0.745983 0.295979
0.963561 0.754376 0.281636
0.995727 0.746929 0.274922
0.996414 0.74548 0.272847
0.547936 0.927703 0.654414
0.545037 0.92668 0.651301
0.537789 0.92401 0.643809
0.550469 0.92549 0.642191
0.613169 0.924865 0.636149
0.74902 0.904738 0.571038
0.889357 0.867582 0.462043
0.952651 0.864683 0.435004
0.953124 0.863157 0.433204
0.547631 0.927108 0.655375
0.547875 0.927581 0.654612
0.542 0.925566 0.648157
0.550103 0.925765 0.64387
0.609934 0.925429 0.638468
0.762417 0.943877 0.636118
0.889769 0.945861 0.606424
0.942031 0.928985 0.558755
0.94403 0.926604 0.553521
0.547585 0.927031 0.655497
0.547829 0.927504 0.654734
0.542565 0.925765 0.648737
0.549889 0.925704 0.643946
0.60972 0.925551 0.638773
0.761303 0.943679 0.636072
0.892592 0.957656 0.627909
0.944854 0.941802 0.583856
0.947143 0.939467 0.578515
0.0303655 0.0285191 0.0392767
0.0527657 0.0274968 0.0346075
0.158312 0.040528 0.0328069
0.462516 0 0.0234836
0.821805 0.0409094 0
0.999298 0.362982 0.105226
1 0.395789 0.135927
1 0.395789 0.135927
1 0.395789 0.135927
0.0367742 0.0584878 0.054078
0.0480354 0.0437781 0.0426642
0.149142 0.0426032 0.0360571
0.447135 0 0.0253452
0.812741 0.00909438 0
0.998581 0.355047 0.0981155
1 0.395789 0.135927
1 0.395789 0.135927
1 0.395789 0.135927
0.0119326 0.172702 0.100649
0.0222934 0.154665 0.0920424
0.124651 0.126482 0.0590829
0.413886 0 0.0252384
0.789227 0 0
0.992126 0.33724 0.0761425
1 0.395789 0.135927
1 0.395789 0.135927
1 0.395789 0.135927
0 0.45565 0.202579
0 0.433738 0.18732
0 0.386984 0.157305
0.318425 0.331472 0.0288243
0.754421 0.272419 0
0.969314 0.35407 0.0179599
1 0.404257 0.129458
1 0.399863 0.130404
1 0.399542 0.13051
0.187839 0.731777 0.40766
0.1393 0.720195 0.391699
0 0.691493 0.353841
0.127855 0.623346 0.281041
0.579034 0.581598 0.137316
0.918959 0.584665 0
1 0.57113 0.128405
1 0.557366 0.128664
1 0.555703 0.128725
0.533989 0.917479 0.643641
0.522713 0.909926 0.633005
0.491218 0.890547 0.604349
0.456321 0.855024 0.549661
0.523949 0.785168 0.433005
0.771374 0.747341 0.301961
0.968124 0.755459 0.284092
0.994659 0.746929 0.274281
0.995392 0.745434 0.272068
0.550912 0.927413 0.661097
0.548348 0.92665 0.65803
0.547631 0.927123 0.65536
0.552041 0.9252 0.646357
0.616342 0.926421 0.641825
0.750942 0.910155 0.581842
0.893614 0.874403 0.475563
0.952239 0.868681 0.441688
0.952468 0.866789 0.439063
0.554147 0.928389 0.664958
0.551553 0.927611 0.66186
0.547326 0.926528 0.656321
0.553597 0.926314 0.649943
0.611719 0.926009 0.642557
0.760845 0.942779 0.636133
0.896559 0.952895 0.620706
0.947402 0.935576 0.572763
0.946441 0.932433 0.566537
0.554498 0.928496 0.66537
0.551934 0.927718 0.662303
0.54728 0.926452 0.656428
0.553735 0.926436 0.650324
0.611246 0.925963 0.642603
0.759915 0.942748 0.636423
0.898009 0.960845 0.635248
0.950668 0.94728 0.595651
0.94966 0.943969 0.589105
0.0565499 0.0582437 0.124315
0.0793927 0.0546578 0.11545
0.149783 0.0567025 0.103929
0.456855 0 0.0746319
0.815183 0.0353094 0
0.999222 0.362173 0.104494
1 0.395789 0.135927
1 0.395789 0.135927
1 0.395789 0.135927
0.0449378 0.0844739 0.137453
0.0711376 0.0733806 0.12607
0.141253 0.0637522 0.109514
0.443091 0 0.0879225
0.804883 0.00537118 0
0.998505 0.354223 0.0973831
1 0.395789 0.135927
1 0.395789 0.135927
1 0.395789 0.135927
0.0651713 0.190555 0.178241
0.0645457 0.171466 0.164187
0.141009 0.140459 0.140002
0.408408 0.0288853 0.106249
0.78143 0.00256352 0.00814832
0.989517 0.33373 0.0746471
1 0.395789 0.135927
1 0.395789 0.135927
1 0.395789 0.135927
0.0446021 0.483696 0.305638
0.00334173 0.462058 0.287343
0.0218357 0.412695 0.243549
0.331823 0.344686 0.155291
0.749096 0.279713 0.0332494
0.960983 0.346029 0.0424964
1 0.401831 0.127687
1 0.398856 0.129671
1 0.398611 0.129809
0.284337 0.74023 0.471336
0.257572 0.728756 0.4551
0.192859 0.701961 0.418204
0.214206 0.635019 0.338628
0.586496 0.590555 0.211078
0.915663 0.586252 0.0238956
1 0.570733 0.145266
1 0.556466 0.136233
1 0.554757 0.135225
0.548058 0.919753 0.666041
0.537652 0.912154 0.656016
0.509972 0.89369 0.630426
0.476417 0.858991 0.57879
0.527947 0.787427 0.464179
0.770901 0.749905 0.335607
0.965621 0.756069 0.306813
0.993179 0.747875 0.294881
0.993835 0.746395 0.29221
0.564477 0.929366 0.683879
0.560769 0.928161 0.679591
0.558358 0.928084 0.674662
0.565347 0.928313 0.666682
0.619013 0.926436 0.652735
0.750439 0.911513 0.595178
0.891905 0.875303 0.490501
0.9514 0.869993 0.456123
0.951629 0.868193 0.453513
0.569055 0.930877 0.689189
0.565408 0.929671 0.684947
0.558343 0.927474 0.676448
0.565011 0.928283 0.669169
0.615091 0.926024 0.654047
0.759838 0.942184 0.644434
0.896147 0.955108 0.631601
0.947967 0.938384 0.58616
0.947066 0.935103 0.579812
0.56965 0.93106 0.689876
0.566018 0.92987 0.685664
0.558343 0.927413 0.676661
0.564965 0.928283 0.669444
0.614908 0.926131 0.654505
0.758984 0.942199 0.644877
0.896635 0.960204 0.64065
0.950744 0.949477 0.607004
0.950256 0.94667 0.601587
0 0.108431 0.3523
0 0.105333 0.338399
0.185107 0.108049 0.309453
0.442359 0.107362 0.277729
0.802441 0.172656 0.229587
0.996185 0.371954 0.213107
1 0.395254 0.190234
1 0.395163 0.180392
1 0.395148 0.179034
0 0.130419 0.368795
0 0.119478 0.353735
0.172747 0.112184 0.325078
0.425666 0.118654 0.289158
0.79118 0.171145 0.242329
0.992447 0.366445 0.221958
1 0.398001 0.202197
1 0.395239 0.188403
1 0.395239 0.187243
0 0.241901 0.405158
0 0.223926 0.391562
0.15935 0.192691 0.36318
0.397147 0.162203 0.313558
0.767178 0.171542 0.270756
0.979492 0.354498 0.242695
1 0.404379 0.228107
1 0.400748 0.213275
1 0.400244 0.211261
0.221836 0.533715 0.503853
0.199252 0.511986 0.486946
0.19324 0.462913 0.448432
0.382254 0.390616 0.391897
0.728344 0.321096 0.32311
0.948791 0.375525 0.283818
1 0.419684 0.268711
1 0.413535 0.254536
1 0.412894 0.252995
0.517357 0.76492 0.644602
0.506264 0.753704 0.634043
0.469352 0.729488 0.605112
0.407156 0.678447 0.5234
0.603983 0.610056 0.405798
0.901884 0.594797 0.344228
1 0.581125 0.334386
1 0.566888 0.317464
1 0.565301 0.31577
0.608286 0.927916 0.735012
0.597879 0.920439 0.725444
0.573144 0.904387 0.703426
0.535042 0.87216 0.656825
0.544732 0.792798 0.558114
0.768811 0.755459 0.456504
0.963516 0.761578 0.436957
0.991257 0.752346 0.42295
0.991836 0.75079 0.420584
0.638056 0.936248 0.760723
0.63003 0.935515 0.753902
0.612284 0.933715 0.738903
0.59469 0.93402 0.716213
0.634226 0.93022 0.692134
0.753445 0.917815 0.64567
0.889403 0.879149 0.555657
0.950729 0.874357 0.52755
0.951019 0.872709 0.525582
0.647105 0.936477 0.768673
0.639857 0.936294 0.76231
0.622538 0.934752 0.74757
0.597818 0.934279 0.721477
0.633509 0.931289 0.697261
0.760204 0.943465 0.680217
0.89546 0.95903 0.666651
0.948135 0.942535 0.628534
0.947768 0.939574 0.62356
0.648234 0.936492 0.769665
0.641077 0.936324 0.763363
0.623713 0.934874 0.748562
0.59855 0.934279 0.722301
0.633478 0.931426 0.697948
0.759121 0.943313 0.680507
0.894499 0.959518 0.667765
0.949996 0.953399 0.645548
0.950957 0.950759 0.640894
0.15613 0.231174 0.653956
0.154055 0.224201 0.643732
0.25861 0.222919 0.623468
0.5552 0.294682 0.603876
0.779721 0.318425 0.552712
0.971267 0.419745 0.486641
1 0.44239 0.455817
1 0.440482 0.441077
1 0.440284 0.439536
0.187686 0.254719 0.663874
0.177996 0.243076 0.654734
0.255863 0.230747 0.63444
0.544106 0.29163 0.612985
0.768048 0.327077 0.566354
0.967468 0.407202 0.493599
1 0.44564 0.468589
1 0.441947 0.452842
1 0.441749 0.451164
0.235309 0.35082 0.679911
0.22536 0.333242 0.671702
0.268223 0.30277 0.653941
0.521096 0.30956 0.633295
0.749523 0.338445 0.587564
0.956481 0.390814 0.516701
1 0.452354 0.496452
1 0.448707 0.480598
1 0.448234 0.478752
0.224796 0.561563 0.692775
0.200198 0.54377 0.684306
0.192828 0.504707 0.666606
0.455894 0.470787 0.656519
0.704662 0.451087 0.620783
0.920302 0.437537 0.574197
0.995819 0.463294 0.53666
0.996719 0.463539 0.526284
0.997086 0.46276 0.524483
0.596689 0.80119 0.774365
0.5823 0.78941 0.764385
0.549691 0.763104 0.742596
0.534874 0.717586 0.706569
0.657557 0.662348 0.664805
0.860792 0.616358 0.619379
0.983719 0.608057 0.598016
0.985351 0.595132 0.584772
0.985595 0.59353 0.583017
0.713161 0.946792 0.857206
0.706508 0.940276 0.8495
0.691539 0.925551 0.832151
0.674769 0.898146 0.799893
0.662959 0.829725 0.726955
0.777218 0.772381 0.643687
0.965957 0.773953 0.6392
0.992538 0.763668 0.632303
0.992615 0.762127 0.630961
0.727077 0.952987 0.875746
0.723384 0.95198 0.870527
0.715404 0.949722 0.859297
0.70869 0.946303 0.839353
0.701106 0.942138 0.791608
0.755718 0.925109 0.730541
0.891051 0.8878 0.669825
0.955215 0.883207 0.655207
0.955566 0.881498 0.653529
0.731395 0.954101 0.881941
0.727855 0.953201 0.87686
0.720012 0.951019 0.865782
0.71194 0.947463 0.845838
0.712902 0.942702 0.80415
0.757748 0.944183 0.750988
0.896529 0.962875 0.735393
0.952529 0.951339 0.712016
0.954147 0.948867 0.708537
0.731853 0.954223 0.882582
0.728435 0.953338 0.877684
0.720623 0.951202 0.866667
0.712245 0.94757 0.84651
0.714275 0.942779 0.8056
0.756756 0.943999 0.751507
0.895277 0.962722 0.735958
0.95433 0.962463 0.723842
0.957198 0.959884 0.720302
0.458412 0.413428 0.820325
0.449805 0.402853 0.813367
0.468574 0.392248 0.799908
0.619272 0.425513 0.780179
0.805966 0.524071 0.75671
0.938872 0.553506 0.725048
0.977691 0.541695 0.697505
0.979767 0.530251 0.684489
0.980011 0.528939 0.682994
0.47039 0.432746 0.8262
0.460883 0.419455 0.819516
0.473014 0.402136 0.806195
0.614237 0.429419 0.786542
0.804837 0.537926 0.765057
0.930724 0.559197 0.732891
0.97583 0.550225 0.707256
0.978119 0.539391 0.694881
0.978347 0.538064 0.693385
0.495918 0.505913 0.838209
0.488121 0.490822 0.832761
0.48687 0.457618 0.818082
0.603555 0.45153 0.7991
0.803265 0.56553 0.782666
0.915267 0.569436 0.74757
0.970733 0.566125 0.725643
0.973663 0.557 0.715099
0.973999 0.555962 0.713893
0.485069 0.638529 0.850248
0.479789 0.625971 0.843717
0.48333 0.602106 0.831754
0.576699 0.574502 0.814023
0.777661 0.619425 0.802853
0.886976 0.594415 0.765423
0.962707 0.602609 0.757183
0.964889 0.590661 0.747005
0.965179 0.589044 0.745586
0.568597 0.812787 0.888014
0.556527 0.800809 0.879103
0.53138 0.776028 0.86067
0.518059 0.729274 0.827527
0.705104 0.709133 0.814023
0.850431 0.71014 0.79678
0.955566 0.693248 0.790738
0.955825 0.680125 0.780774
0.955932 0.678584 0.779568
0.717296 0.957549 0.946502
0.713191 0.952483 0.940581
0.702403 0.938155 0.924239
0.70016 0.916808 0.899489
0.729137 0.866575 0.859648
0.825376 0.817716 0.821302
0.949981 0.786984 0.795697
0.971145 0.774655 0.78616
0.971206 0.773373 0.785367
0.729122 0.96968 0.97258
0.724544 0.965316 0.963684
0.718196 0.95848 0.947311
0.739467 0.960555 0.933745
0.801205 0.962814 0.919829
0.824613 0.947219 0.868803
0.903105 0.900557 0.800855
0.972107 0.900633 0.798733
0.972351 0.89897 0.797909
0.722133 0.962997 0.958968
0.719875 0.960845 0.954559
0.71812 0.958465 0.947448
0.732647 0.960311 0.937133
0.799573 0.963333 0.924163
0.835065 0.959243 0.885725
0.898833 0.967559 0.835981
0.962509 0.962753 0.821241
0.966567 0.960571 0.818692
0.722454 0.963302 0.959594
0.720134 0.961105 0.955093
0.717968 0.958434 0.947723
0.731762 0.960281 0.937606
0.799268 0.963378 0.924666
0.836362 0.959426 0.887617
0.897627 0.967391 0.836805
0.96318 0.974014 0.829068
0.968475 0.971603 0.826307
0.603082 0.578027 0.91519
0.595438 0.566598 0.908873
0.595804 0.548257 0.895201
0.671275 0.551949 0.872129
0.834562 0.644053 0.853819
0.92697 0.637034 0.813428
0.956054 0.638239 0.802762
0.956283 0.632074 0.795651
0.956313 0.631388 0.794842
0.613336 0.594675 0.921538
0.604334 0.581277 0.914931
0.601602 0.559731 0.901411
0.669551 0.558236 0.878294
0.829282 0.642802 0.858564
0.920745 0.638422 0.817288
0.955871 0.643107 0.808392
0.9561 0.636942 0.801282
0.956115 0.636301 0.800534
0.637522 0.64535 0.935683
0.627619 0.630884 0.928878
0.617227 0.602213 0.914504
0.668193 0.581491 0.89131
0.81796 0.641581 0.869154
0.912886 0.64625 0.830152
0.954787 0.652415 0.819699
0.955596 0.64741 0.813443
0.955688 0.646891 0.812787
0.645014 0.726314 0.955947
0.645624 0.720073 0.953628
0.635843 0.697444 0.937972
0.66746 0.666743 0.912322
0.79855 0.678035 0.88893
0.91545 0.69398 0.86714
0.952392 0.674266 0.840024
0.952514 0.666392 0.832914
0.95256 0.665446 0.831998
0.602884 0.842359 0.961105
0.595102 0.8327 0.960296
0.578347 0.811795 0.958358
0.586786 0.770642 0.944244
0.752438 0.754589 0.914183
0.910842 0.796597 0.904494
0.950256 0.752697 0.873289
0.949523 0.742 0.865751
0.949538 0.740887 0.864958
0.730892 0.971374 0.976043
0.725521 0.96698 0.975402
0.713985 0.957488 0.974044
0.705211 0.940368 0.972229
0.715343 0.889174 0.955718
0.854276 0.85095 0.923705
0.945708 0.857481 0.912169
0.960418 0.84712 0.907485
0.960235 0.845624 0.906432
0.730892 0.971374 0.976043
0.730892 0.971374 0.976043
0.730892 0.971374 0.976043
0.738079 0.97174 0.976318
0.78323 0.973831 0.977874
0.868147 0.966567 0.961227
0.936568 0.932815 0.934051
0.980621 0.923995 0.926009
0.980285 0.922148 0.924895
0.730892 0.971374 0.976043
0.730892 0.971374 0.976043
0.730892 0.971374 0.976043
0.737072 0.97171 0.976287
0.780255 0.973678 0.977752
0.86772 0.975235 0.971252
0.936553 0.977783 0.951812
0.975494 0.975784 0.931258
0.981964 0.974624 0.930297
0.730892 0.971374 0.976043
0.730892 0.971374 0.976043
0.730892 0.971374 0.976043
0.736965 0.971695 0.976287
0.779934 0.973663 0.977737
0.866987 0.975494 0.972152
0.937575 0.978027 0.953613
0.973281 0.982651 0.932921
0.981125 0.982589 0.931701
0.658045 0.645655 0.951492
0.64921 0.633875 0.945006
0.643091 0.612848 0.930846
0.695796 0.604593 0.906554
0.839673 0.667536 0.884596
0.928023 0.66482 0.844434
0.953658 0.66186 0.831189
0.954131 0.656443 0.824765
0.954223 0.655833 0.824002
0.66537 0.656931 0.956039
0.658793 0.647562 0.951263
0.650629 0.625376 0.937591
0.695872 0.612085 0.912856
0.835416 0.668482 0.890028
0.928878 0.670741 0.853635
0.953506 0.666667 0.836683
0.953704 0.660777 0.829969
0.953719 0.660105 0.82919
0.666209 0.674891 0.955489
0.666697 0.672282 0.955703
0.667735 0.660914 0.950835
0.698146 0.634165 0.925902
0.825895 0.670588 0.900923
0.933165 0.691386 0.875441
0.952865 0.676234 0.847791
0.953368 0.671092 0.841718
0.953399 0.670298 0.840818
0.644831 0.726741 0.956054
0.647028 0.721523 0.954833
0.659129 0.715145 0.95494
0.706874 0.707515 0.950301
0.811292 0.704814 0.921431
0.931151 0.738262 0.903197
0.951797 0.69781 0.867964
0.951232 0.690181 0.860777
0.951186 0.689433 0.860044
0.603403 0.843 0.961135
0.595789 0.83357 0.960372
0.578973 0.812528 0.958434
0.60032 0.777798 0.955901
0.779293 0.780285 0.953811
0.920287 0.810681 0.933013
0.962295 0.779965 0.908705
0.958419 0.767727 0.899245
0.95787 0.766262 0.897948
0.730892 0.971374 0.976043
0.726009 0.967376 0.975464
0.714473 0.957885 0.97409
0.705608 0.94078 0.972274
0.720607 0.895705 0.968872
0.871275 0.869139 0.964096
0.967681 0.890532 0.951766
0.969635 0.87219 0.939956
0.969162 0.870665 0.938918
0.730892 0.971374 0.976043
0.730892 0.971374 0.976043
0.730892 0.971374 0.976043
0.738033 0.97174 0.976318
0.783078 0.973831 0.977859
0.866987 0.974289 0.981018
0.950225 0.948974 0.976822
0.981659 0.952499 0.970794
0.980926 0.950698 0.969482
0.730892 0.971374 0.976043
0.730892 0.971374 0.976043
0.730892 0.971374 0.976043
0.737041 0.97171 0.976287
0.780163 0.973678 0.977752
0.86656 0.978653 0.98143
0.950957 0.98584 0.986938
0.985855 0.986282 0.983795
0.989349 0.985214 0.982101
0.730892 0.971374 0.976043
0.730892 0.971374 0.976043
0.730892 0.971374 0.976043
0.736934 0.971695 0.976287
0.779812 0.973663 0.977737
0.86595 0.978622 0.981399
0.950195 0.985763 0.986862
0.985718 0.989487 0.985672
0.990082 0.989883 0.984604
0.664378 0.653269 0.955642
0.655634 0.641611 0.949233
0.649027 0.620829 0.93518
0.69897 0.610864 0.910613
0.840604 0.670787 0.888457
0.929976 0.669001 0.849424
0.953567 0.664912 0.834684
0.95375 0.659144 0.828092
0.953811 0.658396 0.827222
0.66537 0.656931 0.956039
0.665156 0.655146 0.955474
0.656321 0.632532 0.941604
0.699229 0.618585 0.916991
0.836103 0.671412 0.893568
0.931975 0.675761 0.859739
0.953414 0.669734 0.840177
0.953597 0.663844 0.833448
0.953628 0.663157 0.832685
0.666194 0.674922 0.955489
0.666697 0.672328 0.955688
0.673838 0.667872 0.955154
0.70222 0.640772 0.93019
0.826978 0.674037 0.904585
0.935058 0.697322 0.880217
0.952483 0.678798 0.850904
0.953185 0.673976 0.845075
0.953292 0.67332 0.844282
0.644831 0.726741 0.956054
0.646998 0.721599 0.954849
0.659129 0.715145 0.95494
0.711864 0.712581 0.954879
0.813382 0.708476 0.925383
0.932784 0.74287 0.906966
0.952209 0.700984 0.871626
0.951659 0.693401 0.864515
0.951614 0.692592 0.863722
0.60351 0.843153 0.961151
0.595789 0.83357 0.960372
0.579095 0.81268 0.95845
0.600229 0.777798 0.955901
0.782712 0.783566 0.958511
0.921141 0.812146 0.936141
0.964965 0.784497 0.91371
0.960616 0.77116 0.903929
0.960235 0.769909 0.902922
0.730892 0.971374 0.976043
0.726009 0.967376 0.975464
0.714473 0.957885 0.97409
0.705608 0.94078 0.972274
0.720714 0.895857 0.968887
0.87361 0.871702 0.969131
0.969696 0.894316 0.955673
0.972183 0.876005 0.944533
0.97174 0.874556 0.943572
0.730892 0.971374 0.976043
0.730892 0.971374 0.976043
0.730892 0.971374 0.976043
0.738033 0.97174 0.976318
0.783078 0.973831 0.977859
0.867201 0.974502 0.981048
0.951568 0.950988 0.981918
0.983719 0.956374 0.974975
0.983124 0.954742 0.973877
0.730892 0.971374 0.976043
0.730892 0.971374 0.976043
0.730892 0.971374 0.976043
0.737041 0.97171 0.976287
0.780102 0.973678 0.977737
0.866453 0.978653 0.98143
0.950957 0.98584 0.986938
0.987411 0.987793 0.98996
0.990585 0.987259 0.988571
0.730892 0.971374 0.976043
0.730892 0.971374 0.976043
0.730892 0.971374 0.976043
0.736934 0.971695 0.976287
0.779751 0.973663 0.977722
0.865904 0.978622 0.981399
0.950057 0.985748 0.986862
0.987121 0.990402 0.990662
0.991485 0.990967 0.991119
