luts/changyun_kodaklike/kodaE100VS.cube
TITLE "Generated by Resolve"
LUT_3D_SIZE 5
0.000640879 0.000518807 0.000991836
0.0915084 0.00556954 0.00164797
0.773373 0 0
1 0 0
1 0 0
0 0.0972 0.0342565
0.0402686 0.0666972 0.00712596
0.728649 0 0
1 0 0
1 0 0
0 0.721553 0.280125
0 0.655909 0.218662
0.560723 0.598444 0
1 0.527825 0
1 0.501945 0
0.44419 0.985382 0.74931
0.41735 0.9832 0.735958
0.609476 0.977584 0.745388
0.964675 0.942153 0.405203
0.999985 0.939956 0.159045
0.44036 0.984848 0.749569
0.427527 0.984054 0.741314
0.59791 0.979568 0.74519
0.926955 0.998062 0.758618
0.990555 0.98732 0.619547
0 0 0.068574
0.0862593 0.00122072 0.034226
0.761959 0 0
1 0 0
1 0 0
0 0.106676 0.107408
0.0492866 0.0672923 0.0792859
0.714961 0 0
1 0 0
1 0 0
0 0.74522 0.398184
0 0.686839 0.333669
0.565072 0.605905 0.00106813
1 0.528954 0
1 0.499794 0
0.466331 0.98584 0.78262
0.453651 0.984756 0.770443
0.60589 0.979797 0.753964
0.963134 0.946777 0.456031
0.999985 0.942809 0.250797
0.472557 0.986679 0.787945
0.452338 0.984451 0.772366
0.585489 0.980514 0.749218
0.929046 0.99881 0.770977
0.989288 0.990173 0.655268
0 0 0.55407
0 0 0.518761
0.772763 0 0.345083
1 0 0.140826
1 0 0.0843366
0 0 0.612436
0 0 0.571633
0.753429 0 0.42266
1 0 0.203861
1 0 0.176883
0 0.821698 0.779995
0 0.76791 0.744839
0.671946 0.65803 0.691844
1 0.434546 0.360678
1 0.404547 0.335851
0 1 0.883665
0 1 0.863844
0.47512 0.996887 0.842664
0.946777 0.949371 0.72224
0.999863 0.948272 0.671138
0 1 0.889738
0 1 0.86981
0.355245 0.998688 0.839048
0.921202 0.997589 0.852979
0.980819 0.994247 0.808011
0 0 0.967315
0 0 0.943709
0.828382 0 0.902922
1 0 0.765347
1 0 0.743145
0 0 0.995697
0 0 0.970626
0.783566 0 0.925978
1 0 0.806271
1 0 0.792096
0 0.632929 0.999878
0 0.458579 0.999924
0.555932 0.0346838 0.986175
1 0.309148 0.901198
1 0.27039 0.888106
0 0.99968 0.99971
0 0.99971 0.999741
0 0.999771 0.999725
0.96463 0.958663 0.97435
0.99971 0.929793 0.953048
0 0.99968 0.99971
0 0.999695 0.999725
0 0.999725 0.999786
0.916533 0.99704 0.9738
0.994858 0.997391 0.968368
0 0 0.999649
0 0 0.991638
0.83357 0 0.951217
1 0 0.836927
1 0 0.821347
0 0 0.999924
0 0 0.999649
0.784512 0 0.967605
1 0 0.868086
1 0 0.856062
0 0.640116 0.999878
0 0.473213 0.999939
0.549813 0 1
1 0.0780499 0.953292
1 0.045655 0.940276
0 0.99968 0.99971
0 0.99971 0.999741
0 0.999771 0.999817
0.950011 0.929137 0.999512
0.999817 0.92903 0.990707
0 0.99968 0.99971
0 0.999695 0.999725
0 0.999725 0.999786
0.899855 0.99469 0.999695
0.999405 0.999496 0.999725
