luts/changyun_kodaklike/kodaP100T.cube
TITLE "Generated by Resolve"
LUT_3D_SIZE 9
0.00428779 0.00418097 0.00277714
0.0380407 0.00453193 0.00202945
0.150134 0.0400244 0.00946059
0.311086 0.112886 0.032929
0.544656 0.17615 0.0580758
0.809781 0.263127 0.0976272
0.854154 0.280613 0.105989
0.854154 0.280613 0.105989
0.854154 0.280613 0.105989
0.0146639 0.0550698 0.0166476
0.0310063 0.034165 0.00872816
0.143542 0.0402686 0.00965896
0.302892 0.110857 0.0323491
0.536095 0.173648 0.0561532
0.79913 0.259174 0.0959335
0.854154 0.280613 0.105989
0.854154 0.280613 0.105989
0.854154 0.280613 0.105989
0.0788281 0.179782 0.090959
0.0764477 0.165484 0.0828107
0.134859 0.141314 0.0548104
0.288579 0.122301 0.0348821
0.517555 0.168521 0.0533608
0.776425 0.250813 0.0926833
0.854154 0.280613 0.105989
0.854154 0.280613 0.105989
0.854154 0.280613 0.105989
0.154498 0.399939 0.200259
0.148943 0.383612 0.189181
0.156558 0.349371 0.166308
0.284581 0.301839 0.121782
0.507881 0.250553 0.0889754
0.746914 0.269154 0.0984665
0.852613 0.290242 0.108324
0.852277 0.286015 0.106874
0.852277 0.285695 0.106752
0.239368 0.723049 0.422629
0.225162 0.704341 0.404013
0.20798 0.66566 0.3691
0.278248 0.599664 0.315251
0.492897 0.538277 0.242008
0.746899 0.489204 0.181018
0.880293 0.46836 0.18381
0.882994 0.452155 0.176837
0.882673 0.450004 0.17583
0.560037 0.952193 0.696635
0.545327 0.945113 0.685298
0.51397 0.929824 0.660761
0.474861 0.896696 0.611963
0.515023 0.830396 0.527871
0.693721 0.771038 0.421912
0.875029 0.750149 0.386007
0.90454 0.736309 0.37673
0.904631 0.733944 0.37438
0.585122 0.963058 0.71722
0.583307 0.962554 0.715145
0.578592 0.961196 0.71017
0.594446 0.963149 0.711513
0.670069 0.967758 0.721233
0.759915 0.948196 0.68661
0.852384 0.911833 0.61059
0.90132 0.902419 0.586755
0.901762 0.901106 0.584298
0.584268 0.9626 0.7178
0.584955 0.962966 0.717327
0.581323 0.96199 0.713054
0.593225 0.963119 0.712306
0.666377 0.967849 0.721767
0.792645 0.977707 0.741726
0.887129 0.976394 0.730312
0.920073 0.962936 0.698207
0.920745 0.961059 0.69424
0.584161 0.962539 0.717876
0.584833 0.962905 0.717418
0.581689 0.962097 0.713436
0.592935 0.963073 0.712322
0.66601 0.96788 0.721874
0.791791 0.977615 0.741634
0.89456 0.985061 0.748028
0.927031 0.972122 0.718486
0.927901 0.970397 0.714488
0.0089723 0.0087892 0.0209201
0.0412299 0.00619516 0.015198
0.148775 0.0412299 0.0142672
0.310674 0.112779 0.0328985
0.544228 0.176028 0.0579843
0.809247 0.262928 0.0975509
0.854154 0.280613 0.105989
0.854154 0.280613 0.105989
0.854154 0.280613 0.105989
0.0236667 0.061799 0.0426184
0.0372625 0.0373541 0.028397
0.142214 0.0428473 0.0186465
0.30248 0.11075 0.0323186
0.535882 0.173587 0.0561074
0.798871 0.259083 0.0958877
0.854154 0.280613 0.105989
0.854154 0.280613 0.105989
0.854154 0.280613 0.105989
0.0936446 0.182864 0.105806
0.0888838 0.168765 0.0979477
0.136202 0.142473 0.0706951
0.287602 0.122454 0.0375982
0.517327 0.168475 0.0533303
0.776165 0.250721 0.0926528
0.854154 0.280613 0.105989
0.854154 0.280613 0.105989
0.854154 0.280613 0.105989
0.163821 0.401709 0.214694
0.157961 0.384817 0.20209
0.163302 0.351278 0.177569
0.285191 0.303029 0.128191
0.506981 0.251209 0.0898451
0.746456 0.269352 0.0985275
0.852628 0.290455 0.1084
0.852293 0.286152 0.106905
0.852277 0.285817 0.106798
0.248203 0.724376 0.435248
0.235111 0.707149 0.41796
0.215579 0.667597 0.380529
0.280583 0.600793 0.323278
0.491829 0.538369 0.24535
0.7449 0.488869 0.18088
0.885893 0.470726 0.185595
0.883131 0.45301 0.177234
0.882795 0.450858 0.176226
0.566186 0.953796 0.704738
0.551705 0.946868 0.69337
0.515511 0.929686 0.665232
0.477989 0.897414 0.617304
0.516243 0.830976 0.532143
0.694209 0.772702 0.425834
0.880385 0.751873 0.388769
0.903792 0.73669 0.376928
0.903899 0.734203 0.374456
0.585061 0.962448 0.721508
0.583719 0.962127 0.719493
0.584283 0.9626 0.717784
0.59443 0.962753 0.714214
0.672282 0.968444 0.724865
0.765194 0.952651 0.695827
0.858351 0.917418 0.62092
0.900938 0.905669 0.593469
0.901183 0.904097 0.590509
0.58674 0.96286 0.724071
0.585397 0.962524 0.722026
0.583444 0.962142 0.718379
0.594491 0.963149 0.716258
0.667277 0.967987 0.724483
0.791669 0.977218 0.741939
0.895033 0.981064 0.741299
0.926345 0.9673 0.708522
0.924498 0.965103 0.703578
0.586923 0.962905 0.72433
0.58558 0.96257 0.722316
0.583337 0.962097 0.718441
0.594476 0.96318 0.716472
0.666712 0.967926 0.724422
0.790951 0.977188 0.742046
0.899657 0.986877 0.753353
0.933028 0.975555 0.726879
0.931105 0.973251 0.721706
0.0626841 0.0529335 0.109117
0.0788891 0.0458839 0.103685
0.152361 0.0541238 0.0919661
0.310872 0.118074 0.0772412
0.541115 0.175784 0.0648203
0.808179 0.262531 0.0973831
0.854154 0.280613 0.105989
0.854154 0.280613 0.105989
0.854154 0.280613 0.105989
0.0795605 0.0929122 0.117845
0.0838331 0.0789349 0.111101
0.147066 0.0595865 0.0990616
0.303914 0.1178 0.0870222
0.532296 0.173739 0.0696574
0.797803 0.258686 0.0957198
0.854154 0.280613 0.105989
0.854154 0.280613 0.105989
0.854154 0.280613 0.105989
0.120211 0.1897 0.152819
0.114458 0.176791 0.144457
0.149203 0.149462 0.129168
0.289631 0.133257 0.102861
0.514076 0.170428 0.0803845
0.772992 0.249531 0.0931411
0.854154 0.280613 0.105989
0.854154 0.280613 0.105989
0.854154 0.280613 0.105989
0.182147 0.407462 0.259342
0.17644 0.390997 0.245777
0.18616 0.356634 0.22182
0.291035 0.308003 0.170993
0.506127 0.255909 0.119463
0.737896 0.267582 0.104585
0.849989 0.289738 0.108705
0.851057 0.285969 0.107164
0.851164 0.285634 0.107012
0.27425 0.726207 0.473579
0.260319 0.70898 0.455772
0.239689 0.670695 0.41825
0.291951 0.603876 0.356466
0.495689 0.544686 0.276066
0.74342 0.491142 0.199786
0.882994 0.471199 0.192584
0.880217 0.452979 0.181109
0.879805 0.450858 0.179858
0.570169 0.954009 0.719341
0.556313 0.946975 0.708232
0.522637 0.930343 0.681575
0.487388 0.899107 0.635111
0.522652 0.833097 0.551431
0.694881 0.775464 0.445212
0.878553 0.753155 0.400778
0.903014 0.738399 0.387686
0.903059 0.735973 0.385016
0.586801 0.962051 0.735927
0.58497 0.961486 0.733013
0.585473 0.961868 0.730007
0.599924 0.963531 0.727459
0.673182 0.968032 0.73228
0.767376 0.953887 0.70515
0.858427 0.918471 0.629587
0.900954 0.906859 0.601999
0.901198 0.905394 0.599115
0.589059 0.962737 0.739528
0.587259 0.962188 0.73666
0.584039 0.961242 0.730922
0.598001 0.963226 0.72871
0.668132 0.967437 0.732326
0.791913 0.976822 0.747555
0.896468 0.982757 0.749096
0.92842 0.969329 0.717418
0.926543 0.966995 0.712245
0.589334 0.962829 0.740001
0.587564 0.96228 0.737148
0.583856 0.961166 0.731044
0.597772 0.963195 0.728862
0.66772 0.967437 0.732509
0.791302 0.976822 0.747784
0.899123 0.986526 0.756741
0.934508 0.977188 0.7346
0.933104 0.975174 0.730129
0.117418 0.111574 0.218433
0.121599 0.108537 0.211414
0.171374 0.109041 0.199878
0.324468 0.129976 0.182269
0.542077 0.202029 0.174533
0.803189 0.269291 0.157504
0.84712 0.281743 0.140581
0.848264 0.281422 0.134234
0.848432 0.281376 0.133364
0.125246 0.130465 0.230518
0.124712 0.121324 0.221347
0.167163 0.112963 0.207218
0.318059 0.129107 0.189548
0.533211 0.202136 0.181628
0.792538 0.266743 0.163607
0.848051 0.283116 0.147524
0.847333 0.281682 0.139406
0.847471 0.281651 0.138659
0.1691 0.223026 0.271397
0.162142 0.208331 0.2607
0.174823 0.177813 0.239841
0.306218 0.149187 0.210544
0.515389 0.202884 0.197223
0.769451 0.261677 0.177264
0.850462 0.286244 0.162448
0.849088 0.284459 0.153903
0.848905 0.284215 0.152743
0.226123 0.413108 0.371832
0.218555 0.398474 0.35906
0.218555 0.366674 0.33225
0.311238 0.321233 0.299687
0.503899 0.278538 0.245121
0.735958 0.284688 0.210788
0.848692 0.30013 0.192142
0.848508 0.294957 0.18204
0.848508 0.294392 0.180926
0.289937 0.730312 0.550378
0.279377 0.712718 0.534966
0.264515 0.674739 0.502739
0.325948 0.614969 0.459709
0.502403 0.551751 0.385626
0.740291 0.498589 0.312306
0.880888 0.479194 0.285786
0.878111 0.460899 0.269673
0.877836 0.458885 0.267979
0.539666 0.957031 0.742245
0.531731 0.949279 0.734096
0.51194 0.933349 0.714488
0.506004 0.9028 0.68333
0.541192 0.837232 0.610666
0.697459 0.779568 0.519417
0.878172 0.759258 0.475929
0.903044 0.74403 0.458824
0.903029 0.741543 0.456001
0.539834 0.964599 0.754101
0.543542 0.964172 0.752605
0.550637 0.963043 0.74905
0.60116 0.963394 0.758541
0.676326 0.967987 0.758328
0.777783 0.958236 0.740429
0.861799 0.921691 0.667231
0.905348 0.911086 0.642252
0.905608 0.909667 0.639628
0.532067 0.964584 0.755016
0.538277 0.964599 0.754284
0.546532 0.963699 0.75111
0.595239 0.963256 0.759274
0.672389 0.967956 0.760678
0.797253 0.977554 0.77319
0.90045 0.985641 0.773541
0.932677 0.97229 0.744488
0.931319 0.970153 0.740047
0.531106 0.964584 0.755138
0.537255 0.964599 0.754406
0.546059 0.963775 0.751339
0.593835 0.963272 0.75906
0.671946 0.967971 0.761013
0.79646 0.977478 0.773358
0.900008 0.986053 0.774472
0.937896 0.980056 0.759915
0.937636 0.978119 0.755856
0.154696 0.180789 0.403204
0.157321 0.177295 0.394415
0.195422 0.17499 0.379187
0.341222 0.187564 0.368688
0.556085 0.208621 0.332753
0.790845 0.294438 0.335683
0.841474 0.303609 0.311208
0.843275 0.302937 0.300801
0.843473 0.302876 0.299718
0.161547 0.19498 0.415274
0.161105 0.18819 0.405936
0.192416 0.179416 0.388144
0.333669 0.189273 0.375708
0.548669 0.207614 0.340932
0.78175 0.289281 0.341192
0.840894 0.304814 0.320272
0.84181 0.303456 0.309102
0.842008 0.30338 0.307927
0.186679 0.259236 0.452598
0.183795 0.247959 0.441032
0.200183 0.226505 0.418601
0.319829 0.207156 0.395331
0.5346 0.207874 0.362219
0.765377 0.268452 0.346853
0.839673 0.307622 0.340368
0.84036 0.305943 0.328771
0.840436 0.305776 0.327474
0.249042 0.44332 0.531273
0.246998 0.428809 0.518853
0.252949 0.399664 0.495171
0.317739 0.344961 0.467323
0.515694 0.297688 0.425406
0.73695 0.286824 0.381323
0.838865 0.320928 0.376379
0.83917 0.319829 0.3673
0.839292 0.319203 0.365774
0.348638 0.727062 0.673732
0.341421 0.709865 0.661234
0.325017 0.673793 0.635248
0.358175 0.614328 0.594095
0.521675 0.568246 0.570733
0.719905 0.507485 0.503822
0.86836 0.487282 0.467857
0.866178 0.470359 0.451728
0.865934 0.468391 0.449699
0.533288 0.95874 0.816358
0.520806 0.95079 0.806271
0.493614 0.933791 0.784024
0.472206 0.904204 0.746517
0.54696 0.840757 0.699214
0.711131 0.788907 0.648569
0.882506 0.765194 0.612512
0.9084 0.750271 0.598032
0.908217 0.747982 0.59588
0.548608 0.963012 0.83592
0.545922 0.963088 0.83093
0.539223 0.962936 0.819974
0.545174 0.964843 0.803555
0.646845 0.969772 0.800031
0.79205 0.963912 0.804105
0.873045 0.927886 0.744228
0.922454 0.919951 0.724666
0.922301 0.918425 0.722286
0.550484 0.962478 0.841505
0.548943 0.962921 0.836927
0.543084 0.963027 0.826307
0.545785 0.964477 0.809171
0.630579 0.969528 0.798932
0.802838 0.978561 0.822934
0.908354 0.987778 0.822492
0.943755 0.97789 0.802747
0.944091 0.976074 0.79939
0.550683 0.962432 0.842084
0.549187 0.962844 0.837674
0.543618 0.963027 0.827161
0.545708 0.964385 0.809705
0.628672 0.969497 0.79881
0.801984 0.9785 0.823133
0.907469 0.987701 0.822828
0.94873 0.985809 0.815229
0.949905 0.983886 0.811826
0.188663 0.258991 0.617594
0.188357 0.254246 0.606134
0.219623 0.248035 0.58526
0.350042 0.248692 0.559258
0.571664 0.256992 0.543709
0.807111 0.285985 0.510307
0.853391 0.294652 0.485588
0.85185 0.292042 0.472602
0.851667 0.291737 0.471107
0.194385 0.269856 0.629206
0.192615 0.26302 0.617411
0.217746 0.252735 0.595483
0.344244 0.251316 0.568978
0.564858 0.259617 0.55285
0.798627 0.285206 0.518883
0.854292 0.296498 0.495628
0.853086 0.294118 0.482963
0.852903 0.293828 0.481468
0.213794 0.320424 0.662409
0.21062 0.310933 0.652277
0.223056 0.288548 0.623896
0.333852 0.267567 0.592004
0.550713 0.267445 0.572793
0.781262 0.284443 0.538491
0.854673 0.299382 0.516167
0.854459 0.297719 0.504387
0.854429 0.297536 0.503044
0.270558 0.485695 0.72163
0.257969 0.466041 0.708919
0.243824 0.428702 0.686793
0.328206 0.381689 0.65098
0.53846 0.351476 0.625132
0.747433 0.319722 0.580804
0.858366 0.32047 0.556649
0.856779 0.313481 0.543587
0.85655 0.312627 0.541802
0.332753 0.763455 0.815274
0.321477 0.743801 0.800992
0.306477 0.704189 0.772732
0.336843 0.633677 0.723751
0.508659 0.567651 0.705089
0.725063 0.524926 0.670878
0.872099 0.493492 0.638163
0.868544 0.474098 0.621942
0.868254 0.472038 0.620111
0.560632 0.966079 0.927947
0.550225 0.956634 0.91696
0.517891 0.934356 0.891142
0.499413 0.899138 0.851179
0.555154 0.834974 0.802899
0.734752 0.799329 0.790051
0.871733 0.751568 0.74519
0.895552 0.732891 0.729274
0.895262 0.730312 0.727367
0.623514 0.994827 0.973892
0.599832 0.98526 0.958663
0.562493 0.967712 0.929564
0.579202 0.959106 0.901991
0.650111 0.967498 0.885206
0.784527 0.968322 0.873533
0.89189 0.934234 0.844419
0.945693 0.925994 0.830167
0.945129 0.924041 0.828229
0.587289 0.980194 0.950607
0.575586 0.975464 0.943084
0.562417 0.967865 0.92987
0.577874 0.958404 0.906767
0.646281 0.966751 0.889937
0.779538 0.979477 0.880919
0.919661 0.98938 0.893584
0.960632 0.983917 0.881117
0.962692 0.982223 0.87863
0.588952 0.980865 0.95169
0.576974 0.976028 0.943984
0.562249 0.968139 0.93051
0.577783 0.958312 0.907439
0.645792 0.966644 0.890517
0.777935 0.979385 0.881239
0.918837 0.989288 0.894102
0.965011 0.992142 0.89015
0.967758 0.990234 0.887449
0.27097 0.341924 0.783123
0.265538 0.33489 0.771847
0.277272 0.321111 0.747631
0.383368 0.308125 0.711116
0.603891 0.318486 0.690578
0.813153 0.324407 0.65095
0.86302 0.323949 0.623819
0.862303 0.319051 0.610742
0.862226 0.318532 0.609262
0.282139 0.355566 0.796231
0.27303 0.34493 0.783246
0.280705 0.328573 0.758862
0.379797 0.312657 0.721508
0.597528 0.321889 0.698695
0.802853 0.325414 0.659052
0.863584 0.327825 0.63415
0.862867 0.322927 0.621073
0.862806 0.322408 0.619699
0.310811 0.409277 0.83093
0.299931 0.394568 0.816846
0.293843 0.365072 0.787533
0.376181 0.332891 0.746166
0.58143 0.327413 0.71516
0.784772 0.329534 0.678264
0.863432 0.335409 0.655116
0.863905 0.331289 0.643488
0.863951 0.330861 0.642267
0.32488 0.550225 0.880613
0.314199 0.530724 0.873274
0.307897 0.494179 0.845335
0.372869 0.438117 0.798337
0.562051 0.39823 0.757671
0.767819 0.364691 0.724346
0.863294 0.36141 0.692287
0.861341 0.351156 0.678874
0.861219 0.350042 0.677195
0.419837 0.827436 0.917021
0.411109 0.813947 0.91342
0.3953 0.783871 0.905394
0.413199 0.708583 0.875807
0.518578 0.588403 0.824216
0.750973 0.560922 0.796078
0.874372 0.523217 0.758816
0.871214 0.503655 0.744396
0.871183 0.501823 0.743008
0.632715 0.998535 0.979797
0.623636 0.993179 0.977646
0.604135 0.981628 0.973007
0.585733 0.960113 0.965545
0.571389 0.883543 0.925246
0.713954 0.78381 0.869947
0.878447 0.759426 0.846799
0.905791 0.741558 0.834028
0.905348 0.739116 0.832181
0.632715 0.998535 0.979797
0.632715 0.998535 0.979797
0.632715 0.998535 0.979797
0.64155 0.998749 0.980331
0.695216 0.998901 0.982528
0.782712 0.971374 0.948592
0.91249 0.939498 0.933745
0.956298 0.920089 0.915022
0.955154 0.917525 0.912993
0.632715 0.998535 0.979797
0.632715 0.998535 0.979797
0.632715 0.998535 0.979797
0.640375 0.998749 0.980285
0.6916 0.998886 0.982376
0.792782 0.986969 0.966735
0.924498 0.99025 0.958267
0.978668 0.988724 0.954726
0.982605 0.987182 0.952926
0.632715 0.998535 0.979797
0.632715 0.998535 0.979797
0.632715 0.998535 0.979797
0.640253 0.998749 0.98027
0.691203 0.998886 0.982345
0.792844 0.988022 0.968551
0.922972 0.990097 0.958648
0.980209 0.99527 0.959243
0.985306 0.994751 0.957931
0.335531 0.398367 0.855207
0.325124 0.387304 0.842649
0.324132 0.366171 0.815732
0.409674 0.342901 0.7738
0.61857 0.346654 0.744976
0.814862 0.344213 0.701473
0.863386 0.343648 0.676356
0.863066 0.338735 0.66453
0.863111 0.338231 0.663096
0.343755 0.409506 0.863966
0.336095 0.400259 0.854658
0.331899 0.377066 0.829114
0.408545 0.34963 0.785199
0.612879 0.350759 0.754437
0.807401 0.344808 0.710216
0.864195 0.348318 0.686412
0.863203 0.342611 0.674113
0.863096 0.341955 0.672694
0.344244 0.437842 0.866651
0.345632 0.433707 0.866804
0.351217 0.417166 0.856657
0.409079 0.372976 0.809995
0.598733 0.358312 0.772198
0.79913 0.349874 0.735546
0.864439 0.356649 0.706035
0.864942 0.35259 0.695628
0.864805 0.351827 0.69398
0.325612 0.551751 0.881071
0.316762 0.533425 0.875547
0.335256 0.515755 0.874388
0.418402 0.484916 0.865538
0.581369 0.428992 0.813931
0.78793 0.398566 0.782879
0.862699 0.380301 0.738857
0.861784 0.371496 0.727291
0.861814 0.370733 0.726192
0.420493 0.828321 0.917266
0.411887 0.815152 0.913741
0.395804 0.784955 0.905684
0.430701 0.722515 0.893721
0.548104 0.622812 0.888136
0.769879 0.588037 0.848035
0.88368 0.540612 0.808194
0.878798 0.522805 0.793759
0.878355 0.520882 0.79202
0.632715 0.998535 0.979797
0.62446 0.993667 0.977844
0.604959 0.982116 0.97319
0.586404 0.960632 0.965743
0.59202 0.897734 0.946166
0.727626 0.79733 0.927123
0.900023 0.771176 0.898695
0.916197 0.751583 0.880735
0.915114 0.749462 0.878798
0.632715 0.998535 0.979797
0.632715 0.998535 0.979797
0.632715 0.998535 0.979797
0.641505 0.998749 0.980331
0.695033 0.998901 0.982528
0.802976 0.992645 0.985412
0.907897 0.936568 0.970352
0.966522 0.923049 0.956619
0.964645 0.920439 0.953994
0.632715 0.998535 0.979797
0.632715 0.998535 0.979797
0.632715 0.998535 0.979797
0.64033 0.998749 0.98027
0.691493 0.998886 0.982361
0.802808 0.99884 0.98732
0.932158 0.999313 0.994965
0.989975 0.993179 0.992432
0.994156 0.99057 0.990417
0.632715 0.998535 0.979797
0.632715 0.998535 0.979797
0.632715 0.998535 0.979797
0.640208 0.998749 0.98027
0.691051 0.998886 0.982345
0.801984 0.99884 0.987289
0.930861 0.999313 0.994888
0.991608 0.999237 0.99559
0.997879 0.999176 0.99498
0.343511 0.405417 0.863355
0.333227 0.394507 0.850935
0.330755 0.372457 0.824323
0.413397 0.347631 0.781353
0.620844 0.350561 0.752041
0.81529 0.345998 0.707195
0.863905 0.346609 0.68275
0.862928 0.341024 0.67068
0.862882 0.340352 0.669062
0.343755 0.409506 0.863966
0.344015 0.407263 0.862837
0.33901 0.383764 0.836866
0.412406 0.354452 0.79292
0.614267 0.354116 0.760571
0.808194 0.346624 0.716442
0.864713 0.351278 0.69279
0.863722 0.345571 0.680491
0.8636 0.344915 0.679072
0.344228 0.437873 0.866651
0.345617 0.433768 0.866804
0.358862 0.424109 0.864958
0.414359 0.37911 0.818418
0.600885 0.36228 0.778775
0.802808 0.353582 0.743893
0.863706 0.358373 0.711131
0.865064 0.355154 0.701579
0.865248 0.354711 0.700282
0.325612 0.551751 0.881071
0.316899 0.5337 0.875639
0.335256 0.515755 0.874388
0.424918 0.491447 0.873884
0.585031 0.434333 0.821424
0.789166 0.402121 0.788617
0.863218 0.383047 0.744671
0.862196 0.374151 0.73312
0.862211 0.373327 0.731914
0.420645 0.828504 0.917311
0.411887 0.815152 0.913741
0.395895 0.785183 0.905745
0.43061 0.722515 0.893721
0.552285 0.627604 0.896071
0.772473 0.591882 0.854307
0.886976 0.54342 0.815503
0.880018 0.524437 0.799359
0.879652 0.522576 0.79794
0.632715 0.998535 0.979797
0.62446 0.993667 0.977844
0.604959 0.982116 0.97319
0.586404 0.960632 0.965743
0.592157 0.897932 0.946227
0.730709 0.800336 0.935241
0.903258 0.772961 0.905241
0.920317 0.752682 0.887877
0.91931 0.750561 0.886076
0.632715 0.998535 0.979797
0.632715 0.998535 0.979797
0.632715 0.998535 0.979797
0.641505 0.998749 0.980331
0.695033 0.998901 0.982528
0.803311 0.99295 0.985519
0.908705 0.937484 0.976715
0.97055 0.92517 0.963623
0.968948 0.922515 0.96141
0.632715 0.998535 0.979797
0.632715 0.998535 0.979797
0.632715 0.998535 0.979797
0.64033 0.998749 0.98027
0.691417 0.998886 0.982361
0.80267 0.99884 0.98732
0.932158 0.999313 0.994965
0.991699 0.993957 0.997452
0.99649 0.991699 0.99588
0.632715 0.998535 0.979797
0.632715 0.998535 0.979797
0.632715 0.998535 0.979797
0.640208 0.998749 0.98027
0.690974 0.998886 0.982345
0.801907 0.99884 0.987289
0.930648 0.999313 0.994873
0.992996 0.999969 0.999512
1 1 1
