luts/changyun_kodaklike/kodaEC64.cube
TITLE "Generated by Resolve"
LUT_3D_SIZE 5
0.00360113 0.00378424 0.00448615
0.153552 0.0132448 0.00819409
0.551812 0 0
0.872312 0 0
0.872312 0 0
0 0.180316 0.113344
0.129732 0.133364 0.0583963
0.523964 0 0
0.872312 0 0
0.872312 0 0
0 0.708537 0.360433
0 0.662455 0.31841
0.459113 0.520607 0.159625
0.913146 0.385733 0
0.914122 0.359838 0
0.19736 0.956558 0.61445
0.106035 0.952819 0.598627
0.434058 0.956252 0.570336
0.842954 0.859159 0.327153
0.916091 0.846601 0.238254
0.204898 0.955398 0.617456
0.148516 0.95462 0.60592
0.422385 0.957336 0.573205
0.850935 0.972732 0.53167
0.914214 0.947677 0.444434
0.0560616 0.0109712 0.139666
0.152377 0.0293584 0.0978714
0.547066 0 0
0.872312 0 0
0.872312 0 0
0.00570687 0.185687 0.194125
0.142016 0.140002 0.152193
0.519997 0.000946059 0
0.872312 0 0
0.872312 0 0
0 0.712505 0.425361
0 0.668544 0.385931
0.465675 0.528847 0.204089
0.914824 0.387335 0
0.910002 0.361044 0
0.154299 0.95668 0.646204
0.204669 0.955108 0.640421
0.43772 0.957626 0.58996
0.847822 0.868788 0.357809
0.912551 0.85066 0.272862
0.137469 0.95877 0.651041
0.175387 0.954238 0.640467
0.421866 0.957214 0.591699
0.856687 0.975738 0.548928
0.918807 0.956436 0.475792
0.151202 0.0169223 0.488945
0.203525 0.0104524 0.458717
0.590784 0.0217441 0.311162
0.872572 0 0.0785687
0.874922 0 0.0434882
0.159625 0.175586 0.530953
0.193927 0.135317 0.496193
0.581277 0.10338 0.364889
0.871931 0 0.141253
0.87216 0 0.114183
0 0.723842 0.69395
0 0.678477 0.657237
0.562234 0.576257 0.565637
0.912245 0.353323 0.275944
0.908278 0.329992 0.256641
0 0.971908 0.83624
0 0.970748 0.810376
0.33431 0.969162 0.738354
0.862364 0.881773 0.583734
0.941833 0.872221 0.530404
0 0.971862 0.847013
0 0.971328 0.821958
0.216953 0.970443 0.74284
0.863294 0.9776 0.687022
0.934462 0.970794 0.649821
0.364691 0 0.859815
0.367132 0 0.825208
0.707118 0 0.715862
0.937407 0.197589 0.59292
0.933349 0.170092 0.571466
0.391394 0.129717 0.901091
0.381384 0.0279393 0.86186
0.690517 0 0.751614
0.944305 0.247471 0.637522
0.942443 0.23151 0.619974
0 0.717464 0.971771
0 0.656733 0.96585
0.575509 0.493248 0.87422
0.950881 0.485527 0.747417
0.948287 0.467308 0.731655
0.230503 0.970459 1
0.230503 0.970459 1
0.475334 0.975692 1
0.933944 0.923461 0.928862
0.978149 0.874617 0.88098
0.230503 0.970459 1
0.230503 0.970459 1
0.463951 0.975341 1
0.888869 0.990326 0.948959
0.980743 0.991592 0.928206
0.430732 0 0.932082
0.423865 0 0.895552
0.732677 0 0.785672
0.948348 0.263767 0.669902
0.946319 0.264805 0.656596
0.42118 0.125963 0.9346
0.442039 0.00205997 0.932799
0.717037 0 0.822278
0.951171 0.255756 0.69807
0.950927 0.261158 0.686656
0 0.718975 0.971923
0 0.658534 0.966033
0.604669 0.488792 0.94638
0.969039 0.472496 0.805814
0.962356 0.456184 0.78761
0.230503 0.970459 1
0.230503 0.970459 1
0.474815 0.975677 1
0.928893 0.907195 0.985718
0.991669 0.899046 0.958053
0.230503 0.970459 1
0.230503 0.970459 1
0.46334 0.975326 1
0.907225 0.995468 0.999725
0.999969 0.999969 0.999969
