luts/changyun_kodaklike/kodaEI502.cube
TITLE "Generated by Resolve"
LUT_3D_SIZE 9
0.000656138 0.0034638 0.00364691
0.0126192 0.00434882 0.00166323
0.103166 0.0345312 0.0129549
0.29868 0.0173495 0.026978
0.658701 0 0
0.935149 0 0
0.969085 0 0
0.969085 0 0
0.969085 0 0
0 0.0500038 0.0189975
0.00109865 0.0301671 0.00839246
0.0979477 0.0343786 0.0105898
0.286503 0.024979 0.0270085
0.647074 0 0
0.926711 0 0
0.969085 0 0
0.969085 0 0
0.969085 0 0
0 0.174319 0.090959
0 0.158053 0.0826276
0.0642557 0.128481 0.0527962
0.267247 0.07776 0.0179751
0.620233 0 0
0.908324 0 0
0.969085 0 0
0.969085 0 0
0.969085 0 0
0 0.495674 0.17203
0 0.471565 0.160784
0 0.417639 0.13756
0.299947 0.324254 0.081239
0.621439 0.152728 0
0.886763 0.00578317 0
0.965179 0 0
0.965362 0 0
0.965408 0 0
0.0601968 0.809979 0.431601
0 0.796857 0.409598
0 0.769757 0.367819
0.0106508 0.711955 0.28632
0.650065 0.62884 0.159411
0.87158 0.505974 0
0.97229 0.464088 0
0.97641 0.442344 0
0.976455 0.43949 0
0.56495 0.968643 0.690257
0.555093 0.963546 0.681147
0.532387 0.9523 0.660258
0.501305 0.926024 0.609583
0.570428 0.870756 0.502007
0.821012 0.810727 0.382345
0.95433 0.765179 0.227756
0.974594 0.747921 0.129534
0.974701 0.745739 0.120165
0.589227 0.978439 0.712627
0.586221 0.977676 0.709468
0.578454 0.975586 0.701656
0.593652 0.977737 0.701808
0.657145 0.979294 0.696315
0.783536 0.956191 0.648844
0.913588 0.918029 0.570871
0.965347 0.906676 0.544518
0.965927 0.905272 0.54226
0.5879 0.977691 0.712856
0.588952 0.978286 0.712673
0.582956 0.976791 0.706188
0.593042 0.977813 0.703304
0.654856 0.979843 0.698848
0.79321 0.984421 0.704051
0.910033 0.976944 0.688518
0.956115 0.961913 0.656519
0.957946 0.960098 0.652689
0.587716 0.977584 0.712886
0.588769 0.978195 0.712703
0.583551 0.976959 0.706783
0.592752 0.977752 0.703304
0.654658 0.979919 0.699184
0.792126 0.984344 0.703883
0.91223 0.985412 0.706325
0.958541 0.971222 0.677607
0.960555 0.969406 0.673564
4.57771e-05 0.00471504 0.0257267
0.0101015 0.00463874 0.0159762
0.101869 0.034699 0.0119478
0.29807 0.017731 0.026978
0.658106 0 0
0.934722 0 0
0.969085 0 0
0.969085 0 0
0.969085 0 0
0 0.050782 0.0509499
0.000427253 0.0312352 0.0311284
0.0962844 0.0348363 0.0120851
0.285893 0.0253605 0.0270085
0.646784 0 0
0.926513 0 0
0.969085 0 0
0.969085 0 0
0.969085 0 0
0 0.176059 0.112596
0 0.160357 0.103044
0.062211 0.128542 0.071046
0.264698 0.0800641 0.0172427
0.619883 0 0
0.90811 0 0
0.969085 0 0
0.969085 0 0
0.969085 0 0
0 0.496406 0.197833
0 0.470787 0.183825
0 0.419699 0.156725
0.300221 0.32575 0.095079
0.61941 0.154498 0
0.886336 0.0062562 0
0.965164 0 0
0.965347 0 0
0.965393 0 0
0.0791638 0.81004 0.449317
0 0.798978 0.430976
0 0.770855 0.385931
0.00943008 0.711955 0.299336
0.647242 0.628031 0.166598
0.868864 0.504402 0
0.976059 0.46685 0
0.976394 0.443473 0
0.97644 0.440635 0
0.574548 0.970764 0.701747
0.564416 0.965621 0.692287
0.533944 0.951644 0.665232
0.505257 0.926345 0.616281
0.570062 0.87071 0.50721
0.821088 0.812345 0.388266
0.957595 0.76556 0.224674
0.973587 0.747829 0.121019
0.973709 0.745556 0.110796
0.58941 0.977356 0.717327
0.587106 0.976867 0.714443
0.587915 0.977691 0.712856
0.593759 0.976989 0.704814
0.66067 0.980407 0.702113
0.784817 0.960067 0.657694
0.917266 0.923537 0.583841
0.96466 0.910369 0.552148
0.965011 0.908598 0.548928
0.59234 0.977966 0.720974
0.590005 0.977478 0.718059
0.586587 0.976944 0.713085
0.595315 0.977752 0.70837
0.656397 0.980041 0.702678
0.791409 0.983505 0.703319
0.917006 0.982467 0.703304
0.961425 0.967117 0.67042
0.960555 0.964813 0.665003
0.592645 0.978027 0.721355
0.590326 0.977554 0.718471
0.586435 0.976852 0.7131
0.595453 0.977829 0.708751
0.655879 0.979965 0.702693
0.790539 0.983551 0.703532
0.91809 0.988159 0.715328
0.964279 0.97554 0.689845
0.963348 0.973129 0.684169
0 0.0144503 0.120378
0.00216678 0.0130007 0.112474
0.100328 0.0350042 0.0918898
0.298451 0.0411841 0.0372015
0.650431 0 0
0.933883 0 0
0.969085 0 0
0.969085 0 0
0.969085 0 0
0 0.0581521 0.131289
0 0.0409857 0.121874
0.0920882 0.0370489 0.100832
0.289113 0.0504463 0.0452888
0.638102 0 0
0.925658 0 0
0.969085 0 0
0.969085 0 0
0.969085 0 0
0 0.176333 0.176242
0 0.160647 0.164782
0.0564736 0.131182 0.135988
0.26685 0.0923476 0.0827649
0.6121 0 0
0.903746 0 0
0.969085 0 0
0.969085 0 0
0.969085 0 0
0 0.49781 0.302663
0 0.473899 0.285725
0 0.421881 0.237446
0.307561 0.330831 0.161471
0.617258 0.159442 0.00137331
0.872831 0 0
0.961257 0 0
0.963485 0 0
0.963699 0 0
0.227924 0.808347 0.501534
0.175387 0.796948 0.483452
0 0.770382 0.441642
0.137423 0.711788 0.354101
0.651972 0.635218 0.232258
0.866255 0.505272 0
0.972061 0.463996 0
0.97232 0.440208 0
0.972213 0.437308 0
0.580987 0.970123 0.718959
0.571527 0.964904 0.709895
0.54464 0.951644 0.685588
0.51783 0.926909 0.638926
0.573968 0.871809 0.534905
0.81944 0.814328 0.416587
0.955093 0.76585 0.250751
0.972045 0.748455 0.169818
0.972122 0.746227 0.160998
0.595224 0.976455 0.734997
0.591836 0.975631 0.730907
0.591745 0.976257 0.727474
0.603555 0.978012 0.722499
0.662287 0.979477 0.711452
0.78378 0.960632 0.667674
0.915404 0.923873 0.594141
0.963531 0.911254 0.56286
0.963851 0.90956 0.559762
0.59942 0.977478 0.740063
0.596078 0.976669 0.736019
0.58996 0.97528 0.728115
0.602106 0.977615 0.724208
0.657816 0.978805 0.712322
0.790005 0.982788 0.709575
0.916411 0.983825 0.711406
0.961837 0.968994 0.680568
0.961044 0.966628 0.675181
0.599954 0.9776 0.740719
0.596628 0.976791 0.736706
0.589746 0.975158 0.728191
0.601938 0.977569 0.724407
0.657588 0.978851 0.712749
0.789227 0.982895 0.709987
0.916701 0.987503 0.718837
0.964202 0.976928 0.698192
0.963821 0.974945 0.693721
0 0.0424201 0.281834
0 0.0407263 0.270558
0.0402228 0.0542916 0.242359
0.328679 0.00323491 0.190326
0.65449 0 0.109651
0.929473 0 0
0.959869 0 0
0.961303 0 0
0.961501 0 0
0 0.0788128 0.29781
0 0.065507 0.284367
0.0198367 0.0571756 0.255222
0.320653 0.00366217 0.204334
0.641688 0 0.122942
0.921233 0 0
0.961486 0 0
0.960143 0 0
0.960311 0 0
0 0.162799 0.352514
0 0.154025 0.336996
0 0.133883 0.300832
0.303151 0.0656291 0.237064
0.616831 0 0.148363
0.902541 0 0
0.965515 0 0
0.963211 0 0
0.962905 0 0
0 0.494575 0.476051
0 0.470619 0.459831
0 0.418616 0.423377
0.323949 0.332784 0.349065
0.613886 0.186801 0.21387
0.872099 0.0179904 0.0214694
0.962386 0.0782635 0
0.962371 0.0135805 0
0.962417 0.00691234 0
0.409628 0.804608 0.636225
0.388922 0.791913 0.622049
0.346716 0.764035 0.591623
0.374655 0.71252 0.52961
0.645975 0.631815 0.406851
0.860197 0.50695 0.188495
0.97055 0.462303 0
0.970642 0.438148 0
0.970703 0.435447 0
0.630976 0.967941 0.780453
0.621363 0.962386 0.772015
0.606165 0.950256 0.755367
0.558877 0.927901 0.704356
0.596429 0.872648 0.616953
0.811917 0.814389 0.516899
0.949859 0.768215 0.379889
0.967819 0.749233 0.321584
0.967865 0.746853 0.316167
0.630091 0.975143 0.791791
0.633066 0.974426 0.789914
0.638453 0.972625 0.785458
0.631479 0.975998 0.768719
0.670314 0.978622 0.744793
0.785824 0.964813 0.70985
0.912291 0.925643 0.642359
0.96257 0.914611 0.617105
0.962783 0.912902 0.614649
0.622889 0.97525 0.792844
0.628641 0.975158 0.792004
0.63534 0.973663 0.788037
0.636362 0.975158 0.774502
0.668406 0.978943 0.749096
0.78996 0.983688 0.740093
0.915404 0.985931 0.738155
0.961501 0.970993 0.711727
0.961196 0.968856 0.707485
0.622003 0.975265 0.792981
0.62768 0.975174 0.792142
0.634989 0.973785 0.788327
0.636957 0.975036 0.775204
0.668208 0.978988 0.749676
0.788876 0.983627 0.740246
0.914473 0.986313 0.738918
0.963195 0.978973 0.72668
0.964019 0.976974 0.722835
0 0.0244907 0.560876
0 0.0259403 0.548653
0 0.0258488 0.521737
0.334127 0 0.474403
0.715724 0 0.372381
0.91548 0 0.230015
0.957229 0 0.161517
0.959594 0 0.140383
0.959838 0 0.13817
0 0.057496 0.574716
0 0.0461585 0.563394
0 0.0285039 0.534768
0.319173 0 0.486336
0.712444 0 0.394018
0.906691 0 0.247929
0.956664 0 0.176349
0.957656 0 0.157351
0.957931 0 0.154925
0 0.16434 0.610269
0 0.15108 0.597864
0 0.124178 0.569451
0.297826 0.0233463 0.51725
0.704463 0 0.442664
0.888075 0 0.28275
0.955505 0 0.209125
0.95613 0 0.190295
0.956207 0 0.188144
0 0.416312 0.676707
0 0.393088 0.665736
0 0.34612 0.641245
0.345922 0.313787 0.595621
0.670314 0.204288 0.519554
0.870375 0 0.346456
0.9514 0 0.266209
0.954238 0 0.248951
0.954467 0 0.246693
0.425162 0.798047 0.762463
0.409201 0.785397 0.753811
0.376944 0.754559 0.732876
0.411597 0.696849 0.693049
0.645487 0.62948 0.638972
0.833417 0.498482 0.489937
0.959747 0.434134 0.366079
0.960327 0.410544 0.34493
0.960403 0.407706 0.342214
0.605783 0.972503 0.844099
0.598489 0.966186 0.837385
0.582773 0.952605 0.822324
0.575311 0.928344 0.794064
0.650523 0.870939 0.746273
0.804959 0.815915 0.672969
0.936812 0.761196 0.564477
0.958572 0.73994 0.52192
0.958694 0.737591 0.518441
0.613901 0.97644 0.858961
0.612833 0.976333 0.855009
0.609674 0.975845 0.846296
0.619562 0.976593 0.832303
0.705577 0.976532 0.820096
0.783001 0.969512 0.779553
0.911559 0.929442 0.731945
0.962814 0.917739 0.716823
0.963088 0.916213 0.714931
0.613993 0.97615 0.863401
0.613916 0.976379 0.85977
0.611505 0.976135 0.851331
0.61854 0.976471 0.836927
0.692866 0.976852 0.821027
0.785183 0.984131 0.796933
0.917311 0.988022 0.792767
0.965393 0.976135 0.777356
0.966674 0.974182 0.774472
0.614008 0.97612 0.863859
0.613931 0.976349 0.860349
0.611749 0.976165 0.852003
0.618296 0.976425 0.837369
0.691264 0.976898 0.821118
0.784527 0.984054 0.79733
0.916213 0.987976 0.793103
0.967376 0.984482 0.788022
0.969711 0.982361 0.785183
0.0429694 0 0.77554
0 0 0.766476
0.101869 0 0.747677
0.388495 0 0.710704
0.727642 0 0.658747
0.953277 0 0.563302
0.977447 0 0.484352
0.974075 0 0.458961
0.973678 0 0.456031
0.0942397 0 0.783383
0.0463417 0 0.774487
0.110155 0 0.755901
0.382254 0 0.720607
0.71577 0 0.668879
0.949813 0 0.584512
0.97966 0 0.503761
0.976776 0 0.479225
0.976379 0 0.476295
0.242054 0.111879 0.80473
0.224094 0.0769207 0.798398
0.200916 0.0216526 0.775738
0.376776 0 0.74168
0.691844 0 0.691646
0.944045 0 0.630625
0.982101 0 0.542428
0.980697 0 0.520241
0.980545 0 0.517708
0.319066 0.398856 0.83505
0.319936 0.38439 0.826337
0.329595 0.352743 0.811139
0.424689 0.283146 0.780804
0.669078 0.204608 0.73608
0.91223 0.136812 0.683116
0.986923 0.0165408 0.609674
0.984924 0 0.588174
0.984619 0 0.585153
0.395117 0.752972 0.875853
0.377462 0.735637 0.86833
0.345663 0.699077 0.852811
0.375051 0.623926 0.82211
0.642237 0.589166 0.78732
0.847761 0.551537 0.74493
0.965011 0.471946 0.67715
0.965179 0.44007 0.657664
0.96524 0.436454 0.65539
0.60798 0.961105 0.926284
0.600076 0.955489 0.920867
0.580957 0.939437 0.905791
0.57232 0.916335 0.882139
0.639826 0.859693 0.844739
0.803601 0.814359 0.809445
0.911391 0.73283 0.728252
0.934356 0.705806 0.701595
0.934051 0.703731 0.700099
0.651392 0.974273 0.951751
0.635615 0.969299 0.943008
0.609522 0.962249 0.927031
0.617563 0.970977 0.913558
0.693004 0.978332 0.892088
0.810452 0.971633 0.867155
0.916259 0.931655 0.829953
0.965042 0.916548 0.812573
0.964477 0.914412 0.810468
0.627253 0.966674 0.938384
0.619455 0.964218 0.934066
0.609552 0.962188 0.927153
0.616144 0.968704 0.917067
0.687068 0.97789 0.89691
0.808377 0.982467 0.875654
0.91986 0.989593 0.861097
0.975006 0.981598 0.854032
0.978073 0.979629 0.852293
0.628367 0.967025 0.93901
0.620386 0.964508 0.934585
0.609628 0.962036 0.927413
0.616022 0.968399 0.917556
0.68629 0.977829 0.89752
0.806943 0.982483 0.876097
0.918654 0.989532 0.861509
0.977188 0.990723 0.860609
0.981247 0.988464 0.858808
0.374685 0 0.88629
0.362768 0 0.879683
0.366384 0 0.864286
0.488518 0 0.833204
0.739559 0 0.794064
0.959442 0 0.745846
0.998672 0.0857557 0.714305
0.998276 0.0611582 0.700053
0.998184 0.0583505 0.698344
0.393103 0 0.893431
0.378271 0 0.886107
0.37554 0 0.871015
0.487358 0 0.841062
0.731701 0 0.80116
0.950057 0 0.753567
0.998993 0.105211 0.725582
0.998581 0.0805982 0.71133
0.99855 0.0780194 0.709834
0.447456 0.00222782 0.912093
0.430472 0 0.904219
0.412116 0 0.887388
0.49189 0 0.85774
0.71516 0 0.816312
0.932586 0 0.771725
0.996811 0.108965 0.74522
0.99884 0.117296 0.735256
0.999054 0.118166 0.734218
0.473411 0.38677 0.933318
0.466987 0.358068 0.929381
0.46389 0.321569 0.914931
0.519646 0.247868 0.886534
0.702068 0.150042 0.847974
0.903136 0.113634 0.80618
0.990112 0.171984 0.775982
0.990692 0.145754 0.764706
0.99086 0.143221 0.763302
0.423651 0.750561 0.939452
0.409262 0.728679 0.939529
0.373526 0.675959 0.938933
0.383795 0.567941 0.925261
0.656931 0.546975 0.88333
0.846235 0.530129 0.846754
0.966323 0.503609 0.816663
0.967971 0.479667 0.806394
0.968368 0.477424 0.805432
0.657526 0.976196 0.955139
0.648371 0.969528 0.954406
0.628748 0.955108 0.952819
0.611933 0.928542 0.950454
0.623865 0.845701 0.931701
0.794476 0.784863 0.88658
0.926818 0.771481 0.863035
0.951965 0.758495 0.855161
0.951995 0.756466 0.854002
0.657526 0.976196 0.955139
0.657526 0.976196 0.955139
0.657526 0.976196 0.955139
0.666728 0.976761 0.955276
0.721309 0.979416 0.955322
0.807492 0.969955 0.932097
0.926894 0.933089 0.905303
0.962829 0.904936 0.882658
0.961898 0.902251 0.881117
0.657526 0.976196 0.955139
0.657526 0.976196 0.955139
0.657526 0.976196 0.955139
0.665507 0.976715 0.955261
0.717662 0.979232 0.955322
0.815396 0.98233 0.943099
0.932418 0.990158 0.92488
0.987259 0.985672 0.916945
0.991989 0.983368 0.91548
0.657526 0.976196 0.955139
0.657526 0.976196 0.955139
0.657526 0.976196 0.955139
0.665385 0.976699 0.955261
0.71725 0.979217 0.955322
0.815641 0.982635 0.944121
0.931594 0.990066 0.925628
0.988632 0.993973 0.920806
0.995422 0.993027 0.920058
0.460685 0 0.925917
0.449073 0 0.919371
0.444953 0 0.904173
0.535988 0 0.874662
0.752422 0 0.836561
0.953506 0 0.789212
0.993881 0.100725 0.763439
0.995178 0.10222 0.753292
0.995422 0.103243 0.752056
0.470649 0 0.93019
0.461814 0 0.925368
0.456931 0 0.911711
0.536736 0 0.882078
0.747616 0 0.844678
0.946349 0 0.797101
0.993286 0.104128 0.772076
0.994003 0.0999619 0.761501
0.994095 0.0994888 0.760281
0.479942 0 0.930648
0.480217 0 0.930999
0.483299 0 0.925521
0.541329 0 0.896803
0.734768 0 0.859174
0.933288 0 0.816922
0.990982 0.0901503 0.788739
0.992752 0.107256 0.779995
0.992844 0.106691 0.778576
0.473823 0.389212 0.933562
0.468788 0.359854 0.930648
0.485252 0.315801 0.930938
0.563714 0.232929 0.925383
0.719982 0.105425 0.886549
0.90634 0.133211 0.849424
0.983566 0.15227 0.814588
0.984833 0.134142 0.805524
0.985061 0.132891 0.804685
0.424613 0.751888 0.939452
0.410544 0.730648 0.939529
0.37496 0.677958 0.938979
0.392844 0.568597 0.93547
0.674037 0.533089 0.923369
0.851438 0.519631 0.884276
0.969146 0.490822 0.855039
0.969482 0.471138 0.845609
0.969573 0.469245 0.844419
0.657526 0.976196 0.955139
0.649195 0.970138 0.954467
0.629572 0.955718 0.95288
0.612573 0.929198 0.950515
0.631998 0.850858 0.94435
0.79939 0.776196 0.92639
0.934447 0.76408 0.89839
0.955245 0.750164 0.887465
0.955001 0.748486 0.886397
0.657526 0.976196 0.955139
0.657526 0.976196 0.955139
0.657526 0.976196 0.955139
0.666667 0.976761 0.955276
0.721111 0.979416 0.955322
0.82678 0.978927 0.953582
0.928435 0.926604 0.938445
0.977356 0.91783 0.926375
0.975982 0.91545 0.924651
0.657526 0.976196 0.955139
0.657526 0.976196 0.955139
0.657526 0.976196 0.955139
0.665476 0.976699 0.955261
0.71754 0.979232 0.955322
0.826688 0.986526 0.954269
0.948684 0.995483 0.95494
0.994751 0.991485 0.950149
0.997833 0.988327 0.948058
0.657526 0.976196 0.955139
0.657526 0.976196 0.955139
0.657526 0.976196 0.955139
0.665354 0.976699 0.955261
0.717098 0.979202 0.955322
0.82591 0.986465 0.954269
0.947494 0.995392 0.954925
0.99588 0.998703 0.952895
0.999847 0.99884 0.952148
0.469612 0 0.930175
0.458106 0 0.923705
0.454582 0 0.909041
0.541619 0 0.879332
0.754833 0 0.842008
0.952987 0 0.793912
0.9935 0.102892 0.768917
0.994202 0.0988022 0.758556
0.994385 0.0989548 0.757183
0.470649 0 0.93019
0.470573 0 0.929641
0.464668 0 0.91577
0.542641 0 0.886839
0.748898 0 0.849104
0.946059 0 0.802228
0.99292 0.106294 0.777554
0.993637 0.102129 0.766995
0.993713 0.10164 0.765774
0.479957 0 0.930648
0.480217 0 0.930999
0.491447 0 0.929931
0.548089 0 0.901717
0.736797 0 0.863752
0.933974 0 0.822675
0.9897 0.0744182 0.792966
0.992096 0.103868 0.785061
0.992416 0.107881 0.783978
0.473823 0.389212 0.933562
0.468864 0.360296 0.930694
0.485252 0.315801 0.930938
0.569223 0.230991 0.930053
0.722927 0.0966659 0.891295
0.90602 0.130373 0.853574
0.98323 0.151064 0.819303
0.984405 0.131655 0.810254
0.984634 0.130312 0.809308
0.424826 0.752178 0.939452
0.410544 0.730648 0.939529
0.375235 0.67837 0.938979
0.392691 0.568597 0.93547
0.67602 0.531075 0.9281
0.852567 0.517403 0.888533
0.970718 0.488823 0.860243
0.96997 0.468528 0.849928
0.970108 0.466377 0.848981
0.657526 0.976196 0.955139
0.649195 0.970138 0.954467
0.629572 0.955718 0.95288
0.612573 0.929198 0.950515
0.632105 0.851133 0.944366
0.800595 0.77583 0.931777
0.935439 0.763348 0.902678
0.956741 0.748547 0.89189
0.956512 0.746807 0.890898
0.657526 0.976196 0.955139
0.657526 0.976196 0.955139
0.657526 0.976196 0.955139
0.666667 0.976761 0.955276
0.721111 0.979416 0.955322
0.827115 0.979309 0.953613
0.929397 0.926558 0.943603
0.980087 0.918776 0.931273
0.978897 0.916259 0.929824
0.657526 0.976196 0.955139
0.657526 0.976196 0.955139
0.657526 0.976196 0.955139
0.665476 0.976699 0.955261
0.717464 0.979217 0.955322
0.826566 0.986511 0.954269
0.948684 0.995483 0.95494
0.99585 0.99263 0.954757
0.998917 0.990188 0.953124
0.657526 0.976196 0.955139
0.657526 0.976196 0.955139
0.657526 0.976196 0.955139
0.665354 0.976699 0.955261
0.717021 0.979202 0.955322
0.825833 0.986465 0.954269
0.947295 0.995377 0.954925
0.996597 0.999619 0.956405
1 1 0.956573
