luts/changyun_kodaklike/kodaM800.cube
TITLE "Generated by Resolve"
LUT_3D_SIZE 5
0.0144503 0.0923781 0.10428
0.112093 0.0965286 0.112383
0.650965 0 0.154742
1 0 0.241917
1 0 0.241917
0 0.157977 0.141085
0.0926375 0.129366 0.113039
0.610529 0 0.151186
1 0 0.241917
1 0 0.241917
0.2224 0.816449 0.537194
0 0.760876 0.467414
0.642573 0.623529 0.0398718
0.998352 0.432563 0.238071
1 0.409903 0.241779
0.759762 0.961501 0.843809
0.746075 0.95967 0.833722
0.782528 0.961456 0.822522
0.958434 0.93547 0.474617
1 0.926894 0.318608
0.757305 0.960952 0.843091
0.75259 0.960555 0.838483
0.781552 0.962081 0.824582
0.922072 0.969696 0.748043
0.974914 0.962997 0.621866
0.0198062 0.101152 0.143923
0.110033 0.0995651 0.123247
0.640024 0 0.153674
1 0 0.241917
1 0 0.241917
0 0.167468 0.18732
0.0971847 0.135149 0.155322
0.598047 0 0.149874
1 0 0.241917
1 0 0.241917
0.260456 0.816876 0.579522
0.126848 0.765377 0.51931
0.647379 0.633448 0.15462
1 0.43151 0.236713
1 0.405035 0.236393
0.737469 0.962081 0.845197
0.742916 0.961303 0.843763
0.786892 0.961898 0.83122
0.956573 0.938888 0.519844
1 0.930632 0.335836
0.738796 0.963134 0.848188
0.736202 0.960845 0.841733
0.782635 0.961746 0.830961
0.9252 0.970977 0.765347
0.973999 0.966003 0.653956
0.184161 0.172076 0.526162
0.244388 0.168063 0.483162
0.728878 0 0.32813
1 0.135943 0.236255
1 0.138048 0.237659
0.207736 0.254444 0.581903
0.246601 0.219272 0.535851
0.722148 0.147677 0.403342
1 0.148577 0.237934
1 0.142733 0.237125
0.0213016 0.813123 0.783444
0 0.755901 0.737652
0.654704 0.634302 0.624308
1 0.456641 0.32137
1 0.432624 0.296437
0.567163 0.974838 0.908827
0.571954 0.973678 0.896712
0.75967 0.965789 0.878782
0.939284 0.941939 0.769253
0.995636 0.933028 0.695857
0.562066 0.974655 0.913176
0.570138 0.974273 0.902205
0.738018 0.966888 0.877989
0.926619 0.969879 0.85864
0.964782 0.968963 0.817533
0.613672 0.451759 0.911513
0.6065 0.422187 0.892195
0.846906 0.575311 0.805447
1 0.534005 0.713649
1 0.502129 0.68896
0.651179 0.54522 0.93312
0.626551 0.483024 0.912535
0.841611 0.58352 0.830182
1 0.598093 0.762692
1 0.574075 0.744595
0.436866 0.834607 0.964904
0.397147 0.79234 0.964034
0.757565 0.720409 0.910735
0.970565 0.777096 0.856474
0.974517 0.759915 0.845518
0.686061 0.974487 0.970947
0.686061 0.974487 0.970947
0.757031 0.974426 0.971069
0.935805 0.94136 0.937987
0.959747 0.924544 0.917952
0.686061 0.974487 0.970947
0.686061 0.974487 0.970947
0.752911 0.974426 0.971069
0.930083 0.971374 0.95671
0.969802 0.974197 0.951797
0.688685 0.552697 0.944579
0.675471 0.514443 0.930007
0.870375 0.642191 0.858854
1 0.641077 0.795941
1 0.624186 0.782361
0.67863 0.578088 0.944518
0.694179 0.571496 0.943679
0.864591 0.632715 0.880278
0.998062 0.66215 0.81796
0.999954 0.66186 0.812879
0.437873 0.835554 0.96492
0.398444 0.793667 0.96408
0.797772 0.767529 0.944137
0.964096 0.792538 0.881376
0.966094 0.777981 0.872297
0.686061 0.974487 0.970947
0.686061 0.974487 0.970947
0.756848 0.974426 0.971069
0.945632 0.949722 0.967605
0.966033 0.952636 0.958862
0.686061 0.974487 0.970947
0.686061 0.974487 0.970947
0.752697 0.974426 0.971069
0.936996 0.977523 0.975143
0.977569 0.979828 0.978607
