luts/changyun_kodaklike/kodaEC64.cube
TITLE "Generated by Resolve"
LUT_3D_SIZE 9
0.00360113 0.00378424 0.00448615
0.0420996 0.00134279 0.00177005
0.153552 0.0132448 0.00819409
0.313634 0.0269932 0.0135805
0.551812 0 0
0.825879 0 0
0.872312 0 0
0.872312 0 0
0.872312 0 0
0.00122072 0.0565347 0.0258946
0.0292363 0.0323339 0.0100099
0.147143 0.0144808 0.00639353
0.305608 0.0277256 0.0136721
0.543099 0 0
0.814801 0 0
0.872312 0 0
0.872312 0 0
0.872312 0 0
0 0.180316 0.113344
0 0.16585 0.101106
0.129732 0.133364 0.0583963
0.291524 0.0782025 0.00103761
0.523964 0 0
0.79118 0 0
0.872312 0 0
0.872312 0 0
0.872312 0 0
0 0.417792 0.215396
0 0.399756 0.206226
0 0.359258 0.176715
0.261387 0.28777 0.118547
0.523186 0.190021 0
0.765576 0.0417334 0
0.869841 0 0
0.869368 0 0
0.869352 0 0
0 0.708537 0.360433
0 0.693263 0.346273
0 0.662455 0.31841
0 0.59881 0.259648
0.459113 0.520607 0.159625
0.781796 0.432868 0
0.913146 0.385733 0
0.914595 0.362692 0
0.914122 0.359838 0
0.072221 0.940764 0.584253
0.0454414 0.931579 0.571328
0 0.911788 0.542687
0 0.869505 0.46595
0.335454 0.779293 0.373449
0.682765 0.707988 0.220844
0.910323 0.679088 0
0.943465 0.660624 0
0.943633 0.658198 0
0.19736 0.956558 0.61445
0.170657 0.955566 0.60972
0.106035 0.952819 0.598627
0.0968338 0.956451 0.582681
0.434058 0.956252 0.570336
0.668147 0.91487 0.493111
0.842954 0.859159 0.327153
0.914565 0.847822 0.243275
0.916091 0.846601 0.238254
0.203998 0.955535 0.617105
0.198703 0.956359 0.614984
0.143526 0.954406 0.605066
0.128573 0.956451 0.587137
0.423499 0.957214 0.572854
0.688411 0.962661 0.573404
0.847242 0.958221 0.503731
0.908003 0.934829 0.418784
0.910246 0.931762 0.411002
0.204898 0.955398 0.617456
0.199588 0.956222 0.615335
0.148516 0.95462 0.60592
0.129046 0.956344 0.587518
0.422385 0.957336 0.573205
0.686931 0.962493 0.573526
0.850935 0.972732 0.53167
0.91162 0.950683 0.452873
0.914214 0.947677 0.444434
0.0081178 0.00434882 0.0341344
0.0433051 0.00277714 0.018143
0.152392 0.012726 0.00833143
0.313237 0.0270237 0.0135805
0.551369 0 0
0.82533 0 0
0.872312 0 0
0.872312 0 0
0.872312 0 0
0.00646983 0.0582132 0.0636149
0.034287 0.0341039 0.039353
0.146136 0.0157626 0.00668345
0.305196 0.0277562 0.0136721
0.542885 0 0
0.814527 0 0
0.872312 0 0
0.872312 0 0
0.872312 0 0
0 0.182864 0.133471
0.00177005 0.168566 0.12195
0.13019 0.13431 0.0803845
0.290196 0.0802319 0.000656138
0.523705 0 0
0.790906 0 0
0.872312 0 0
0.872312 0 0
0.872312 0 0
0 0.420356 0.23595
0 0.401312 0.225299
0 0.36231 0.19057
0.26186 0.289265 0.12636
0.522133 0.19089 0
0.765118 0.0444953 0
0.869856 0 0
0.869383 0 0
0.869368 0 0
0 0.709941 0.380941
0 0.696513 0.367956
0 0.664698 0.336538
0 0.600412 0.268009
0.457465 0.520531 0.164645
0.778836 0.432273 0
0.918715 0.387106 0
0.914778 0.363821 0
0.914305 0.360983 0
0.141253 0.943633 0.603128
0.0873426 0.934524 0.589426
0 0.911101 0.554498
0 0.870466 0.476036
0.336294 0.779965 0.378592
0.683513 0.709743 0.225879
0.915908 0.679881 0
0.942199 0.660838 0
0.942397 0.658305 0
0.235126 0.955016 0.628
0.219867 0.954406 0.622965
0.203937 0.95555 0.617075
0.156146 0.955398 0.591531
0.438804 0.957931 0.577066
0.671382 0.921569 0.505882
0.848676 0.867674 0.340185
0.912123 0.851316 0.257176
0.91339 0.849668 0.251179
0.254414 0.955795 0.634379
0.238972 0.955169 0.629282
0.21059 0.954513 0.61973
0.179217 0.956283 0.598672
0.424933 0.957702 0.577661
0.686473 0.96141 0.573556
0.855879 0.966766 0.521584
0.914717 0.942901 0.436164
0.913512 0.939025 0.427741
0.256428 0.955871 0.635035
0.241184 0.955261 0.629999
0.211353 0.954391 0.620035
0.181643 0.956374 0.599435
0.42327 0.957641 0.577676
0.685267 0.96141 0.57409
0.857755 0.976562 0.540932
0.918746 0.957275 0.467201
0.917494 0.953216 0.458335
0.0560616 0.0109712 0.139666
0.0807965 0.00689708 0.129732
0.152377 0.0293584 0.0978714
0.314473 0.065919 0.0043183
0.547066 0 0
0.824216 0 0
0.872312 0 0
0.872312 0 0
0.872312 0 0
0.0492866 0.0642252 0.151202
0.0770581 0.0412146 0.14078
0.146426 0.0343786 0.10901
0.308263 0.0747234 0.00450141
0.538155 0 0
0.813413 0 0
0.872312 0 0
0.872312 0 0
0.872312 0 0
0.00570687 0.185687 0.194125
0.0195926 0.17113 0.182925
0.142016 0.140002 0.152193
0.292851 0.100893 0.0719921
0.519997 0.000946059 0
0.786603 0 0
0.872312 0 0
0.872312 0 0
0.872312 0 0
0 0.427939 0.285313
0 0.409552 0.274113
0 0.369985 0.24918
0.269703 0.296574 0.177066
0.522057 0.192721 0.000701915
0.75317 0.0556649 0
0.865812 0 0
0.86746 0 0
0.867643 0 0
0 0.712505 0.425361
0 0.698833 0.41297
0 0.668544 0.385931
0 0.606546 0.304097
0.465675 0.528847 0.204089
0.777462 0.433814 0
0.914824 0.387335 0
0.910628 0.363851 0
0.910002 0.361044 0
0.150744 0.944579 0.629191
0.106966 0.935073 0.61796
0 0.912123 0.589639
0 0.872114 0.518441
0.346227 0.783642 0.403693
0.685389 0.71281 0.254902
0.914137 0.680613 0
0.941512 0.66186 0
0.941604 0.659403 0
0.154299 0.95668 0.646204
0.165988 0.955169 0.642741
0.204669 0.955108 0.640421
0.272908 0.956542 0.628687
0.43772 0.957626 0.58996
0.672129 0.92314 0.521645
0.847822 0.868788 0.357809
0.911315 0.852171 0.278447
0.912551 0.85066 0.272862
0.139818 0.958541 0.650492
0.151369 0.957046 0.647059
0.178607 0.954345 0.640467
0.281865 0.955901 0.635019
0.423209 0.957092 0.591196
0.686091 0.960616 0.584115
0.856031 0.969436 0.536645
0.91606 0.946258 0.454704
0.914946 0.942214 0.446036
0.137469 0.95877 0.651041
0.149416 0.957305 0.647639
0.175387 0.954238 0.640467
0.282902 0.955825 0.635752
0.421866 0.957214 0.591699
0.684993 0.960678 0.584863
0.856687 0.975738 0.548928
0.919417 0.959899 0.48333
0.918807 0.956436 0.475792
0.110826 0.0254368 0.285298
0.117815 0.022385 0.276661
0.177829 0.026215 0.252384
0.328603 0.0713359 0.19205
0.556008 0.0480659 0.0778058
0.822156 0 0
0.863813 0 0
0.86511 0 0
0.865278 0 0
0.111147 0.0725109 0.296742
0.115755 0.0529946 0.286839
0.173114 0.028275 0.263462
0.322042 0.0814374 0.204974
0.547051 0.0509957 0.103365
0.811887 0 0
0.865843 0 0
0.864057 0 0
0.86421 0 0
0.053193 0.174548 0.333608
0.0868238 0.164477 0.322515
0.1608 0.139712 0.296529
0.310582 0.116121 0.233677
0.529641 0.0611124 0.133898
0.789853 0 0
0.870787 0 0
0.867964 0 0
0.867582 0 0
0 0.436545 0.41416
0 0.417487 0.40235
0 0.377234 0.376089
0.305669 0.31667 0.324224
0.524575 0.207034 0.203311
0.760418 0.132677 0
0.870726 0.016556 0
0.869551 0.00115969 0
0.869474 0.000564584 0
0 0.72018 0.524575
0 0.70573 0.512276
0 0.675258 0.486976
0 0.624598 0.440085
0.490578 0.541955 0.335241
0.777905 0.43856 0.176699
0.916808 0.383322 0
0.912947 0.363134 0
0.912581 0.360891 0
0 0.954452 0.669093
0 0.943999 0.658961
0 0.922164 0.635981
0 0.880201 0.596246
0.380941 0.793423 0.488609
0.69424 0.718074 0.359792
0.919585 0.683635 0.207294
0.946624 0.663157 0.15346
0.946563 0.660594 0.149203
0 0.966522 0.688594
0 0.965377 0.684565
0 0.962615 0.675471
0.032517 0.961959 0.670695
0.433295 0.960006 0.636423
0.681559 0.93048 0.583398
0.850507 0.872969 0.434623
0.91635 0.857221 0.368414
0.91783 0.85594 0.363928
0 0.966949 0.6925
0 0.966598 0.689372
0 0.964218 0.68072
0 0.962417 0.672694
0.425513 0.960815 0.643885
0.690593 0.962112 0.631052
0.857725 0.973877 0.586221
0.919051 0.95079 0.514824
0.918639 0.947127 0.507576
0 0.96701 0.692973
0 0.966659 0.689891
0 0.964401 0.681331
0 0.962448 0.672969
0.425406 0.960891 0.645151
0.689174 0.961975 0.631571
0.85658 0.974533 0.588067
0.92108 0.964309 0.539483
0.922194 0.960952 0.532265
0.151202 0.0169223 0.488945
0.154055 0.0158083 0.479301
0.203525 0.0104524 0.458717
0.374075 0.0555428 0.410239
0.590784 0.0217441 0.311162
0.819547 0 0.172808
0.872572 0 0.0785687
0.874693 0 0.0468299
0.874922 0 0.0434882
0.154467 0.0678721 0.500099
0.155978 0.0484627 0.490776
0.199374 0.0183413 0.468635
0.367163 0.0482795 0.42092
0.586557 0.0469062 0.327642
0.808865 0 0.189685
0.872343 0 0.0984054
0.872953 0 0.0723735
0.873213 0 0.0687266
0.159625 0.175586 0.530953
0.158984 0.162692 0.519966
0.193927 0.135317 0.496193
0.354482 0.0935836 0.448585
0.581277 0.10338 0.364889
0.785245 0 0.222492
0.871931 0 0.141253
0.872114 0 0.117052
0.87216 0 0.114183
0 0.395895 0.595117
0 0.377523 0.584009
0 0.339605 0.560388
0.327474 0.299184 0.51989
0.568597 0.260563 0.434043
0.754955 0.0601816 0.278294
0.870878 0 0.194629
0.872816 0 0.179049
0.872923 0 0.176852
0 0.723842 0.69395
0 0.709682 0.682307
0 0.678477 0.657237
0.0924849 0.624918 0.61323
0.562234 0.576257 0.565637
0.761868 0.434928 0.401343
0.912245 0.353323 0.275944
0.90869 0.332433 0.258824
0.908278 0.329992 0.256641
0 0.965179 0.806867
0 0.954238 0.794675
0 0.930602 0.768002
0 0.890608 0.719417
0.423148 0.808774 0.648661
0.727642 0.733364 0.554391
0.935103 0.68069 0.447715
0.96408 0.657145 0.415091
0.964004 0.654673 0.412528
0 0.971908 0.83624
0 0.971633 0.828031
0 0.970748 0.810376
0 0.970977 0.778561
0.33431 0.969162 0.738354
0.691386 0.94226 0.691936
0.862364 0.881773 0.583734
0.940826 0.874067 0.533913
0.941833 0.872221 0.530404
0 0.971862 0.845991
0 0.971908 0.83801
0 0.971252 0.820584
0 0.971054 0.788724
0.233112 0.970306 0.742382
0.690623 0.967681 0.718929
0.864683 0.977722 0.686
0.92958 0.960235 0.637797
0.931502 0.957031 0.631968
0 0.971862 0.847013
0 0.971893 0.839307
0 0.971328 0.821958
0 0.971023 0.789746
0.216953 0.970443 0.74284
0.689036 0.967681 0.719539
0.863294 0.9776 0.687022
0.931075 0.974197 0.656062
0.934462 0.970794 0.649821
0.246876 0 0.703059
0.243229 0 0.69192
0.271092 0 0.670008
0.419409 0 0.629267
0.649531 0.061738 0.548257
0.862791 0 0.439094
0.895827 0 0.362432
0.890349 0 0.340169
0.889723 0 0.337606
0.253391 0 0.713573
0.249073 0 0.702434
0.271229 0 0.679957
0.413916 0 0.640803
0.645563 0.024155 0.561257
0.858213 0.0146487 0.459098
0.899596 0 0.379751
0.894728 0 0.357946
0.894087 0 0.355367
0.266545 0.155367 0.741802
0.262745 0.142123 0.73228
0.274403 0.105745 0.704997
0.402838 0 0.66482
0.637095 0.0010071 0.589792
0.850111 0.10985 0.502434
0.905013 0 0.415671
0.901915 0 0.395056
0.901549 0 0.392706
0.134661 0.380682 0.791791
0.16788 0.365438 0.77969
0.217182 0.332509 0.756893
0.375433 0.276112 0.715648
0.626444 0.235279 0.650217
0.830045 0.253559 0.571893
0.917281 0.0153811 0.47985
0.912795 0 0.45919
0.912154 0 0.456336
0 0.70106 0.867353
0 0.683375 0.854139
0 0.647242 0.82768
0 0.578866 0.781186
0.556008 0.52929 0.737881
0.799969 0.511482 0.662104
0.929183 0.385779 0.555932
0.924575 0.35613 0.534173
0.924102 0.352636 0.531548
0 0.949371 0.961639
0 0.940612 0.951202
0 0.916106 0.923201
0 0.879911 0.879286
0.434226 0.804791 0.816876
0.793194 0.768139 0.781933
0.922255 0.653407 0.645792
0.949813 0.619165 0.605463
0.949081 0.616754 0.603357
0.200793 0.967849 0.995697
0.124254 0.96112 0.984604
0 0.951064 0.963104
0 0.96408 0.940291
0.282109 0.976318 0.900175
0.678904 0.961166 0.835218
0.88716 0.893126 0.767163
0.967178 0.881392 0.735134
0.967254 0.878325 0.732952
0.0837415 0.957549 0.978744
0.0459144 0.954238 0.973266
0 0.951003 0.963348
0 0.95816 0.944335
0.264485 0.976318 0.910048
0.648829 0.979782 0.848066
0.876921 0.981521 0.819974
0.949065 0.971084 0.791012
0.953613 0.968017 0.786801
0.0891432 0.958038 0.979522
0.0504158 0.954635 0.973922
0 0.950881 0.963851
0 0.957351 0.944884
0.26244 0.976318 0.911269
0.645426 0.979873 0.849348
0.875593 0.981384 0.821134
0.949432 0.985763 0.802335
0.955383 0.982315 0.797635
0.364691 0 0.859815
0.358007 0 0.849073
0.367132 0 0.825208
0.477241 0 0.782101
0.707118 0 0.715862
0.901457 0.231296 0.640421
0.937407 0.197589 0.59292
0.933761 0.173144 0.573663
0.933349 0.170092 0.571466
0.374243 0 0.871626
0.365728 0 0.859785
0.371664 0 0.835996
0.474311 0 0.792966
0.702144 0 0.727184
0.892958 0.220478 0.648463
0.940307 0.216907 0.608133
0.936645 0.192462 0.588876
0.936263 0.189899 0.586862
0.391394 0.129717 0.901091
0.382849 0.0992905 0.888609
0.381384 0.0279393 0.86186
0.470695 0 0.817502
0.690517 0 0.751614
0.878309 0.196994 0.668772
0.944305 0.247471 0.637522
0.942626 0.233021 0.621637
0.942443 0.23151 0.619974
0.319524 0.382193 0.944533
0.329122 0.361578 0.938994
0.345739 0.326009 0.912581
0.446937 0.258 0.865324
0.670314 0.185016 0.804089
0.863752 0.216373 0.718669
0.94818 0.283482 0.679683
0.945891 0.276997 0.666957
0.945678 0.276539 0.665354
0 0.717464 0.971771
0 0.698543 0.969924
0 0.656733 0.96585
0.0271916 0.568307 0.939788
0.575509 0.493248 0.87422
0.846006 0.481025 0.806012
0.950881 0.485527 0.747417
0.948363 0.468986 0.733059
0.948287 0.467308 0.731655
0.230503 0.970459 1
0.199863 0.961089 1
0.135225 0.940856 1
0.1738 0.906722 0.998581
0.410361 0.807157 0.965331
0.77586 0.725628 0.892775
0.939849 0.722347 0.840543
0.96231 0.706233 0.825391
0.96199 0.704036 0.823514
0.230503 0.970459 1
0.230503 0.970459 1
0.230503 0.970459 1
0.280934 0.971252 1
0.475334 0.975692 1
0.691737 0.961807 0.968032
0.933944 0.923461 0.928862
0.978653 0.87834 0.883665
0.978149 0.874617 0.88098
0.230503 0.970459 1
0.230503 0.970459 1
0.230503 0.970459 1
0.274708 0.971145 1
0.465095 0.975387 1
0.691524 0.978912 0.984253
0.891066 0.990265 0.947417
0.974884 0.981888 0.926436
0.982071 0.979187 0.923461
0.230503 0.970459 1
0.230503 0.970459 1
0.230503 0.970459 1
0.274052 0.971145 1
0.463951 0.975341 1
0.691432 0.979339 0.985702
0.888869 0.990326 0.948959
0.972061 0.992569 0.930938
0.980743 0.991592 0.928206
0.42385 0 0.924681
0.415229 0 0.913161
0.417365 0 0.887785
0.509804 0 0.842756
0.729473 0 0.777783
0.907805 0.215106 0.690898
0.947402 0.264683 0.663813
0.945663 0.259159 0.650385
0.945449 0.257374 0.648417
0.430198 0 0.932876
0.424186 0 0.924331
0.424384 0 0.899992
0.508827 0 0.854124
0.725551 0 0.790433
0.902586 0.200595 0.700999
0.948898 0.263249 0.673396
0.947066 0.265003 0.661662
0.946853 0.265202 0.660319
0.421195 0.125795 0.9346
0.424063 0.0882277 0.934676
0.435386 0.00434882 0.9252
0.507607 0 0.878355
0.71429 0 0.815015
0.897154 0.162768 0.729061
0.951064 0.258289 0.692699
0.950271 0.261921 0.6822
0.950027 0.262165 0.680613
0.318563 0.383902 0.944854
0.330068 0.363226 0.941039
0.369985 0.328191 0.939834
0.489128 0.257252 0.928923
0.692271 0.156191 0.864668
0.894881 0.192691 0.789639
0.953002 0.268559 0.727291
0.951247 0.264561 0.715236
0.951141 0.264332 0.714046
0 0.7187 0.971893
0 0.700236 0.970092
0 0.658244 0.966003
0.0407874 0.572747 0.956207
0.601312 0.489082 0.938521
0.866163 0.475685 0.865293
0.965347 0.474266 0.798154
0.960815 0.459617 0.783169
0.960342 0.458152 0.781338
0.230503 0.970459 1
0.20264 0.961944 1
0.137926 0.941711 1
0.174975 0.90753 0.998627
0.42678 0.81445 0.98558
0.783581 0.716487 0.956298
0.966735 0.710842 0.896742
0.976959 0.701427 0.872786
0.976242 0.699626 0.870863
0.230503 0.970459 1
0.230503 0.970459 1
0.230503 0.970459 1
0.28069 0.971252 1
0.474815 0.975677 1
0.715999 0.974029 0.999893
0.928985 0.908095 0.977874
0.988861 0.901534 0.952895
0.987716 0.898955 0.950179
0.230503 0.970459 1
0.230503 0.970459 1
0.230503 0.970459 1
0.274495 0.971145 1
0.46479 0.975372 1
0.706966 0.984771 1
0.909377 0.99559 0.999725
0.990524 0.990219 0.989929
0.996674 0.986542 0.986389
0.230503 0.970459 1
0.230503 0.970459 1
0.230503 0.970459 1
0.273838 0.971145 1
0.463539 0.975341 1
0.70547 0.98471 1
0.90753 0.995483 0.999725
0.989563 0.998688 0.99382
0.997482 0.998795 0.992035
0.430732 0 0.932082
0.422202 0 0.920684
0.423865 0 0.895552
0.514046 0 0.849973
0.732677 0 0.785672
0.909041 0.211627 0.697093
0.948348 0.263767 0.669902
0.946548 0.265492 0.658396
0.946319 0.264805 0.656596
0.430198 0 0.932876
0.431052 0 0.931792
0.43061 0 0.907118
0.513222 0 0.861494
0.727749 0 0.797543
0.904219 0.196368 0.707759
0.949844 0.262333 0.679484
0.948013 0.264088 0.667765
0.947799 0.264286 0.666407
0.42118 0.125963 0.9346
0.424033 0.0889601 0.934676
0.442039 0.00205997 0.932799
0.512825 0 0.886122
0.717037 0 0.822278
0.900511 0.158038 0.737392
0.951171 0.255756 0.69807
0.950957 0.260517 0.688029
0.950927 0.261158 0.686656
0.318563 0.383902 0.944854
0.329885 0.363531 0.941085
0.369985 0.328191 0.939834
0.494621 0.257328 0.936736
0.69572 0.152483 0.872297
0.897459 0.190051 0.796994
0.954055 0.267048 0.733333
0.952239 0.26276 0.721325
0.952117 0.262562 0.720027
0 0.718975 0.971923
0 0.700236 0.970092
0 0.658534 0.966033
0.0404517 0.572763 0.956207
0.604669 0.488792 0.94638
0.868711 0.475517 0.872328
0.969039 0.472496 0.805814
0.962707 0.457816 0.789105
0.962356 0.456184 0.78761
0.230503 0.970459 1
0.20264 0.961944 1
0.137926 0.941711 1
0.174975 0.90753 0.998627
0.42681 0.814755 0.985611
0.785229 0.716136 0.964843
0.970932 0.709316 0.904509
0.980652 0.699672 0.879698
0.979995 0.69781 0.877882
0.230503 0.970459 1
0.230503 0.970459 1
0.230503 0.970459 1
0.28069 0.971252 1
0.474815 0.975677 1
0.716167 0.974563 0.999908
0.928893 0.907195 0.985718
0.992569 0.901915 0.960342
0.991669 0.899046 0.958053
0.230503 0.970459 1
0.230503 0.970459 1
0.230503 0.970459 1
0.274495 0.971145 1
0.464576 0.975372 1
0.706722 0.984771 1
0.909377 0.99559 0.999725
0.992645 0.991333 0.997681
0.999161 0.98851 0.994812
0.230503 0.970459 1
0.230503 0.970459 1
0.230503 0.970459 1
0.273838 0.971145 1
0.46334 0.975326 1
0.705348 0.98471 1
0.907225 0.995468 0.999725
0.991333 0.999619 0.999939
0.999969 0.999969 0.999969
