luts/changyun_kodaklike/kodaEK25.cube
TITLE "Generated by Resolve"
LUT_3D_SIZE 9
0.00132753 0.00215152 0.00218204
0.0179904 0.00411994 0.000946059
0.127871 0.0312047 0.00030518
0.380728 0.00607309 0
0.691279 0.145312 0
0.947433 0.291157 0
0.98526 0.314855 0
0.98526 0.314855 0
0.98526 0.314855 0
0 0.0291905 0.00869764
0.00769055 0.0178225 0.00421149
0.12015 0.0305791 6.10361e-05
0.368658 0.00680552 0
0.681025 0.1402 0
0.938216 0.285527 0
0.98526 0.314855 0
0.98526 0.314855 0
0.98526 0.314855 0
0 0.143969 0.0545663
0 0.129168 0.0466773
0.088777 0.109636 0.0206455
0.345068 0.0601968 0
0.657771 0.129534 0
0.91841 0.273472 0
0.98526 0.314855 0
0.98526 0.314855 0
0.98526 0.314855 0
0 0.380774 0.142855
0 0.36379 0.133104
0 0.325841 0.111574
0.269917 0.279606 0.00299077
0.63328 0.235187 0
0.889235 0.284932 0
0.983215 0.323491 0
0.98323 0.319554 0
0.983246 0.319249 0
0 0.671977 0.275288
0 0.654841 0.263447
0 0.619379 0.241535
0.00708019 0.546883 0.197452
0.498558 0.510491 0.018143
0.859419 0.493874 0
0.991669 0.479042 0
0.995575 0.465568 0
0.995483 0.463737 0
0 0.915999 0.492058
0 0.906676 0.476814
0 0.886717 0.444312
0 0.842191 0.382895
0.380423 0.740841 0.274876
0.70695 0.716701 0.114961
0.9402 0.724712 0
0.975265 0.712154 0
0.975814 0.710018 0
0 0.930632 0.523629
0 0.929793 0.519249
0 0.927642 0.509041
0.15462 0.928481 0.502708
0.454978 0.926894 0.485801
0.684108 0.893324 0.394308
0.860792 0.866484 0.265339
0.930251 0.865934 0.196414
0.931563 0.865049 0.19147
0 0.930251 0.526314
0 0.930556 0.524178
0 0.928893 0.514961
0.139284 0.928756 0.505592
0.444343 0.927581 0.48925
0.703426 0.937392 0.483848
0.870695 0.94754 0.448188
0.927886 0.932662 0.375128
0.929793 0.930343 0.367651
0 0.930205 0.52668
0 0.930495 0.524529
0 0.929061 0.515755
0.136568 0.928725 0.505821
0.443198 0.927672 0.489693
0.701854 0.937148 0.483757
0.875319 0.960174 0.479362
0.932601 0.946151 0.412879
0.934829 0.943832 0.404593
0.000686656 0.00300603 0.0179141
0.0179751 0.00392157 0.0112154
0.126635 0.0314488 0.000335698
0.380118 0.00610361 0
0.690761 0.145052 0
0.946975 0.290883 0
0.98526 0.314855 0
0.98526 0.314855 0
0.98526 0.314855 0
0 0.0332036 0.0291752
0.00816358 0.0200046 0.0189517
0.119112 0.03122 0.00247196
0.368063 0.00683604 0
0.680766 0.140063 0
0.937987 0.285374 0
0.98526 0.314855 0
0.98526 0.314855 0
0.98526 0.314855 0
0 0.148348 0.082826
0 0.133623 0.072221
0.0898604 0.110567 0.0340581
0.34342 0.0615396 0
0.657465 0.129427 0
0.918181 0.273335 0
0.98526 0.314855 0
0.98526 0.314855 0
0.98526 0.314855 0
0 0.385779 0.164416
0 0.368124 0.153964
0 0.33022 0.129641
0.270909 0.281147 0.0131228
0.631724 0.235691 0
0.888762 0.285023 0
0.983215 0.32369 0
0.983215 0.319677 0
0.98323 0.319371 0
0 0.675975 0.294423
0 0.660121 0.283253
0 0.623606 0.258183
0.00631724 0.549828 0.209445
0.497154 0.510506 0.0311742
0.857206 0.493538 0
0.99649 0.481407 0
0.995621 0.4663 0
0.995514 0.464469 0
0 0.918929 0.509957
0 0.909773 0.494163
0 0.887373 0.456062
0 0.8439 0.393652
0.380865 0.74226 0.28246
0.707118 0.71809 0.128511
0.945739 0.726253 0
0.97438 0.712505 0
0.974975 0.710277 0
0 0.930694 0.536782
0 0.930037 0.532082
0 0.930266 0.526299
0.150881 0.92842 0.510994
0.457145 0.928191 0.494224
0.687327 0.899748 0.409247
0.86598 0.873198 0.279667
0.927962 0.86833 0.210986
0.929137 0.867201 0.205035
0 0.931517 0.542733
0 0.930861 0.537972
0 0.929885 0.528984
0.141817 0.929335 0.51632
0.444587 0.928084 0.496376
0.70164 0.936507 0.485145
0.878874 0.95491 0.468757
0.934173 0.939254 0.394324
0.932784 0.935988 0.385077
0 0.931609 0.543359
0 0.930953 0.538659
0 0.929839 0.52929
0.140734 0.929442 0.516884
0.443122 0.928069 0.49659
0.700236 0.93637 0.48542
0.881407 0.963409 0.490318
0.939071 0.951476 0.428656
0.937621 0.948058 0.418921
0 0.0103914 0.112566
0.0179294 0.00819409 0.104753
0.134112 0.0221256 0.0707561
0.37763 0.0232853 0.0021973
0.685252 0.142458 0
0.946059 0.290318 0
0.98526 0.314855 0
0.98526 0.314855 0
0.98526 0.314855 0
0 0.0457008 0.122408
0.00602731 0.027863 0.112902
0.128267 0.021561 0.0835126
0.366552 0.0255589 0.00755322
0.674327 0.137331 0
0.937072 0.28481 0
0.98526 0.314855 0
0.98526 0.314855 0
0.98526 0.314855 0
0 0.16083 0.150423
0 0.146487 0.140826
0.102556 0.119493 0.118029
0.341039 0.0813153 0.0440681
0.651286 0.127794 0
0.915328 0.271702 0
0.98526 0.314855 0
0.98526 0.314855 0
0.98526 0.314855 0
0 0.397971 0.230426
0 0.380377 0.21828
0 0.343938 0.193042
0.281956 0.289662 0.126543
0.628534 0.237385 0
0.880522 0.280507 0
0.980972 0.322667 0
0.982147 0.319326 0
0.982269 0.319036 0
0 0.685039 0.341192
0 0.669367 0.329473
0 0.634699 0.305028
0.0170443 0.561257 0.258747
0.503044 0.517708 0.142229
0.85539 0.494987 0
0.993912 0.481224 0
0.993027 0.465797 0
0.992844 0.463996 0
0 0.92256 0.533684
0 0.913268 0.520531
0 0.891402 0.490379
0 0.849073 0.431754
0.385626 0.748119 0.316442
0.707683 0.720867 0.184939
0.944045 0.727153 0
0.973724 0.713771 0
0.974227 0.71162 0
0 0.934142 0.553353
0 0.932998 0.54873
0 0.932448 0.54667
0.16553 0.931334 0.545174
0.454765 0.928679 0.515572
0.68661 0.901396 0.430152
0.865125 0.874357 0.303685
0.927108 0.869184 0.241367
0.928222 0.868101 0.236194
0 0.935546 0.55906
0 0.934432 0.554498
0 0.93228 0.545861
0.146426 0.931441 0.550088
0.441886 0.928496 0.519158
0.699321 0.935653 0.499397
0.878752 0.957382 0.487816
0.935409 0.942336 0.417365
0.934051 0.938888 0.407736
0 0.935729 0.559808
0 0.934615 0.555276
0 0.932265 0.545754
0.14406 0.931456 0.550668
0.440543 0.928588 0.519921
0.697978 0.935561 0.499947
0.879835 0.962829 0.50132
0.939666 0.953964 0.448951
0.938796 0.951003 0.440589
0 0.0252842 0.29337
0 0.0224765 0.282414
0.131884 0.00862135 0.25742
0.397101 0 0.16817
0.678401 0.152041 0.0552529
0.940948 0.287861 0
0.979644 0.313161 0
0.980652 0.314076 0
0.980789 0.314199 0
0 0.0585946 0.306188
0 0.0427863 0.294377
0.113313 0.0138094 0.269398
0.391791 0 0.182437
0.667063 0.14931 0.0911269
0.931289 0.281712 0
0.980346 0.313527 0
0.979828 0.313329 0
0.97995 0.313436 0
0 0.178744 0.339315
0 0.161013 0.327382
0.0717784 0.124407 0.300557
0.376394 0.00517281 0.219837
0.64416 0.145708 0.132921
0.910018 0.268605 0
0.982177 0.31458 0
0.981125 0.313985 0
0.980987 0.313909 0
0 0.429084 0.397879
0 0.411032 0.385428
0 0.373693 0.359472
0.324468 0.316747 0.316854
0.617029 0.252995 0.20264
0.874739 0.281254 0
0.979232 0.322255 0
0.979614 0.318959 0
0.979675 0.318593 0
0 0.706004 0.479728
0 0.69012 0.468086
0 0.656123 0.443992
0.156024 0.598474 0.401297
0.523644 0.535119 0.318303
0.854322 0.499092 0.164431
0.991318 0.483162 0
0.990433 0.467414 0
0.990372 0.46566 0
0 0.933608 0.593423
0 0.923858 0.58262
0 0.903243 0.557153
0 0.863767 0.515877
0.403403 0.766705 0.429084
0.71252 0.727581 0.329
0.946731 0.731029 0.213657
0.976761 0.716579 0.164157
0.977188 0.714336 0.159686
0 0.9449 0.615793
0 0.943709 0.610727
0 0.940948 0.599405
0 0.939208 0.593072
0.446662 0.932937 0.588296
0.686992 0.907073 0.507561
0.8654 0.878355 0.400946
0.930053 0.873976 0.357107
0.931075 0.872831 0.353841
0 0.945785 0.621042
0 0.945083 0.616846
0 0.94255 0.605951
0 0.939834 0.596429
0.434653 0.933944 0.597116
0.694545 0.936065 0.558953
0.877958 0.961624 0.551019
0.936736 0.947051 0.494423
0.936065 0.943938 0.486641
0 0.945891 0.621698
0 0.94519 0.617548
0 0.942733 0.606699
0 0.93991 0.596857
0.433204 0.934081 0.598291
0.692866 0.935805 0.559335
0.876829 0.962097 0.552773
0.939681 0.958434 0.520394
0.94052 0.955703 0.513161
0 0 0.543847
0 0 0.532479
0.0711528 0 0.508629
0.427039 0 0.469306
0.701427 0 0.314092
0.922988 0.28365 0.23859
0.970947 0.307851 0.17348
0.972839 0.309087 0.148165
0.973037 0.309209 0.145495
0 0.0312352 0.555749
0 0.0142977 0.544869
0.0446479 0 0.520165
0.411994 0 0.481163
0.697795 0 0.329671
0.912566 0.279026 0.254337
0.970184 0.307622 0.18909
0.971298 0.30808 0.168551
0.971527 0.308217 0.165637
0 0.176562 0.584176
0 0.160327 0.57232
0 0.124773 0.547097
0.381018 0 0.5066
0.693507 0 0.367468
0.889403 0.268864 0.286213
0.968551 0.307225 0.223346
0.969467 0.307393 0.203769
0.969589 0.307439 0.201511
0 0.442145 0.630045
0 0.424247 0.61883
0 0.385794 0.595376
0.315541 0.310338 0.558785
0.662928 0.227375 0.450309
0.850645 0.282673 0.339803
0.964462 0.318608 0.277638
0.96669 0.315587 0.261387
0.966888 0.315206 0.25919
0 0.735943 0.701946
0 0.72076 0.690364
0 0.687694 0.665187
0.136034 0.635157 0.625742
0.57908 0.581842 0.585092
0.825452 0.497597 0.448554
0.978271 0.477455 0.356786
0.977646 0.462516 0.338979
0.977584 0.460777 0.336675
0 0.950652 0.782773
0 0.941512 0.770886
0 0.921263 0.744656
0 0.88513 0.694118
0.410712 0.804227 0.628122
0.732006 0.747112 0.557885
0.956847 0.734325 0.489082
0.988937 0.717784 0.462089
0.989395 0.715602 0.459602
0 0.95758 0.817563
0 0.956939 0.807507
0 0.955169 0.785245
0 0.953658 0.743923
0.239292 0.948272 0.696773
0.681132 0.918318 0.652064
0.869047 0.886732 0.581918
0.945785 0.889494 0.559716
0.946746 0.888212 0.556893
0 0.957839 0.828626
0 0.957626 0.819577
0 0.956191 0.798108
0 0.954223 0.757519
0.108186 0.949615 0.700771
0.682399 0.943267 0.68658
0.876051 0.96524 0.672618
0.940917 0.956313 0.643793
0.942611 0.953826 0.638682
0 0.95787 0.829786
0 0.957671 0.821042
0 0.956329 0.799847
0 0.954253 0.758862
0.0957961 0.949783 0.701228
0.680858 0.943297 0.687694
0.874479 0.965011 0.673411
0.943465 0.967956 0.661143
0.946578 0.965423 0.656138
0 0 0.779232
0 0 0.768185
0.0883192 0 0.745403
0.417792 0 0.704753
0.74789 0 0.62385
0.947494 0.180652 0.460426
0.975509 0.226581 0.411658
0.969345 0.246494 0.402808
0.968627 0.248798 0.401785
0 0 0.789075
0 0 0.778103
0.0562905 0 0.75555
0.406134 0 0.715877
0.744015 0 0.645472
0.943236 0.173724 0.476387
0.979492 0.215641 0.420645
0.974258 0.23061 0.409873
0.973556 0.232898 0.40885
0 0.178103 0.813428
0 0.162463 0.804776
0.0188602 0.119646 0.778347
0.380926 0 0.739391
0.723674 0 0.679164
0.935286 0.157885 0.512795
0.98381 0.215473 0.44979
0.981338 0.215579 0.433066
0.981048 0.215579 0.431159
0 0.432975 0.849149
0 0.409674 0.838499
0 0.364004 0.818967
0.314092 0.301717 0.781247
0.673014 0.211032 0.733852
0.91519 0.209873 0.581384
0.991699 0.241596 0.504707
0.988861 0.232853 0.487007
0.988449 0.23183 0.484581
0 0.749874 0.895201
0 0.732967 0.885237
0 0.697871 0.863981
0 0.630915 0.82327
0.546761 0.550805 0.789166
0.856123 0.497871 0.691447
0.983597 0.45391 0.592401
0.981506 0.433005 0.57171
0.981308 0.430762 0.569329
0 0.960906 0.95433
0 0.953628 0.946563
0 0.932448 0.925124
0 0.900252 0.890074
0.40943 0.831434 0.840024
0.778378 0.789441 0.811505
0.939712 0.721584 0.714427
0.970352 0.701076 0.686564
0.970001 0.699001 0.684657
0 0.978225 0.989548
0 0.971954 0.977661
0 0.96228 0.955367
0 0.963394 0.929442
0.266804 0.961868 0.888685
0.665415 0.945861 0.833631
0.879698 0.898741 0.789349
0.961379 0.900389 0.781079
0.961669 0.898207 0.779095
0 0.968643 0.971359
0 0.965545 0.965484
0 0.962249 0.955581
0 0.964889 0.938125
0.211872 0.962036 0.897063
0.637552 0.961395 0.843565
0.871015 0.96759 0.81973
0.950225 0.967712 0.81413
0.954665 0.965759 0.811963
0 0.969085 0.972198
0 0.965911 0.966186
0 0.962188 0.956008
0 0.965103 0.93933
0.204196 0.962066 0.898116
0.634943 0.961547 0.844968
0.8692 0.967239 0.820493
0.952056 0.979599 0.822324
0.957961 0.977447 0.820157
0.180758 0 0.921431
0.171237 0 0.91284
0.225452 0 0.893324
0.440879 0 0.854978
0.758129 0 0.807721
0.978195 0.184497 0.660945
1 0.225116 0.603021
1 0.223011 0.585489
1 0.222782 0.58349
0.195789 0.0101625 0.930312
0.184619 0 0.921233
0.226276 0 0.902022
0.432486 0 0.864942
0.746395 0 0.818143
0.969421 0.174609 0.678096
1 0.22678 0.616876
1 0.224674 0.599344
1 0.22446 0.597513
0.219059 0.19527 0.9523
0.205478 0.176532 0.942748
0.228061 0.130877 0.922255
0.416022 0 0.885847
0.720424 0 0.838621
0.953063 0.154467 0.715938
1 0.228183 0.645838
1 0.22797 0.629511
1 0.227955 0.627802
0 0.42182 0.978866
0 0.400397 0.974655
0.0294347 0.366629 0.956298
0.35671 0.300877 0.921202
0.672694 0.207874 0.875929
0.930541 0.199878 0.788663
1 0.253834 0.698985
1 0.242817 0.680095
1 0.24181 0.677668
0 0.776776 0.980194
0 0.760342 0.979828
0 0.723171 0.978332
0 0.643534 0.962844
0.539574 0.526696 0.920836
0.880995 0.481987 0.874464
1 0.472389 0.776501
1 0.452003 0.758175
1 0.450034 0.756268
0 0.980652 0.994171
0 0.973678 0.9935
0 0.958587 0.992081
0 0.93164 0.990204
0.362066 0.852491 0.970153
0.752789 0.760052 0.924498
0.95877 0.731258 0.868284
0.987655 0.713344 0.845655
0.987762 0.710918 0.843519
0 0.980652 0.994171
0 0.980652 0.994171
0 0.980652 0.994171
0 0.980911 0.994354
0.310887 0.98175 0.994598
0.676295 0.964874 0.964065
0.920653 0.928649 0.940597
0.975265 0.89955 0.91107
0.974899 0.896574 0.909026
0 0.980652 0.994171
0 0.980652 0.994171
0 0.980652 0.994171
0 0.980896 0.994354
0.283131 0.981674 0.994568
0.667781 0.979034 0.978882
0.88777 0.979751 0.947906
0.970062 0.979568 0.937148
0.978164 0.978637 0.936751
0 0.980652 0.994171
0 0.980652 0.994171
0 0.980652 0.994171
0 0.980896 0.994354
0.280049 0.981674 0.994568
0.666835 0.979522 0.980362
0.886305 0.979873 0.949172
0.967758 0.987442 0.938674
0.978012 0.988052 0.938735
0.273045 0.00903334 0.97026
0.263066 0.00262455 0.962112
0.287694 0 0.943435
0.461997 0 0.907637
0.759304 0 0.863691
0.97821 0.184817 0.736599
1 0.229572 0.676158
1 0.228336 0.659068
1 0.228321 0.657038
0.280507 0.0803235 0.975708
0.273732 0.0457008 0.969741
0.293523 0.000335698 0.952712
0.456001 0 0.91693
0.749416 0 0.873716
0.971801 0.172015 0.753399
1 0.231296 0.69099
1 0.229175 0.672831
1 0.228931 0.670741
0.260777 0.201022 0.975921
0.267201 0.186954 0.976242
0.297627 0.149844 0.969741
0.443244 0.000854505 0.935302
0.72636 0 0.891752
0.963378 0.141665 0.794797
1 0.232166 0.720577
1 0.232898 0.704601
1 0.232609 0.702159
0 0.42359 0.97911
0 0.402136 0.976181
0.0948196 0.369619 0.976287
0.394308 0.308492 0.969818
0.68069 0.211749 0.92488
0.955627 0.184283 0.870573
1 0.252537 0.769223
1 0.24448 0.752956
1 0.2439 0.751354
0 0.777829 0.980209
0 0.761807 0.979858
0 0.724529 0.978408
0 0.649058 0.975204
0.555657 0.527611 0.971222
0.885191 0.480354 0.926726
1 0.473976 0.845747
1 0.455406 0.828367
1 0.453498 0.826123
0 0.980652 0.994171
0 0.974304 0.993561
0 0.959213 0.992142
0 0.93228 0.99025
0.378393 0.860517 0.985855
0.756405 0.756832 0.975387
0.985382 0.729366 0.935241
0.995499 0.714855 0.90518
0.995453 0.712764 0.903334
0 0.980652 0.994171
0 0.980652 0.994171
0 0.980652 0.994171
0 0.980911 0.994354
0.309483 0.981735 0.994598
0.691722 0.977615 0.994553
0.916243 0.921736 0.984085
0.990814 0.906371 0.96379
0.98996 0.903563 0.961181
0 0.980652 0.994171
0 0.980652 0.994171
0 0.980652 0.994171
0 0.980896 0.994354
0.282292 0.981674 0.994568
0.677424 0.985046 0.995224
0.903777 0.993576 0.997223
0.988998 0.99025 0.991653
0.995972 0.987182 0.989395
0 0.980652 0.994171
0 0.980652 0.994171
0 0.980652 0.994171
0 0.980896 0.994354
0.278935 0.981659 0.994568
0.675547 0.985016 0.995209
0.901854 0.993454 0.997208
0.988067 0.997803 0.994186
0.996857 0.998184 0.992996
0.282521 0.0117037 0.975525
0.272526 0.00393683 0.967468
0.29572 0 0.949447
0.464958 0 0.913527
0.760113 0 0.870497
0.978485 0.182925 0.745083
1 0.230671 0.685573
1 0.228595 0.667781
1 0.228412 0.665446
0.280507 0.0803235 0.975708
0.28307 0.054902 0.975036
0.300694 0.00138857 0.957763
0.459144 0 0.922942
0.749355 0 0.879316
0.972381 0.169528 0.762509
1 0.23241 0.700404
1 0.230289 0.682261
1 0.230045 0.680171
0.260731 0.201129 0.975921
0.26714 0.187167 0.976242
0.305837 0.152438 0.975189
0.447578 0.00123598 0.941344
0.727062 0 0.89749
0.965713 0.141863 0.804944
1 0.230915 0.728618
1 0.233265 0.713542
1 0.233585 0.711498
0 0.42359 0.97911
0 0.402457 0.976226
0.0948196 0.369619 0.976287
0.399435 0.30959 0.97557
0.682673 0.213352 0.930709
0.956451 0.18233 0.877577
1 0.25301 0.7776
1 0.244709 0.761395
1 0.244099 0.759625
0 0.778058 0.980209
0 0.761807 0.979858
0 0.724788 0.978424
0 0.649073 0.975204
0.557778 0.52781 0.977111
0.885939 0.480659 0.932418
1 0.47451 0.85481
1 0.455085 0.836225
1 0.453086 0.83444
0 0.980652 0.994171
0 0.974304 0.993561
0 0.959213 0.992142
0 0.93228 0.99025
0.378271 0.860746 0.985855
0.75761 0.757305 0.98201
0.990066 0.728908 0.943893
0.996857 0.714443 0.912871
0.99678 0.712322 0.911162
0 0.980652 0.994171
0 0.980652 0.994171
0 0.980652 0.994171
0 0.980911 0.994354
0.309483 0.981735 0.994598
0.691783 0.977981 0.994598
0.916548 0.922026 0.990616
0.993851 0.908125 0.972045
0.993179 0.90518 0.969924
0 0.980652 0.994171
0 0.980652 0.994171
0 0.980652 0.994171
0 0.980896 0.994354
0.281743 0.981674 0.994568
0.677104 0.985046 0.995224
0.903777 0.993576 0.997223
0.991806 0.991867 0.998535
0.999268 0.989273 0.996674
0 0.980652 0.994171
0 0.980652 0.994171
0 0.980652 0.994171
0 0.980896 0.994354
0.27837 0.981659 0.994568
0.675395 0.985016 0.995209
0.901534 0.993439 0.997192
0.990326 0.999329 0.999664
1 1 1
