luts/changyun_kodaklike/kodaG200.cube
TITLE "Generated by Resolve"
LUT_3D_SIZE 9
0.0323949 0.0207675 0.040116
0.0367895 0.0205386 0.0404974
0.0778363 0.0244297 0.0459449
0.262287 0 0.052903
0.758587 0 0.00572213
1 0 0.106737
1 0 0.144747
1 0 0.144747
1 0 0.144747
0.0329595 0.0252384 0.0437629
0.03505 0.0235294 0.0406195
0.0726787 0.024033 0.0444648
0.247318 0 0.0528573
0.741695 0 0.00868238
1 0 0.0975814
1 0 0.144747
1 0 0.144747
1 0 0.144747
0.00956741 0.0919509 0.0770733
0.0183719 0.0821241 0.0682536
0.0572213 0.0577096 0.0459449
0.219898 0.00358587 0.0476234
0.703838 0 0.0153353
1 0 0.0727245
1 0 0.144747
1 0 0.144747
1 0 0.144747
0 0.376501 0.193042
0 0.35024 0.179355
0 0.294316 0.134508
0.190768 0.226108 0.00521859
0.671672 0 0
1 0 0
1 0 0.127367
1 0 0.133135
1 0 0.133577
0.238804 0.79762 0.528847
0.151736 0.779446 0.500923
0 0.740871 0.445212
0 0.656596 0.290532
0.605539 0.580484 0
0.994705 0.416831 0
1 0.382864 0
1 0.361868 0
1 0.358923 0
0.758404 0.957031 0.838911
0.747662 0.953567 0.830777
0.722606 0.945739 0.811734
0.641306 0.926986 0.741634
0.587625 0.871839 0.541894
0.891691 0.824628 0.120638
1 0.756405 0
1 0.727764 0
1 0.724681 0
0.781155 0.96379 0.856703
0.779126 0.963226 0.854688
0.773556 0.961715 0.849577
0.775296 0.963714 0.844495
0.787396 0.965713 0.812634
0.859281 0.950835 0.700435
0.99202 0.928252 0.44184
1 0.913848 0.282536
1 0.91249 0.272633
0.778988 0.963363 0.856184
0.780728 0.963714 0.856596
0.776791 0.9626 0.852537
0.777386 0.963638 0.846922
0.786969 0.96614 0.816159
0.873106 0.969863 0.780026
0.966567 0.9682 0.684123
0.999695 0.959701 0.564706
1 0.958587 0.553903
0.778698 0.963302 0.856123
0.780423 0.963653 0.856535
0.777218 0.962707 0.852934
0.777447 0.963577 0.847089
0.786999 0.966201 0.816587
0.872297 0.969772 0.780194
0.964797 0.973785 0.715068
0.999359 0.965789 0.605173
1 0.96466 0.594003
0.032166 0.0214389 0.0435187
0.0360266 0.0210727 0.0417487
0.0761273 0.0246128 0.0449226
0.26154 0 0.052903
0.757733 0 0.00587472
1 0 0.106279
1 0 0.144747
1 0 0.144747
1 0 0.144747
0.0325322 0.0266423 0.0479133
0.0355688 0.0234379 0.0441444
0.0709697 0.0241855 0.0442512
0.246571 0 0.052842
0.741268 0 0.00875868
1 0 0.0973526
1 0 0.144747
1 0 0.144747
1 0 0.144747
0.0104372 0.0944228 0.0867628
0.0187686 0.0852216 0.0793469
0.0570077 0.0588693 0.0496834
0.217014 0.00411994 0.0476539
0.703319 0 0.0154269
1 0 0.0723583
1 0 0.144747
1 0 0.144747
1 0 0.144747
0 0.379126 0.208911
0 0.351247 0.19266
0 0.298634 0.152651
0.190753 0.227771 0.00888075
0.668223 0 0
1 0 0
1 0 0.127062
1 0 0.132952
1 0 0.13341
0.26125 0.798627 0.541863
0.19353 0.783459 0.518593
0 0.74342 0.462104
0 0.658045 0.302602
0.601404 0.579339 0
0.991409 0.414954 0
1 0.387182 0
1 0.363027 0
1 0.360098 0
0.764111 0.958709 0.845884
0.753475 0.955215 0.83769
0.721386 0.945495 0.813855
0.651148 0.927077 0.750301
0.589471 0.872053 0.548226
0.891981 0.82649 0.135866
1 0.756161 0
1 0.727886 0
1 0.724666 0
0.777691 0.963333 0.857862
0.776547 0.962936 0.856229
0.779019 0.963363 0.856199
0.778759 0.963027 0.84828
0.791455 0.966506 0.818051
0.861265 0.953552 0.713573
0.992325 0.932433 0.464683
1 0.917311 0.309895
1 0.915633 0.29752
0.779141 0.963821 0.859922
0.777981 0.963424 0.858274
0.776837 0.962936 0.85568
0.7832 0.963378 0.852461
0.788922 0.966339 0.819684
0.871611 0.969207 0.779385
0.969665 0.972274 0.706218
1 0.963409 0.587869
1 0.961898 0.577783
0.779293 0.963867 0.860136
0.778149 0.963485 0.858503
0.776593 0.962875 0.855634
0.783673 0.963409 0.852918
0.788602 0.966308 0.819821
0.870985 0.969207 0.77998
0.967971 0.975982 0.727245
1 0.968902 0.623926
1 0.967315 0.613443
0.0312505 0.0269017 0.0800183
0.0351263 0.026154 0.0735943
0.0752728 0.0253452 0.0577554
0.260121 0 0.048661
0.746105 0 0.00668345
1 0 0.105364
1 0 0.144747
1 0 0.144747
1 0 0.144747
0.0280156 0.034638 0.086656
0.0331273 0.0292821 0.0811627
0.0705577 0.0260929 0.0629587
0.248539 3.0518e-05 0.0480964
0.728145 0 0.00888075
1 0 0.096437
1 0 0.144747
1 0 0.144747
1 0 0.144747
0.00358587 0.100237 0.112657
0.0111391 0.091783 0.105241
0.052903 0.0698253 0.0904097
0.219989 0.0137179 0.0459144
0.690501 0 0.0121157
1 0 0.0655528
1 0 0.144747
1 0 0.144747
1 0 0.144747
0 0.389075 0.263386
0 0.362448 0.245304
0 0.307866 0.206348
0.197498 0.236347 0.0884108
0.665522 0 0
1 0 0
1 0 0.121828
1 0 0.13019
1 0 0.130953
0.30985 0.799573 0.579919
0.259129 0.784024 0.556451
0.100984 0.746242 0.503761
0 0.664118 0.353216
0.611612 0.591653 0.00808728
0.988571 0.419043 0
1 0.383719 0
1 0.358389 0
1 0.355261 0
0.760311 0.958999 0.853223
0.750423 0.955459 0.845502
0.722164 0.946258 0.824353
0.682109 0.927108 0.778103
0.60415 0.874434 0.580224
0.890517 0.829114 0.217517
1 0.757198 0
1 0.729381 0
1 0.726253 0
0.771679 0.9635 0.864759
0.76997 0.962829 0.862318
0.772808 0.963073 0.861357
0.789227 0.963714 0.861646
0.794171 0.966094 0.826596
0.860334 0.953841 0.726665
0.99025 0.932769 0.489799
1 0.918303 0.347494
1 0.916716 0.336599
0.773785 0.964309 0.867781
0.772091 0.963668 0.86537
0.769482 0.962509 0.860822
0.786557 0.963577 0.861952
0.791592 0.965743 0.828367
0.870329 0.968582 0.786404
0.96762 0.973144 0.721141
1 0.964706 0.609918
1 0.96318 0.59997
0.774014 0.964416 0.868162
0.772381 0.963775 0.865782
0.76907 0.962432 0.860746
0.786221 0.963561 0.861982
0.791623 0.965789 0.828885
0.86981 0.968627 0.787213
0.966232 0.975525 0.734371
0.999939 0.969833 0.642496
1 0.968551 0.633951
0 0.0504158 0.194736
0 0.0476997 0.185595
0.0300298 0.0466773 0.16527
0.265538 0 0.120897
0.754299 0 0
1 0 0.0670329
1 0 0.127077
1 0 0.130266
1 0 0.130709
0 0.0669108 0.207614
0 0.0580453 0.196826
0.013962 0.049897 0.175677
0.252018 0 0.127977
0.738079 0 0
1 0 0.0400702
1 0 0.127367
1 0 0.127672
1 0 0.128054
0 0.133165 0.24448
0 0.122957 0.233326
0 0.102663 0.211414
0.228779 0.0281682 0.150683
0.702129 0 0.0299992
1 0 0.00178531
1 0 0.128664
1 0 0.127947
1 0 0.12784
0 0.396735 0.37705
0 0.372335 0.358907
0 0.320485 0.318868
0.215976 0.258991 0.258061
0.660929 0.0108339 0.122057
1 0 0
1 0 0.10016
1 0 0.108812
1 0 0.109834
0.40499 0.807294 0.679118
0.371481 0.790585 0.657832
0.298924 0.752499 0.611582
0.309987 0.681651 0.523247
0.609873 0.594827 0.299565
0.984329 0.435264 0
1 0.399558 0
1 0.374456 0
1 0.371679 0
0.742 0.961349 0.873884
0.733867 0.957549 0.867384
0.71574 0.949462 0.852369
0.692119 0.930877 0.817456
0.648157 0.880003 0.675334
0.882002 0.831403 0.415946
1 0.762814 0
1 0.732494 0
1 0.729168 0
0.748699 0.966064 0.885267
0.749599 0.965606 0.883253
0.750454 0.964431 0.878477
0.775418 0.964935 0.877531
0.812207 0.965881 0.859678
0.863081 0.956527 0.779202
0.983291 0.934768 0.591089
1 0.922042 0.489937
1 0.920485 0.482322
0.744137 0.966125 0.886595
0.747784 0.966079 0.885527
0.749966 0.965103 0.881239
0.771038 0.96492 0.878416
0.817655 0.965759 0.867094
0.871504 0.969024 0.820813
0.961975 0.974594 0.76704
0.999802 0.966323 0.678126
1 0.964965 0.670314
0.743557 0.966125 0.886748
0.747173 0.966094 0.88571
0.749905 0.965179 0.881559
0.770443 0.964904 0.878508
0.818433 0.965743 0.86807
0.870771 0.968933 0.821241
0.961074 0.974807 0.768887
0.999161 0.97142 0.705013
1 0.970169 0.696788
0 0.125994 0.462562
0 0.121691 0.449378
0 0.11809 0.426841
0.326268 0.0978714 0.406226
0.751553 0 0.286442
1 0.00396735 0.0625162
1 0 0.0943618
1 0 0.0976272
1 0 0.0979782
0 0.139498 0.477378
0 0.132433 0.465309
0 0.122805 0.439872
0.310536 0.109285 0.420508
0.735363 0 0.298619
1 0.0112001 0.133211
1 0 0.0942245
1 0 0.0949416
1 0 0.0953231
0 0.212085 0.512291
0 0.19588 0.498772
0 0.169757 0.472877
0.274617 0.142962 0.449348
0.706783 0 0.329061
1 0.024979 0.225269
1 0.00560006 0.0962081
1 0 0.0941024
1 0 0.0941329
0 0.422812 0.572534
0 0.400275 0.555215
0 0.354177 0.518883
0.204746 0.317769 0.50779
0.655955 0.214099 0.411688
0.990738 0.255772 0.336339
1 0.161196 0.161303
1 0.120409 0.127626
1 0.114321 0.125078
0.379873 0.792554 0.771954
0.349905 0.774304 0.754314
0.280705 0.735317 0.717708
0.313085 0.666499 0.653025
0.60972 0.605066 0.584665
0.948974 0.521645 0.448386
1 0.4636 0.273777
1 0.437583 0.239887
1 0.434272 0.235386
0.7673 0.963119 0.925856
0.758801 0.959365 0.92047
0.739162 0.951202 0.908232
0.70985 0.934676 0.881453
0.720012 0.887022 0.814084
0.868208 0.837934 0.660807
1 0.762188 0.410681
1 0.730617 0.316732
1 0.727871 0.312306
0.776623 0.965576 0.935363
0.776364 0.96553 0.933242
0.770977 0.965179 0.927794
0.768414 0.966155 0.918257
0.816464 0.96698 0.905318
0.869368 0.960067 0.858747
0.968399 0.939529 0.752117
1 0.927932 0.69337
1 0.926574 0.689113
0.770123 0.965301 0.93666
0.775448 0.965515 0.935592
0.77409 0.965377 0.930938
0.77084 0.965957 0.921553
0.808011 0.966949 0.906569
0.878584 0.970336 0.881819
0.955062 0.976669 0.845685
0.995712 0.97084 0.799878
0.997665 0.969696 0.794675
0.769436 0.96527 0.936782
0.774578 0.965484 0.935775
0.774517 0.965408 0.931365
0.770932 0.965896 0.921828
0.806973 0.966949 0.906706
0.878309 0.970321 0.882383
0.954253 0.976608 0.846494
0.993561 0.975952 0.815167
0.996338 0.974731 0.809491
0 0.254536 0.751888
0 0.24509 0.738735
0 0.233738 0.716258
0.356985 0.22771 0.691051
0.77052 0.0984665 0.603922
1 0.318715 0.513146
1 0.391546 0.491722
1 0.40415 0.484794
1 0.4056 0.483986
0 0.26949 0.762112
0 0.257832 0.749172
0 0.241047 0.726589
0.341985 0.234485 0.702541
0.761578 0.120104 0.624445
1 0.310414 0.524849
1 0.384451 0.498848
1 0.394095 0.490318
1 0.395544 0.489525
0 0.338003 0.790143
0 0.326223 0.783108
0 0.289036 0.750942
0.309972 0.261967 0.726146
0.754528 0.196429 0.677317
1 0.297581 0.553368
1 0.383047 0.522225
1 0.383856 0.508812
1 0.383948 0.507271
0 0.507805 0.807904
0 0.488441 0.795316
0 0.461418 0.779889
0.248692 0.410163 0.762325
0.733074 0.427298 0.760845
0.980255 0.330724 0.60708
1 0.416617 0.576974
1 0.404135 0.558556
1 0.402548 0.556023
0.258793 0.80763 0.89276
0.153368 0.788327 0.881468
0.0301213 0.748089 0.85713
0.00343328 0.662287 0.801556
0.598871 0.630472 0.786877
0.907942 0.608057 0.729137
1 0.626947 0.69688
1 0.603525 0.674174
1 0.601175 0.671778
0.719982 0.957275 0.961578
0.7093 0.953216 0.957015
0.678157 0.941054 0.943465
0.64831 0.921172 0.920577
0.681346 0.873777 0.877653
0.848798 0.837415 0.838697
0.995346 0.810407 0.788373
1 0.793271 0.763622
1 0.791745 0.761868
0.773846 0.974441 0.978042
0.754086 0.96817 0.972488
0.721859 0.957961 0.962188
0.731289 0.958755 0.953323
0.811688 0.966918 0.950393
0.894179 0.965713 0.936385
0.955612 0.944228 0.881682
0.998505 0.931777 0.850248
0.998962 0.930159 0.847486
0.743633 0.964858 0.969543
0.733867 0.961761 0.966796
0.721874 0.957961 0.96228
0.729351 0.958175 0.955322
0.802518 0.966003 0.95137
0.893858 0.971939 0.943496
0.949386 0.978164 0.919646
0.986587 0.976104 0.902647
0.989364 0.975097 0.900175
0.745022 0.965301 0.96994
0.735027 0.962127 0.967132
0.721904 0.957977 0.962463
0.729152 0.958099 0.955612
0.801373 0.965866 0.951476
0.893355 0.971908 0.943908
0.948653 0.978042 0.92015
0.985443 0.981353 0.909316
0.988876 0.980224 0.906508
0.193881 0.409506 0.900954
0.137697 0.398566 0.893767
0.180041 0.375906 0.877409
0.447211 0.355917 0.849577
0.830777 0.418708 0.838407
1 0.383719 0.692729
1 0.426001 0.660426
1 0.418982 0.644709
1 0.418204 0.642924
0.234058 0.429572 0.908263
0.198001 0.412528 0.900435
0.197726 0.387411 0.884535
0.441764 0.364767 0.858427
0.82031 0.430991 0.846845
1 0.378271 0.705043
1 0.431556 0.672862
1 0.424536 0.657145
1 0.423789 0.655497
0.346319 0.507164 0.929015
0.303639 0.48426 0.92018
0.267048 0.43946 0.902342
0.436713 0.397086 0.875669
0.79144 0.437171 0.859129
0.997253 0.383841 0.74049
1 0.438025 0.696086
1 0.435828 0.683772
1 0.435599 0.682475
0.387945 0.653437 0.945022
0.367636 0.632425 0.938659
0.363027 0.600961 0.92488
0.423346 0.523903 0.900893
0.746242 0.523064 0.882063
0.974853 0.439719 0.806775
1 0.463859 0.736736
1 0.447715 0.719814
1 0.44625 0.717845
0.481727 0.863432 0.96202
0.457359 0.852354 0.961059
0.398367 0.82591 0.95845
0.1393 0.731014 0.932937
0.632853 0.674113 0.90399
0.923827 0.70277 0.889906
1 0.646754 0.816205
1 0.622446 0.798474
1 0.620966 0.797238
0.781521 0.976867 0.980194
0.774945 0.973861 0.980468
0.760952 0.967407 0.981109
0.74638 0.955993 0.981659
0.68925 0.905684 0.960372
0.832914 0.838773 0.919738
0.970214 0.843137 0.89897
0.988983 0.834211 0.888228
0.989288 0.832563 0.886915
0.781521 0.976867 0.980194
0.781521 0.976867 0.980194
0.781521 0.976867 0.980194
0.788571 0.977157 0.980484
0.826719 0.977905 0.980987
0.874998 0.963821 0.96762
0.948013 0.943664 0.946212
0.985779 0.936828 0.935699
0.985687 0.935393 0.934615
0.781521 0.976867 0.980194
0.781521 0.976867 0.980194
0.781521 0.976867 0.980194
0.787717 0.977142 0.980468
0.824231 0.977844 0.980941
0.884428 0.973785 0.975509
0.957992 0.980713 0.972473
0.984298 0.980056 0.960647
0.987854 0.978958 0.959014
0.781521 0.976867 0.980194
0.781521 0.976867 0.980194
0.781521 0.976867 0.980194
0.787625 0.977142 0.980468
0.823957 0.977829 0.980926
0.884794 0.974365 0.97615
0.957427 0.980606 0.972839
0.983368 0.984894 0.964233
0.98761 0.984741 0.963119
0.400381 0.500999 0.942565
0.37789 0.486427 0.936812
0.362463 0.456062 0.922606
0.507591 0.42446 0.897017
0.837034 0.492256 0.883955
1 0.424552 0.764401
1 0.445243 0.719493
1 0.439811 0.706065
1 0.439551 0.70454
0.413931 0.512551 0.945678
0.397482 0.500816 0.941482
0.387137 0.473625 0.930404
0.507195 0.435767 0.904326
0.827161 0.496391 0.890242
1 0.422858 0.778058
1 0.451987 0.731502
1 0.443732 0.716808
1 0.442786 0.715114
0.413016 0.541024 0.945006
0.418387 0.538552 0.945815
0.422629 0.519814 0.941238
0.507439 0.466911 0.917098
0.801343 0.496651 0.899229
0.997696 0.4336 0.814054
1 0.462806 0.75552
1 0.458167 0.742535
1 0.457053 0.740551
0.389105 0.655039 0.945464
0.37496 0.635737 0.940215
0.426139 0.627619 0.941527
0.522835 0.591424 0.940734
0.760235 0.566339 0.916259
0.984619 0.516854 0.878508
1 0.490944 0.796597
1 0.477577 0.781933
1 0.476738 0.780667
0.483207 0.864088 0.962081
0.459541 0.853346 0.961151
0.400671 0.826917 0.958556
0.228 0.747555 0.94609
0.684993 0.718532 0.944839
0.928496 0.753536 0.928283
1 0.673518 0.867979
1 0.653925 0.854566
1 0.651942 0.852918
0.781521 0.976867 0.980194
0.77554 0.974136 0.980438
0.761547 0.967681 0.981094
0.746929 0.956268 0.981659
0.721202 0.91809 0.973785
0.850736 0.858946 0.957214
0.976837 0.862394 0.938323
0.987808 0.846906 0.921813
0.987854 0.84535 0.920653
0.781521 0.976867 0.980194
0.781521 0.976867 0.980194
0.781521 0.976867 0.980194
0.78854 0.977157 0.980484
0.826596 0.977905 0.980987
0.892958 0.97731 0.983063
0.949248 0.949615 0.975052
0.984344 0.948058 0.965637
0.983764 0.94612 0.963943
0.781521 0.976867 0.980194
0.781521 0.976867 0.980194
0.781521 0.976867 0.980194
0.787686 0.977142 0.980468
0.824155 0.977844 0.980941
0.894087 0.980514 0.982712
0.961791 0.987274 0.988174
0.988602 0.987289 0.987457
0.990906 0.985901 0.985901
0.781521 0.976867 0.980194
0.781521 0.976867 0.980194
0.781521 0.976867 0.980194
0.787594 0.977142 0.980468
0.82385 0.977829 0.980926
0.893614 0.980499 0.982696
0.961166 0.987198 0.988098
0.989181 0.991028 0.989715
0.992096 0.991287 0.989227
0.418021 0.510857 0.946471
0.395544 0.496483 0.940749
0.382406 0.467002 0.927871
0.515099 0.432959 0.901884
0.838331 0.500618 0.889204
1 0.427375 0.771603
1 0.449516 0.727123
1 0.441444 0.712703
1 0.440681 0.710872
0.413931 0.512551 0.945678
0.414633 0.510353 0.945357
0.401068 0.482582 0.933974
0.515221 0.44445 0.909346
0.826596 0.500816 0.893645
1 0.426123 0.785885
1 0.45626 0.739147
1 0.44802 0.724437
1 0.447059 0.722744
0.412985 0.541039 0.944991
0.418326 0.538598 0.9458
0.439231 0.529503 0.945357
0.51841 0.477531 0.922148
0.802045 0.502602 0.902998
0.998291 0.443259 0.823667
1 0.46424 0.762081
1 0.46154 0.749798
1 0.461173 0.748119
0.389105 0.655039 0.945464
0.375174 0.636027 0.940291
0.426139 0.627619 0.941527
0.535531 0.600153 0.945281
0.763607 0.573465 0.920348
0.984604 0.5243 0.884565
1 0.495995 0.804166
1 0.482246 0.78941
1 0.48127 0.787976
0.483543 0.86424 0.962097
0.459541 0.853346 0.961151
0.401129 0.827115 0.958587
0.227237 0.74757 0.94609
0.691356 0.72398 0.949325
0.928893 0.75819 0.931731
1 0.677974 0.874342
1 0.656031 0.859983
1 0.654093 0.85861
0.781521 0.976867 0.980194
0.77554 0.974136 0.980438
0.761547 0.967681 0.981094
0.746929 0.956268 0.981659
0.721401 0.918227 0.9738
0.854414 0.862852 0.962295
0.978088 0.864988 0.943114
0.98854 0.848707 0.926146
0.988602 0.84715 0.925048
0.781521 0.976867 0.980194
0.781521 0.976867 0.980194
0.781521 0.976867 0.980194
0.78854 0.977157 0.980484
0.826596 0.977905 0.980987
0.893217 0.977478 0.983063
0.950088 0.951461 0.97966
0.986053 0.951156 0.97026
0.985611 0.949355 0.968856
0.781521 0.976867 0.980194
0.781521 0.976867 0.980194
0.781521 0.976867 0.980194
0.787686 0.977142 0.980468
0.824109 0.977844 0.980941
0.894011 0.980514 0.982712
0.961791 0.987274 0.988174
0.989654 0.988739 0.991165
0.992035 0.987778 0.990066
0.781521 0.976867 0.980194
0.781521 0.976867 0.980194
0.781521 0.976867 0.980194
0.787594 0.977142 0.980468
0.823804 0.977829 0.980926
0.893568 0.980484 0.982696
0.961059 0.987182 0.988083
0.990097 0.992096 0.992538
0.993255 0.992645 0.993042
