luts/changyun_kodaklike/kodaP800.cube
TITLE "Generated by Resolve"
LUT_3D_SIZE 33
0.0332036 0.0358282 0.0447547
0.0349432 0.0353857 0.0441901
0.0399634 0.0352483 0.0439002
0.046952 0.0352789 0.0437629
0.0590066 0.0359655 0.0437324
0.0802777 0.0378271 0.0439765
0.0989242 0.0425879 0.0450294
0.120363 0.0486305 0.0471504
0.149172 0.0548409 0.0504158
0.190677 0.0523537 0.0555276
0.247974 0.0342412 0.0606851
0.326329 0.00218204 0.066453
0.423728 0 0.0670939
0.533791 0 0.0624857
0.646616 0 0.0548562
0.751217 0 0.0390021
0.843153 0 0.019028
0.917021 0 0.00605783
0.976684 0.121263 0.00756847
1 0.226032 0.0318761
1 0.292821 0.0849928
1 0.312978 0.0998093
1 0.332708 0.112306
1 0.332708 0.112306
1 0.332708 0.112306
1 0.332708 0.112306
1 0.332708 0.112306
1 0.332708 0.112306
1 0.332708 0.112306
1 0.332708 0.112306
1 0.332708 0.112306
1 0.332708 0.112306
1 0.332708 0.112306
0.0331426 0.0372473 0.0452277
0.034287 0.0369421 0.0448005
0.0383154 0.0367742 0.0444953
0.0458076 0.0367895 0.0442969
0.0569619 0.0371099 0.0441596
0.0780804 0.0383307 0.0442206
0.0975357 0.0421912 0.0449378
0.118898 0.0482338 0.0469825
0.147372 0.0545205 0.0502022
0.188174 0.052781 0.0552377
0.245319 0.035523 0.0604257
0.322698 0.00320439 0.0663005
0.419654 0 0.0671397
0.529595 0 0.0626688
0.642588 0 0.0550851
0.748196 0 0.0395972
0.840696 0 0.019501
0.914992 0 0.00645457
0.974945 0.114733 0.00724804
1 0.223087 0.0305638
1 0.290532 0.0830396
1 0.312139 0.0992905
1 0.332708 0.112306
1 0.332708 0.112306
1 0.332708 0.112306
1 0.332708 0.112306
1 0.332708 0.112306
1 0.332708 0.112306
1 0.332708 0.112306
1 0.332708 0.112306
1 0.332708 0.112306
1 0.332708 0.112306
1 0.332708 0.112306
0.0327611 0.0426642 0.0468757
0.0339361 0.0409857 0.0461128
0.03682 0.0394446 0.0453803
0.044419 0.0382696 0.0448615
0.0551614 0.0384222 0.0446632
0.0762493 0.0395361 0.0444343
0.0963302 0.0429389 0.0447547
0.11754 0.0480659 0.0468147
0.145769 0.0541848 0.0500191
0.186297 0.0531014 0.0550088
0.242679 0.0364996 0.0602274
0.319982 0.00396735 0.0662089
0.416205 0 0.0671855
0.52604 0 0.0628214
0.639155 0 0.0552834
0.745342 0 0.0401617
0.838102 0 0.0200046
0.91284 0 0.00688182
0.973205 0.108217 0.00694286
1 0.220447 0.0294041
1 0.28838 0.081178
1 0.310948 0.0985275
1 0.332708 0.112306
1 0.332708 0.112306
1 0.332708 0.112306
1 0.332708 0.112306
1 0.332708 0.112306
1 0.332708 0.112306
1 0.332708 0.112306
1 0.332708 0.112306
1 0.332708 0.112306
1 0.332708 0.112306
1 0.332708 0.112306
0.0320745 0.0497902 0.0489662
0.0334936 0.0480812 0.0483101
0.0354009 0.0464637 0.0475624
0.0426032 0.0453193 0.0464637
0.0520638 0.0436103 0.0454566
0.0741741 0.042237 0.0447852
0.095079 0.0440375 0.0449226
0.11603 0.0491493 0.0464179
0.143847 0.0542611 0.0499123
0.183551 0.0535592 0.0546731
0.239902 0.0375525 0.0600137
0.315999 0.00508125 0.0660563
0.412131 0 0.0672313
0.521843 0 0.0630198
0.635325 0 0.0555123
0.741863 0 0.0408026
0.83537 0 0.0205234
0.910582 0 0.00733959
0.97116 0.100526 0.00657664
1 0.217334 0.0280156
1 0.285832 0.0790112
1 0.309743 0.0977646
1 0.332708 0.112306
1 0.332708 0.112306
1 0.332708 0.112306
1 0.332708 0.112306
1 0.332708 0.112306
1 0.332708 0.112306
1 0.332708 0.112306
1 0.332708 0.112306
1 0.332708 0.112306
1 0.332708 0.112306
1 0.332708 0.112306
0.0326238 0.0638895 0.0531777
0.0336156 0.060502 0.0518807
0.0346532 0.0572824 0.0508125
0.040528 0.0544289 0.0488136
0.0491646 0.0527962 0.0467842
0.0708934 0.0514839 0.0454261
0.0932326 0.050721 0.0450904
0.114351 0.0518502 0.0460212
0.141558 0.0554055 0.049897
0.180591 0.0548714 0.0546273
0.236255 0.0389258 0.0597543
0.311833 0.00624094 0.0658885
0.407446 0 0.0672923
0.517006 0 0.0632334
0.630488 0 0.0558022
0.737331 0 0.0415503
0.831769 0 0.02121
0.907591 0 0.00793469
0.968811 0.0917067 0.00614939
1 0.213764 0.0264286
1 0.282658 0.0762951
1 0.308431 0.0969406
1 0.332708 0.112306
1 0.332708 0.112306
1 0.332708 0.112306
1 0.332708 0.112306
1 0.332708 0.112306
1 0.332708 0.112306
1 0.332708 0.112306
1 0.332708 0.112306
1 0.332708 0.112306
1 0.332708 0.112306
1 0.332708 0.112306
0.0347601 0.0832837 0.060441
0.0350958 0.0810101 0.0580758
0.0357824 0.0779583 0.0565194
0.0393225 0.0747845 0.0550698
0.0459907 0.0713054 0.0529946
0.065156 0.0677348 0.0489967
0.0906233 0.0635538 0.0457771
0.11191 0.061799 0.0462348
0.138994 0.0623178 0.0496986
0.176593 0.0580148 0.0546731
0.231342 0.0428473 0.0598611
0.306157 0.00796521 0.0657054
0.401144 0 0.0673686
0.510506 0 0.063508
0.624231 0 0.0561532
0.732067 0 0.0424353
0.827482 0 0.0220798
0.904143 0 0.00862135
0.965637 0.0798047 0.0055848
1 0.208957 0.0242924
1 0.278965 0.0731365
1 0.306523 0.0957351
1 0.332708 0.112306
1 0.332708 0.112306
1 0.332708 0.112306
1 0.332708 0.112306
1 0.332708 0.112306
1 0.332708 0.112306
1 0.332708 0.112306
1 0.332708 0.112306
1 0.332708 0.112306
1 0.332708 0.112306
1 0.332708 0.112306
0.0385443 0.0997635 0.0732586
0.0384833 0.0977188 0.0709239
0.0384222 0.0956741 0.0687572
0.0398413 0.0935836 0.0668193
0.0452583 0.0910353 0.0645457
0.0583352 0.0887922 0.0594339
0.0840772 0.0872358 0.0505531
0.108782 0.0826734 0.0464485
0.136355 0.0767834 0.0492714
0.173114 0.0691081 0.0537728
0.226032 0.0524147 0.0600443
0.298634 0.0122988 0.0659953
0.393011 0 0.0673686
0.502754 0 0.063859
0.616983 0 0.0565805
0.724987 0 0.0436103
0.821118 0 0.0236362
0.899489 0 0.00955215
0.961654 0.0648356 0.00486763
1 0.20322 0.0217441
1 0.274006 0.0688945
1 0.30425 0.0942855
1 0.3308 0.111101
1 0.332708 0.112306
1 0.332708 0.112306
1 0.332708 0.112306
1 0.332708 0.112306
1 0.332708 0.112306
1 0.332708 0.112306
1 0.332708 0.112306
1 0.332708 0.112306
1 0.332708 0.112306
1 0.332708 0.112306
0.0344091 0.119875 0.0855116
0.0357977 0.117403 0.0841382
0.037171 0.115236 0.0828565
0.0378729 0.112856 0.0809491
0.0423285 0.110338 0.0789197
0.051194 0.10724 0.0761273
0.0715343 0.104341 0.0689708
0.0997177 0.102403 0.0553902
0.132097 0.0980697 0.0492714
0.170123 0.0904555 0.0533303
0.220768 0.0756695 0.0596475
0.290974 0.0311437 0.0649424
0.382406 0 0.0669108
0.491539 0 0.0643168
0.607004 0 0.0574502
0.71664 0 0.0449989
0.813611 0 0.0254673
0.893446 0 0.0105135
0.956939 0.0475624 0.0040589
1 0.196078 0.0185855
1 0.267765 0.0635843
1 0.301335 0.0922713
1 0.328038 0.109346
1 0.332708 0.112306
1 0.332708 0.112306
1 0.332708 0.112306
1 0.332708 0.112306
1 0.332708 0.112306
1 0.332708 0.112306
1 0.332708 0.112306
1 0.332708 0.112306
1 0.332708 0.112306
1 0.332708 0.112306
0.0145113 0.148898 0.0956588
0.0167239 0.145983 0.0944839
0.0191653 0.143343 0.0934157
0.0222782 0.1402 0.092256
0.0279698 0.1364 0.0906844
0.0358587 0.132433 0.0884413
0.0536049 0.127764 0.0858625
0.0839399 0.12459 0.0791943
0.117769 0.122377 0.0612955
0.163928 0.11577 0.0525826
0.215763 0.102296 0.0578164
0.284276 0.0750744 0.0633249
0.373297 0.00421149 0.0658885
0.479393 0 0.0640269
0.594095 0 0.0585184
0.705364 0 0.0465248
0.803738 0 0.0280919
0.886427 0 0.0115816
0.950896 0.0372625 0.00396735
0.997009 0.185718 0.0161898
1 0.260014 0.0571145
1 0.297902 0.0893416
1 0.324819 0.107317
1 0.332708 0.112306
1 0.332708 0.112306
1 0.332708 0.112306
1 0.332708 0.112306
1 0.332708 0.112306
1 0.332708 0.112306
1 0.332708 0.112306
1 0.332708 0.112306
1 0.332708 0.112306
1 0.332708 0.112306
0 0.189761 0.106233
0.000213626 0.186038 0.105104
0.000762951 0.182879 0.104005
0.00144961 0.179294 0.102739
0.00236515 0.175036 0.101228
0.00724804 0.169528 0.0993973
0.0204013 0.162829 0.0970169
0.0515145 0.15642 0.0935836
0.0956893 0.152529 0.0862593
0.144411 0.150774 0.0641337
0.207874 0.141634 0.0534829
0.279576 0.118669 0.0600137
0.364874 0.0735485 0.0628367
0.467323 0 0.0626078
0.580163 0 0.0575113
0.691615 0 0.0466468
0.791501 0 0.0298314
0.875349 0 0.0132143
0.942504 0.0221714 0.00317388
0.992905 0.173861 0.013962
1 0.251148 0.0496986
1 0.293706 0.0857557
1 0.321111 0.104967
1 0.332708 0.112306
1 0.332708 0.112306
1 0.332708 0.112306
1 0.332708 0.112306
1 0.332708 0.112306
1 0.332708 0.112306
1 0.332708 0.112306
1 0.332708 0.112306
1 0.332708 0.112306
1 0.332708 0.112306
0 0.249775 0.117449
0 0.245182 0.115984
0 0.240894 0.114977
0 0.236011 0.113893
0 0.230015 0.112535
0 0.222736 0.110811
4.57771e-05 0.214176 0.108629
0.00361639 0.204669 0.10602
0.0426337 0.195163 0.101656
0.111131 0.190066 0.0915541
0.179828 0.189227 0.0626688
0.267109 0.177523 0.0454414
0.362493 0.147189 0.0530861
0.461173 0.0941482 0.055375
0.56759 0 0.0519112
0.677699 0 0.0408179
0.778302 0 0.0235904
0.863096 0 0.00810254
0.931563 0.0218662 0.00140383
0.985901 0.162631 0.00639353
1 0.240101 0.0372931
1 0.288197 0.0797894
1 0.31632 0.101762
1 0.332708 0.112306
1 0.332708 0.112306
1 0.332708 0.112306
1 0.332708 0.112306
1 0.332708 0.112306
1 0.332708 0.112306
1 0.332708 0.112306
1 0.332708 0.112306
1 0.332708 0.112306
1 0.332708 0.112306
0 0.325429 0.129168
0 0.320134 0.127825
0 0.315267 0.126574
0 0.309819 0.125139
0 0.303243 0.123537
0 0.295567 0.12166
0 0.285679 0.119783
0 0.274083 0.117205
0 0.260166 0.114443
0.0224613 0.247974 0.108186
0.131044 0.241581 0.0933242
0.224338 0.239673 0.0478065
0.33785 0.227848 0.0178683
0.451637 0.194171 0.0265354
0.561288 0.152605 0.029099
0.669245 0.0749981 0.0198215
0.768994 0.0487984 0.00724804
0.859876 0.055375 0.000106813
0.923171 0.113634 0
0.977096 0.184085 0
1 0.243671 0.0198062
1 0.289937 0.067689
1 0.313634 0.0944839
1 0.332662 0.108705
1 0.332006 0.1093
1 0.331487 0.109758
1 0.331106 0.110094
1 0.331273 0.110353
1 0.331395 0.110536
1 0.331441 0.110582
1 0.331472 0.110628
1 0.331487 0.110658
1 0.331518 0.110689
0 0.410544 0.142504
0 0.405753 0.141039
0 0.400961 0.139635
0 0.395499 0.138018
0 0.388724 0.13608
0 0.380377 0.13373
0 0.370001 0.130938
0 0.356878 0.127565
0 0.342092 0.124697
0 0.325551 0.121782
0.0168154 0.311955 0.111742
0.164187 0.305028 0.0862287
0.282155 0.301289 0.0131685
0.416556 0.291875 0
0.543252 0.260563 0
0.657435 0.227543 0
0.757443 0.206226 0
0.843397 0.202213 0
0.91487 0.21857 0
0.973724 0.249775 0
1 0.286641 0.0102998
1 0.318105 0.0586252
1 0.331319 0.0875257
1 0.344503 0.102388
1 0.343572 0.104845
1 0.341268 0.105455
1 0.339513 0.105913
1 0.338369 0.106218
1 0.338018 0.106355
1 0.33785 0.106416
1 0.337758 0.106447
1 0.337682 0.106477
1 0.337606 0.106523
0 0.502342 0.163561
0 0.497322 0.161044
0 0.492699 0.158968
0 0.487785 0.157
0 0.481544 0.154742
0 0.473762 0.151904
0 0.463874 0.148501
0 0.451545 0.144015
0 0.435401 0.138811
0 0.416205 0.133547
0 0.396872 0.12932
0.035874 0.38497 0.110933
0.216526 0.379599 0.0540017
0.355108 0.377722 0
0.509728 0.375494 0
0.6383 0.349035 0
0.744045 0.320272 0
0.8271 0.308476 0
0.897536 0.30782 0
0.957565 0.318883 0
1 0.336797 0
1 0.356573 0.0172427
1 0.371237 0.0768749
1 0.380758 0.101732
1 0.381323 0.109377
1 0.377707 0.110384
1 0.375067 0.111116
1 0.373358 0.111589
1 0.372259 0.111894
1 0.371878 0.112001
1 0.371649 0.112062
1 0.371435 0.112123
1 0.371221 0.112184
0 0.586465 0.194629
0 0.58265 0.192203
0 0.578805 0.189761
0 0.574426 0.18703
0 0.568948 0.183459
0 0.56228 0.179583
0 0.554528 0.175204
0 0.54493 0.170352
0 0.531777 0.163806
0 0.513512 0.156207
0 0.493889 0.147997
0 0.472297 0.140932
0.124254 0.46096 0.108797
0.282048 0.452918 0.00724804
0.429679 0.452918 0
0.587106 0.454917 0
0.712123 0.438895 0
0.814725 0.41976 0
0.886641 0.409934 0
0.941741 0.402884 0
0.989639 0.404501 0
1 0.412802 0
1 0.421286 0.026154
1 0.425025 0.071458
1 0.425605 0.0969558
1 0.420111 0.0985733
1 0.416175 0.0995499
1 0.41352 0.100221
1 0.412161 0.100557
1 0.411521 0.100725
1 0.4112 0.100801
1 0.41088 0.100893
1 0.410559 0.100969
0 0.670237 0.239048
0 0.665934 0.235782
0 0.661906 0.232685
0 0.657572 0.229252
0 0.651804 0.224765
0 0.644465 0.218936
0 0.635462 0.2121
0 0.624918 0.20502
0 0.612726 0.196628
0 0.598428 0.188373
0 0.58143 0.179065
0 0.562371 0.169146
0.0151827 0.544396 0.154177
0.220996 0.534966 0.107485
0.35993 0.527062 0.000686656
0.505714 0.525231 0
0.654169 0.528435 0
0.765667 0.517449 0
0.857694 0.501442 0
0.925002 0.489921 0
0.97586 0.485557 0
1 0.484321 0
1 0.487053 0.00241093
1 0.4851 0.0352789
1 0.483818 0.0869001
1 0.476631 0.0860304
1 0.471305 0.0853742
1 0.467704 0.084947
1 0.466072 0.0852522
1 0.465141 0.0855116
1 0.464775 0.0856031
1 0.464393 0.0857099
1 0.46421 0.0857557
0 0.742641 0.297215
0 0.739254 0.293294
0 0.735821 0.289265
0 0.731914 0.284703
0 0.726726 0.279133
0 0.720775 0.272969
0 0.713619 0.265904
0 0.704387 0.256519
0 0.693523 0.246708
0 0.680583 0.235157
0 0.66482 0.222599
0 0.645121 0.208759
6.10361e-05 0.624781 0.195392
0.17084 0.60827 0.170291
0.314565 0.599298 0.113787
0.445075 0.594522 0
0.58024 0.592325 0
0.712917 0.595102 0
0.810483 0.585611 0
0.891447 0.57348 0
0.956222 0.561044 0
0.994522 0.553841 0
1 0.550851 0
1 0.547219 0.00865187
1 0.544198 0.0464027
1 0.539193 0.0613565
1 0.534356 0.0653086
1 0.531289 0.0678111
1 0.529412 0.069337
1 0.528618 0.0699931
1 0.528222 0.0703136
1 0.527825 0.070634
1 0.527428 0.0709544
0.150439 0.808469 0.36556
0.128801 0.805051 0.360998
0.108415 0.801785 0.356603
0.0850385 0.798001 0.351461
0.0559243 0.79321 0.34493
0.019791 0.787152 0.336477
0.00508125 0.779782 0.327016
0.000427253 0.771099 0.316243
0 0.761776 0.305516
0 0.750561 0.293431
0 0.738582 0.280873
0 0.723018 0.265431
0.0134737 0.704189 0.24799
0.189548 0.685527 0.232639
0.30518 0.67219 0.19617
0.410483 0.658183 0.131319
0.523079 0.649622 0
0.642985 0.647211 0
0.763104 0.652384 0
0.850477 0.646021 0
0.920623 0.636316 0
0.974884 0.625071 0
0.999771 0.616144 0
1 0.610574 0
1 0.605585 0.0253452
1 0.601114 0.0415961
1 0.596231 0.0429389
1 0.593149 0.0437171
1 0.591257 0.0442054
1 0.590463 0.0444038
1 0.590066 0.0445106
1 0.58967 0.0446021
1 0.589364 0.0446784
0.333089 0.870207 0.44538
0.325856 0.86717 0.440192
0.319341 0.864408 0.436011
0.311986 0.86128 0.431281
0.30248 0.857298 0.425406
0.29041 0.852369 0.417975
0.274418 0.84596 0.40827
0.248859 0.837217 0.39527
0.216861 0.826841 0.380148
0.18703 0.814862 0.362905
0.132845 0.80032 0.343679
0.1514 0.784558 0.323766
0.189181 0.768841 0.306218
0.251972 0.75201 0.289067
0.323308 0.735698 0.267903
0.409674 0.724025 0.224796
0.502708 0.713283 0.161975
0.602716 0.705272 0.022385
0.705287 0.70103 0
0.809979 0.70544 0
0.884123 0.698238 0
0.940993 0.689204 0
0.987366 0.680674 0
1 0.673167 0
1 0.665797 0.0039826
1 0.660578 0.0184329
1 0.655756 0.0255131
1 0.652445 0.0303807
1 0.650736 0.0328832
1 0.649927 0.0340581
1 0.649531 0.0346532
1 0.649134 0.0352483
1 0.648737 0.0358282
0.464988 0.930556 0.544198
0.458289 0.927382 0.538247
0.451957 0.924392 0.532647
0.444678 0.921004 0.526207
0.435523 0.916899 0.518791
0.42356 0.911635 0.509102
0.408118 0.904921 0.496605
0.388235 0.896452 0.480751
0.365072 0.886259 0.463447
0.341817 0.8748 0.444389
0.322255 0.862196 0.424277
0.310521 0.847929 0.403464
0.310903 0.831601 0.380331
0.330282 0.813886 0.356878
0.367803 0.795392 0.335531
0.425055 0.780819 0.302831
0.499336 0.769574 0.256229
0.581643 0.75935 0.193484
0.668925 0.751553 0.0796368
0.757778 0.746715 0
0.847959 0.749569 0
0.910185 0.744366 0
0.961822 0.738567 0
0.994904 0.732158 0
1 0.725795 0
1 0.71989 0
1 0.714961 0
1 0.711406 0
1 0.709361 0
1 0.708507 0
1 0.708171 0
1 0.707744 0
1 0.707317 0
0.48217 0.938781 0.559991
0.478996 0.93724 0.557031
0.475975 0.93579 0.554253
0.47274 0.934249 0.551217
0.468452 0.932219 0.547204
0.463249 0.929778 0.542351
0.456718 0.926741 0.536171
0.448295 0.922896 0.528206
0.437003 0.917967 0.518135
0.423819 0.911864 0.505837
0.41236 0.904692 0.491722
0.407416 0.897337 0.477317
0.403738 0.885344 0.457145
0.406195 0.868437 0.430701
0.424949 0.850843 0.406058
0.459083 0.833402 0.381537
0.514122 0.82153 0.3393
0.578775 0.808942 0.286595
0.649317 0.796872 0.218524
0.727199 0.789807 0.103685
0.803693 0.784665 0
0.878279 0.786664 0
0.933898 0.782528 0
0.976669 0.778103 0
1 0.773129 0
1 0.768444 0
1 0.764752 0
1 0.76173 0
1 0.759976 0
1 0.759243 0
1 0.758877 0
1 0.758511 0
1 0.758144 0
0.503487 0.94815 0.579263
0.50251 0.947936 0.578119
0.501503 0.947707 0.576898
0.500526 0.947494 0.575738
0.499794 0.947372 0.57467
0.50045 0.947662 0.574762
0.501305 0.948043 0.574884
0.502312 0.948501 0.575036
0.498405 0.946578 0.570779
0.487755 0.941131 0.559899
0.474556 0.933776 0.54464
0.465385 0.925978 0.528664
0.462745 0.917739 0.512352
0.469261 0.908888 0.496651
0.487114 0.900236 0.481926
0.50692 0.884474 0.457359
0.539651 0.86923 0.420493
0.590539 0.857816 0.37499
0.649577 0.846281 0.320516
0.714626 0.8365 0.257115
0.779767 0.827298 0.156268
0.838972 0.81912 0.0107271
0.902647 0.819455 0
0.953704 0.819623 0
0.988434 0.816083 0
0.99678 0.811734 0
0.999649 0.808377 0
1 0.805524 0
1 0.803784 0
1 0.803037 0
1 0.80267 0
1 0.802396 0
1 0.802029 0
0.507256 0.948974 0.58378
0.506233 0.948745 0.582559
0.505364 0.948562 0.581521
0.50425 0.948318 0.580179
0.502968 0.948028 0.578668
0.501289 0.947662 0.576654
0.499763 0.947356 0.574655
0.500786 0.947814 0.574807
0.502083 0.948363 0.575036
0.504265 0.94902 0.575235
0.508003 0.949447 0.574975
0.511589 0.948852 0.571923
0.51368 0.94461 0.562905
0.517037 0.936538 0.548135
0.5252 0.926665 0.529519
0.544808 0.917418 0.513298
0.575616 0.90988 0.49781
0.611597 0.900664 0.458
0.657359 0.88864 0.406592
0.710933 0.877913 0.350378
0.768185 0.867872 0.284977
0.822644 0.860075 0.208011
0.876478 0.854154 0.0510567
0.926528 0.851896 0
0.969451 0.852766 0
0.989578 0.849882 0
0.996857 0.846418 0
1 0.843946 0
1 0.842344 0
1 0.841657 0
1 0.841306 0
1 0.841047 0
1 0.840696 0
0.510521 0.949691 0.587671
0.509499 0.949462 0.58645
0.508629 0.949279 0.585428
0.507515 0.949035 0.584085
0.506233 0.948745 0.582559
0.504555 0.948379 0.580545
0.502617 0.947951 0.578241
0.500023 0.947387 0.575128
0.500679 0.947768 0.574807
0.502937 0.948486 0.57525
0.506828 0.949096 0.575433
0.512291 0.949233 0.574105
0.520897 0.948699 0.571694
0.540566 0.949905 0.574517
0.562158 0.949767 0.574304
0.57818 0.942153 0.560403
0.600046 0.93312 0.543786
0.631891 0.927703 0.515984
0.673136 0.923888 0.483406
0.71635 0.914672 0.433295
0.76492 0.904051 0.374075
0.812421 0.894606 0.311559
0.860685 0.887068 0.239231
0.904631 0.88127 0.132494
0.943709 0.878431 0.00508125
0.977005 0.880125 0
0.991196 0.879866 0
0.999802 0.879164 0
1 0.877394 0
1 0.876677 0
1 0.87631 0
1 0.876036 0
1 0.875669 0
0.512612 0.950103 0.590402
0.512245 0.950072 0.589746
0.511284 0.949859 0.588586
0.510216 0.94963 0.587304
0.508934 0.94934 0.585794
0.507362 0.949004 0.583902
0.505272 0.948547 0.581399
0.502724 0.947982 0.578363
0.499718 0.947311 0.574762
0.501778 0.948028 0.575219
0.505791 0.94876 0.575631
0.512093 0.949248 0.575265
0.520928 0.948974 0.573404
0.538796 0.949767 0.57499
0.561379 0.950134 0.575952
0.587533 0.949767 0.575616
0.618814 0.949569 0.576379
0.650752 0.947753 0.560967
0.685359 0.943481 0.529686
0.725261 0.939422 0.493355
0.767498 0.934661 0.449348
0.808713 0.924773 0.391577
0.851957 0.916228 0.329488
0.892454 0.90959 0.264118
0.927642 0.90428 0.184329
0.955795 0.900221 0.0796216
0.97557 0.899748 0.0281529
0.987655 0.89984 0.00585946
0.99202 0.89958 0
0.992447 0.899168 0
0.992599 0.899016 0
0.992813 0.898817 0
0.993011 0.898619 0
0.512398 0.949844 0.59115
0.512505 0.949966 0.590814
0.512581 0.950072 0.590509
0.512352 0.950103 0.589868
0.51107 0.949813 0.588342
0.509392 0.949447 0.586328
0.507362 0.949004 0.583902
0.50486 0.948455 0.580911
0.5019 0.947799 0.577386
0.500801 0.947631 0.575158
0.504952 0.94847 0.575753
0.511223 0.949035 0.575616
0.520912 0.949187 0.574655
0.537423 0.949676 0.575341
0.559808 0.950118 0.576471
0.586374 0.950011 0.576761
0.617151 0.949798 0.577371
0.652964 0.95201 0.571542
0.694438 0.95671 0.561273
0.734081 0.956329 0.536233
0.772839 0.952041 0.496544
0.809796 0.947188 0.452445
0.847868 0.939788 0.395834
0.885512 0.93315 0.339925
0.918654 0.927657 0.283909
0.945663 0.923323 0.223835
0.965148 0.920668 0.160281
0.975769 0.918608 0.117998
0.98204 0.917464 0.092256
0.982284 0.916838 0.0876326
0.982422 0.916487 0.0849928
0.982559 0.916136 0.0823529
0.982681 0.915785 0.0796979
0.512261 0.949676 0.591684
0.512352 0.949783 0.591348
0.512444 0.949889 0.591012
0.512535 0.950011 0.590677
0.512657 0.950164 0.590234
0.510979 0.949798 0.58822
0.508934 0.94934 0.585794
0.506447 0.948791 0.582803
0.503487 0.94815 0.579263
0.500511 0.947478 0.575463
0.504295 0.948241 0.575814
0.510597 0.948867 0.575875
0.520699 0.949279 0.575448
0.5364 0.949584 0.575601
0.558556 0.950057 0.576715
0.585534 0.95021 0.5776
0.61593 0.949966 0.578088
0.650675 0.951644 0.571939
0.691875 0.956298 0.561669
0.735103 0.961135 0.549264
0.777584 0.965255 0.532372
0.812543 0.961059 0.492424
0.848844 0.957092 0.448142
0.882063 0.950881 0.394537
0.912947 0.945113 0.342321
0.939208 0.940978 0.293767
0.958907 0.938003 0.249042
0.969451 0.935683 0.21915
0.975952 0.934569 0.201129
0.976837 0.933852 0.196582
0.976928 0.933471 0.194888
0.97702 0.933074 0.193179
0.977111 0.932677 0.19147
0.512169 0.949554 0.59202
0.512245 0.94966 0.591714
0.512337 0.949767 0.591379
0.512444 0.949889 0.591012
0.512566 0.950042 0.590585
0.512093 0.950042 0.589563
0.510002 0.949584 0.58706
0.507454 0.94902 0.584024
0.504448 0.948363 0.580423
