luts/changyun_kodaklike/kodaP800.cube
TITLE "Generated by Resolve"
LUT_3D_SIZE 5
0.0332036 0.0358282 0.0447547
0.149172 0.0548409 0.0504158
0.843153 0 0.019028
1 0.332708 0.112306
1 0.332708 0.112306
0.0145113 0.148898 0.0956588
0.117769 0.122377 0.0612955
0.803738 0 0.0280919
1 0.332708 0.112306
1 0.332708 0.112306
0 0.742641 0.297215
0 0.693523 0.246708
0.58024 0.592325 0
1 0.544198 0.0464027
1 0.527428 0.0709544
0.512612 0.950103 0.590402
0.499718 0.947311 0.574762
0.618814 0.949569 0.576379
0.927642 0.90428 0.184329
0.993011 0.898619 0
0.512047 0.949401 0.592462
0.505776 0.948653 0.58201
0.614282 0.950225 0.579156
0.910033 0.975891 0.445426
0.972015 0.961898 0.315038
0.0474861 0.0586099 0.139406
0.151019 0.0488441 0.114702
0.834974 0 0.0315404
1 0.332708 0.112306
1 0.332708 0.112306
0.0671397 0.165698 0.16997
0.126345 0.130465 0.143023
0.794308 0 0.0727855
1 0.332708 0.112306
1 0.332708 0.112306
0.119493 0.750347 0.391424
0 0.704295 0.338689
0.586175 0.600031 0.0087892
1 0.546502 0.100557
1 0.527459 0.0884871
0.530068 0.949615 0.635889
0.523629 0.949096 0.622278
0.62649 0.950317 0.603021
0.929244 0.910674 0.259785
0.990402 0.901762 0.0435645
0.536004 0.950774 0.644541
0.523033 0.948287 0.625483
0.620386 0.949889 0.605158
0.912902 0.977615 0.475883
0.972473 0.967132 0.367498
0 0.142565 0.653513
0.157488 0.130831 0.613748
0.843259 0 0.503838
1 0.436179 0.454276
1 0.430365 0.436591
0.0755627 0.27216 0.685557
0.173281 0.216434 0.651179
0.808331 0 0.551141
1 0.455741 0.498741
1 0.447669 0.479561
0.501686 0.788205 0.748653
0.451194 0.747753 0.713176
0.64715 0.641016 0.632044
1 0.629618 0.610681
1 0.612909 0.593912
0.673045 0.955322 0.864103
0.66334 0.953887 0.846616
0.684245 0.955383 0.779492
0.921584 0.919051 0.631464
0.989929 0.914656 0.584024
0.676768 0.955734 0.871321
0.66772 0.954543 0.854444
0.695491 0.954665 0.794705
0.906889 0.977478 0.702464
0.966812 0.975402 0.660716
0.548898 0.440146 0.956542
0.542763 0.403815 0.937392
0.853239 0.472923 0.87631
1 0.50425 0.811093
1 0.494301 0.799664
0.591836 0.54583 0.973342
0.568399 0.48275 0.955184
0.830793 0.479866 0.896819
1 0.524361 0.835096
1 0.516777 0.825513
0.607553 0.858289 0.982818
0.586725 0.828214 0.983795
0.751919 0.735592 0.944884
1 0.69662 0.894392
1 0.680339 0.885664
0.717311 0.978576 0.983185
0.717311 0.978576 0.983185
0.775311 0.980133 0.984253
0.939803 0.941115 0.94342
0.983917 0.938491 0.943069
0.717311 0.978576 0.983185
0.717311 0.978576 0.983185
0.77174 0.980026 0.984176
0.935149 0.981872 0.958022
0.979522 0.987762 0.942214
0.620859 0.53579 0.99089
0.605447 0.491371 0.973739
0.856107 0.524285 0.916365
1 0.541756 0.855116
1 0.532586 0.845518
0.6262 0.58352 0.98938
0.635218 0.565911 0.989502
0.83772 0.537881 0.935378
1 0.560845 0.875624
1 0.553582 0.86743
0.608103 0.859037 0.982788
0.587381 0.829114 0.98378
0.782361 0.763653 0.983291
1 0.724269 0.936767
1 0.706477 0.927092
0.717311 0.978576 0.983185
0.717311 0.978576 0.983185
0.775158 0.980117 0.984253
0.952483 0.95642 0.988846
0.98703 0.951095 0.980011
0.717311 0.978576 0.983185
0.717311 0.978576 0.983185
0.771557 0.980011 0.984161
0.945388 0.988876 0.989593
0.990204 0.992248 0.992218
