luts/changyun_kodaklike/kodaE200.cube
TITLE "Generated by Resolve"
LUT_3D_SIZE 5
0.000579843 0.0015259 0.00158694
0.102876 0.0192111 0.00376898
0.721538 0 0
1 0.177279 0
1 0.177279 0
0 0.116808 0.0557107
0.0843061 0.0929122 0.0159152
0.679789 0 0
1 0.177279 0
1 0.177279 0
0.357015 0.769421 0.440681
0.270024 0.716335 0.37322
0.635294 0.578195 0
1 0.485634 0
1 0.461952 0
0.729335 0.963912 0.767163
0.720409 0.960601 0.755673
0.796521 0.96495 0.763851
0.982376 0.918822 0.347173
1 0.89604 0.105165
0.726787 0.963058 0.766537
0.724681 0.962188 0.761074
0.794125 0.965621 0.766049
0.979232 0.986419 0.660166
1 0.973999 0.529671
0.000610361 0.00117494 0.0907149
0.0885786 0.0269169 0.0584726
0.707073 0 0
1 0.177279 0
1 0.177279 0
0 0.124071 0.125444
0.0778363 0.0971389 0.0984817
0.663447 0 0
1 0.177279 0
1 0.177279 0
0.385687 0.774136 0.505577
0.310399 0.725017 0.441932
0.640223 0.588693 0.00836194
1 0.484657 0
1 0.458488 0
0.723079 0.962798 0.783413
0.722957 0.962325 0.777203
0.796674 0.965667 0.77525
0.983627 0.925261 0.39704
1 0.900526 0.178195
0.726238 0.964141 0.788952
0.719493 0.961273 0.776867
0.79144 0.965057 0.775097
0.98143 0.988586 0.677653
1 0.979385 0.569589
0 0 0.554543
0 0 0.514763
0.661189 0.106065 0.376745
0.993469 0.166903 0.249683
0.996399 0.171099 0.2318
0 0.0682689 0.604654
0 0.00701915 0.563394
0.637308 0.13814 0.422553
0.98529 0.176211 0.294362
0.988846 0.17174 0.274617
0.351888 0.77084 0.749172
0.268605 0.719921 0.710063
0.654902 0.645335 0.647074
1 0.462562 0.410849
0.999863 0.439063 0.390326
0.696696 0.959609 0.896391
0.698436 0.959716 0.884108
0.789258 0.966781 0.859388
0.964111 0.93283 0.660441
1 0.910979 0.573571
0.694362 0.959075 0.901167
0.697826 0.959716 0.889632
0.780972 0.96611 0.862272
0.965255 0.988647 0.791302
1 0.986358 0.735683
0.290959 0 0.929763
0.317037 0 0.903624
0.866087 0.292271 0.834119
0.953429 0.454093 0.7234
0.952193 0.443427 0.710079
0.315877 0 0.960525
0.324575 0 0.931289
0.844724 0.182391 0.858152
0.955596 0.471458 0.749508
0.955001 0.467155 0.740063
0 0.708095 0.992111
0 0.613336 0.990417
0.634867 0.486534 0.931868
0.950637 0.651621 0.829725
0.949371 0.631083 0.817395
0.444434 0.967254 0.99472
0.444434 0.967254 0.99472
0.608011 0.970291 0.995148
0.950744 0.955688 0.953079
0.983093 0.927413 0.923003
0.444434 0.967254 0.99472
0.444434 0.967254 0.99472
0.599252 0.970077 0.995117
0.950805 0.988647 0.970382
0.999893 0.995972 0.949905
0.389273 0 0.981857
0.417014 0 0.956771
0.881041 0.265492 0.884565
0.957992 0.483955 0.770794
0.956237 0.476127 0.759762
0.365087 0 0.98352
0.424704 0 0.982361
0.86247 0.149584 0.908431
0.960647 0.497719 0.793667
0.960311 0.494118 0.785016
0 0.710307 0.992142
0 0.61622 0.990494
0.658991 0.448035 0.985092
0.966003 0.682048 0.876417
0.959335 0.659464 0.860716
0.444434 0.967254 0.99472
0.444434 0.967254 0.99472
0.607614 0.970291 0.995148
0.941299 0.942 0.992691
0.987884 0.951583 0.974945
0.444434 0.967254 0.99472
0.444434 0.967254 0.99472
0.598764 0.970062 0.995117
0.933425 0.991165 0.998016
1 1 1
