luts/changyun_kodaklike/kodaE200.cube
TITLE "Generated by Resolve"
LUT_3D_SIZE 33
0.000579843 0.0015259 0.00158694
0.0010071 0.00164797 0.00117494
0.00296025 0.00167849 0.00102235
0.00588998 0.00163272 0.00109865
0.0114137 0.00209049 0.00122072
0.0214847 0.00383001 0.00128176
0.0420996 0.00607309 0.00230411
0.0750439 0.0113222 0.00321965
0.102876 0.0192111 0.00376898
0.134249 0.0245823 0.00491341
0.181765 0.019501 0.00512703
0.25066 0.000991836 0.00488289
0.334615 0 0.00288396
0.428717 0 0
0.526589 0 0
0.623392 0 0
0.721538 0 0
0.805051 0 0
0.877485 0 0
0.941726 0 0
0.993729 0.0718547 0
1 0.12781 0
1 0.177279 0
1 0.177279 0
1 0.177279 0
1 0.177279 0
1 0.177279 0
1 0.177279 0
1 0.177279 0
1 0.177279 0
1 0.177279 0
1 0.177279 0
1 0.177279 0
0.000549325 0.00238041 0.00196841
0.000991836 0.002533 0.00166323
0.00259403 0.00256352 0.00138857
0.00563058 0.00250248 0.00123598
0.0105287 0.00268559 0.00125124
0.0204776 0.00390631 0.00137331
0.0403906 0.00588998 0.00221256
0.0726482 0.0109102 0.00317388
0.101381 0.0187381 0.0037232
0.132235 0.0245212 0.00492866
0.179446 0.0202335 0.00509651
0.247486 0.00144961 0.00497444
0.331121 0 0.00308232
0.425132 0 0
0.523064 0 0
0.62005 0 0
0.718914 0 0
0.80267 0 0
0.875334 0 0
0.939452 0 0
0.992187 0.0647898 0
1 0.125704 0
1 0.177279 0
1 0.177279 0
1 0.177279 0
1 0.177279 0
1 0.177279 0
1 0.177279 0
1 0.177279 0
1 0.177279 0
1 0.177279 0
1 0.177279 0
1 0.177279 0
0.000411994 0.00540169 0.00317388
0.000900282 0.00469978 0.00268559
0.00215152 0.0040589 0.00209049
0.00534066 0.00328069 0.00146487
0.00981155 0.00332647 0.0012665
0.019852 0.00433356 0.00140383
0.0389258 0.00634775 0.00180056
0.0704509 0.010605 0.00303655
0.100053 0.0182956 0.00370794
0.130724 0.0244602 0.00494392
0.177234 0.0205844 0.005066
0.245121 0.00180056 0.00503548
0.328145 0 0.00325017
0.42208 0 0
0.520058 0 0
0.616907 0 0
0.716121 0 0
0.800137 0 0
0.873167 0 0
0.937407 0 0
0.990723 0.0581216 0
1 0.122713 0
1 0.177279 0
1 0.177279 0
1 0.177279 0
1 0.177279 0
1 0.177279 0
1 0.177279 0
1 0.177279 0
1 0.177279 0
1 0.177279 0
1 0.177279 0
1 0.177279 0
0.000259403 0.00939956 0.00463874
0.000686656 0.00848402 0.00436408
0.00143435 0.00770581 0.00389105
0.00442512 0.00733959 0.00292973
0.00834669 0.00645457 0.00195315
0.0191501 0.00573739 0.00151064
0.0373541 0.00694286 0.00155642
0.0682383 0.0108644 0.00233463
0.0985733 0.0179599 0.00361639
0.128511 0.0243839 0.00495918
0.174914 0.0209506 0.00505074
0.241642 0.00230411 0.00512703
0.324651 0 0.00344854
0.418494 0 0
0.516716 0 0
0.613352 0 0
0.713176 0 0
0.797482 0 0
0.870634 0 0
0.935012 0 0
0.989013 0.0502632 0
1 0.119707 0
1 0.177279 0
1 0.177279 0
1 0.177279 0
1 0.177279 0
1 0.177279 0
1 0.177279 0
1 0.177279 0
1 0.177279 0
1 0.177279 0
1 0.177279 0
1 0.177279 0
0.00015259 0.018143 0.0081178
0.000503548 0.0159762 0.00737011
0.000885023 0.0138705 0.00668345
0.00332647 0.0124971 0.00503548
0.00682078 0.012192 0.00347906
0.0176089 0.0113375 0.00210575
0.0357824 0.0110323 0.00149538
0.06598 0.0122988 0.00157168
0.0971237 0.0179446 0.00326543
0.126314 0.0246433 0.00459297
0.171847 0.0214389 0.00502022
0.23801 0.00282292 0.00523384
0.320623 0 0.00367742
0.414359 0 0
0.512489 0 0
0.60914 0 0
0.709316 0 0
0.793957 0 0
0.86772 0 0
0.93225 0 0
0.986862 0.0404517 0
1 0.116411 0
1 0.177279 0
1 0.177279 0
1 0.177279 0
1 0.177279 0
1 0.177279 0
1 0.177279 0
1 0.177279 0
1 0.177279 0
1 0.177279 0
1 0.177279 0
1 0.177279 0
6.10361e-05 0.0323491 0.0142061
0.000396735 0.0290532 0.0127718
0.000717174 0.0270237 0.011841
0.00224308 0.0252995 0.0104677
0.00509651 0.0236515 0.00851453
0.0142977 0.0221866 0.00531014
0.0330968 0.01944 0.00213626
0.0640269 0.0187381 0.00122072
0.096376 0.0217136 0.00198367
0.123659 0.0257572 0.00363165
0.167987 0.0227512 0.00488289
0.233051 0.00357061 0.00540169
0.31519 0 0.00399786
0.408789 0 0
0.507027 0 0
0.604273 0 0
0.704753 0 0
0.789899 0 0
0.863783 0 0
0.928542 0 0
0.984375 0.0290532 0
1 0.11162 0
1 0.177279 0
1 0.177279 0
1 0.177279 0
1 0.177279 0
1 0.177279 0
1 0.177279 0
1 0.177279 0
1 0.177279 0
1 0.177279 0
1 0.177279 0
1 0.177279 0
7.62951e-05 0.0568093 0.0242313
0.000457771 0.0536965 0.022446
0.000915541 0.0508583 0.0209659
0.0018616 0.0478828 0.0195621
0.00447089 0.0441596 0.0174258
0.0105135 0.0410163 0.0134432
0.0256504 0.0387121 0.00703441
0.0579232 0.0350652 0.00288396
0.0959945 0.0337224 0.00131228
0.122988 0.0322881 0.00228885
0.165011 0.0272068 0.00442512
0.22649 0.00489815 0.00584421
0.308232 0 0.0043183
0.402152 0 0
0.500679 0 0
0.597711 0 0
0.698161 0 0
0.784421 0 0
0.858824 0 0
0.924102 0 0
0.981033 0.0137484 0
1 0.105928 0
1 0.172488 0
1 0.177279 0
1 0.177279 0
1 0.177279 0
1 0.177279 0
1 0.177279 0
1 0.177279 0
1 0.177279 0
1 0.177279 0
1 0.177279 0
1 0.177279 0
0 0.089601 0.0372015
0 0.0873274 0.0351568
3.0518e-05 0.0846113 0.033402
0.000228885 0.0805524 0.0314183
0.00328069 0.076112 0.0296635
0.00810254 0.0709239 0.0271611
0.0173953 0.0670787 0.0215305
0.0467079 0.0656901 0.0115053
0.0932021 0.0606088 0.00422675
0.125414 0.0523232 0.000488289
0.165927 0.0395514 0.00209049
0.22356 0.0112001 0.00440986
0.300679 0 0.00399786
0.392691 0 0
0.491905 0 0
0.589975 0 0
0.690379 0 0
0.777493 0 0
0.852979 0 0
0.918578 0 0
0.976501 0 0
0.999481 0.0981765 0
1 0.165591 0
1 0.177279 0
1 0.177279 0
1 0.177279 0
1 0.177279 0
1 0.177279 0
1 0.177279 0
1 0.177279 0
1 0.177279 0
1 0.177279 0
1 0.177279 0
0 0.116808 0.0557107
0 0.114015 0.0536202
0 0.111467 0.051667
0 0.10837 0.0494392
0.000534066 0.104753 0.0466011
0.00254826 0.101411 0.0431983
0.0135348 0.0975662 0.0389258
0.0345159 0.0951705 0.0301213
0.0843061 0.0929122 0.0159152
0.122271 0.0872969 0.00572213
0.169894 0.0721294 0.000564584
0.227726 0.0329747 0.00157168
0.299443 0 0.000915541
0.386145 0 7.62951e-05
0.481758 0 0
0.579416 0 0
0.679789 0 0
0.769467 0 0
0.84567 0 0
0.911604 0 0
0.969924 0 0
0.997162 0.0875715 0
1 0.157488 0
1 0.177279 0
1 0.177279 0
1 0.177279 0
1 0.177279 0
1 0.177279 0
1 0.177279 0
1 0.177279 0
1 0.177279 0
1 0.177279 0
1 0.177279 0
0 0.159884 0.0766918
0 0.155825 0.0746929
0 0.152438 0.0726177
0 0.148592 0.070222
0 0.144091 0.0673838
0 0.138369 0.0637522
0.0010071 0.131487 0.0593729
0.0155032 0.125292 0.0524147
0.0545815 0.122286 0.038529
0.113695 0.120348 0.0164797
0.169589 0.111223 0.00337224
0.236744 0.0902266 0
0.307988 0.0218814 0
0.387106 0 0
0.476921 0 0
0.570642 0 0
0.667643 0 0
0.755703 0 0
0.83473 0 0
0.903838 0 0
0.962417 0 0
0.994339 0.0746166 0
1 0.148196 0
1 0.177279 0
1 0.177279 0
1 0.177279 0
1 0.177279 0
1 0.177279 0
1 0.177279 0
1 0.177279 0
1 0.177279 0
1 0.177279 0
1 0.177279 0
0 0.227161 0.0951247
0 0.222065 0.0932784
0 0.217182 0.0917983
0 0.211627 0.0900893
0 0.204822 0.0878767
0 0.196765 0.0851453
0 0.18761 0.081239
0 0.177752 0.0754101
0.00959792 0.167834 0.0653391
0.08159 0.162829 0.042359
0.155505 0.159152 0.00959792
0.235813 0.144106 0
0.325322 0.116991 0
0.406928 0.0366827 0
0.483726 0 0
0.570397 0 0
0.660502 0 0
0.744137 0 0
0.822217 0 0
0.890028 0 0
0.950423 0 0
0.990494 0.0569162 0
1 0.135393 0
1 0.177279 0
1 0.177279 0
1 0.177279 0
1 0.177279 0
1 0.177279 0
1 0.177279 0
1 0.177279 0
1 0.177279 0
1 0.177279 0
1 0.177279 0
0 0.310979 0.121813
0 0.305028 0.119112
0 0.299596 0.116625
0 0.293568 0.113832
0 0.286336 0.110552
0 0.277958 0.106706
0 0.267247 0.102831
0 0.25481 0.0981308
0 0.240482 0.0922713
0.0195163 0.226993 0.0782635
0.122179 0.219059 0.0324407
0.215595 0.212558 0
0.314336 0.190921 0
0.418143 0.160922 0
0.510414 0.0942092 0
0.59118 0.00454719 0
0.671992 0 0
0.759213 0 0
0.821454 0 0
0.881086 0 0
0.940078 0 0
0.98555 0.049485 0
1 0.125032 0
1 0.173877 0
1 0.173114 0
1 0.172488 0
1 0.172045 0
1 0.172625 0
1 0.173037 0
1 0.173175 0
1 0.173266 0
1 0.173342 0
1 0.173419 0
0 0.405432 0.161364
0 0.400244 0.158526
0 0.395041 0.155703
0 0.389136 0.152468
0 0.381781 0.148455
0 0.372717 0.143297
0 0.361471 0.137026
0 0.347021 0.129412
0 0.330968 0.121553
0.00015259 0.313924 0.112276
0.0859998 0.29807 0.0920882
0.182162 0.287129 0.0124208
0.290715 0.276173 0
0.402335 0.250645 0
0.51603 0.222629 0
0.614298 0.173754 0
0.691417 0.0931411 0
0.761837 0.00906386 0
0.831113 0.00288396 0
0.893584 0 0
0.949096 0.0683452 0
0.989044 0.131991 0
1 0.167041 0
1 0.193164 0
1 0.192386 0
1 0.188479 0
1 0.18555 0
1 0.183597 0
1 0.182986 0
1 0.182696 0
1 0.182544 0
1 0.182406 0
1 0.182254 0
0 0.507027 0.215106
0 0.501488 0.211002
0 0.496452 0.207492
0 0.491203 0.203998
0 0.484535 0.199725
0 0.476173 0.194217
0 0.465583 0.187228
0 0.452354 0.178561
0 0.43473 0.167468
0 0.413916 0.154314
0.0517433 0.393927 0.141848
0.167742 0.378836 0.109514
0.262928 0.36849 0.00741588
0.38526 0.357031 0
0.511742 0.332998 0
0.62118 0.30544 0
0.708034 0.266911 0
0.776974 0.222477 0
0.835782 0.1906 0
0.891936 0.182208 0
0.942748 0.191714 0
0.985901 0.216602 0
0.999649 0.238712 0
1 0.255543 0
1 0.257832 0
1 0.252872 0
1 0.249256 0
1 0.246921 0
1 0.245426 0
1 0.244892 0
1 0.244602 0
1 0.244297 0
1 0.243992 0
0 0.598352 0.2757
0 0.594293 0.272251
0 0.590219 0.268757
0 0.585565 0.26482
0 0.579751 0.2598
0 0.572824 0.254108
0 0.565301 0.247791
0 0.55584 0.240146
0 0.542123 0.229496
0 0.522026 0.214527
0.0186923 0.501686 0.198444
0.180072 0.47921 0.181979
0.254124 0.461082 0.132738
0.346197 0.443778 0.00607309
0.471809 0.431571 0
0.593851 0.406607 0
0.701564 0.38883 0
0.793133 0.371038 0
0.85655 0.34078 0
0.900954 0.309743 0
0.941848 0.296529 0
0.981567 0.300435 0
0.998688 0.310674 0
1 0.317052 0
1 0.318975 0
1 0.311406 0
1 0.306004 0
1 0.302373 0
1 0.300496 0
1 0.299611 0
1 0.299168 0
1 0.298726 0
1 0.298283 0
0.220752 0.690822 0.353597
0.210391 0.68603 0.348653
0.200565 0.681514 0.343999
0.189853 0.676677 0.338918
0.175509 0.670222 0.332235
0.156939 0.661997 0.323629
0.132265 0.651987 0.313405
0.0921035 0.640742 0.302922
0.059678 0.628138 0.291066
0.101427 0.613413 0.277852
0.148669 0.596124 0.262837
0.213245 0.577279 0.24564
0.281956 0.558068 0.223819
0.348989 0.540764 0.161776
0.438254 0.521721 0.0124361
0.556146 0.505531 0
0.664378 0.478584 0
0.760357 0.465415 0
0.842786 0.453986 0
0.904234 0.43624 0
0.95082 0.415686 0
0.987488 0.405081 0
1 0.405509 0
1 0.402411 0
1 0.400565 0
1 0.390051 0
1 0.382239 0
1 0.376974 0
1 0.374701 0
1 0.373419 0
1 0.3729 0
1 0.372381 0
1 0.372122 0
0.357015 0.769421 0.440681
0.350561 0.765728 0.435508
0.344015 0.761975 0.430228
0.336553 0.757702 0.424231
0.326223 0.751888 0.416724
0.314839 0.745418 0.40856
0.301747 0.737835 0.399283
0.285115 0.72784 0.386786
0.270024 0.716335 0.37322
0.261357 0.702968 0.357839
0.263386 0.686412 0.339483
0.28127 0.665629 0.317601
0.323568 0.645823 0.296712
0.375067 0.62533 0.263859
0.43827 0.608026 0.192187
0.528664 0.593591 0.0414282
0.635294 0.578195 0
0.726955 0.54902 0
0.81004 0.537209 0
0.882582 0.529335 0
0.942229 0.522728 0
0.982528 0.508476 0
1 0.498177 0
1 0.490639 0
1 0.485634 0
1 0.478508 0
1 0.471687 0
1 0.467369 0
1 0.464729 0
1 0.463615 0
1 0.463066 0
1 0.462501 0
1 0.461952 0
0.476158 0.837827 0.535134
0.469581 0.834333 0.529458
0.463203 0.830976 0.523949
0.455695 0.827024 0.517464
0.446082 0.822003 0.509194
0.4336 0.815534 0.498451
0.419226 0.80766 0.486351
0.402991 0.798474 0.472572
0.388968 0.789105 0.459159
0.377249 0.77789 0.4439
0.374212 0.766537 0.428565
0.378012 0.750912 0.408209
0.393973 0.731594 0.383398
0.432547 0.71429 0.362264
0.472892 0.694972 0.313802
0.523583 0.669963 0.227192
0.601083 0.650294 0.063035
0.696635 0.636728 0
0.780041 0.613016 0
0.854765 0.6056 0
0.91725 0.600015 0
0.966812 0.595804 0
0.997971 0.593774 0
1 0.58529 0
1 0.576852 0
1 0.569619 0
1 0.562295 0
1 0.557671 0
1 0.554818 0
1 0.553628 0
1 0.553033 0
1 0.552438 0
1 0.55198 0
0.586343 0.895872 0.630884
0.58088 0.893187 0.625666
0.576303 0.890761 0.621378
0.571206 0.88806 0.616571
0.564508 0.88455 0.610376
0.556085 0.880171 0.602548
0.544945 0.874418 0.592218
0.52871 0.866087 0.577371
0.509483 0.855909 0.559396
0.489677 0.84419 0.538613
0.470069 0.829236 0.514107
0.458762 0.813581 0.488777
0.46392 0.798627 0.466896
0.484535 0.783398 0.445182
0.518776 0.767468 0.420356
0.553674 0.749767 0.358862
0.606256 0.730755 0.273335
0.678096 0.713252 0.132097
0.758999 0.697887 0
0.828153 0.672816 0
0.8916 0.666529 0
0.941405 0.6607 0
0.985245 0.659205 0
0.999954 0.659739 0
1 0.656626 0
1 0.653742 0
1 0.648142 0
1 0.644282 0
1 0.642298 0
1 0.641367 0
1 0.640909 0
1 0.640436 0
1 0.639963 0
0.692882 0.947524 0.729152
0.687617 0.945037 0.724025
0.682612 0.942702 0.719188
0.676905 0.940032 0.713634
0.669856 0.936599 0.706859
0.660655 0.932174 0.697978
0.648768 0.926482 0.686473
0.633173 0.919173 0.67155
0.615 0.910185 0.654078
0.596201 0.900099 0.63476
0.57908 0.889128 0.614176
0.564401 0.876432 0.591333
0.554543 0.861585 0.564996
0.555138 0.84567 0.537377
0.570336 0.829114 0.510735
0.594079 0.813169 0.472206
0.626596 0.797192 0.403769
0.676783 0.780056 0.316411
0.740688 0.764294 0.192218
0.811749 0.75108 0.00117494
0.867369 0.724239 0
0.920806 0.721294 0
0.96701 0.720302 0
0.996399 0.720272 0
1 0.718715 0
1 0.71577 0
1 0.711574 0
1 0.707698 0
1 0.705486 0
1 0.70454 0
1 0.704189 0
1 0.703716 0
1 0.703258 0
0.705852 0.95378 0.742107
0.703502 0.952636 0.739742
0.701228 0.951522 0.737453
0.698863 0.950362 0.735042
0.695674 0.948821 0.731807
0.691829 0.946975 0.727901
0.687007 0.944686 0.722972
0.680827 0.941756 0.716625
0.672343 0.937682 0.707927
0.661738 0.932311 0.69659
0.65153 0.926177 0.683726
0.64506 0.920119 0.671031
0.636378 0.910033 0.651377
0.628687 0.895903 0.624674
0.631922 0.881331 0.598398
0.647578 0.866957 0.573251
0.664958 0.853422 0.521096
0.693736 0.836622 0.445014
0.736614 0.818189 0.349325
0.795239 0.804929 0.234058
0.8551 0.791608 0.0381933
0.899733 0.768856 0
0.94638 0.765469 0
0.984421 0.765881 0
1 0.765896 0
1 0.76434 0
1 0.762646 0
1 0.759625 0
1 0.757885 0
1 0.757153 0
1 0.756786 0
1 0.75642 0
1 0.756054 0
0.723064 0.961593 0.75903
0.722393 0.961334 0.758175
0.72166 0.961059 0.757259
0.720974 0.960815 0.756405
0.720623 0.960678 0.755764
0.721599 0.961028 0.75639
0.722911 0.961501 0.757198
0.724437 0.962051 0.75816
0.722042 0.960754 0.755322
0.713863 0.956558 0.746487
0.702266 0.950454 0.733074
0.692821 0.944121 0.719234
0.687022 0.937484 0.705058
0.686458 0.930434 0.690913
0.693599 0.923919 0.677989
0.700175 0.911818 0.655039
0.710292 0.898283 0.621408
0.727169 0.886503 0.56466
0.756146 0.872816 0.490623
0.79852 0.859342 0.402655
0.846265 0.844434 0.286656
0.891783 0.830365 0.0686961
0.930312 0.811612 0
0.969726 0.807858 0
0.997101 0.808286 0
1 0.806683 0
1 0.805417 0
1 0.802884 0
1 0.801129 0
1 0.800397 0
1 0.800031 0
1 0.799756 0
1 0.79939 0
0.725734 0.96257 0.762387
0.725017 0.96231 0.761486
0.724407 0.962081 0.760708
0.723613 0.961791 0.759716
0.722713 0.961456 0.758572
0.721523 0.961013 0.757076
0.720562 0.960647 0.755718
0.722118 0.961212 0.75671
0.724041 0.961898 0.757916
0.726635 0.962692 0.75935
0.729778 0.963272 0.760174
0.731365 0.962631 0.758053
0.73022 0.959228 0.750408
0.728771 0.953262 0.738277
0.728618 0.945586 0.72192
0.737179 0.938872 0.708263
0.753994 0.933227 0.697169
0.764324 0.924987 0.659281
0.781109 0.913436 0.600595
0.809705 0.901732 0.529747
0.847669 0.889174 0.441932
0.88864 0.878401 0.345418
0.930602 0.86833 0.211978
0.960708 0.852094 0.0360571
0.989532 0.845304 0
1 0.843641 0
1 0.841978 0
1 0.840314 0
1 0.838788 0
1 0.838117 0
1 0.837781 0
1 0.837537 0
1 0.837201 0
0.728038 0.963424 0.765301
0.727321 0.963165 0.764385
0.726711 0.962936 0.763622
0.725917 0.962646 0.762615
0.725017 0.96231 0.761486
0.723827 0.961868 0.759991
0.722454 0.961364 0.758267
0.720623 0.960678 0.755947
0.721935 0.961151 0.756603
0.724712 0.962051 0.758282
0.728191 0.962844 0.759625
0.731945 0.963058 0.759594
0.736461 0.962585 0.757916
0.749645 0.964248 0.761868
0.762295 0.964416 0.762097
0.7682 0.958587 0.749859
0.778485 0.951934 0.736309
0.791455 0.947433 0.715404
0.808835 0.944183 0.683207
0.828275 0.935439 0.629557
0.856031 0.924743 0.559991
0.888273 0.914183 0.480674
0.924758 0.904692 0.390585
0.958862 0.89575 0.286671
0.983368 0.883665 0.148089
0.999451 0.87718 0.033051
0.999878 0.875212 0.0120394
1 0.874235 0.000259403
1 0.872694 0
1 0.872068 0
1 0.871748 0
1 0.871504 0
1 0.871183 0
0.729335 0.963912 0.767163
0.729259 0.963882 0.766842
0.728573 0.963623 0.765988
0.727825 0.963348 0.765026
0.726925 0.963012 0.763897
0.725811 0.9626 0.762478
0.72433 0.962051 0.760616
0.72253 0.961379 0.758358
0.720409 0.960601 0.755673
0.723064 0.961486 0.757321
0.726802 0.962417 0.759014
0.731563 0.963058 0.760021
0.736614 0.962905 0.759091
0.748226 0.964065 0.76173
0.762142 0.964828 0.763394
0.777401 0.964752 0.763241
0.796521 0.96495 0.763851
0.813092 0.963211 0.755062
0.826062 0.960098 0.72668
0.845136 0.956817 0.692561
0.868086 0.951995 0.64773
0.892958 0.942397 0.58291
0.923552 0.933715 0.509804
0.954864 0.925994 0.430625
0.982376 0.918822 0.347173
0.999222 0.908522 0.265919
0.999634 0.902373 0.188235
0.999908 0.899123 0.141558
1 0.897551 0.120256
1 0.89691 0.113893
1 0.896681 0.111513
1 0.896345 0.108339
1 0.89604 0.105165
0.728405 0.963607 0.766934
0.728832 0.963745 0.76704
0.729198 0.963867 0.767117
0.729335 0.963912 0.766934
0.728435 0.963577 0.765805
0.727245 0.963134 0.764294
0.725811 0.9626 0.762478
0.724041 0.961944 0.760266
0.72195 0.961166 0.757626
0.721691 0.961028 0.756512
0.725643 0.962051 0.758465
0.730495 0.962798 0.759701
0.73669 0.963134 0.759945
0.747127 0.963912 0.761608
0.761059 0.964782 0.763516
0.776883 0.965026 0.764111
0.795636 0.965179 0.76463
0.816861 0.966476 0.764187
0.838178 0.970626 0.755398
0.858198 0.970642 0.733166
0.878279 0.966812 0.695506
0.899992 0.962081 0.651713
0.92491 0.954894 0.592187
0.952895 0.948318 0.528481
0.979431 0.942855 0.464286
0.997604 0.937835 0.400793
0.999908 0.931029 0.346593
0.999939 0.926101 0.310323
1 0.923171 0.288029
1 0.922316 0.283757
1 0.921843 0.281331
1 0.921355 0.278874
1 0.920867 0.276417
0.727764 0.963378 0.766766
0.728161 0.963531 0.766873
0.728573 0.963668 0.766979
0.729015 0.963806 0.767071
0.729549 0.963989 0.767208
0.728359 0.963546 0.765713
0.726925 0.963012 0.763897
0.725155 0.962356 0.761669
0.723064 0.961593 0.75903
0.721096 0.96083 0.756313
0.724758 0.961761 0.758038
0.729717 0.962585 0.759457
0.736522 0.963211 0.760403
0.746303 0.963806 0.761517
0.760098 0.964675 0.763439
0.776516 0.96524 0.764767
0.79498 0.965362 0.765194
0.815564 0.96611 0.764355
0.836606 0.97023 0.755535
0.861036 0.974487 0.74522
0.886595 0.977981 0.731029
0.906355 0.974029 0.693156
0.92987 0.970169 0.649912
0.952956 0.964126 0.595026
0.976898 0.958907 0.539406
0.995392 0.954849 0.486549
1 0.95079 0.441428
1 0.947173 0.412222
1 0.945083 0.395178
1 0.944198 0.390372
1 0.943755 0.388388
1 0.943328 0.386419
1 0.942885 0.384451
0.727321 0.963241 0.766674
0.727718 0.963378 0.766766
0.72813 0.963516 0.766857
0.728573 0.963668 0.766979
0.729122 0.963836 0.767102
0.729152 0.963836 0.766705
0.727672 0.963302 0.764843
0.725872 0.962631 0.76257
0.723751 0.961837 0.759899
