luts/changyun_kodaklike/kodaP400.cube
TITLE "Generated by Resolve"
LUT_3D_SIZE 5
0.0280308 0.0252079 0.0241703
0.160632 0.0403906 0.0296483
0.822278 0.0425574 0
1 0.395789 0.135927
1 0.395789 0.135927
0.00163272 0.164416 0.0781872
0.123583 0.124804 0.0434272
0.789548 0 0
1 0.395789 0.135927
1 0.395789 0.135927
0.128099 0.728817 0.386938
0 0.687709 0.334447
0.580926 0.581674 0.127275
1 0.569223 0.121553
1 0.555032 0.128756
0.547936 0.927703 0.654414
0.537789 0.92401 0.643809
0.613169 0.924865 0.636149
0.889357 0.867582 0.462043
0.953124 0.863157 0.433204
0.547585 0.927031 0.655497
0.542565 0.925765 0.648737
0.60972 0.925551 0.638773
0.892592 0.957656 0.627909
0.947143 0.939467 0.578515
0.0565499 0.0582437 0.124315
0.149783 0.0567025 0.103929
0.815183 0.0353094 0
1 0.395789 0.135927
1 0.395789 0.135927
0.0651713 0.190555 0.178241
0.141009 0.140459 0.140002
0.78143 0.00256352 0.00814832
1 0.395789 0.135927
1 0.395789 0.135927
0.284337 0.74023 0.471336
0.192859 0.701961 0.418204
0.586496 0.590555 0.211078
1 0.570733 0.145266
1 0.554757 0.135225
0.564477 0.929366 0.683879
0.558358 0.928084 0.674662
0.619013 0.926436 0.652735
0.891905 0.875303 0.490501
0.951629 0.868193 0.453513
0.56965 0.93106 0.689876
0.558343 0.927413 0.676661
0.614908 0.926131 0.654505
0.896635 0.960204 0.64065
0.950256 0.94667 0.601587
0.15613 0.231174 0.653956
0.25861 0.222919 0.623468
0.779721 0.318425 0.552712
1 0.44239 0.455817
1 0.440284 0.439536
0.235309 0.35082 0.679911
0.268223 0.30277 0.653941
0.749523 0.338445 0.587564
1 0.452354 0.496452
1 0.448234 0.478752
0.596689 0.80119 0.774365
0.549691 0.763104 0.742596
0.657557 0.662348 0.664805
0.983719 0.608057 0.598016
0.985595 0.59353 0.583017
0.727077 0.952987 0.875746
0.715404 0.949722 0.859297
0.701106 0.942138 0.791608
0.891051 0.8878 0.669825
0.955566 0.881498 0.653529
0.731853 0.954223 0.882582
0.720623 0.951202 0.866667
0.714275 0.942779 0.8056
0.895277 0.962722 0.735958
0.957198 0.959884 0.720302
0.603082 0.578027 0.91519
0.595804 0.548257 0.895201
0.834562 0.644053 0.853819
0.956054 0.638239 0.802762
0.956313 0.631388 0.794842
0.637522 0.64535 0.935683
0.617227 0.602213 0.914504
0.81796 0.641581 0.869154
0.954787 0.652415 0.819699
0.955688 0.646891 0.812787
0.602884 0.842359 0.961105
0.578347 0.811795 0.958358
0.752438 0.754589 0.914183
0.950256 0.752697 0.873289
0.949538 0.740887 0.864958
0.730892 0.971374 0.976043
0.730892 0.971374 0.976043
0.78323 0.973831 0.977874
0.936568 0.932815 0.934051
0.980285 0.922148 0.924895
0.730892 0.971374 0.976043
0.730892 0.971374 0.976043
0.779934 0.973663 0.977737
0.937575 0.978027 0.953613
0.981125 0.982589 0.931701
0.664378 0.653269 0.955642
0.649027 0.620829 0.93518
0.840604 0.670787 0.888457
0.953567 0.664912 0.834684
0.953811 0.658396 0.827222
0.666194 0.674922 0.955489
0.673838 0.667872 0.955154
0.826978 0.674037 0.904585
0.952483 0.678798 0.850904
0.953292 0.67332 0.844282
0.60351 0.843153 0.961151
0.579095 0.81268 0.95845
0.782712 0.783566 0.958511
0.964965 0.784497 0.91371
0.960235 0.769909 0.902922
0.730892 0.971374 0.976043
0.730892 0.971374 0.976043
0.783078 0.973831 0.977859
0.951568 0.950988 0.981918
0.983124 0.954742 0.973877
0.730892 0.971374 0.976043
0.730892 0.971374 0.976043
0.779751 0.973663 0.977722
0.950057 0.985748 0.986862
0.991485 0.990967 0.991119
