luts/changyun_kodaklike/kodaUM400.cube
TITLE "Generated by Resolve"
LUT_3D_SIZE 5
0.041474 0.0602731 0.0813916
0.102571 0.0646525 0.0842145
0.776928 0 0
1 0 0
1 0 0
0.00660716 0.12256 0.0966964
0.0860609 0.096788 0.0843977
0.724437 0 0.010193
1 0 0
1 0 0
0 0.841093 0.36112
0 0.780148 0.283085
0.605173 0.593011 0
1 0.448142 0
1 0.419669 0
0.614557 0.981643 0.743999
0.58407 0.980774 0.723461
0.703258 0.973861 0.715175
0.976349 0.93611 0.0469062
1 0.929427 0
0.614466 0.981064 0.745693
0.598352 0.981201 0.733013
0.700755 0.974762 0.719585
0.942138 0.973648 0.499397
0.999878 0.964691 0.152728
0.0386969 0.0703899 0.114687
0.100786 0.0674907 0.0959335
0.762295 0 0.00224308
1 0 0
1 0 0
0 0.13698 0.1523
0.0879835 0.102556 0.117922
0.707393 0 0.0111238
1 0 0
1 0 0
0 0.844678 0.49659
0 0.79057 0.417624
0.614176 0.605859 0
1 0.447547 0
1 0.416342 0
0.66424 0.9785 0.792508
0.647654 0.978973 0.777859
0.712367 0.974273 0.737148
0.975814 0.939925 0.171405
1 0.932921 0
0.677821 0.978759 0.802441
0.648127 0.978225 0.780591
0.705837 0.974517 0.738628
0.944442 0.97499 0.54139
0.999695 0.967971 0.307057
0 0.13373 0.596536
0 0.122011 0.55108
0.802258 0 0.335409
1 0 4.57771e-05
1 0 0
0 0.226169 0.639475
0 0.183688 0.597238
0.766644 0 0.410101
1 0 0.012253
1 0 0.0021973
0 0.865858 0.821256
0 0.807599 0.778653
0.631037 0.618387 0.615793
1 0.487129 0.33196
1 0.457969 0.297597
0.421912 1 0.9131
0.427527 0.998734 0.896269
0.738262 0.979873 0.863371
0.950774 0.943999 0.694896
0.999985 0.936599 0.626963
0.408484 1 0.919127
0.4262 0.999359 0.903899
0.708293 0.982254 0.86305
0.931273 0.973709 0.786801
0.980499 0.971283 0.720775
0.387411 0.389563 0.944121
0.393912 0.360815 0.930388
0.919173 0.443626 0.886229
1 0.479423 0.732998
1 0.45185 0.711971
0.464012 0.492805 0.959731
0.424826 0.425864 0.944091
0.87985 0.42884 0.899199
1 0.528862 0.773617
1 0.513695 0.759289
0.161135 0.860868 0.972015
0.0493935 0.824506 0.971405
0.695628 0.701381 0.930602
1 0.725246 0.857893
1 0.702251 0.845472
0.528801 0.985107 0.978576
0.528801 0.985107 0.978576
0.690532 0.982452 0.977783
0.935302 0.944503 0.934737
0.968719 0.937499 0.925231
0.528801 0.985107 0.978576
0.528801 0.985107 0.978576
0.68249 0.982589 0.977844
0.933242 0.977264 0.95642
0.971801 0.976699 0.946593
0.509972 0.476982 0.970077
0.502129 0.442908 0.959457
0.911528 0.501152 0.91928
1 0.556115 0.802518
1 0.545327 0.789166
0.498253 0.514794 0.968109
0.52549 0.500328 0.96849
0.878325 0.496269 0.930953
1 0.567117 0.827207
1 0.569329 0.81944
0.16231 0.861692 0.972015
0.0554818 0.825666 0.971435
0.736996 0.743694 0.961089
0.99942 0.744518 0.895079
1 0.724193 0.88452
0.528801 0.985107 0.978576
0.528801 0.985107 0.978576
0.690166 0.982467 0.977783
0.942901 0.954177 0.971679
0.972824 0.95404 0.961456
0.528801 0.985107 0.978576
0.528801 0.985107 0.978576
0.682048 0.982605 0.977844
0.939681 0.981765 0.977859
0.979736 0.983093 0.979675
