luts/changyun_kodaklike/kodaP160.cube
TITLE "Generated by Resolve"
LUT_3D_SIZE 33
0.0191348 0.0255589 0.0210269
0.0217899 0.0247196 0.0204166
0.0294652 0.0244755 0.0200961
0.0403906 0.0244144 0.019913
0.057969 0.024918 0.0200961
0.0865644 0.0268711 0.0213474
0.10988 0.032517 0.0236973
0.139071 0.0411231 0.0268254
0.180423 0.0483864 0.0306249
0.236301 0.0414588 0.0375982
0.304646 0.0184634 0.0420691
0.384146 0 0.0442817
0.471748 0 0.0423743
0.562463 0 0.0402228
0.649836 0 0.0467231
0.728176 0 0.0647288
0.798535 0.0334173 0.0894636
0.859129 0.144625 0.110658
0.912261 0.203311 0.134356
0.960922 0.251728 0.159823
0.996933 0.293339 0.186481
1 0.306813 0.196674
1 0.320287 0.20737
1 0.320287 0.20737
1 0.320287 0.20737
1 0.320287 0.20737
1 0.320287 0.20737
1 0.320287 0.20737
1 0.320287 0.20737
1 0.320287 0.20737
1 0.320287 0.20737
1 0.320287 0.20737
1 0.320287 0.20737
0.0182498 0.0285954 0.0213016
0.0207675 0.0275731 0.0209506
0.0271763 0.0271153 0.0206302
0.0386053 0.0271153 0.0204013
0.0549325 0.0272679 0.0203098
0.0835126 0.027924 0.0212863
0.108171 0.0320287 0.0234989
0.137026 0.0405127 0.0266117
0.177813 0.0480507 0.0303807
0.233082 0.0422675 0.0373388
0.301732 0.0196689 0.0419318
0.380652 0 0.0442359
0.468223 0 0.0424506
0.55906 0 0.0402991
0.646769 0 0.0464027
0.725887 0 0.0639658
0.796597 0.0278935 0.0888075
0.857404 0.142519 0.109987
0.910658 0.201572 0.133593
0.959167 0.250034 0.158907
0.996185 0.291859 0.185428
1 0.306249 0.196216
1 0.320287 0.20737
1 0.320287 0.20737
1 0.320287 0.20737
1 0.320287 0.20737
1 0.320287 0.20737
1 0.320287 0.20737
1 0.320287 0.20737
1 0.320287 0.20737
1 0.320287 0.20737
1 0.320287 0.20737
1 0.320287 0.20737
0.0186618 0.0381476 0.0226596
0.0205234 0.0348516 0.0219272
0.0250553 0.0318151 0.0213474
0.0365148 0.0296941 0.0209506
0.0522621 0.0297856 0.0207065
0.0808881 0.0301976 0.0209812
0.10663 0.0335241 0.0226749
0.135134 0.0402838 0.0262913
0.175525 0.0476997 0.0301671
0.230655 0.0428626 0.0371557
0.298695 0.0208133 0.0417487
0.378042 0 0.0441901
0.465232 0 0.0425116
0.556191 0 0.0403601
0.64416 0 0.0461433
0.72372 0 0.0632486
0.794537 0.0220645 0.0881208
0.855589 0.140291 0.10927
0.909072 0.199847 0.132845
0.957595 0.248508 0.158083
0.995468 0.29044 0.184436
1 0.305425 0.19556
1 0.320287 0.20737
1 0.320287 0.20737
1 0.320287 0.20737
1 0.320287 0.20737
1 0.320287 0.20737
1 0.320287 0.20737
1 0.320287 0.20737
1 0.320287 0.20737
1 0.320287 0.20737
1 0.320287 0.20737
1 0.320287 0.20737
0.0196231 0.0503243 0.0245823
0.0210269 0.0473793 0.0236515
0.0234531 0.0443122 0.0228428
0.0330816 0.041886 0.0223392
0.04654 0.0387427 0.0216678
0.0776837 0.0352789 0.0207523
0.104997 0.0356909 0.0221256
0.133135 0.0421302 0.0251469
0.172839 0.048249 0.0299077
0.227115 0.0437476 0.0368811
0.295506 0.022034 0.0415656
0.374212 0 0.0441291
0.461707 0 0.0425727
0.552804 0 0.0404364
0.641245 0 0.0458534
0.721096 0 0.0624094
0.792355 0.0158999 0.0873884
0.853666 0.137942 0.108522
0.907179 0.197803 0.131945
0.955749 0.246738 0.157107
0.994629 0.288792 0.183261
1 0.304616 0.194919
1 0.320287 0.20737
1 0.320287 0.20737
1 0.320287 0.20737
1 0.320287 0.20737
1 0.320287 0.20737
1 0.320287 0.20737
1 0.320287 0.20737
1 0.320287 0.20737
1 0.320287 0.20737
1 0.320287 0.20737
1 0.320287 0.20737
0.0215152 0.0705425 0.0281834
0.0224002 0.0661479 0.0267948
0.0233005 0.0618448 0.0254673
0.0299382 0.0575723 0.0241855
0.0401007 0.0543526 0.0232242
0.0714733 0.0524605 0.0205234
0.102464 0.0493324 0.0202182
0.130968 0.0473487 0.0233463
0.169848 0.0509499 0.0294194
0.223514 0.0461585 0.0359808
0.291295 0.023621 0.0413062
0.370199 0 0.0440681
0.457649 0 0.042649
0.548898 0 0.0405127
0.637552 0 0.0454719
0.717723 0 0.0614023
0.789487 0.0077821 0.0864271
0.851148 0.134859 0.10753
0.905028 0.195468 0.130922
0.953628 0.244694 0.155978
0.993576 0.286717 0.181796
1 0.303716 0.194202
1 0.320287 0.20737
1 0.320287 0.20737
1 0.320287 0.20737
1 0.320287 0.20737
1 0.320287 0.20737
1 0.320287 0.20737
1 0.320287 0.20737
1 0.320287 0.20737
1 0.320287 0.20737
1 0.320287 0.20737
1 0.320287 0.20737
0.0247654 0.0975357 0.0338445
0.0251469 0.0943313 0.0322118
0.0258488 0.0902724 0.0310369
0.0308232 0.085481 0.0299077
0.0398108 0.0798962 0.0284733
0.0633707 0.0752422 0.0249332
0.0979019 0.071458 0.0195773
0.128206 0.0679332 0.0195468
0.166979 0.0643931 0.0259098
0.218936 0.052018 0.0339971
0.285847 0.0297551 0.040238
0.364767 0.000167849 0.0439307
0.452186 0 0.042771
0.543648 0 0.0406195
0.632807 0 0.0449836
0.713802 0 0.0602426
0.786114 0 0.0852827
0.848219 0.131273 0.106386
0.902113 0.192294 0.129549
0.950759 0.241932 0.154482
0.99237 0.284321 0.180087
1 0.302403 0.193164
1 0.320287 0.20737
1 0.320287 0.20737
1 0.320287 0.20737
1 0.320287 0.20737
1 0.320287 0.20737
1 0.320287 0.20737
1 0.320287 0.20737
1 0.320287 0.20737
1 0.320287 0.20737
1 0.320287 0.20737
1 0.320287 0.20737
0.0294194 0.122087 0.0445411
0.0304112 0.118715 0.0420844
0.0305486 0.115587 0.0402228
0.0327611 0.112413 0.0388342
0.0412146 0.108186 0.0371557
0.0575113 0.103471 0.034287
0.0856794 0.099382 0.0289311
0.120851 0.0952926 0.0197757
0.164294 0.0874952 0.0193179
0.21532 0.0762493 0.0278477
0.280354 0.0486305 0.0370947
0.357855 0.00331121 0.0430915
0.44535 0 0.0425879
0.537377 0 0.0407568
0.627283 0 0.044419
0.708522 0 0.0586709
0.781262 0 0.0834669
0.844282 0.126452 0.104845
0.898451 0.188327 0.12781
0.947341 0.238636 0.152682
0.990723 0.281102 0.177813
1 0.300847 0.191928
1 0.318975 0.206332
1 0.320287 0.20737
1 0.320287 0.20737
1 0.320287 0.20737
1 0.320287 0.20737
1 0.320287 0.20737
1 0.320287 0.20737
1 0.320287 0.20737
1 0.320287 0.20737
1 0.320287 0.20737
1 0.320287 0.20737
0.013077 0.156146 0.0542916
0.0153353 0.152117 0.0527504
0.0187076 0.148562 0.051133
0.0223087 0.144518 0.0485847
0.031281 0.140002 0.0465553
0.0467536 0.134188 0.0449226
0.0764782 0.127459 0.0415045
0.104692 0.12195 0.0350805
0.153826 0.118608 0.0195315
0.212848 0.105608 0.0161288
0.275654 0.0862745 0.0283055
0.350988 0.0367437 0.037644
0.436774 0 0.039765
0.528908 0 0.0403601
0.61976 0 0.0434577
0.702312 0 0.0568093
0.775555 0 0.0813306
0.839292 0.119005 0.10312
0.894118 0.183627 0.125765
0.943099 0.234531 0.150439
0.988067 0.277089 0.175067
0.999756 0.298878 0.190417
1 0.317098 0.204837
1 0.320287 0.20737
1 0.320287 0.20737
1 0.320287 0.20737
1 0.320287 0.20737
1 0.320287 0.20737
1 0.320287 0.20737
1 0.320287 0.20737
1 0.320287 0.20737
1 0.320287 0.20737
1 0.320287 0.20737
0 0.202029 0.0610971
0 0.197696 0.0592508
0.000183108 0.193744 0.0574655
0.000411994 0.188968 0.0556497
0.00407416 0.183185 0.053193
0.0166934 0.176684 0.0503395
0.0511025 0.168032 0.0496071
0.0922866 0.159854 0.0466468
0.129458 0.152346 0.0386511
0.196841 0.147875 0.0139315
0.271824 0.128405 0.00820935
0.345052 0.104234 0.0218814
0.428626 0.0424659 0.0301061
0.51931 0.000488289 0.0332952
0.610224 0 0.0387884
0.694179 0 0.0536965
0.768154 0 0.0783856
0.833524 0.110048 0.101183
0.888747 0.17789 0.123369
0.937819 0.229313 0.147631
0.98291 0.272312 0.172137
0.998611 0.296651 0.18883
1 0.3149 0.203082
1 0.320287 0.20737
1 0.320287 0.20737
1 0.320287 0.20737
1 0.320287 0.20737
1 0.320287 0.20737
1 0.320287 0.20737
1 0.320287 0.20737
1 0.320287 0.20737
1 0.320287 0.20737
1 0.320287 0.20737
0 0.257893 0.0716259
0 0.253361 0.0691234
0 0.249165 0.0669871
0 0.244373 0.0646677
0 0.238697 0.0618601
0 0.230976 0.0586252
0.0157931 0.221393 0.0546883
0.0657206 0.210559 0.0509651
0.116289 0.200198 0.0459602
0.164645 0.191424 0.0342718
0.24921 0.18645 0.00311284
0.338933 0.160708 0
0.4215 0.13019 0.00743114
0.509544 0.0810712 0.0151217
0.599619 0.0153353 0.0257725
0.68426 0 0.0411383
0.759075 0.00486763 0.0707866
0.82504 0.105318 0.097673
0.881666 0.17142 0.120027
0.931975 0.223499 0.144518
0.977035 0.26685 0.168795
0.997238 0.293919 0.186892
1 0.312367 0.201083
1 0.320287 0.20737
1 0.320287 0.20737
1 0.320287 0.20737
1 0.320287 0.20737
1 0.320287 0.20737
1 0.320287 0.20737
1 0.320287 0.20737
1 0.320287 0.20737
1 0.320287 0.20737
1 0.320287 0.20737
0 0.324529 0.0905623
0 0.319738 0.0879225
0 0.315267 0.0853742
0 0.310185 0.0822156
0 0.303914 0.0782788
0 0.296162 0.0737011
0.000854505 0.286275 0.0684825
0.0250553 0.274006 0.0629892
0.0981765 0.26009 0.0569162
0.148974 0.247471 0.0452735
0.208728 0.237736 0.0269322
0.308659 0.233417 0
0.413458 0.204303 0
0.502846 0.17145 0
0.589197 0.136172 0.000488289
0.673411 0.0990921 0.014786
0.748837 0.087068 0.0470283
0.815473 0.130266 0.0897536
0.872724 0.175311 0.113756
0.92314 0.219837 0.13846
0.969024 0.261128 0.163561
0.995453 0.290791 0.184482
1 0.309239 0.198474
1 0.320287 0.20737
1 0.320287 0.20737
1 0.320287 0.20737
1 0.320287 0.20737
1 0.320287 0.20737
1 0.320287 0.20737
1 0.320287 0.20737
1 0.320287 0.20737
1 0.320287 0.20737
1 0.320287 0.20737
0 0.396765 0.11136
0 0.392035 0.108782
0 0.387671 0.10634
0 0.382742 0.103517
0 0.376715 0.100267
0 0.369528 0.0963607
0 0.35967 0.0919203
0 0.347738 0.086183
0.0777142 0.332738 0.0806744
0.137804 0.31603 0.0712444
0.193042 0.301564 0.050309
0.259403 0.288746 0.0212253
0.372366 0.28716 6.10361e-05
0.487602 0.25687 0
0.58143 0.224933 0
0.664317 0.198367 0
0.739712 0.183932 0.00590524
0.809934 0.190249 0.0555428
0.864561 0.207401 0.101717
0.913939 0.234424 0.128511
0.960082 0.265995 0.154788
0.992828 0.293904 0.178927
1 0.308919 0.193561
1 0.321401 0.205112
1 0.320729 0.205447
1 0.32018 0.205722
1 0.319783 0.205921
1 0.319829 0.206104
1 0.319875 0.20621
1 0.319875 0.206256
1 0.31989 0.206271
1 0.319905 0.206302
1 0.319905 0.206317
0.0802319 0.470161 0.139895
0.0703136 0.466209 0.137285
0.0605936 0.462257 0.134722
0.0496223 0.45774 0.131746
0.0365148 0.45214 0.128099
0.0223392 0.445228 0.1234
0.0141909 0.436362 0.117754
0.0379339 0.424353 0.111223
0.0880446 0.410224 0.105608
0.137758 0.393088 0.0998245
0.187213 0.374853 0.0906081
0.245792 0.35935 0.0642405
0.316793 0.343999 0.0222782
0.43592 0.344564 0
0.558785 0.316426 0
0.651255 0.287907 0
0.728237 0.268376 0
0.796139 0.260533 0
0.855711 0.264408 0.0515908
0.9084 0.27744 0.112001
0.955215 0.296513 0.144533
0.991211 0.315312 0.171191
1 0.323903 0.185672
1 0.332677 0.198932
1 0.331411 0.201129
1 0.329351 0.201862
1 0.327794 0.202411
1 0.326772 0.202777
1 0.326436 0.202914
1 0.326284 0.202976
1 0.326207 0.203006
1 0.326131 0.203037
1 0.326055 0.203067
0.171084 0.542107 0.176043
0.166003 0.538384 0.172671
0.16144 0.534844 0.169757
0.156664 0.530983 0.166827
0.150668 0.52607 0.163333
0.143481 0.519875 0.158801
0.13579 0.512016 0.153017
0.132158 0.502083 0.145983
0.138399 0.488502 0.137392
0.159289 0.471824 0.128298
0.195819 0.452491 0.121111
0.244205 0.434897 0.10898
0.306386 0.419898 0.087129
0.381918 0.40528 0.0354925
0.50399 0.409644 0
0.624582 0.387243 0
0.710857 0.3579 0
0.781155 0.341329 0
0.84062 0.332952 0
0.894224 0.33341 0.0363928
0.94168 0.339956 0.112505
0.981918 0.349325 0.149233
0.999542 0.356985 0.171847
1 0.361975 0.188815
1 0.361181 0.195743
1 0.357855 0.197375
1 0.355428 0.198566
1 0.353872 0.199329
1 0.352865 0.199817
1 0.352514 0.2
1 0.3523 0.200092
1 0.352102 0.200183
1 0.351904 0.20029
0.247654 0.606912 0.216709
0.243885 0.603861 0.213947
0.24007 0.600793 0.211154
0.235737 0.597299 0.208042
0.230228 0.59295 0.204013
0.223575 0.587701 0.199313
0.216144 0.581323 0.193515
0.209506 0.573388 0.187015
0.206424 0.562661 0.178637
0.210819 0.547967 0.168368
0.228199 0.530877 0.157412
0.259617 0.509865 0.147951
0.306889 0.492576 0.131899
0.368048 0.475929 0.109148
0.44387 0.462226 0.0698405
0.559884 0.469139 0
0.67541 0.455146 0
0.761975 0.430213 0
0.827939 0.415427 0
0.879377 0.403754 0
0.926406 0.398901 0.00631724
0.96762 0.39971 0.094789
0.995895 0.401938 0.1402
1 0.402304 0.161822
1 0.401022 0.17438
1 0.396048 0.177325
1 0.392569 0.179294
1 0.390234 0.180621
1 0.389029 0.181308
1 0.388464 0.181628
1 0.388174 0.181796
1 0.3879 0.181949
1 0.38761 0.182116
0.322805 0.67277 0.262409
0.318776 0.669383 0.259205
0.314977 0.666209 0.256199
0.310857 0.662791 0.252857
0.30544 0.658274 0.248569
0.298482 0.652506 0.243015
0.290181 0.645396 0.236316
0.281514 0.636881 0.228687
0.274388 0.626825 0.219913
0.272129 0.614542 0.210697
0.277989 0.599481 0.199924
0.295018 0.58172 0.188281
0.325475 0.561776 0.176623
0.372885 0.545861 0.158755
0.431754 0.529747 0.135241
0.503166 0.515648 0.106386
0.607965 0.522713 0
0.714412 0.516136 0
0.798505 0.494499 0
0.860731 0.479133 0
0.91284 0.468986 0
0.955016 0.462547 0.000488289
0.991379 0.460151 0.0504005
1 0.456001 0.112245
1 0.453147 0.137438
1 0.446891 0.142168
1 0.442252 0.145678
1 0.439139 0.148043
1 0.437675 0.149142
1 0.436835 0.149783
1 0.4365 0.150027
1 0.436164 0.150286
1 0.435996 0.150408
0.389151 0.734325 0.312978
0.386023 0.731334 0.309621
0.382849 0.728344 0.306172
0.379232 0.724926 0.302251
0.374334 0.720577 0.297536
0.368658 0.715496 0.292241
0.361761 0.709285 0.28603
0.353368 0.70132 0.277714
0.345403 0.691875 0.268406
0.339284 0.680461 0.257801
0.338048 0.666484 0.245579
0.34342 0.648997 0.232059
0.360403 0.629313 0.218708
0.3897 0.608835 0.204089
0.436347 0.593515 0.185351
0.49369 0.57937 0.164111
0.558312 0.565988 0.138476
0.650416 0.57322 0.0513313
0.747539 0.571481 0
0.828611 0.555886 0
0.889967 0.538231 0
0.937224 0.527886 0
0.979019 0.520424 0
0.999512 0.514336 0
0.999985 0.509575 0
1 0.504341 0.0229343
1 0.499779 0.0413519
1 0.496895 0.0530098
1 0.49514 0.0601663
1 0.494392 0.0631723
1 0.494026 0.0646677
1 0.493645 0.0661784
1 0.493278 0.0676738
0.447211 0.794812 0.368688
0.44416 0.791623 0.365026
0.441245 0.788586 0.361517
0.437858 0.785092 0.357412
0.433585 0.780697 0.35227
0.428183 0.775189 0.345632
0.421515 0.768521 0.337972
0.413687 0.760662 0.329
0.406287 0.751842 0.319707
0.399756 0.741146 0.308766
0.396811 0.729305 0.296986
0.398291 0.714366 0.282994
0.406744 0.696193 0.267353
0.425315 0.676265 0.252583
0.456443 0.657862 0.234623
0.497932 0.639963 0.21268
0.548684 0.624399 0.190173
0.607004 0.612131 0.166888
0.689082 0.620295 0.111345
0.777935 0.622324 0
0.854322 0.612467 0
0.911955 0.595819 0
0.958846 0.58407 0
0.992004 0.576242 0
0.997879 0.569253 0
1 0.563577 0
1 0.558648 0
1 0.555673 0
1 0.553841 0
1 0.553079 0
1 0.552697 0
1 0.552316 0
1 0.552026 0
0.501411 0.856428 0.43209
0.498543 0.853178 0.427893
0.496025 0.850263 0.424399
0.493187 0.846952 0.420432
0.489601 0.842802 0.415595
0.485145 0.837674 0.409506
0.479362 0.831037 0.401617
0.471595 0.822385 0.391241
0.46302 0.812421 0.379294
0.454643 0.800809 0.365515
0.447669 0.787076 0.350042
0.444846 0.771664 0.333455
0.449226 0.755611 0.317556
0.461357 0.737484 0.30135
0.481819 0.717723 0.28455
0.514839 0.701366 0.265156
0.555871 0.685573 0.243549
0.603311 0.671107 0.221637
0.655009 0.659007 0.199741
0.724971 0.664805 0.165515
0.805112 0.668803 0.0535744
0.870939 0.662074 0
0.929519 0.65066 0
0.975097 0.638193 0
0.99118 0.629282 0
1 0.623331 0
1 0.618692 0
1 0.615488 0
1 0.61384 0
1 0.613077 0
1 0.61268 0
1 0.612299 0
1 0.611902 0
0.560845 0.923659 0.511421
0.557214 0.919799 0.506172
0.553796 0.916167 0.501259
0.54992 0.912062 0.495628
0.545815 0.907393 0.489586
0.54049 0.901396 0.481727
0.533684 0.893782 0.471672
0.525124 0.884321 0.45919
0.515755 0.87335 0.445426
0.506584 0.861036 0.430152
0.498924 0.847486 0.413565
0.494163 0.832517 0.396323
0.493721 0.815534 0.377127
0.499519 0.796811 0.357015
0.512856 0.776715 0.337636
0.535058 0.757397 0.317189
0.568444 0.741772 0.296254
0.607645 0.726619 0.274601
0.651194 0.712917 0.252781
0.697627 0.701411 0.231998
0.757122 0.703685 0.204898
0.827054 0.711101 0.153628
0.889494 0.708675 0.0641184
0.942321 0.702007 0
0.975906 0.693889 0
0.994354 0.686183 0
1 0.680339 0
1 0.676478 0
1 0.67425 0
1 0.673304 0
1 0.672953 0
1 0.672496 0
1 0.672023 0
0.570291 0.933806 0.525734
0.568536 0.931899 0.523033
0.566857 0.930098 0.520485
0.565087 0.928191 0.517708
0.562737 0.925658 0.514046
0.559899 0.922621 0.509621
0.556359 0.918868 0.504036
0.551827 0.914092 0.496834
0.546731 0.908385 0.488548
0.541466 0.901564 0.478782
0.537072 0.893462 0.467399
0.535805 0.884962 0.455589
0.53521 0.871489 0.438849
0.536751 0.852476 0.41651
0.545388 0.832715 0.394781
0.560891 0.811872 0.373526
0.586557 0.79469 0.351049
0.618692 0.778134 0.327321
0.654459 0.761807 0.302602
0.695247 0.749172 0.28159
0.736889 0.738231 0.261799
0.785458 0.737942 0.240848
0.850324 0.74789 0.207568
0.905074 0.747753 0.162554
0.946731 0.744213 0.102052
0.969802 0.739284 0.0314183
0.984482 0.735195 0.00221256
0.985931 0.731899 0.00170901
0.986755 0.729992 0.00141909
0.987106 0.729198 0.00129702
0.987289 0.728786 0.00123598
0.987457 0.728389 0.00117494
0.98764 0.727993 0.00111391
0.58117 0.944778 0.541939
0.580835 0.944579 0.541039
0.580484 0.944381 0.540093
0.580148 0.944183 0.539208
0.579904 0.94406 0.538293
0.580179 0.944274 0.538048
0.58053 0.944564 0.537743
0.580957 0.944884 0.537392
0.578744 0.942351 0.533211
0.573037 0.935607 0.523445
0.566918 0.926986 0.510674
0.563043 0.917708 0.497078
0.563027 0.907866 0.483162
0.568338 0.897414 0.469947
0.579446 0.886702 0.456764
0.591272 0.867613 0.434852
0.60856 0.846677 0.409964
0.635935 0.830533 0.386206
0.66743 0.814252 0.361486
0.702525 0.799664 0.33817
0.738598 0.78613 0.315129
0.771771 0.773739 0.293462
0.814817 0.772168 0.277073
0.870451 0.783276 0.260029
0.917082 0.785748 0.235203
0.94313 0.783322 0.212467
0.961563 0.780987 0.193851
0.965301 0.778241 0.184649
0.966018 0.776486 0.180011
0.966323 0.775738 0.178042
0.966476 0.775357 0.177066
0.966583 0.775082 0.176333
0.966735 0.774716 0.175357
0.582467 0.945541 0.545434
0.582116 0.945327 0.544488
0.581827 0.945159 0.543694
0.58143 0.94493 0.542657
0.580987 0.944671 0.541466
0.580407 0.944335 0.53991
0.579889 0.944045 0.538308
0.580316 0.944381 0.537926
0.580865 0.944808 0.537514
0.581964 0.945281 0.537102
0.584222 0.945556 0.536126
0.587579 0.94493 0.533898
0.590387 0.939849 0.526085
0.593805 0.929656 0.512535
0.60058 0.917601 0.496315
0.613931 0.90573 0.481239
0.634104 0.894667 0.4692
0.656672 0.880156 0.447059
0.683406 0.862913 0.420417
0.713924 0.84712 0.39501
0.746654 0.832456 0.37052
0.778164 0.820279 0.34963
0.810361 0.810147 0.331258
0.84361 0.805173 0.315785
0.887938 0.81413 0.30605
0.921126 0.81857 0.294026
0.939986 0.818204 0.28307
0.94876 0.816861 0.275944
0.949447 0.815274 0.272541
0.949752 0.814588 0.271031
0.949905 0.814237 0.270268
0.950027 0.813962 0.269688
0.950179 0.813626 0.26894
0.583597 0.946197 0.548455
0.583246 0.945983 0.547509
0.582956 0.945815 0.546715
0.582559 0.945586 0.545678
0.582116 0.945327 0.544488
0.581537 0.944991 0.542931
0.580865 0.94461 0.541146
0.579965 0.944076 0.538735
0.58027 0.94435 0.537987
0.581338 0.9449 0.537652
0.58352 0.945327 0.536995
0.587472 0.945281 0.535637
0.593942 0.944701 0.533562
0.606561 0.94548 0.534722
0.622187 0.945113 0.534295
0.635309 0.935699 0.522148
0.651652 0.92372 0.507393
0.673747 0.913481 0.491905
0.702113 0.905852 0.476997
0.729641 0.891844 0.452995
0.758572 0.876051 0.42649
0.786633 0.862089 0.402731
0.815839 0.850507 0.381933
0.843183 0.841108 0.36466
0.869108 0.83534 0.351385
0.900175 0.839887 0.346227
0.921218 0.844816 0.34316
0.935958 0.847883 0.340261
0.937194 0.846738 0.337423
0.93756 0.84622 0.336263
0.937743 0.84596 0.335698
0.937881 0.845777 0.335256
0.938064 0.845518 0.334691
0.584314 0.946593 0.550683
0.584207 0.946548 0.550057
0.583871 0.946349 0.549157
0.58349 0.946136 0.54818
0.583062 0.945876 0.54699
0.582513 0.945556 0.545525
0.581781 0.945144 0.543587
0.580911 0.944625 0.541238
0.579858 0.944015 0.538445
0.580789 0.944564 0.538079
0.582971 0.945083 0.537636
0.587091 0.945342 0.536721
0.593545 0.944976 0.534981
0.60531 0.945418 0.535363
0.621195 0.945464 0.53547
0.640864 0.944823 0.535134
0.665034 0.944335 0.53576
0.689708 0.939437 0.529488
0.715206 0.931334 0.513893
0.743389 0.923369 0.497566
0.772534 0.915175 0.479881
0.797711 0.900572 0.454704
0.824079 0.887388 0.431144
0.8495 0.877256 0.412909
0.872038 0.868894 0.397116
0.89041 0.862333 0.384161
0.906447 0.861753 0.378668
0.917662 0.862669 0.376074
0.922011 0.862913 0.374655
0.922438 0.862593 0.373907
0.922591 0.86247 0.373617
0.922805 0.862318 0.373236
0.923018 0.862165 0.372869
0.584146 0.946441 0.55169
0.584222 0.946502 0.551217
0.584283 0.946563 0.55082
0.584237 0.946563 0.550149
0.583795 0.946303 0.548974
0.583215 0.945968 0.547417
0.582513 0.945556 0.545525
0.581643 0.945052 0.543221
0.580621 0.944457 0.540475
0.580331 0.944289 0.538384
0.582544 0.944884 0.53814
0.586526 0.945205 0.537301
0.593225 0.945174 0.536019
0.604334 0.945373 0.535851
0.619974 0.945495 0.535988
0.639704 0.945083 0.535958
0.663493 0.944579 0.536507
0.691707 0.945113 0.537942
0.724575 0.948806 0.539696
0.754925 0.945953 0.531609
0.783001 0.93846 0.515602
0.808682 0.930495 0.498405
0.833234 0.919097 0.475822
0.85716 0.908705 0.45687
0.87837 0.89984 0.440391
0.896056 0.892821 0.426963
0.909377 0.888579 0.418418
0.916289 0.885451 0.412406
0.920409 0.883665 0.408865
0.920226 0.882841 0.40766
0.920134 0.882368 0.406973
0.920027 0.881895 0.406287
0.919921 0.881422 0.4056
0.584039 0.946334 0.552407
0.5841 0.946395 0.551965
0.584176 0.946456 0.551507
0.584253 0.946532 0.551034
0.584344 0.946624 0.550439
0.583764 0.946288 0.548882
0.583062 0.945876 0.54699
0.582193 0.945373 0.544686
0.58117 0.944778 0.541939
0.580148 0.944183 0.538827
0.582208 0.944717 0.53846
0.58613 0.945098 0.537728
0.592905 0.945266 0.536736
0.603601 0.945327 0.536233
0.619043 0.945464 0.536324
0.638865 0.945266 0.536583
0.662364 0.944747 0.537026
0.689921 0.944839 0.537835
0.722591 0.948455 0.539513
0.757107 0.952499 0.541619
0.791394 0.956283 0.543114
0.816846 0.949493 0.528267
0.84268 0.943038 0.513603
0.864515 0.93344 0.493797
0.884199 0.924086 0.475425
0.90164 0.917464 0.463035
0.915007 0.912627 0.453666
0.921706 0.908934 0.446983
0.926024 0.907103 0.443427
0.926253 0.90605 0.441794
0.92607 0.905486 0.440955
0.925902 0.904936 0.440131
0.925719 0.904372 0.439307
0.583963 0.946258 0.55288
0.584024 0.946319 0.552453
0.5841 0.946395 0.55201
0.584176 0.946456 0.551507
0.584268 0.946548 0.550912
0.584146 0.946517 0.54992
0.583429 0.94609 0.547982
0.582544 0.945571 0.545617
0.581506 0.944976 0.54284
