luts/changyun_kodaklike/kodaEI502.cube
TITLE "Generated by Resolve"
LUT_3D_SIZE 5
0.000656138 0.0034638 0.00364691
0.103166 0.0345312 0.0129549
0.658701 0 0
0.969085 0 0
0.969085 0 0
0 0.174319 0.090959
0.0642557 0.128481 0.0527962
0.620233 0 0
0.969085 0 0
0.969085 0 0
0.0601968 0.809979 0.431601
0 0.769757 0.367819
0.650065 0.62884 0.159411
0.97229 0.464088 0
0.976455 0.43949 0
0.589227 0.978439 0.712627
0.578454 0.975586 0.701656
0.657145 0.979294 0.696315
0.913588 0.918029 0.570871
0.965927 0.905272 0.54226
0.587716 0.977584 0.712886
0.583551 0.976959 0.706783
0.654658 0.979919 0.699184
0.91223 0.985412 0.706325
0.960555 0.969406 0.673564
0 0.0144503 0.120378
0.100328 0.0350042 0.0918898
0.650431 0 0
0.969085 0 0
0.969085 0 0
0 0.176333 0.176242
0.0564736 0.131182 0.135988
0.6121 0 0
0.969085 0 0
0.969085 0 0
0.227924 0.808347 0.501534
0 0.770382 0.441642
0.651972 0.635218 0.232258
0.972061 0.463996 0
0.972213 0.437308 0
0.595224 0.976455 0.734997
0.591745 0.976257 0.727474
0.662287 0.979477 0.711452
0.915404 0.923873 0.594141
0.963851 0.90956 0.559762
0.599954 0.9776 0.740719
0.589746 0.975158 0.728191
0.657588 0.978851 0.712749
0.916701 0.987503 0.718837
0.963821 0.974945 0.693721
0 0.0244907 0.560876
0 0.0258488 0.521737
0.715724 0 0.372381
0.957229 0 0.161517
0.959838 0 0.13817
0 0.16434 0.610269
0 0.124178 0.569451
0.704463 0 0.442664
0.955505 0 0.209125
0.956207 0 0.188144
0.425162 0.798047 0.762463
0.376944 0.754559 0.732876
0.645487 0.62948 0.638972
0.959747 0.434134 0.366079
0.960403 0.407706 0.342214
0.613901 0.97644 0.858961
0.609674 0.975845 0.846296
0.705577 0.976532 0.820096
0.911559 0.929442 0.731945
0.963088 0.916213 0.714931
0.614008 0.97612 0.863859
0.611749 0.976165 0.852003
0.691264 0.976898 0.821118
0.916213 0.987976 0.793103
0.969711 0.982361 0.785183
0.374685 0 0.88629
0.366384 0 0.864286
0.739559 0 0.794064
0.998672 0.0857557 0.714305
0.998184 0.0583505 0.698344
0.447456 0.00222782 0.912093
0.412116 0 0.887388
0.71516 0 0.816312
0.996811 0.108965 0.74522
0.999054 0.118166 0.734218
0.423651 0.750561 0.939452
0.373526 0.675959 0.938933
0.656931 0.546975 0.88333
0.966323 0.503609 0.816663
0.968368 0.477424 0.805432
0.657526 0.976196 0.955139
0.657526 0.976196 0.955139
0.721309 0.979416 0.955322
0.926894 0.933089 0.905303
0.961898 0.902251 0.881117
0.657526 0.976196 0.955139
0.657526 0.976196 0.955139
0.71725 0.979217 0.955322
0.931594 0.990066 0.925628
0.995422 0.993027 0.920058
0.469612 0 0.930175
0.454582 0 0.909041
0.754833 0 0.842008
0.9935 0.102892 0.768917
0.994385 0.0989548 0.757183
0.479957 0 0.930648
0.491447 0 0.929931
0.736797 0 0.863752
0.9897 0.0744182 0.792966
0.992416 0.107881 0.783978
0.424826 0.752178 0.939452
0.375235 0.67837 0.938979
0.67602 0.531075 0.9281
0.970718 0.488823 0.860243
0.970108 0.466377 0.848981
0.657526 0.976196 0.955139
0.657526 0.976196 0.955139
0.721111 0.979416 0.955322
0.929397 0.926558 0.943603
0.978897 0.916259 0.929824
0.657526 0.976196 0.955139
0.657526 0.976196 0.955139
0.717021 0.979202 0.955322
0.947295 0.995377 0.954925
1 1 0.956573
