luts/changyun_kodaklike/kodaUM800.cube
TITLE "Generated by Resolve"
LUT_3D_SIZE 9
0.0791943 0.0987259 0.0864424
0.0821393 0.0987869 0.0862593
0.105608 0.100038 0.0886854
0.249271 0.0792248 0.0913863
0.644572 0 0.0859846
1 0 0.14548
1 0 0.17438
1 0 0.17438
1 0 0.17438
0.0786145 0.101839 0.0879377
0.0812085 0.100206 0.0867018
0.103136 0.0999619 0.0885023
0.238834 0.0833295 0.09131
0.629068 0 0.0864576
1 0 0.1393
1 0 0.17438
1 0 0.17438
1 0 0.17438
0.052903 0.134829 0.0954757
0.0655833 0.126345 0.0936141
0.095964 0.114626 0.08748
0.21767 0.0972305 0.0901961
0.594034 0 0.0870527
0.990646 0 0.127321
1 0 0.17438
1 0 0.17438
1 0 0.17438
0 0.367025 0.158129
0 0.343938 0.14873
0 0.289845 0.132921
0.209033 0.225757 0.0464942
0.55436 0.0930953 0.0217594
0.957641 0 0.0979934
1 0 0.166827
1 0 0.168475
1 0 0.168658
0 0.8121 0.446021
0 0.790295 0.41735
0 0.742321 0.366552
0.00015259 0.615717 0.295094
0.53753 0.535225 0
0.912902 0.414313 0
1 0.377829 0.0272679
1 0.351873 0.0729839
1 0.34844 0.0778821
0.676066 0.966598 0.79501
0.661585 0.963973 0.785748
0.62768 0.957946 0.763973
0.560204 0.938598 0.706554
0.547402 0.871382 0.568276
0.827771 0.829129 0
1 0.763516 0
1 0.733303 0
1 0.730068 0
0.708354 0.97171 0.815946
0.704799 0.971252 0.813336
0.695811 0.970047 0.806958
0.710445 0.969528 0.809277
0.75996 0.96257 0.812711
0.802853 0.952056 0.70399
0.945998 0.931609 0.283452
1 0.920913 0.16437
1 0.9196 0.159152
0.707622 0.97145 0.81619
0.708217 0.971664 0.815991
0.70103 0.970748 0.810651
0.710155 0.969818 0.810178
0.758999 0.963439 0.814115
0.827634 0.966873 0.784085
0.913848 0.965667 0.630655
0.970626 0.957549 0.509407
0.973968 0.956603 0.497063
0.70753 0.97142 0.81622
0.70811 0.971633 0.816022
0.701717 0.97084 0.811154
0.70985 0.969818 0.810132
0.758953 0.963546 0.814328
0.827008 0.966796 0.784482
0.912505 0.970184 0.672267
0.966644 0.962509 0.56202
0.970047 0.961532 0.549889
0.0790875 0.0992447 0.0883955
0.0822309 0.09897 0.0872816
0.104692 0.099855 0.0883955
0.248753 0.0794385 0.0913863
0.643793 0 0.0860151
1 0 0.145174
1 0 0.17438
1 0 0.17438
1 0 0.17438
0.0781415 0.102495 0.0901503
0.0810712 0.100679 0.0884718
0.102403 0.100053 0.0882887
0.238315 0.0835279 0.09131
0.628672 0 0.0864729
1 0 0.139147
1 0 0.17438
1 0 0.17438
1 0 0.17438
0.0577401 0.139254 0.102068
0.0664073 0.13051 0.0986343
0.0966201 0.11516 0.0892805
0.215396 0.0978714 0.0902113
0.593561 0 0.0870527
0.990372 0 0.127214
1 0 0.17438
1 0 0.17438
1 0 0.17438
0 0.37438 0.177981
0 0.349187 0.16437
0 0.296407 0.141573
0.20972 0.227359 0.0538643
0.551644 0.0976577 0.0213931
0.95697 0 0.0974746
1 0 0.166751
1 0 0.168399
1 0 0.168582
0 0.816068 0.465415
0 0.798062 0.440497
0 0.748653 0.382284
0.000503548 0.619852 0.303975
0.534051 0.534096 0
0.908431 0.412207 0
1 0.381338 0.0321355
1 0.353246 0.0710155
1 0.349813 0.0759136
0.688548 0.968078 0.804837
0.673106 0.965515 0.795087
0.629099 0.958144 0.767468
0.565621 0.939437 0.712505
0.549645 0.871305 0.574517
0.828092 0.831098 0
0.999985 0.763256 0
1 0.733364 0
1 0.729976 0
0.711849 0.971496 0.820401
0.708247 0.971222 0.817716
0.707637 0.97145 0.81619
0.71017 0.969558 0.810819
0.764019 0.963455 0.816815
0.806424 0.954223 0.717815
0.948196 0.935302 0.318547
1 0.924163 0.179736
1 0.922576 0.168948
0.716426 0.971847 0.823789
0.712764 0.971572 0.821088
0.706905 0.971191 0.816434
0.712367 0.970199 0.813443
0.760739 0.963821 0.816495
0.826276 0.966339 0.783932
0.918624 0.968887 0.656031
0.972976 0.960494 0.537499
0.973693 0.959258 0.524514
0.716899 0.971893 0.824155
0.713283 0.971603 0.821469
0.706813 0.97116 0.816464
0.712581 0.970275 0.813718
0.760327 0.963851 0.816419
0.825895 0.966339 0.784695
0.917189 0.971878 0.684215
0.969833 0.96495 0.584634
0.970611 0.963668 0.57113
0.0804456 0.102358 0.106188
0.0848402 0.101595 0.102785
0.106142 0.100526 0.0930648
0.246509 0.0901045 0.0904555
0.633112 0 0.0853132
1 0 0.144564
1 0 0.17438
1 0 0.17438
1 0 0.17438
0.0762188 0.106371 0.111147
0.0818952 0.104112 0.106325
0.103868 0.101122 0.0957046
0.238148 0.0937057 0.0901961
0.616236 0 0.0852216
1 0 0.138537
1 0 0.17438
1 0 0.17438
1 0 0.17438
0.0134737 0.15108 0.134981
0.034287 0.140475 0.126772
0.10103 0.121065 0.107851
0.216358 0.106874 0.0889143
0.581521 0 0.0849012
0.986053 0 0.124849
1 0 0.17438
1 0 0.17438
1 0 0.17438
0 0.403037 0.255619
0 0.377844 0.237842
0 0.320974 0.196704
0.218448 0.236957 0.106767
0.549294 0.120195 0.0133059
0.938323 0 0.088777
1 0 0.163363
1 0 0.166674
1 0 0.16701
0.0451362 0.824826 0.537362
0 0.807263 0.51136
0 0.762173 0.452979
0.00320439 0.637339 0.343221
0.546944 0.550088 0.0100557
0.905058 0.415488 0
1 0.378805 0.00637827
1 0.349645 0.0506142
1 0.34609 0.0560311
0.707073 0.968536 0.822263
0.692836 0.965942 0.813382
0.65304 0.959182 0.788876
0.582055 0.942138 0.731975
0.566155 0.872938 0.606317
0.827237 0.834287 0.0691234
0.999908 0.764614 0
1 0.735088 0
1 0.731762 0
0.729686 0.971893 0.837552
0.724437 0.97142 0.833814
0.721523 0.971481 0.830396
0.721401 0.971283 0.823331
0.765759 0.963989 0.821729
0.807706 0.954345 0.732479
0.94548 0.935653 0.352361
1 0.925002 0.184009
1 0.923491 0.174014
0.736187 0.972488 0.842191
0.730999 0.972015 0.838483
0.72108 0.97116 0.831205
0.72192 0.971344 0.825086
0.762158 0.964294 0.821485
0.82678 0.965743 0.791531
0.917098 0.969589 0.670359
0.972442 0.961547 0.54844
0.973342 0.960296 0.535241
0.737011 0.972564 0.842786
0.731868 0.972091 0.839109
0.721035 0.971115 0.831296
0.722011 0.971344 0.825315
0.762066 0.964401 0.821729
0.826551 0.965759 0.792493
0.915892 0.971511 0.687129
0.969009 0.965713 0.59292
0.970092 0.964675 0.581628
0 0.111666 0.234836
0.00636301 0.11043 0.224109
0.122194 0.107012 0.196399
0.268116 0.0824598 0.13547
0.637934 0 0.0569009
0.99913 0 0.135622
1 0 0.163668
1 0 0.165362
1 0 0.165606
0 0.118441 0.247379
0.000396735 0.114794 0.235599
0.114061 0.108629 0.208392
0.258625 0.0883345 0.144854
0.622415 0 0.0556039
0.998352 0 0.128618
1 0 0.16466
1 0 0.163989
1 0 0.164187
0 0.173953 0.28011
0 0.163241 0.267765
0.0607004 0.140261 0.241184
0.243091 0.10724 0.167437
0.594308 0 0.0775616
0.983505 0 0.114229
1 0 0.167285
1 0 0.165789
1 0 0.165591
0 0.443915 0.429679
0 0.417853 0.409003
0 0.359457 0.359442
0.245563 0.266407 0.263035
0.569345 0.160235 0.139895
0.940093 0 0.0510414
1 0 0.158053
1 0 0.160357
1 0 0.160678
0.121675 0.85774 0.671916
0.0157015 0.84126 0.650492
0 0.800793 0.605188
0.242054 0.700816 0.518669
0.560769 0.567468 0.30071
0.907988 0.436103 0
1 0.397314 0
1 0.369177 0.0296178
1 0.366018 0.0352789
0.733089 0.972992 0.859312
0.724773 0.970092 0.853895
0.708553 0.963577 0.841535
0.656748 0.948089 0.800381
0.610651 0.884123 0.686076
0.822324 0.839002 0.374838
1 0.771618 0
1 0.740398 0
1 0.73698 0
0.73257 0.978088 0.867201
0.736385 0.977111 0.866178
0.743206 0.974929 0.863615
0.759426 0.973144 0.860105
0.774472 0.967437 0.840726
0.819867 0.956191 0.787152
0.936599 0.937667 0.516732
0.999802 0.92784 0.330678
0.999893 0.926345 0.323079
0.723232 0.979126 0.867369
0.730709 0.978302 0.867231
0.739269 0.976196 0.865095
0.760723 0.973388 0.862959
0.773526 0.96849 0.843122
0.836408 0.965743 0.825772
0.913039 0.970504 0.735271
0.970108 0.962829 0.585534
0.971389 0.9617 0.574289
0.722087 0.979248 0.867384
0.729458 0.978439 0.867262
0.738811 0.976333 0.865263
0.760601 0.973419 0.863203
0.773449 0.968627 0.843458
0.835981 0.965667 0.826322
0.912108 0.970687 0.737972
0.966201 0.967041 0.623362
0.968597 0.965972 0.61117
0 0.151919 0.550225
0 0.148409 0.534798
0 0.140993 0.504463
0.39292 0.089662 0.461631
0.693217 0 0.294331
1 0 0.126787
1 0 0.158679
1 0 0.160357
1 0 0.16054
0 0.16408 0.565881
0 0.157946 0.55227
0 0.145373 0.519982
0.377356 0.0988327 0.475944
0.680552 0 0.314824
1 0 0.144961
1 0 0.158968
1 0 0.158968
1 0 0.159167
0 0.227405 0.599512
0 0.214923 0.584787
0 0.190417 0.55404
0.344686 0.137072 0.510369
0.660014 0 0.361837
0.987884 0 0.209934
1 0 0.159777
1 0 0.159243
1 0 0.159213
0 0.448417 0.656031
0 0.426352 0.638025
0 0.380636 0.598733
0.22742 0.318349 0.569726
0.623484 0.219333 0.452979
0.95465 0.0508736 0.305791
1 0 0.173465
1 0 0.158404
1 0 0.158618
0 0.871382 0.824186
0 0.853956 0.811505
0 0.812741 0.783139
0 0.723568 0.718715
0.579644 0.600244 0.606226
0.900847 0.505196 0.467124
1 0.430594 0.289693
1 0.40206 0.255772
1 0.39852 0.251347
0.641611 0.990417 0.900877
0.631556 0.987915 0.896635
0.611582 0.982269 0.886244
0.596963 0.968063 0.863005
0.678141 0.914275 0.809186
0.817349 0.852567 0.667048
0.993759 0.780118 0.495872
1 0.747005 0.431937
1 0.743908 0.427482
0.640558 0.993973 0.912245
0.644312 0.993194 0.909087
0.649363 0.991455 0.902129
0.68481 0.987762 0.892058
0.798779 0.975784 0.886732
0.843076 0.95761 0.859388
0.921965 0.942061 0.735485
0.978103 0.932616 0.661601
0.978653 0.931395 0.657542
0.631861 0.994827 0.915755
0.638987 0.994125 0.912886
0.646448 0.992462 0.906157
0.67747 0.988785 0.895308
0.784207 0.977462 0.886259
0.855512 0.964736 0.876875
0.913909 0.971695 0.831312
0.957671 0.966308 0.764996
0.95996 0.965347 0.758358
0.630945 0.994919 0.916136
0.637827 0.994247 0.913344
0.646052 0.992599 0.906691
0.676387 0.988876 0.895613
0.782422 0.977676 0.886213
0.855161 0.964858 0.877028
0.913207 0.971649 0.832395
0.955627 0.970428 0.781399
0.958846 0.96939 0.773877
0 0.254383 0.833356
0 0.245747 0.823087
0 0.231907 0.803204
0.431449 0.197238 0.770855
0.783673 0.00392157 0.686839
1 0 0.522927
1 0 0.431006
1 0 0.399329
1 0 0.395682
0 0.268757 0.840787
0 0.257832 0.830732
0 0.239002 0.811704
0.419104 0.206256 0.781964
0.793027 0.0181277 0.716289
1 0.0221866 0.546944
1 0 0.454917
1 0 0.424613
1 0 0.420951
0 0.338781 0.860685
0 0.327276 0.856153
0 0.288304 0.830457
0.390097 0.239841 0.804089
0.799268 0.141634 0.763256
0.996735 0.106096 0.598886
1 0 0.500954
1 0 0.47454
1 0 0.471519
0 0.520531 0.871733
0 0.498146 0.862882
0 0.463828 0.851667
0.298802 0.407507 0.83238
0.763973 0.375402 0.815427
0.965835 0.272053 0.676829
1 0.208789 0.584436
1 0.134356 0.557626
1 0.122927 0.553887
0 0.842206 0.913787
0 0.823438 0.907378
0 0.782849 0.89305
0 0.69276 0.856336
0.589517 0.641215 0.833463
0.886534 0.624628 0.778897
1 0.57258 0.707103
1 0.532494 0.679515
1 0.528267 0.676524
0.614939 0.978302 0.94728
0.602533 0.976318 0.944656
0.563287 0.970031 0.936721
0.526741 0.95903 0.922683
0.598352 0.917769 0.892821
0.81294 0.86009 0.843839
0.948516 0.828519 0.800793
0.973663 0.809247 0.778515
0.973953 0.807416 0.776837
0.685908 0.989075 0.95555
0.659739 0.984833 0.952834
0.61706 0.978714 0.947631
0.629587 0.986358 0.942687
0.728267 0.990662 0.933165
0.865782 0.972198 0.912612
0.919173 0.947433 0.871595
0.959167 0.937743 0.850355
0.959197 0.936461 0.848585
0.645884 0.982574 0.9514
0.632944 0.980484 0.950057
0.61706 0.978668 0.947677
0.628687 0.983444 0.943358
0.720409 0.990494 0.93576
0.863722 0.978393 0.9178
0.922362 0.972747 0.902602
0.956069 0.970947 0.882063
0.958953 0.97026 0.87953
0.64773 0.982879 0.951583
0.634485 0.980728 0.95021
0.61709 0.978546 0.947799
0.628687 0.983032 0.94345
0.719432 0.990463 0.936065
0.862257 0.978653 0.918044
0.921874 0.972656 0.90312
0.955352 0.97464 0.887404
0.95877 0.973831 0.884428
0.325902 0.394965 0.93254
0.309636 0.384924 0.92845
0.321416 0.361685 0.918547
0.509804 0.326726 0.897536
0.866987 0.359121 0.882399
1 0.314855 0.760632
1 0.314519 0.709529
1 0.290196 0.689128
1 0.287404 0.686778
0.34876 0.414908 0.936461
0.327428 0.398322 0.932143
0.330877 0.372778 0.922652
0.504799 0.336889 0.903761
0.852415 0.359274 0.886275
1 0.31252 0.772839
1 0.333745 0.725643
1 0.309422 0.705257
1 0.306874 0.70312
0.418555 0.499748 0.947372
0.390127 0.475486 0.942565
0.364416 0.427665 0.932647
0.497826 0.373129 0.91487
0.820371 0.361456 0.894408
0.990845 0.318791 0.801297
1 0.356542 0.753491
1 0.348608 0.739452
1 0.347784 0.737972
0.402136 0.652171 0.953536
0.378744 0.625696 0.950423
0.376318 0.591516 0.943038
0.472023 0.520714 0.928237
0.768643 0.483207 0.910552
0.978531 0.402365 0.862837
1 0.40647 0.796002
1 0.380331 0.77937
1 0.377798 0.777386
0.393164 0.877363 0.953918
0.375326 0.866819 0.953887
0.330816 0.841749 0.953521
0.188815 0.760311 0.943084
0.644236 0.696101 0.921004
0.919249 0.734462 0.906828
0.992767 0.659236 0.85211
0.99762 0.629099 0.839796
0.997955 0.626993 0.838773
0.696071 0.990723 0.956603
0.688029 0.987366 0.956863
0.671061 0.980133 0.957443
0.663035 0.966735 0.958694
0.638865 0.922362 0.948501
0.813886 0.867323 0.91812
0.935897 0.87509 0.901396
0.952514 0.867124 0.894728
0.952712 0.865492 0.893797
0.696071 0.990723 0.956603
0.696071 0.990723 0.956603
0.696071 0.990723 0.956603
0.707698 0.990539 0.956664
0.766644 0.989013 0.956359
0.835523 0.975189 0.947219
0.921675 0.948852 0.924208
0.954864 0.943069 0.917861
0.954543 0.941939 0.917052
0.696071 0.990723 0.956603
0.696071 0.990723 0.956603
0.696071 0.990723 0.956603
0.706294 0.99057 0.956664
0.762997 0.98912 0.956374
0.84593 0.982589 0.951888
0.9337 0.979232 0.942229
0.962081 0.974426 0.933669
0.964858 0.973648 0.932403
0.696071 0.990723 0.956603
0.696071 0.990723 0.956603
0.696071 0.990723 0.956603
0.706142 0.990585 0.956664
0.762585 0.98912 0.956374
0.846448 0.98294 0.952255
0.932891 0.979477 0.942733
0.962493 0.977752 0.935866
0.966018 0.977584 0.934722
0.459495 0.483665 0.955428
0.443961 0.469734 0.952453
0.435538 0.439109 0.944549
0.55787 0.396445 0.927779
0.860777 0.420706 0.911025
1 0.3617 0.820493
1 0.37438 0.779095
1 0.362966 0.764858
1 0.36199 0.763119
0.46775 0.49485 0.956832
0.456535 0.483436 0.954681
0.452705 0.456703 0.948913
0.55639 0.408667 0.932296
0.850309 0.42858 0.915846
1 0.357198 0.8309
1 0.386328 0.791165
1 0.371725 0.776394
1 0.370031 0.774701
0.465217 0.530556 0.95552
0.469993 0.527184 0.956146
0.475349 0.505608 0.953872
0.55256 0.442695 0.93959
0.823758 0.435004 0.922759
0.995483 0.374578 0.863249
1 0.402914 0.813214
1 0.397269 0.802243
1 0.395315 0.800244
0.403601 0.654215 0.95375
0.385794 0.629419 0.951247
0.439307 0.620813 0.951766
0.555734 0.59118 0.950362
0.775265 0.5346 0.932799
0.990936 0.5196 0.913649
1 0.434379 0.843061
1 0.418479 0.832303
1 0.417594 0.831373
0.394293 0.878019 0.953918
0.376928 0.867765 0.953887
0.332631 0.842695 0.953536
0.310842 0.777584 0.950683
0.69485 0.745907 0.945403
0.918853 0.764569 0.928328
0.989807 0.680049 0.887953
0.99321 0.657542 0.87924
0.993667 0.655406 0.878172
0.696071 0.990723 0.956603
0.688762 0.987671 0.956832
0.671778 0.980438 0.957412
0.663554 0.967056 0.958663
0.677684 0.930999 0.956588
0.834134 0.884504 0.943771
0.95227 0.890806 0.930083
0.955474 0.875685 0.917769
0.955245 0.874372 0.916976
0.696071 0.990723 0.956603
0.696071 0.990723 0.956603
0.696071 0.990723 0.956603
0.707637 0.990539 0.956664
0.766461 0.989029 0.956359
0.8589 0.98291 0.95613
0.930251 0.955139 0.949187
0.962783 0.954711 0.942336
0.961685 0.953368 0.941238
0.696071 0.990723 0.956603
0.696071 0.990723 0.956603
0.696071 0.990723 0.956603
0.706233 0.99057 0.956664
0.762875 0.98912 0.956374
0.85864 0.986435 0.955993
0.942138 0.984756 0.957107
0.97261 0.980728 0.954559
0.97467 0.979461 0.953368
0.696071 0.990723 0.956603
0.696071 0.990723 0.956603
0.696071 0.990723 0.956603
0.706096 0.990585 0.956664
0.762432 0.989136 0.956374
0.85803 0.98645 0.955993
0.941405 0.984771 0.957092
0.973693 0.983383 0.956024
0.976837 0.983078 0.955428
0.471962 0.493126 0.957443
0.456458 0.479377 0.954513
0.449683 0.449866 0.947494
0.563607 0.40502 0.930694
0.861128 0.430701 0.914717
1 0.363302 0.825956
1 0.381964 0.78677
1 0.367651 0.772274
1 0.366064 0.770336
0.46775 0.49485 0.956832
0.468605 0.49247 0.956695
0.462669 0.465217 0.950744
0.562554 0.417411 0.935302
0.848997 0.43418 0.918166
1 0.359121 0.836866
1 0.393912 0.798825
1 0.379294 0.78407
1 0.377615 0.782361
0.465187 0.530587 0.95552
0.469932 0.527245 0.95613
0.487602 0.515084 0.956039
0.561166 0.453559 0.942504
0.82356 0.442206 0.925246
0.996872 0.389487 0.872343
1 0.403296 0.818051
1 0.402594 0.808988
1 0.402487 0.807752
0.403601 0.654215 0.95375
0.386069 0.629801 0.951278
0.439307 0.620813 0.951766
0.566369 0.600427 0.952804
0.777401 0.543175 0.935271
0.98999 0.527794 0.916503
1 0.439628 0.848676
1 0.423163 0.837858
1 0.42211 0.836805
0.394537 0.878157 0.953918
0.376928 0.867765 0.953887
0.332982 0.842893 0.953552
0.310582 0.7776 0.950683
0.700832 0.751934 0.948028
0.918364 0.766247 0.930312
0.990555 0.683864 0.892546
0.993027 0.658351 0.882963
0.993469 0.656153 0.882109
0.696071 0.990723 0.956603
0.688762 0.987671 0.956832
0.671778 0.980438 0.957412
0.663554 0.967056 0.958663
0.677806 0.931121 0.956588
0.83801 0.887831 0.947097
0.955352 0.893416 0.933852
0.957382 0.876875 0.921065
0.957198 0.875563 0.920333
0.696071 0.990723 0.956603
0.696071 0.990723 0.956603
0.696071 0.990723 0.956603
0.707637 0.990539 0.956664
0.766461 0.989029 0.956359
0.859144 0.983063 0.95613
0.932204 0.956695 0.952789
0.965896 0.956909 0.945617
0.965026 0.955673 0.944732
0.696071 0.990723 0.956603
0.696071 0.990723 0.956603
0.696071 0.990723 0.956603
0.706233 0.99057 0.956664
0.762814 0.98912 0.956374
0.858534 0.986435 0.955993
0.942138 0.984756 0.957107
0.974746 0.981994 0.957595
0.977111 0.981018 0.956664
0.696071 0.990723 0.956603
0.696071 0.990723 0.956603
0.696071 0.990723 0.956603
0.706096 0.990585 0.956664
0.762371 0.989136 0.956374
0.857969 0.98645 0.955993
0.941283 0.984771 0.957092
0.975372 0.984344 0.958328
0.979065 0.984222 0.958434
