luts/changyun_kodaklike/kodaM800.cube
TITLE "Generated by Resolve"
LUT_3D_SIZE 9
0.0144503 0.0923781 0.10428
0.0277867 0.0924392 0.104402
0.112093 0.0965286 0.112383
0.296178 0.0614939 0.129274
0.650965 0 0.154742
0.981003 0 0.220798
1 0 0.241917
1 0 0.241917
1 0 0.241917
0.0109102 0.0997787 0.108736
0.0219883 0.0962234 0.10515
0.106523 0.0964981 0.111513
0.284825 0.0691691 0.128405
0.638788 0 0.153658
0.970077 0 0.216251
1 0 0.241917
1 0 0.241917
1 0 0.241917
0 0.157977 0.141085
0 0.146838 0.134005
0.0926375 0.129366 0.113039
0.260151 0.09514 0.126802
0.610529 0 0.151186
0.946227 0 0.207248
1 0 0.241917
1 0 0.241917
1 0 0.241917
0 0.428458 0.257725
0 0.404562 0.245106
0 0.352071 0.207492
0.281361 0.288151 0.115801
0.575936 0.137575 0.141833
0.914733 0 0.195544
1 0 0.237552
1 0 0.238178
1 0 0.238239
0.2224 0.816449 0.537194
0.141863 0.798505 0.512856
0 0.760876 0.467414
0.0100862 0.680781 0.355505
0.642573 0.623529 0.0398718
0.869383 0.440955 0.147936
0.998352 0.432563 0.238071
1 0.412665 0.24181
1 0.409903 0.241779
0.730083 0.955901 0.823117
0.718364 0.953277 0.814939
0.690303 0.947265 0.795483
0.617212 0.931579 0.733928
0.617777 0.885924 0.61001
0.876616 0.853605 0.221134
1 0.772213 0.193835
1 0.743969 0.269932
1 0.741039 0.270604
0.759762 0.961501 0.843809
0.755978 0.961013 0.840955
0.746075 0.95967 0.833722
0.752285 0.961395 0.831983
0.782528 0.961456 0.822522
0.833997 0.950607 0.755093
0.958434 0.93547 0.474617
1 0.928206 0.32256
1 0.926894 0.318608
0.757595 0.961013 0.843183
0.759335 0.96141 0.843687
0.751827 0.960449 0.837919
0.753368 0.961379 0.833631
0.781582 0.962005 0.824323
0.856336 0.964355 0.821942
0.923384 0.965591 0.718181
0.976196 0.959289 0.59028
0.979568 0.958419 0.578561
0.757305 0.960952 0.843091
0.759045 0.961334 0.843595
0.75259 0.960555 0.838483
0.753216 0.961334 0.833661
0.781552 0.962081 0.824582
0.855817 0.964263 0.822141
0.922072 0.969696 0.748043
0.971511 0.963836 0.633555
0.974914 0.962997 0.621866
0.0137331 0.0932021 0.108659
0.0251926 0.0928969 0.106035
0.110094 0.096437 0.112108
0.295598 0.0618753 0.129229
0.650355 0 0.154681
0.980453 0 0.220569
1 0 0.241917
1 0 0.241917
1 0 0.241917
0.00880446 0.10071 0.114916
0.0214847 0.0968338 0.10988
0.10486 0.0966964 0.111437
0.28426 0.0695506 0.128359
0.638483 0 0.153628
0.969802 0 0.216129
1 0 0.241917
1 0 0.241917
1 0 0.241917
0 0.161151 0.150179
0 0.150256 0.143191
0.0928054 0.129824 0.117708
0.256992 0.0961166 0.126543
0.610117 0 0.151156
0.945937 0 0.207156
1 0 0.241917
1 0 0.241917
1 0 0.241917
0 0.431022 0.272465
0 0.405341 0.257893
0 0.356023 0.221927
0.28159 0.289647 0.121965
0.573022 0.139406 0.141588
0.914076 0 0.195331
1 0 0.237522
1 0 0.238163
1 0 0.238224
0.264591 0.816983 0.553017
0.214679 0.802762 0.533333
0.0496223 0.763516 0.484642
0.00874342 0.681743 0.363455
0.638132 0.621546 0.0498054
0.864393 0.437858 0.146136
1 0.43653 0.242084
1 0.413779 0.24181
1 0.411002 0.241794
0.741924 0.957229 0.832883
0.73106 0.954482 0.825025
0.693492 0.946563 0.799374
0.624659 0.931609 0.740658
0.618265 0.885893 0.613367
0.876692 0.855283 0.243931
1 0.771634 0.205051
1 0.743633 0.26627
1 0.740566 0.267033
0.755642 0.961013 0.844266
0.75494 0.960555 0.842924
0.757626 0.961028 0.843183
0.753399 0.960784 0.834089
0.786664 0.962249 0.827085
0.836957 0.952499 0.765957
0.959518 0.938872 0.496757
1 0.931502 0.334951
1 0.9299 0.329076
0.756512 0.961593 0.845991
0.75581 0.961135 0.844617
0.755444 0.96054 0.842557
0.757183 0.961212 0.83772
0.783093 0.962203 0.826703
0.854856 0.963714 0.820935
0.927489 0.968795 0.7393
0.977798 0.962249 0.613367
0.978714 0.961089 0.602533
0.756603 0.961654 0.846174
0.755917 0.961196 0.844816
0.755199 0.960479 0.842481
0.75758 0.961257 0.838117
0.78262 0.962188 0.826612
0.854582 0.963699 0.8215
0.926238 0.971481 0.759487
0.974014 0.966354 0.652445
0.97499 0.965164 0.641138
0.0198062 0.101152 0.143923
0.0346532 0.100587 0.137057
0.110033 0.0995651 0.123247
0.292302 0.0833295 0.128908
0.640024 0 0.153674
0.97937 0 0.220111
1 0 0.241917
1 0 0.241917
1 0 0.241917
0.00729381 0.10779 0.153216
0.0256657 0.104692 0.145159
0.10222 0.101793 0.127657
0.283619 0.0892653 0.128313
0.626459 0 0.152346
0.968719 0 0.215686
1 0 0.241917
1 0 0.241917
1 0 0.241917
0 0.167468 0.18732
0 0.156283 0.178302
0.0971847 0.135149 0.155322
0.256733 0.108949 0.126741
0.598047 0 0.149874
0.939147 0 0.20499
1 0 0.241917
1 0 0.241917
1 0 0.241917
0 0.440436 0.316899
0 0.416526 0.30135
0 0.365515 0.268391
0.289418 0.296315 0.167819
0.570428 0.152605 0.140642
0.891783 0 0.189181
1 0 0.234226
1 0 0.236591
1 0 0.23682
0.260456 0.816876 0.579522
0.223011 0.801999 0.560678
0.126848 0.765377 0.51931
0.0993057 0.686351 0.402396
0.647379 0.633448 0.15462
0.860761 0.439536 0.143877
1 0.43151 0.236713
1 0.40798 0.236576
1 0.405035 0.236393
0.728939 0.957961 0.83534
0.719707 0.955047 0.828275
0.690944 0.94725 0.807706
0.648524 0.93135 0.762905
0.62829 0.887785 0.634775
0.875029 0.857313 0.307561
1 0.772473 0.198245
1 0.74464 0.263081
1 0.741604 0.2636
0.737469 0.962081 0.845197
0.736461 0.961318 0.84303
0.742916 0.961303 0.843763
0.767636 0.961166 0.848463
0.786892 0.961898 0.83122
0.837934 0.952285 0.775708
0.956573 0.938888 0.519844
1 0.932128 0.342275
1 0.930632 0.335836
0.738705 0.963012 0.847868
0.737713 0.962264 0.845731
0.73695 0.960891 0.841947
0.764889 0.961044 0.848554
0.782757 0.961685 0.830701
0.855131 0.962966 0.825757
0.926268 0.969253 0.752621
0.976654 0.963104 0.628077
0.977722 0.961959 0.617441
0.738796 0.963134 0.848188
0.737881 0.962386 0.846098
0.736202 0.960845 0.841733
0.764446 0.961044 0.848508
0.782635 0.961746 0.830961
0.854994 0.962982 0.82652
0.9252 0.970977 0.765347
0.972824 0.966964 0.663005
0.973999 0.966003 0.653956
0.0209354 0.120226 0.266789
0.0464942 0.119127 0.256962
0.140963 0.123568 0.225162
0.323796 0.0955673 0.18645
0.644327 0 0.151904
0.970764 0 0.215854
1 0 0.233463
1 0 0.234791
1 0 0.234974
0.0223545 0.129839 0.280522
0.0417334 0.125063 0.26891
0.138643 0.124544 0.237293
0.31458 0.10576 0.198001
0.631281 0 0.150591
0.959686 0 0.211383
1 0 0.234714
1 0 0.233707
1 0 0.23386
0 0.18616 0.32958
0 0.175067 0.316609
0.130968 0.160525 0.282612
0.296345 0.13695 0.22446
0.609094 0 0.152514
0.935042 0 0.202472
1 0 0.237919
1 0 0.236088
1 0 0.235843
0 0.449866 0.441291
0 0.427375 0.425666
0 0.377966 0.389258
0.315877 0.310475 0.324041
0.593286 0.191714 0.202914
0.893645 0.05832 0.187442
1 0.0939345 0.233906
1 0.0364385 0.234272
1 0.0298619 0.234348
0.166247 0.8224 0.657328
0.114458 0.805875 0.639155
0.00982681 0.768307 0.601678
0.32134 0.701869 0.538537
0.647089 0.631739 0.367681
0.864363 0.457115 0.187778
1 0.446113 0.239628
1 0.422568 0.23827
1 0.420005 0.238239
0.6645 0.963195 0.842329
0.656062 0.959808 0.836027
0.63978 0.952575 0.8215
0.634653 0.934936 0.792218
0.654765 0.891585 0.697536
0.867384 0.85742 0.465064
1 0.777356 0.252323
1 0.748302 0.27097
1 0.745159 0.270924
0.662486 0.96846 0.852735
0.667674 0.967651 0.85127
0.676722 0.965789 0.847532
0.727749 0.964355 0.853132
0.797055 0.9617 0.852399
0.849027 0.953506 0.817121
0.94905 0.939742 0.616175
1 0.933745 0.478279
1 0.932219 0.472526
0.648981 0.969024 0.852918
0.659785 0.968566 0.852781
0.671489 0.966873 0.849699
0.718029 0.964736 0.85243
0.799695 0.961791 0.857282
0.862943 0.96257 0.851194
0.924437 0.969619 0.79237
0.971115 0.963699 0.692744
0.972351 0.962692 0.684794
0.647318 0.9691 0.852934
0.657984 0.968643 0.852796
0.670893 0.966995 0.849943
0.716686 0.964782 0.852323
0.800076 0.961807 0.857908
0.862577 0.962463 0.851575
0.923674 0.969757 0.794202
0.967208 0.967575 0.720333
0.96936 0.966628 0.711635
0.184161 0.172076 0.526162
0.182757 0.16846 0.512856
0.244388 0.168063 0.483162
0.428611 0.223377 0.415793
0.728878 0 0.32813
0.97055 0.102159 0.215213
1 0.135943 0.236255
1 0.137835 0.237522
1 0.138048 0.237659
0.196689 0.186007 0.541176
0.193622 0.179461 0.529229
0.243336 0.172061 0.497063
0.429541 0.225422 0.429038
0.724865 0.00665293 0.350652
0.962798 0.0987259 0.217609
1 0.139727 0.236744
1 0.136156 0.236469
1 0.1364 0.236622
0.207736 0.254444 0.581903
0.204074 0.241443 0.567819
0.246601 0.219272 0.535851
0.433951 0.23299 0.46743
0.722148 0.147677 0.403342
0.945098 0.0629892 0.239658
1 0.148577 0.237934
1 0.143267 0.237201
1 0.142733 0.237125
0 0.457664 0.653147
0 0.436439 0.638834
0 0.392721 0.608438
0.411093 0.366552 0.56582
0.692363 0.351324 0.494148
0.911833 0.170123 0.309239
1 0.189471 0.240101
1 0.18204 0.239689
1 0.180789 0.239734
0.0213016 0.813123 0.783444
0.0019379 0.794675 0.768292
0 0.755901 0.737652
0.279088 0.689265 0.684092
0.654704 0.634302 0.624308
0.877531 0.497536 0.449134
1 0.456641 0.32137
1 0.435187 0.29926
1 0.432624 0.296437
0.56228 0.971725 0.894514
0.548516 0.967926 0.888182
0.521477 0.959792 0.873594
0.511604 0.942458 0.844129
0.663157 0.894026 0.792584
0.859144 0.859495 0.688258
0.98529 0.769482 0.533165
0.999954 0.742657 0.495125
0.999985 0.740032 0.491646
0.567163 0.974838 0.908827
0.569177 0.974578 0.905104
0.571954 0.973678 0.896712
0.610895 0.972488 0.884581
0.75967 0.965789 0.878782
0.864195 0.955139 0.871382
0.939284 0.941939 0.769253
0.994614 0.934127 0.699992
0.995636 0.933028 0.695857
0.562539 0.97467 0.912764
0.566323 0.974807 0.909545
0.570352 0.974197 0.901564
0.603479 0.972808 0.888548
0.740398 0.966766 0.87808
0.870909 0.963561 0.885756
0.927199 0.96994 0.857862
0.964431 0.965988 0.808621
0.966491 0.965118 0.803326
0.562066 0.974655 0.913176
0.565713 0.974792 0.910063
0.570138 0.974273 0.902205
0.602304 0.972808 0.888914
0.738018 0.966888 0.877989
0.870405 0.963561 0.885863
0.926619 0.969879 0.85864
0.961944 0.969894 0.823423
0.964782 0.968963 0.817533
0.433646 0.290303 0.790509
0.422492 0.280781 0.778531
0.442237 0.273838 0.754925
0.591608 0.308919 0.703746
0.764065 0.358007 0.616602
1 0.282536 0.51487
1 0.167987 0.414481
1 0.165957 0.394415
1 0.165713 0.392096
0.444099 0.305867 0.799924
0.432853 0.294072 0.788174
0.445823 0.280476 0.764721
0.590173 0.311528 0.71754
0.755947 0.363394 0.6262
1 0.31545 0.542596
1 0.179553 0.432654
1 0.167575 0.410422
1 0.167346 0.408118
0.466255 0.377081 0.827985
0.462272 0.36556 0.821851
0.456504 0.329458 0.790143
0.585657 0.329564 0.746136
0.764614 0.396948 0.666987
0.9935 0.384665 0.602518
1 0.253132 0.483162
1 0.210925 0.454185
1 0.206088 0.450874
0.291661 0.509544 0.861158
0.297856 0.490608 0.850736
0.360708 0.472023 0.834867
0.550439 0.458549 0.799481
0.771237 0.54551 0.735348
0.962524 0.509041 0.691447
1 0.377722 0.573007
1 0.338949 0.543969
1 0.333532 0.53991
0.160128 0.804746 0.9093
0.0544289 0.787472 0.901198
0 0.751598 0.884016
0.158663 0.675731 0.845716
0.70161 0.670802 0.817273
0.895445 0.712016 0.78378
1 0.588739 0.673884
1 0.550744 0.644007
1 0.546502 0.64062
0.600153 0.955215 0.956268
0.584207 0.951934 0.951873
0.537484 0.941909 0.938903
0.497353 0.925521 0.916793
0.608179 0.880842 0.878553
0.850523 0.854673 0.848219
0.96173 0.778424 0.748852
0.988235 0.753567 0.715587
0.988525 0.751354 0.713466
0.675669 0.972 0.969314
0.64889 0.965606 0.965087
0.602701 0.95584 0.956847
0.597467 0.96199 0.946853
0.689784 0.97145 0.93576
0.85417 0.960494 0.915053
0.936599 0.943511 0.882673
0.972076 0.929534 0.854307
0.972045 0.927871 0.852079
0.634699 0.962219 0.96286
0.621469 0.95906 0.960784
0.602884 0.955795 0.956954
0.601022 0.959762 0.949126
0.682841 0.97113 0.939284
0.846296 0.967407 0.920714
0.932952 0.969497 0.918288
0.964004 0.968688 0.898802
0.96669 0.967956 0.896178
0.636591 0.962676 0.963165
0.623041 0.959442 0.961028
0.603281 0.955718 0.957153
0.601648 0.959472 0.949447
0.681987 0.971069 0.939712
0.844511 0.967483 0.920943
0.932494 0.96936 0.918761
0.962524 0.972686 0.90518
0.965728 0.971862 0.902174
0.613672 0.451759 0.911513
0.605737 0.440909 0.905989
0.6065 0.422187 0.892195
0.691585 0.43241 0.858183
0.846906 0.575311 0.805447
0.991531 0.593194 0.769589
1 0.534005 0.713649
1 0.505409 0.691524
1 0.502129 0.68896
0.624292 0.47155 0.917021
0.613733 0.454856 0.911162
0.612329 0.433356 0.897856
0.6916 0.438911 0.866972
0.844968 0.585046 0.812985
0.984756 0.593454 0.776059
1 0.556619 0.731121
1 0.528008 0.70901
1 0.525017 0.706691
0.651179 0.54522 0.93312
0.638407 0.523384 0.926589
0.626551 0.483024 0.912535
0.691691 0.465232 0.883665
0.841611 0.58352 0.830182
0.967941 0.58996 0.787366
1 0.598093 0.762692
1 0.576349 0.746303
1 0.574075 0.744595
0.61178 0.654871 0.950927
0.607599 0.6365 0.946105
0.607294 0.607523 0.935164
0.67039 0.57052 0.910613
0.832822 0.624582 0.869215
0.935149 0.611307 0.811688
1 0.655879 0.804166
1 0.635172 0.790005
1 0.632914 0.788342
0.436866 0.834607 0.964904
0.424826 0.821942 0.964736
0.397147 0.79234 0.964034
0.383444 0.710643 0.949355
0.757565 0.720409 0.910735
0.905623 0.783093 0.876127
0.970565 0.777096 0.856474
0.973953 0.761501 0.84654
0.974517 0.759915 0.845518
0.686061 0.974487 0.970947
0.679789 0.970214 0.971237
0.666621 0.960998 0.971878
0.663813 0.944488 0.973556
0.658549 0.891997 0.95906
0.863416 0.864805 0.92018
0.944198 0.889097 0.910201
0.957626 0.88191 0.904265
0.957732 0.880522 0.903197
0.686061 0.974487 0.970947
0.686061 0.974487 0.970947
0.686061 0.974487 0.970947
0.697581 0.974624 0.971115
0.757031 0.974426 0.971069
0.831327 0.958709 0.95816
0.935805 0.94136 0.937987
0.95993 0.926024 0.919249
0.959747 0.924544 0.917952
0.686061 0.974487 0.970947
0.686061 0.974487 0.970947
0.686061 0.974487 0.970947
0.696162 0.97464 0.97113
0.753323 0.974426 0.971069
0.838529 0.968627 0.965164
0.931502 0.971374 0.956405
0.966506 0.970016 0.94963
0.969116 0.968933 0.947768
0.686061 0.974487 0.970947
0.686061 0.974487 0.970947
0.686061 0.974487 0.970947
0.69601 0.97464 0.97113
0.752911 0.974426 0.971069
0.838987 0.969177 0.965743
0.930083 0.971374 0.95671
0.96643 0.974319 0.953185
0.969802 0.974197 0.951797
0.681849 0.542992 0.941756
0.673167 0.528984 0.937514
0.667735 0.503517 0.926116
0.730007 0.499657 0.898863
0.867353 0.635981 0.85272
0.979095 0.62356 0.80708
1 0.633387 0.789731
1 0.615686 0.775952
1 0.613001 0.773922
0.686213 0.553689 0.944137
0.680156 0.542687 0.941009
0.677058 0.520256 0.932036
0.7308 0.508583 0.90544
0.867597 0.636011 0.861906
0.97232 0.619058 0.810681
1 0.645487 0.799512
1 0.630686 0.787549
1 0.628977 0.78616
0.678645 0.578073 0.944518
0.681926 0.576303 0.944884
0.687266 0.562005 0.940719
0.730587 0.533471 0.917006
0.862989 0.628244 0.876127
0.958984 0.620142 0.823667
0.998947 0.662013 0.815564
1 0.656596 0.808484
1 0.654597 0.806867
0.611917 0.65626 0.951263
0.610254 0.63946 0.947173
0.639643 0.633722 0.94641
0.72192 0.635172 0.939529
0.847501 0.662364 0.902358
0.942123 0.671748 0.861051
0.98999 0.675364 0.832578
0.993423 0.667796 0.825788
0.993805 0.667414 0.825254
0.43769 0.835386 0.96492
0.42591 0.823087 0.964752
0.39823 0.793439 0.964065
0.432364 0.723354 0.958587
0.793545 0.762463 0.940795
0.914549 0.824033 0.904005
0.964172 0.78996 0.878233
0.966476 0.778286 0.870832
0.966827 0.777157 0.870008
0.686061 0.974487 0.970947
0.680354 0.970596 0.971206
0.66717 0.961379 0.971847
0.66421 0.944884 0.973526
0.691524 0.901411 0.970214
0.880796 0.880339 0.949126
0.947311 0.89807 0.928054
0.955001 0.89279 0.92221
0.95494 0.891951 0.921538
0.686061 0.974487 0.970947
0.686061 0.974487 0.970947
0.686061 0.974487 0.970947
0.69752 0.974624 0.971115
0.756848 0.974426 0.971069
0.8533 0.970611 0.971862
0.944152 0.948211 0.963699
0.965209 0.951675 0.957031
0.96466 0.950652 0.956054
0.686061 0.974487 0.970947
0.686061 0.974487 0.970947
0.686061 0.974487 0.970947
0.696117 0.97464 0.97113
0.753216 0.974426 0.971069
0.85066 0.974807 0.971603
0.937926 0.977569 0.975219
0.972244 0.975967 0.973449
0.974258 0.974701 0.971771
0.686061 0.974487 0.970947
0.686061 0.974487 0.970947
0.686061 0.974487 0.970947
0.695964 0.97464 0.97113
0.752773 0.974426 0.971069
0.850034 0.974807 0.971588
0.937133 0.977523 0.975158
0.972824 0.978805 0.975677
0.976211 0.978836 0.975204
0.688685 0.552697 0.944579
0.680079 0.538857 0.940368
0.675471 0.514443 0.930007
0.734279 0.507866 0.902876
0.870375 0.642191 0.858854
0.977569 0.624796 0.810117
1 0.641077 0.795941
1 0.626566 0.784207
1 0.624186 0.782361
0.686213 0.553689 0.944137
0.68687 0.552026 0.943801
0.682857 0.52903 0.934646
0.735302 0.517021 0.909529
0.86891 0.638972 0.86598
0.97084 0.620645 0.814099
1 0.653178 0.805722
1 0.638376 0.793759
1 0.636667 0.792386
0.67863 0.578088 0.944518
0.681895 0.576318 0.944884
0.694179 0.571496 0.943679
0.736126 0.543801 0.920943
0.864591 0.632715 0.880278
0.958587 0.626596 0.829023
0.998062 0.66215 0.81796
0.999725 0.661906 0.813474
0.999954 0.66186 0.812879
0.611917 0.65626 0.951263
0.610285 0.639704 0.947234
0.639643 0.633722 0.94641
0.728328 0.643503 0.942809
0.849668 0.668696 0.906065
0.943175 0.677562 0.866056
0.988586 0.678187 0.835981
0.991958 0.670314 0.829084
0.99237 0.669841 0.828489
0.437873 0.835554 0.96492
0.42591 0.823087 0.964752
0.398444 0.793667 0.96408
0.432181 0.723354 0.958587
0.797772 0.767529 0.944137
0.915755 0.827726 0.906844
0.964096 0.792538 0.881376
0.965789 0.77911 0.873014
0.966094 0.777981 0.872297
0.686061 0.974487 0.970947
0.680354 0.970596 0.971206
0.66717 0.961379 0.971847
0.66421 0.944884 0.973526
0.69163 0.901549 0.970214
0.883726 0.883177 0.953063
0.94818 0.899489 0.93051
0.955291 0.893477 0.924071
0.95523 0.892638 0.923415
0.686061 0.974487 0.970947
0.686061 0.974487 0.970947
0.686061 0.974487 0.970947
0.69752 0.974624 0.971115
0.756848 0.974426 0.971069
0.853452 0.970825 0.971862
0.945632 0.949722 0.967605
0.966506 0.953613 0.959716
0.966033 0.952636 0.958862
0.686061 0.974487 0.970947
0.686061 0.974487 0.970947
0.686061 0.974487 0.970947
0.696117 0.97464 0.97113
0.75314 0.974426 0.971069
0.850553 0.974807 0.971588
0.937926 0.977569 0.975219
0.973541 0.977325 0.976959
0.975799 0.976547 0.975769
0.686061 0.974487 0.970947
0.686061 0.974487 0.970947
0.686061 0.974487 0.970947
0.695964 0.97464 0.97113
0.752697 0.974426 0.971069
0.849973 0.974807 0.971588
0.936996 0.977523 0.975143
0.97377 0.979644 0.978286
0.977569 0.979828 0.978607
