luts/changyun_kodaklike/kodaEK25.cube
TITLE "Generated by Resolve"
LUT_3D_SIZE 33
0.00132753 0.00215152 0.00218204
0.00244144 0.00190738 0.00184634
0.00544747 0.00221256 0.00148013
0.00959792 0.00283818 0.00123598
0.0179904 0.00411994 0.000946059
0.033814 0.00672923 0.000640879
0.0651102 0.0113527 0.000289921
0.096437 0.0196231 9.15541e-05
0.127871 0.0312047 0.00030518
0.174487 0.0371405 0
0.235035 0.0297246 0
0.30544 0.0159152 0
0.380728 0.00607309 0
0.458473 0.0166629 0
0.536965 0.065095 0
0.61442 0.109316 0
0.691279 0.145312 0
0.763043 0.182666 0
0.829221 0.220096 0
0.890791 0.256855 0
0.947433 0.291157 0
0.966293 0.302892 0
0.98526 0.314855 0
0.98526 0.314855 0
0.98526 0.314855 0
0.98526 0.314855 0
0.98526 0.314855 0
0.98526 0.314855 0
0.98526 0.314855 0
0.98526 0.314855 0
0.98526 0.314855 0
0.98526 0.314855 0
0.98526 0.314855 0
0.000686656 0.00378424 0.00244144
0.00148013 0.0034638 0.00216678
0.00404364 0.00350958 0.00181582
0.0087129 0.00390631 0.00141909
0.0162661 0.00477607 0.00105287
0.0321202 0.00691234 0.000762951
0.0625162 0.0109712 0.00030518
0.0944991 0.0189975 9.15541e-05
0.125963 0.030518 0.000289921
0.171679 0.0372778 0
0.232441 0.0302281 0
0.302373 0.0164492 0
0.377707 0.0062562 0
0.455558 0.0158541 0
0.534142 0.0628367 0
0.611933 0.108186 0
0.689067 0.144213 0
0.760937 0.181521 0
0.827192 0.218936 0
0.888594 0.255528 0
0.945357 0.289891 0
0.965499 0.302388 0
0.98526 0.314855 0
0.98526 0.314855 0
0.98526 0.314855 0
0.98526 0.314855 0
0.98526 0.314855 0
0.98526 0.314855 0
0.98526 0.314855 0
0.98526 0.314855 0
0.98526 0.314855 0
0.98526 0.314855 0
0.98526 0.314855 0
0.000335698 0.00862135 0.00369268
0.000823987 0.007187 0.00309758
0.00260929 0.00588998 0.00244144
0.00764477 0.0049897 0.00164797
0.0148165 0.00552377 0.0011902
0.0306096 0.00762951 0.000793469
0.059968 0.0113832 0.000289921
0.0926833 0.0185702 9.15541e-05
0.1243 0.0298924 0.000274662
0.169574 0.0373846 0
0.22974 0.0306554 0
0.300084 0.0168612 0
0.375143 0.00640879 0
0.453086 0.0151827 0
0.531746 0.060914 0
0.609583 0.107134 0
0.686732 0.143038 0
0.758709 0.180316 0
0.825177 0.217762 0
0.88661 0.254353 0
0.943404 0.288685 0
0.96434 0.301671 0
0.98526 0.314855 0
0.98526 0.314855 0
0.98526 0.314855 0
0.98526 0.314855 0
0.98526 0.314855 0
0.98526 0.314855 0
0.98526 0.314855 0
0.98526 0.314855 0
0.98526 0.314855 0
0.98526 0.314855 0
0.98526 0.314855 0
7.62951e-05 0.014725 0.00529488
0.00030518 0.0135042 0.00479133
0.00108339 0.0122072 0.00422675
0.00540169 0.0112154 0.00332647
0.0115053 0.00978103 0.0021973
0.0284581 0.00965896 0.00102235
0.0572671 0.0120394 0.000366217
0.0906996 0.0189212 4.57771e-05
0.122347 0.0296941 0.000213626
0.166476 0.0375525 0
0.226886 0.0310979 0
0.296712 0.0174411 0
0.372137 0.0065919 0
0.450187 0.014374 0
0.529061 0.0587625 0
0.606836 0.105898 0
0.684276 0.141817 0
0.756359 0.179034 0
0.822797 0.216388 0
0.884276 0.252949 0
0.9411 0.287282 0
0.963195 0.300938 0
0.98526 0.314855 0
0.98526 0.314855 0
0.98526 0.314855 0
0.98526 0.314855 0
0.98526 0.314855 0
0.98526 0.314855 0
0.98526 0.314855 0
0.98526 0.314855 0
0.98526 0.314855 0
0.98526 0.314855 0
0.98526 0.314855 0
0 0.0291905 0.00869764
0 0.0258335 0.00784314
0 0.0226902 0.00700389
0.00292973 0.019501 0.00555428
0.00769055 0.0178225 0.00421149
0.0235752 0.0173495 0.00225834
0.0522927 0.0175784 0.000717174
0.0884565 0.0206912 1.5259e-05
0.12015 0.0305791 6.10361e-05
0.163272 0.038468 0
0.223133 0.031693 0
0.293187 0.0180514 0
0.368658 0.00680552 0
0.44683 0.0134585 0
0.525673 0.0560616 0
0.603433 0.104372 0
0.681025 0.1402 0
0.753262 0.177356 0
0.820066 0.214801 0
0.881605 0.251347 0
0.938216 0.285527 0
0.961929 0.300145 0
0.98526 0.314855 0
0.98526 0.314855 0
0.98526 0.314855 0
0.98526 0.314855 0
0.98526 0.314855 0
0.98526 0.314855 0
0.98526 0.314855 0
0.98526 0.314855 0
0.98526 0.314855 0
0.98526 0.314855 0
0.98526 0.314855 0
0 0.0527504 0.014313
0 0.0478981 0.0131075
0 0.0444343 0.0124361
0.000823987 0.0407568 0.0113069
0.00309758 0.0365148 0.00959792
0.0157931 0.0330816 0.00639353
0.0441749 0.0294499 0.00227359
0.0852064 0.0290684 0.00015259
0.117571 0.0362554 0
0.159091 0.0409094 0
0.218311 0.0339361 0
0.288411 0.019089 0
0.363989 0.00708019 0
0.442313 0.0122072 0
0.521309 0.0525521 0
0.599496 0.102602 0
0.677241 0.138323 0
0.74966 0.175402 0
0.816388 0.212665 0
0.878004 0.249195 0
0.934874 0.283482 0
0.960098 0.298985 0
0.98526 0.314855 0
0.98526 0.314855 0
0.98526 0.314855 0
0.98526 0.314855 0
0.98526 0.314855 0
0.98526 0.314855 0
0.98526 0.314855 0
0.98526 0.314855 0
0.98526 0.314855 0
0.98526 0.314855 0
0.98526 0.314855 0
0 0.0863355 0.0259251
0 0.0827039 0.0238041
0 0.0781872 0.0221714
6.10361e-05 0.0735485 0.0207675
0.00047303 0.0675669 0.0186313
0.00717174 0.0611429 0.0151675
0.028275 0.05626 0.00914015
0.0742962 0.0537728 0.00268559
0.114366 0.0519722 3.0518e-05
0.155627 0.049958 0
0.213321 0.0415351 0
0.282307 0.0233463 0
0.358144 0.00898756 0
0.436942 0.0107118 0
0.516228 0.0484932 0
0.594202 0.100237 0
0.671992 0.135851 0
0.744823 0.172778 0
0.811749 0.209979 0
0.873701 0.246616 0
0.930388 0.280735 0
0.957916 0.297612 0
0.983429 0.313695 0
0.98526 0.314855 0
0.98526 0.314855 0
0.98526 0.314855 0
0.98526 0.314855 0
0.98526 0.314855 0
0.98526 0.314855 0
0.98526 0.314855 0
0.98526 0.314855 0
0.98526 0.314855 0
0.98526 0.314855 0
0 0.109514 0.0398871
0 0.106645 0.0379797
0 0.104158 0.0361334
0 0.101396 0.0337682
0 0.0983749 0.0312352
0.00166323 0.0945602 0.0284581
0.0135653 0.0903944 0.0243992
0.053254 0.0867628 0.0144503
0.106294 0.0813153 0.00361639
0.152773 0.074403 6.10361e-05
0.209125 0.063447 0
0.2766 0.0416114 0
0.350927 0.0203861 0
0.429664 0.0135348 0
0.509407 0.0447089 0
0.587945 0.0974289 0
0.665797 0.132937 0
0.738842 0.16965 0
0.806271 0.206806 0
0.868345 0.243412 0
0.924865 0.277363 0
0.955154 0.295872 0
0.980774 0.312032 0
0.98526 0.314855 0
0.98526 0.314855 0
0.98526 0.314855 0
0.98526 0.314855 0
0.98526 0.314855 0
0.98526 0.314855 0
0.98526 0.314855 0
0.98526 0.314855 0
0.98526 0.314855 0
0.98526 0.314855 0
0 0.143969 0.0545663
0 0.140536 0.0526741
0 0.137423 0.0510872
0 0.133669 0.0493782
0 0.129168 0.0466773
0 0.124575 0.0425116
0.00198367 0.118486 0.0389105
0.0269017 0.112703 0.0334173
0.088777 0.109636 0.0206455
0.142229 0.105959 0.00418097
0.205341 0.0958114 0
0.271946 0.0803998 0
0.345068 0.0601968 0
0.422293 0.0439765 0
0.501289 0.057496 0
0.57998 0.0958419 0
0.657771 0.129534 0
0.731945 0.166064 0
0.799619 0.203052 0
0.861646 0.239399 0
0.91841 0.273472 0
0.952041 0.29398 0
0.977676 0.310079 0
0.98526 0.314855 0
0.98526 0.314855 0
0.98526 0.314855 0
0.98526 0.314855 0
0.98526 0.314855 0
0.98526 0.314855 0
0.98526 0.314855 0
0.98526 0.314855 0
0.98526 0.314855 0
0.98526 0.314855 0
0 0.190417 0.0713054
0 0.186481 0.0690166
0 0.18291 0.0669566
0 0.178882 0.0644541
0 0.174121 0.061677
0 0.167788 0.0583658
0 0.160067 0.0540627
0.00164797 0.151583 0.0482338
0.043534 0.143496 0.0413214
0.119936 0.140459 0.0218204
0.191043 0.13547 0.00158694
0.268498 0.12076 0
0.340276 0.108278 0
0.415763 0.0972763 0
0.493614 0.0965744 0
0.571374 0.107668 0
0.648386 0.130755 0
0.721889 0.162676 0
0.790875 0.198489 0
0.854231 0.234958 0
0.911025 0.269017 0
0.948241 0.291646 0
0.974105 0.30782 0
0.98526 0.314855 0
0.98526 0.314855 0
0.98526 0.314855 0
0.98526 0.314855 0
0.98526 0.314855 0
0.98526 0.314855 0
0.98526 0.314855 0
0.98526 0.314855 0
0.98526 0.314855 0
0.98526 0.314855 0
0 0.248722 0.0923629
0 0.244465 0.0901045
0 0.240513 0.0882124
0 0.236042 0.0859236
0 0.230503 0.0829633
0 0.223697 0.0790875
0 0.215213 0.0738689
0 0.205005 0.0667582
3.0518e-05 0.193072 0.0579385
0.0827802 0.182696 0.045304
0.162325 0.180316 0.0169223
0.249699 0.174334 0
0.338323 0.157992 0
0.413474 0.144274 0
0.487739 0.13547 0
0.564157 0.135775 0
0.639719 0.147173 0
0.71191 0.168811 0
0.780667 0.19855 0
0.843458 0.231098 0
0.901122 0.264118 0
0.943267 0.288853 0
0.969558 0.305028 0
0.98526 0.314855 0
0.98526 0.314855 0
0.98526 0.314855 0
0.98526 0.314855 0
0.98526 0.314855 0
0.98526 0.314855 0
0.98526 0.314855 0
0.98526 0.314855 0
0.98526 0.314855 0
0.98526 0.314855 0
0 0.313375 0.115267
0 0.309102 0.113039
0 0.305135 0.110948
0 0.300664 0.108553
0 0.295171 0.105592
0 0.288685 0.101946
0 0.280064 0.0982376
0 0.269657 0.0929274
0 0.256809 0.0859236
0.00779736 0.241932 0.0747539
0.126772 0.229938 0.0502632
0.21326 0.226825 0.0049897
0.312032 0.221988 0
0.40705 0.205051 0
0.487419 0.189624 0
0.561975 0.182025 0
0.635813 0.183078 0
0.71075 0.195422 0
0.774044 0.213367 0
0.834073 0.237537 0
0.891295 0.266026 0
0.937667 0.290776 0
0.963348 0.304234 0
0.983536 0.315541 0
0.983734 0.315022 0
0.983886 0.314611 0
0.984009 0.314321 0
0.984146 0.314366 0
0.984253 0.314412 0
0.984283 0.314427 0
0.984298 0.314427 0
0.984329 0.314443 0
0.984344 0.314458 0
0 0.380774 0.142855
0 0.37705 0.140703
0 0.373327 0.138582
0 0.36907 0.136126
0 0.36379 0.133104
0 0.357275 0.129244
0 0.34905 0.124331
0 0.338338 0.118044
0 0.325841 0.111574
0 0.311055 0.103349
0.0612039 0.293446 0.0932937
0.17673 0.281788 0.0602121
0.269917 0.279606 0.00299077
0.375067 0.276173 0
0.474571 0.25948 0
0.561273 0.243381 0
0.63328 0.235187 0
0.703182 0.236118 0
0.77052 0.246693 0
0.832731 0.263462 0
0.889235 0.284932 0
0.935836 0.305852 0
0.96022 0.315587 0
0.981048 0.3243 0
0.983215 0.323491 0
0.983215 0.321859 0
0.983215 0.320623 0
0.983215 0.319814 0
0.98323 0.319554 0
0.98323 0.319432 0
0.98323 0.319371 0
0.983246 0.31931 0
0.983246 0.319249 0
0 0.451591 0.173602
0 0.447669 0.171084
0 0.444038 0.168856
0 0.440162 0.166583
0 0.435233 0.163867
0 0.429053 0.160357
0 0.421225 0.155871
0 0.411414 0.149996
0 0.39855 0.142199
0 0.383032 0.132921
0 0.365713 0.122652
0.132174 0.346334 0.110048
0.23006 0.337713 0.0754711
0.329946 0.338384 0
0.44358 0.339574 0
0.543969 0.322927 0
0.63299 0.304417 0
0.700008 0.294957 0
0.763973 0.29427 0
0.82446 0.301152 0
0.87953 0.313787 0
0.926543 0.328252 0
0.959152 0.339971 0
0.981445 0.34789 0
0.988952 0.348424 0
0.98909 0.345617 0
0.989181 0.343572 0
0.989242 0.342245 0
0.989288 0.341405 0
0.989303 0.3411 0
0.989319 0.340932 0
0.989319 0.340764 0
0.989334 0.340597 0
0 0.520653 0.204913
0 0.517266 0.202869
0 0.513893 0.200824
0 0.510033 0.198535
0 0.505226 0.19556
0 0.49955 0.192004
0 0.492699 0.187732
0 0.484184 0.182681
0 0.472953 0.175982
0 0.458 0.166888
0 0.441047 0.155917
0.0122683 0.421256 0.143694
0.188479 0.398962 0.128542
0.282887 0.392432 0.0950332
0.387091 0.396124 0
0.503761 0.401129 0
0.605158 0.387243 0
0.697658 0.373312 0
0.766506 0.362905 0
0.820523 0.357549 0
0.871824 0.359258 0
0.917754 0.366598 0
0.954757 0.374609 0
0.97673 0.378927 0
0.989242 0.380148 0
0.989136 0.376028 0
0.989059 0.373236 0
0.989013 0.371359 0
0.988983 0.370382 0
0.988968 0.369924 0
0.988968 0.369696 0
0.988952 0.369467 0
0.988952 0.369238 0
0 0.596307 0.238056
0 0.592233 0.235767
0 0.588403 0.233616
0 0.584298 0.231235
0 0.578851 0.228168
0 0.571923 0.224186
0 0.56347 0.219394
0 0.553796 0.213718
0 0.542412 0.206836
0 0.528908 0.199176
0 0.512917 0.189502
0 0.494499 0.177569
0.110964 0.473548 0.16405
0.2421 0.451453 0.146426
0.337179 0.448508 0.10988
0.443259 0.453559 0.00721752
0.559518 0.461463 0
0.657786 0.450294 0
0.746548 0.438651 0
0.819104 0.428199 0
0.870329 0.422782 0
0.914382 0.421897 0
0.955505 0.425803 0
0.975952 0.425345 0
0.992615 0.425742 0
0.99173 0.419944 0
0.991058 0.415641 0
0.990616 0.412741 0
0.990509 0.41146 0
0.990478 0.410727 0
0.990463 0.410437 0
0.990448 0.410147 0
0.990433 0.409995 0
0 0.671977 0.275288
0 0.668254 0.272709
0 0.664515 0.270054
0 0.660258 0.267048
0 0.654841 0.263447
0 0.648524 0.259419
0 0.640803 0.254749
0 0.63093 0.2486
0 0.619379 0.241535
0 0.605478 0.233066
0 0.588861 0.223072
0 0.568566 0.211093
0.00708019 0.546883 0.197452
0.194598 0.52253 0.18175
0.294652 0.501656 0.161898
0.392706 0.503944 0.124285
0.498558 0.510491 0.018143
0.612024 0.521111 0
0.706157 0.513252 0
0.78851 0.503349 0
0.859419 0.493874 0
0.909087 0.486488 0
0.949706 0.483803 0
0.974334 0.481163 0
0.991669 0.479042 0
0.996094 0.474647 0
0.995834 0.470146 0
0.995682 0.467308 0
0.995575 0.465568 0
0.995544 0.464836 0
0.995514 0.464469 0
0.995499 0.464103 0
0.995483 0.463737 0
0 0.747341 0.319814
0 0.743328 0.316732
0 0.739528 0.313787
0 0.735119 0.310338
0 0.729595 0.30602
0 0.722667 0.300481
0 0.714275 0.294224
0 0.704387 0.286992
0 0.69337 0.279408
0 0.68011 0.270512
0 0.665476 0.260349
0 0.647272 0.247807
0 0.625513 0.233188
0.105867 0.60238 0.217441
0.259831 0.575204 0.199268
0.351583 0.55523 0.174853
0.44799 0.556863 0.134905
0.551324 0.564248 0.0294957
0.661982 0.578775 0
0.750835 0.574243 0
0.825772 0.565972 0
0.886549 0.557443 0
0.940139 0.550866 0
0.974487 0.545296 0
0.990768 0.540459 0
1 0.535958 0
0.999969 0.530785 0
0.999786 0.527642 0
0.999664 0.525719 0
0.999619 0.524895 0
0.999588 0.524498 0
0.999573 0.524086 0
0.999557 0.523781 0
0 0.824033 0.379187
0 0.820035 0.374716
0 0.816388 0.371283
0 0.812268 0.367391
0 0.80708 0.362676
0 0.800687 0.356741
0 0.792416 0.349096
0 0.781582 0.339422
0 0.76907 0.328573
0 0.754482 0.315923
0 0.737301 0.302174
0 0.718074 0.286702
0 0.698268 0.27129
0.00772107 0.676249 0.254505
0.216434 0.651987 0.235752
0.323323 0.623865 0.214481
0.414832 0.612619 0.188174
0.510353 0.614572 0.148486
0.607141 0.620478 0.0527352
0.70959 0.634943 0
0.790021 0.631464 0
0.853498 0.623758 0
0.909834 0.617517 0
0.956588 0.612619 0
0.980087 0.606363 0
0.998047 0.601556 0
0.998764 0.596124 0
0.999252 0.592386 0
0.999512 0.590463 0
0.999634 0.589563 0
0.99968 0.589105 0
0.999741 0.588647 0
0.999802 0.588205 0
0 0.904402 0.47332
0 0.899992 0.466423
0 0.895857 0.459937
0 0.891142 0.452567
0 0.885588 0.44535
0 0.878431 0.435996
0 0.869352 0.424048
0 0.858091 0.409277
0 0.844694 0.394003
0 0.829496 0.37734
0 0.812711 0.359548
0 0.794003 0.341497
0 0.772824 0.32134
0 0.749508 0.299794
0.173419 0.724788 0.278172
0.299947 0.698253 0.254551
0.389212 0.671275 0.229786
0.47921 0.666026 0.202167
0.569177 0.667201 0.164019
0.658305 0.671656 0.0955062
0.748913 0.682551 0
0.821286 0.684627 0
0.880705 0.680186 0
0.929671 0.675959 0
0.960647 0.671 0
0.979873 0.666209 0
0.986755 0.661341 0
0.987381 0.657465 0
0.987732 0.655222 0
0.987884 0.654292 0
0.987945 0.653941 0
0.988022 0.653468 0
0.988098 0.652995 0
0 0.915999 0.492058
0 0.913817 0.488533
0 0.911757 0.485206
0 0.909575 0.481575
0 0.906676 0.476814
0 0.903212 0.471046
0 0.898909 0.463783
0 0.893446 0.454429
0 0.886717 0.444312
0 0.878614 0.432685
0 0.86891 0.418723
0 0.858701 0.403555
0 0.842191 0.382895
0 0.818677 0.355718
0.146517 0.794156 0.329473
0.289662 0.768353 0.302739
0.380423 0.740841 0.274876
0.459815 0.718196 0.246525
0.543389 0.713314 0.215976
0.627085 0.714 0.179156
0.70695 0.716701 0.114961
0.781369 0.723384 0.013489
0.85069 0.730495 0
0.902113 0.727977 0
0.9402 0.724712 0
0.960784 0.720943 0
0.973831 0.717693 0
0.974746 0.714168 0
0.975265 0.712154 0
0.975494 0.711299 0
0.975601 0.710872 0
0.975708 0.710445 0
0.975814 0.710018 0
0 0.928512 0.513222
0 0.928298 0.512154
0 0.928054 0.511025
0 0.927825 0.509957
0 0.927672 0.508873
0 0.927916 0.50869
0 0.928222 0.508446
0 0.928588 0.508171
0 0.925689 0.502831
0 0.917967 0.489891
0 0.908095 0.472892
0.0104982 0.897414 0.454246
0 0.885908 0.43473
0.0413214 0.873304 0.415946
0.204883 0.86038 0.395865
0.302937 0.837186 0.364935
0.383871 0.809689 0.330861
0.458 0.782467 0.299123
0.533242 0.768032 0.26981
0.610819 0.763531 0.240009
0.683894 0.760861 0.202594
0.747616 0.758709 0.15491
0.812955 0.763607 0.0625467
0.875227 0.77406 0.00415045
0.918791 0.77406 0
0.942199 0.770779 0
0.958709 0.76817 0
0.961791 0.765072 0
0.962234 0.763058 0
0.962417 0.762219 0
0.962509 0.761791 0
0.96257 0.761471 0
0.962661 0.761044 0
0 0.929397 0.517388
0 0.929168 0.516258
0 0.928954 0.515312
0 0.928695 0.514061
0 0.928405 0.512657
0 0.928008 0.510796
0 0.927657 0.508888
0 0.928038 0.508598
0 0.928496 0.508293
0 0.929 0.507836
0 0.929259 0.506508
0.0406043 0.928512 0.502815
0.14612 0.922591 0.491005
0.156802 0.910765 0.470359
0.25861 0.896773 0.444816
0.332723 0.882841 0.419654
0.408362 0.869368 0.397864
0.472862 0.847761 0.364294
0.535409 0.8224 0.327718
0.605692 0.813306 0.297704
0.673838 0.806882 0.265888
0.734218 0.803021 0.232349
0.792172 0.801587 0.193698
0.843763 0.802457 0.139803
0.895018 0.811231 0.0634775
0.926741 0.813504 0.0208896
0.943496 0.811582 0.00416571
0.951263 0.809476 0.000122072
0.95169 0.807645 0
0.951904 0.806836 0
0.951995 0.806424 0
0.952071 0.806134 0
0.952178 0.805722 0
0 0.930159 0.521004
0 0.929931 0.519875
0 0.929717 0.518914
0 0.929458 0.517678
0 0.929168 0.516258
0 0.928771 0.514397
0 0.928313 0.512261
0 0.927703 0.509392
0 0.927993 0.508644
0 0.928603 0.508415
0 0.92903 0.507469
0.0378424 0.928939 0.504997
0.160845 0.928145 0.500877
0.248569 0.928862 0.499718
0.320546 0.928237 0.495308
0.37525 0.917235 0.473945
0.433112 0.903334 0.447288
0.493065 0.889311 0.419883
0.554131 0.8757 0.39472
0.613535 0.86215 0.362539
0.674372 0.852018 0.328557
0.72903 0.84419 0.29572
0.78201 0.839399 0.262699
0.828885 0.8365 0.228901
0.869169 0.835691 0.194385
0.907362 0.841108 0.151858
0.929381 0.844877 0.112749
0.943969 0.846891 0.0809949
0.944823 0.845289 0.0695964
0.945022 0.844617 0.0652018
0.945129 0.844266 0.0630045
0.945205 0.844022 0.0613565
0.945312 0.843671 0.059144
0 0.930632 0.523629
0 0.930571 0.522911
0 0.930343 0.521843
0 0.930083 0.520668
0 0.929793 0.519249
0 0.929427 0.51751
0 0.928939 0.51519
0 0.928344 0.512367
0 0.927642 0.509041
0 0.928237 0.508858
0 0.928786 0.508141
0.0289006 0.929015 0.506355
0.15462 0.928481 0.502708
0.240909 0.928817 0.500694
0.315724 0.928664 0.497139
0.385794 0.927703 0.4916
0.454978 0.926894 0.485801
0.517067 0.920089 0.470863
0.572305 0.907057 0.445121
0.627482 0.897185 0.419181
0.684108 0.893324 0.394308
0.732982 0.88304 0.359808
0.780484 0.875044 0.324941
0.824063 0.870085 0.295033
0.860792 0.866484 0.265339
0.889693 0.863798 0.238148
0.910826 0.864332 0.217166
0.924895 0.865644 0.203143
0.930251 0.865934 0.196414
0.9308 0.865553 0.194339
0.931014 0.865415 0.193561
0.931289 0.865232 0.192493
0.931563 0.865049 0.19147
0 0.93048 0.524742
0 0.930541 0.524224
0 0.930602 0.523781
0 0.930587 0.523033
0 0.930297 0.521614
0 0.9299 0.519753
0 0.929427 0.51751
0 0.928832 0.514748
0 0.928145 0.511467
0 0.927932 0.509178
0 0.928557 0.508659
0.0180667 0.928878 0.507057
0.149981 0.928725 0.504051
0.234943 0.928786 0.501442
0.31043 0.92871 0.49807
0.381674 0.928008 0.493004
0.450828 0.927169 0.487205
0.519051 0.92697 0.482475
0.585885 0.928206 0.481102
0.643091 0.922911 0.467048
0.6963 0.918242 0.4439
0.742397 0.91371 0.418006
0.784863 0.905989 0.383032
0.825284 0.899748 0.35346
0.859571 0.894911 0.325734
0.887144 0.891295 0.300786
0.907134 0.889326 0.282368
0.917571 0.887388 0.269688
0.923705 0.886275 0.262013
0.92369 0.885512 0.260105
0.923674 0.885069 0.259022
0.923674 0.884627 0.257923
0.923659 0.884184 0.25684
0 0.930373 0.525521
0 0.930434 0.525032
0 0.930495 0.524529
0 0.930571 0.52401
0 0.930663 0.523369
0 0.930266 0.521508
0 0.929793 0.519249
0 0.929213 0.516487
0 0.928512 0.513222
0 0.92784 0.509667
0 0.928405 0.50901
0.0119783 0.928771 0.507576
0.145968 0.928847 0.504967
0.230472 0.928756 0.501991
0.306432 0.928695 0.498665
0.378653 0.928222 0.494041
0.44773 0.927367 0.488212
0.515236 0.926818 0.482521
0.582101 0.927977 0.480995
0.645518 0.930434 0.481147
0.706645 0.937453 0.482658
0.751522 0.933455 0.460273
0.794217 0.930053 0.43653
0.829648 0.923415 0.404105
0.86099 0.917205 0.37348
0.887999 0.913558 0.351507
0.908064 0.911009 0.333623
0.918379 0.908705 0.321355
0.924865 0.907683 0.314504
0.92546 0.906813 0.311986
0.925368 0.906325 0.310796
0.925292 0.905821 0.309606
0.9252 0.905318 0.308431
0 0.930297 0.52604
0 0.930358 0.525567
0 0.930434 0.525078
0 0.930495 0.524529
0 0.930587 0.523888
0 0.930526 0.522744
0 0.930037 0.520439
0 0.929442 0.517617
0 0.92874 0.51429
