luts/changyun_kodaklike/kodaP400.cube
TITLE "Generated by Resolve"
LUT_3D_SIZE 33
0.0280308 0.0252079 0.0241703
0.0296941 0.0247654 0.0238041
0.0346838 0.0248264 0.0235599
0.0416266 0.0251316 0.0234531
0.0548104 0.0256352 0.0236057
0.0795148 0.0263676 0.024094
0.0999313 0.0313726 0.0250553
0.124285 0.0370794 0.0269627
0.160632 0.0403906 0.0296483
0.214923 0.026978 0.0319371
0.284459 0 0.0339361
0.368521 0 0.0321355
0.463279 0 0.0233921
0.562799 0 0.00541695
0.659831 0 0
0.746349 0 0
0.822278 0.0425574 0
0.882521 0.178912 0
0.931365 0.251972 0
0.973663 0.31191 0.0350042
0.999329 0.363394 0.105592
1 0.379705 0.120668
1 0.395789 0.135927
1 0.395789 0.135927
1 0.395789 0.135927
1 0.395789 0.135927
1 0.395789 0.135927
1 0.395789 0.135927
1 0.395789 0.135927
1 0.395789 0.135927
1 0.395789 0.135927
1 0.395789 0.135927
1 0.395789 0.135927
0.0276646 0.0266117 0.0246891
0.0290227 0.0260929 0.0243839
0.0332494 0.0259403 0.0240787
0.0409094 0.0261387 0.0237736
0.0527504 0.0265202 0.023682
0.0769207 0.026978 0.0242008
0.0984207 0.03093 0.0249638
0.122606 0.0367132 0.0268101
0.158297 0.0402838 0.0294804
0.211719 0.0282597 0.0317998
0.281437 0.000411994 0.0339055
0.364782 0 0.0323033
0.459434 0 0.0238651
0.559075 0 0.00621042
0.656413 0 0
0.743877 0 0
0.820279 0.0355383 0
0.880873 0.176333 0
0.929931 0.249882 0
0.972168 0.309819 0.0321355
0.999161 0.361563 0.103944
1 0.379019 0.120012
1 0.395789 0.135927
1 0.395789 0.135927
1 0.395789 0.135927
1 0.395789 0.135927
1 0.395789 0.135927
1 0.395789 0.135927
1 0.395789 0.135927
1 0.395789 0.135927
1 0.395789 0.135927
1 0.395789 0.135927
1 0.395789 0.135927
0.0278782 0.0318914 0.026154
0.0289006 0.030045 0.0255283
0.0318914 0.0283665 0.0248875
0.0399023 0.0271763 0.0242008
0.0511482 0.027451 0.0238651
0.0748302 0.0281834 0.0242313
0.0970932 0.0316472 0.0247807
0.12105 0.0365911 0.0266423
0.156268 0.0401465 0.0293431
0.209308 0.029221 0.031693
0.278325 0.00166323 0.0338445
0.361975 0 0.0324407
0.456168 0 0.0242618
0.555917 0 0.00686656
0.653498 0 0
0.741558 0 0
0.818158 0.0280919 0
0.879118 0.173617 0
0.928496 0.247791 0
0.970825 0.307942 0.029572
0.999008 0.359823 0.102403
1 0.378042 0.119097
1 0.395789 0.135927
1 0.395789 0.135927
1 0.395789 0.135927
1 0.395789 0.135927
1 0.395789 0.135927
1 0.395789 0.135927
1 0.395789 0.135927
1 0.395789 0.135927
1 0.395789 0.135927
1 0.395789 0.135927
1 0.395789 0.135927
0.0284886 0.0386969 0.0280308
0.0292515 0.0370184 0.0274662
0.0308385 0.0353399 0.0268254
0.0382391 0.0340581 0.0259098
0.0480354 0.0323186 0.0248264
0.0725414 0.0308843 0.0243992
0.0956893 0.0327153 0.0248112
0.119402 0.0376745 0.0262608
0.153918 0.040528 0.0290837
0.205798 0.0306249 0.0315557
0.275029 0.00297551 0.0337682
0.35787 0 0.032639
0.452323 0 0.0247196
0.552193 0 0.00766003
0.650248 0 0
0.738705 0 0
0.815915 0.0202487 0
0.877287 0.170733 0
0.926818 0.245335 0
0.969253 0.305745 0.0265354
0.998825 0.357794 0.100572
1 0.377066 0.118166
1 0.395789 0.135927
1 0.395789 0.135927
1 0.395789 0.135927
1 0.395789 0.135927
1 0.395789 0.135927
1 0.395789 0.135927
1 0.395789 0.135927
1 0.395789 0.135927
1 0.395789 0.135927
1 0.395789 0.135927
1 0.395789 0.135927
0.0298619 0.0537728 0.0319066
0.0302434 0.0502174 0.0308232
0.0307164 0.0467231 0.0298619
0.0365454 0.0431067 0.0282902
0.0451209 0.0411536 0.0267948
0.068864 0.0404212 0.0251469
0.0937362 0.0399786 0.0247501
0.117647 0.0406195 0.0257572
0.151354 0.0421759 0.0286107
0.202121 0.032929 0.031281
0.270695 0.00469978 0.0336614
0.353567 0 0.0328527
0.447898 0 0.0252537
0.547921 0 0.00856031
0.646143 0 0
0.734981 0 0
0.81297 0.00991836 0
0.874861 0.166949 0
0.92488 0.242496 0
0.967453 0.303212 0.0230564
0.998596 0.355245 0.0982986
1 0.375998 0.117144
1 0.395789 0.135927
1 0.395789 0.135927
1 0.395789 0.135927
1 0.395789 0.135927
1 0.395789 0.135927
1 0.395789 0.135927
1 0.395789 0.135927
1 0.395789 0.135927
1 0.395789 0.135927
1 0.395789 0.135927
1 0.395789 0.135927
0.0322576 0.075761 0.0382391
0.0320897 0.0730755 0.0364843
0.0323033 0.0700236 0.0353704
0.0359655 0.066331 0.0340734
0.043183 0.0618296 0.0322576
0.0633555 0.0579995 0.0290684
0.0909285 0.0539864 0.0256352
0.115557 0.0518959 0.0252384
0.148836 0.0497597 0.0277104
0.197375 0.0373236 0.030808
0.264927 0.00773632 0.0336461
0.347707 0 0.0331579
0.441947 0 0.0259709
0.542153 0 0.00976577
0.640833 0 0
0.730678 0 0
0.809461 0 0
0.872053 0.162554 0
0.922255 0.238682 0
0.965011 0.299809 0.0183719
0.998337 0.3523 0.0956436
1 0.374426 0.115663
1 0.395789 0.135927
1 0.395789 0.135927
1 0.395789 0.135927
1 0.395789 0.135927
1 0.395789 0.135927
1 0.395789 0.135927
1 0.395789 0.135927
1 0.395789 0.135927
1 0.395789 0.135927
1 0.395789 0.135927
1 0.395789 0.135927
0.0366522 0.098436 0.0504921
0.0364385 0.0957046 0.0480201
0.0361486 0.092958 0.0461128
0.0373083 0.0902113 0.0445258
0.0429084 0.0865644 0.0424201
0.0572061 0.0830091 0.0384833
0.0841382 0.0808118 0.0322576
0.111803 0.0768444 0.0272068
0.147021 0.0682536 0.0263676
0.193957 0.0510719 0.0296025
0.259266 0.0191196 0.033051
0.339956 0 0.0339666
0.434302 0 0.0266728
0.535271 0 0.0112154
0.634684 0 0
0.724865 0 0
0.80412 0 0
0.868269 0.156634 0
0.918959 0.233875 0
0.962097 0.295735 0.0127718
0.997971 0.348333 0.0920882
1 0.37258 0.113909
1 0.394232 0.134447
1 0.395789 0.135927
1 0.395789 0.135927
1 0.395789 0.135927
1 0.395789 0.135927
1 0.395789 0.135927
1 0.395789 0.135927
1 0.395789 0.135927
1 0.395789 0.135927
1 0.395789 0.135927
1 0.395789 0.135927
0.026566 0.124178 0.0645304
0.0298009 0.12076 0.062501
0.0319982 0.117968 0.0604715
0.0328679 0.115053 0.0577707
0.0378424 0.111803 0.0556039
0.0479744 0.107759 0.0531167
0.0728161 0.103548 0.0473182
0.101396 0.100038 0.0386358
0.141604 0.0962997 0.0294957
0.193027 0.0843519 0.0270085
0.255055 0.0523384 0.0311284
0.333013 0.00273136 0.0314031
0.424643 0 0.0263523
0.525429 0 0.0126345
0.62623 0 0
0.718029 0 0
0.797818 0 0
0.863355 0.14786 0
0.915068 0.228183 0
0.95848 0.290669 0.00581369
0.996643 0.343389 0.0865644
0.999939 0.370214 0.111696
1 0.391989 0.132326
1 0.395789 0.135927
1 0.395789 0.135927
1 0.395789 0.135927
1 0.395789 0.135927
1 0.395789 0.135927
1 0.395789 0.135927
1 0.395789 0.135927
1 0.395789 0.135927
1 0.395789 0.135927
1 0.395789 0.135927
0.00163272 0.164416 0.0781872
0.00180056 0.160403 0.0763104
0.00239567 0.156741 0.0744335
0.00340276 0.152331 0.0722972
0.00672923 0.146975 0.0695659
0.0182803 0.141421 0.0664073
0.041474 0.134661 0.063035
0.0823987 0.129427 0.0554818
0.123583 0.124804 0.0434272
0.184329 0.119478 0.0286259
0.25304 0.101656 0.0245975
0.328069 0.0574197 0.025864
0.416922 0 0.0223392
0.515129 0 0.0111696
0.615442 0 0
0.708797 0 0
0.789548 0 0
0.857618 0.137392 0
0.91014 0.220829 0
0.953887 0.284169 0.00340276
0.992294 0.337453 0.0764935
0.999695 0.367468 0.109239
1 0.389349 0.129824
1 0.395789 0.135927
1 0.395789 0.135927
1 0.395789 0.135927
1 0.395789 0.135927
1 0.395789 0.135927
1 0.395789 0.135927
1 0.395789 0.135927
1 0.395789 0.135927
1 0.395789 0.135927
1 0.395789 0.135927
0 0.21854 0.091783
0 0.213886 0.090135
0 0.209689 0.0886702
0 0.204898 0.0869001
0 0.199283 0.0847334
0 0.191806 0.0820935
1.5259e-05 0.182498 0.0784161
0.0250095 0.173327 0.0717021
0.0937057 0.166629 0.0599832
0.157671 0.161334 0.0407111
0.239521 0.154849 0.0191653
0.327077 0.130419 0.0104372
0.411429 0.0854505 0.00987259
0.50602 0.00373846 0.00321965
0.604486 0 0
0.698009 0 0
0.779614 0.00273136 0
0.848554 0.126925 0
0.903258 0.211475 0
0.948775 0.276905 0.00238041
0.98732 0.330663 0.0649882
0.99939 0.364111 0.106233
1 0.386328 0.126955
1 0.395789 0.135927
1 0.395789 0.135927
1 0.395789 0.135927
1 0.395789 0.135927
1 0.395789 0.135927
1 0.395789 0.135927
1 0.395789 0.135927
1 0.395789 0.135927
1 0.395789 0.135927
1 0.395789 0.135927
0 0.288457 0.11078
0 0.283253 0.108324
0 0.278401 0.106477
0 0.272877 0.104387
0 0.266041 0.101732
0 0.257649 0.0986648
0 0.247288 0.0952316
0 0.234852 0.0909285
0.0210269 0.222202 0.0833753
0.116365 0.213916 0.0634165
0.201694 0.208774 0.0304875
0.304891 0.202197 0.0010071
0.412909 0.176974 0
0.50399 0.141299 0
0.596017 0.0965438 0
0.687846 0.0348974 0
0.769574 0.0615244 0
0.838697 0.143664 0
0.894392 0.210575 0
0.940261 0.269276 0
0.979995 0.322087 0.0452735
0.998672 0.359579 0.100984
1 0.382406 0.122988
1 0.395789 0.135927
1 0.395789 0.135927
1 0.395789 0.135927
1 0.395789 0.135927
1 0.395789 0.135927
1 0.395789 0.135927
1 0.395789 0.135927
1 0.395789 0.135927
1 0.395789 0.135927
1 0.395789 0.135927
0 0.366888 0.138994
0 0.361547 0.136172
0 0.356634 0.133532
0 0.351125 0.130526
0 0.344381 0.12697
0 0.3364 0.122744
0 0.325795 0.118349
0 0.312764 0.112917
0 0.296574 0.106447
0.0189059 0.281636 0.0961624
0.150881 0.271733 0.0694743
0.254719 0.265064 0.0148318
0.375769 0.260197 0
0.498177 0.237247 0
0.594629 0.206668 0
0.683406 0.18262 0
0.763638 0.177752 0
0.836805 0.2056 0
0.887816 0.238224 0
0.931823 0.279301 0
0.971893 0.323522 0.0220798
0.997147 0.360311 0.0919356
1 0.379767 0.115389
1 0.395575 0.132097
1 0.395117 0.132601
1 0.394751 0.132998
1 0.394491 0.133288
1 0.394629 0.133593
1 0.39472 0.133806
1 0.394766 0.133883
1 0.394781 0.133913
1 0.394797 0.133959
1 0.394827 0.134005
0 0.448203 0.174838
0 0.443702 0.172107
0 0.4392 0.169406
0 0.434073 0.166278
0 0.427695 0.162417
0 0.419806 0.157565
0 0.409689 0.151492
0 0.396216 0.143755
0 0.380407 0.136202
0 0.361639 0.127367
0.0485847 0.346334 0.112001
0.197986 0.335683 0.0819867
0.317327 0.329107 0.010193
0.448692 0.325154 0
0.581003 0.308843 0
0.677943 0.28452 0
0.756542 0.271901 0
0.824613 0.275685 0
0.881621 0.294621 0
0.92932 0.322362 0
0.969696 0.353964 0.0187839
0.998169 0.38117 0.0903334
1 0.393011 0.110857
1 0.404608 0.127199
1 0.404028 0.129503
1 0.402258 0.129885
1 0.400916 0.130159
1 0.400015 0.130343
1 0.399741 0.130434
1 0.399603 0.13048
1 0.399542 0.13051
1 0.399481 0.130526
1 0.39942 0.130556
0 0.529717 0.218982
0 0.525353 0.215412
0 0.521294 0.212314
0 0.51693 0.209186
0 0.511406 0.205432
0 0.504417 0.200549
0 0.495521 0.194415
0 0.484047 0.18645
0 0.468208 0.176471
0 0.448661 0.164828
0 0.427466 0.152895
0.115358 0.414511 0.132799
0.257221 0.405371 0.0990616
0.386481 0.399176 0.00704967
0.530739 0.40351 0
0.658137 0.393133 0
0.748516 0.372564 0
0.813169 0.362066 0
0.868482 0.363149 0
0.916472 0.374807 0
0.957259 0.392218 0.000427253
0.991058 0.410574 0.0561837
0.999832 0.424231 0.106828
1 0.433005 0.128389
1 0.43386 0.135988
1 0.430991 0.136873
1 0.428901 0.137514
1 0.427543 0.137926
1 0.426673 0.138201
1 0.426368 0.138293
1 0.4262 0.138338
1 0.426032 0.138399
1 0.425849 0.138445
0 0.60061 0.26717
0 0.597406 0.264149
0 0.594186 0.261097
0 0.590509 0.257679
0 0.585916 0.253285
0 0.580209 0.248219
0 0.573495 0.242313
0 0.565087 0.235355
0 0.553063 0.225818
0 0.535546 0.213062
0 0.515526 0.19855
0 0.492958 0.183032
0.194751 0.480797 0.15816
0.321492 0.469474 0.120943
0.453223 0.464363 0.0297398
0.594797 0.472114 0
0.714137 0.471748 0
0.805661 0.463157 0
0.860868 0.45301 0
0.904311 0.446311 0
0.943572 0.44828 0
0.978073 0.456535 0.0108949
0.997772 0.464759 0.0821851
1 0.468727 0.115373
1 0.469688 0.129442
1 0.465171 0.130129
1 0.461982 0.130571
1 0.459831 0.130861
1 0.458732 0.131014
1 0.458213 0.13109
1 0.457954 0.131121
1 0.457694 0.131167
1 0.457435 0.131197
0 0.669398 0.323873
0 0.665812 0.320165
0 0.66244 0.31667
0 0.658793 0.312825
0 0.653986 0.30782
0 0.647822 0.30135
0 0.640269 0.293553
0 0.631357 0.284825
0 0.620798 0.274556
0 0.607874 0.262974
0 0.59144 0.249134
0 0.571405 0.232807
0.101167 0.553368 0.214038
0.273167 0.54258 0.187411
0.391714 0.531975 0.148669
0.51873 0.525795 0.0608682
0.648524 0.533242 0
0.753872 0.537911 0
0.837995 0.53315 0
0.892226 0.524041 0
0.933501 0.518883 0
0.9682 0.517647 0.000488289
0.995117 0.520302 0.0621958
1 0.518944 0.108217
1 0.518181 0.128023
1 0.512139 0.126543
1 0.507652 0.125444
1 0.504631 0.124697
1 0.503273 0.124773
1 0.502495 0.124865
1 0.50219 0.12491
1 0.501869 0.124941
1 0.501717 0.124956
0.128099 0.728817 0.386938
0.111498 0.725994 0.383001
0.0936904 0.723156 0.378973
0.0726177 0.719905 0.374395
0.0535134 0.715602 0.368719
0.035874 0.710689 0.362387
0.0205539 0.704753 0.355093
0.00477607 0.697032 0.345495
0 0.687709 0.334447
0 0.676234 0.321416
0 0.66154 0.305852
0.00317388 0.642191 0.287144
0.0900893 0.620584 0.267414
0.237491 0.605249 0.2448
0.351492 0.594919 0.21709
0.464637 0.587411 0.181308
0.580926 0.581674 0.127275
0.695384 0.588464 0.0194705
0.78703 0.593896 0
0.862257 0.59205 0
0.920913 0.585458 0
0.955749 0.578363 0
0.987259 0.575097 0.0196841
1 0.571832 0.096849
1 0.569223 0.121553
1 0.564981 0.128405
1 0.560891 0.128557
1 0.558297 0.128634
1 0.55671 0.128695
1 0.556039 0.12871
1 0.555703 0.128725
1 0.555367 0.12874
1 0.555032 0.128756
0.29987 0.783764 0.456321
0.292561 0.780835 0.451957
0.28542 0.778042 0.447761
0.276967 0.774792 0.442832
0.266148 0.770672 0.436591
0.251972 0.765484 0.428534
0.233021 0.759258 0.419257
0.210117 0.751949 0.40853
0.188403 0.744015 0.397482
0.163622 0.734279 0.384558
0.156664 0.723384 0.37026
0.15584 0.708598 0.35169
0.19173 0.689708 0.329335
0.247974 0.67013 0.30695
0.3411 0.657359 0.281895
0.43328 0.642893 0.248997
0.531731 0.63267 0.211948
0.63415 0.628061 0.166461
0.736355 0.63624 0.114168
0.81706 0.64239 0.0708324
0.88333 0.64213 0.0134279
0.936477 0.637156 0.0115663
0.977905 0.631327 0.00854505
0.999451 0.626093 0.0957046
1 0.62153 0.122148
1 0.617578 0.135317
1 0.613413 0.134493
1 0.610788 0.134142
1 0.609186 0.133928
1 0.608515 0.133837
1 0.608179 0.133806
1 0.607843 0.133761
1 0.607584 0.13373
0.40708 0.840253 0.532265
0.401602 0.837156 0.527657
0.396872 0.834501 0.523842
0.391531 0.831525 0.519524
0.384741 0.827726 0.514122
0.376165 0.823026 0.507301
0.364874 0.816922 0.498405
0.348562 0.80885 0.486275
0.329168 0.799512 0.471901
0.309117 0.788586 0.455039
0.288258 0.775494 0.435431
0.276738 0.760845 0.413672
0.280964 0.745464 0.392294
0.301869 0.727779 0.36907
0.352544 0.711864 0.3449
0.431617 0.700053 0.318242
0.514641 0.688594 0.287053
0.600977 0.679438 0.252323
0.687617 0.67425 0.21268
0.772931 0.678264 0.176867
0.843 0.683864 0.167346
0.898344 0.683528 0.15819
0.948089 0.680919 0.151553
0.989425 0.67718 0.147219
0.998566 0.671885 0.143587
1 0.667811 0.149645
1 0.663905 0.148104
1 0.661204 0.147051
1 0.659815 0.146502
1 0.659175 0.146258
1 0.658839 0.14612
1 0.658518 0.145998
1 0.658183 0.145861
0.509529 0.904753 0.618433
0.504067 0.901091 0.613519
0.498909 0.897642 0.608896
0.493004 0.893721 0.603571
0.485847 0.88925 0.597269
0.476493 0.883482 0.589044
0.464439 0.876127 0.578439
0.448966 0.866865 0.564996
0.431128 0.856291 0.54963
0.41268 0.844465 0.532357
0.39559 0.831601 0.513344
0.381949 0.817334 0.492348
0.373419 0.800961 0.467613
0.375296 0.782757 0.440101
0.390646 0.763195 0.411612
0.443549 0.749523 0.384482
0.511482 0.737865 0.356176
0.583841 0.727062 0.325048
0.657984 0.71841 0.291875
0.731487 0.712688 0.257206
0.804623 0.714885 0.226276
0.863722 0.720195 0.226291
0.915862 0.722438 0.228153
0.959258 0.72166 0.229694
0.984924 0.71873 0.22829
0.996582 0.715038 0.223545
1 0.711391 0.217456
1 0.708553 0.212192
1 0.70692 0.209155
1 0.706233 0.207874
1 0.705989 0.207401
1 0.705638 0.20676
1 0.705303 0.206119
0.523568 0.914229 0.631418
0.520974 0.912474 0.629007
0.518502 0.910796 0.626703
0.515862 0.90901 0.624231
0.512352 0.906661 0.620951
0.508095 0.903838 0.616968
0.502739 0.900313 0.611948
0.495827 0.895811 0.605463
0.486915 0.890303 0.597192
0.476204 0.883513 0.58677
0.465766 0.875471 0.57435
0.458824 0.867048 0.561135
0.450614 0.853727 0.541192
0.444007 0.834928 0.513405
0.448035 0.815457 0.484184
0.471809 0.797406 0.454887
0.523888 0.784817 0.426459
0.581842 0.77174 0.394171
0.64268 0.759121 0.358679
0.707851 0.7514 0.327779
0.771176 0.745983 0.295979
0.831235 0.746563 0.269993
0.884428 0.751125 0.271687
0.929641 0.754238 0.277485
0.963561 0.754376 0.281636
0.982132 0.752529 0.281407
0.993942 0.750683 0.280324
0.995071 0.748302 0.27689
0.995727 0.746929 0.274922
0.996002 0.746349 0.274098
0.996139 0.746059 0.273686
0.996277 0.745769 0.273274
0.996414 0.74548 0.272847
0.540764 0.925109 0.646876
0.540002 0.924819 0.646097
0.539193 0.924529 0.645258
0.53843 0.924239 0.64448
0.53785 0.924071 0.643778
0.538338 0.924407 0.643931
0.538979 0.924834 0.644144
0.539727 0.925338 0.644373
0.536477 0.923095 0.64097
0.52752 0.916747 0.632059
0.515969 0.90811 0.61941
0.506325 0.898848 0.605722
0.500298 0.889006 0.590829
0.499687 0.878492 0.574746
0.506447 0.867658 0.557809
0.513191 0.848569 0.529213
0.544427 0.832029 0.498131
0.591638 0.819165 0.468589
0.64361 0.806256 0.436011
0.698924 0.795483 0.403662
0.753124 0.785763 0.369711
0.802045 0.777066 0.336263
0.856367 0.778042 0.315068
0.90312 0.782528 0.317327
0.940459 0.78587 0.324895
0.961349 0.785473 0.326848
0.976104 0.784772 0.327871
0.979034 0.782757 0.325353
0.979568 0.781369 0.323384
0.979797 0.780789 0.32256
0.979904 0.780484 0.322148
0.97998 0.78027 0.321843
0.980102 0.77998 0.321431
0.543725 0.926192 0.649943
0.542916 0.925902 0.649104
0.542245 0.925643 0.648402
0.54136 0.925322 0.647501
0.540352 0.924956 0.646464
0.53904 0.924468 0.64509
0.53782 0.924056 0.643763
0.538582 0.924575 0.644007
0.539559 0.925185 0.644327
0.541085 0.925887 0.644633
0.543282 0.926329 0.644358
0.544869 0.925429 0.641886
0.543755 0.920241 0.633677
0.541726 0.91046 0.619577
0.541772 0.8981 0.60116
0.549874 0.886076 0.582879
0.574014 0.877409 0.566308
0.608423 0.865858 0.540261
0.649912 0.85153 0.507805
0.696437 0.838773 0.475227
0.745037 0.827344 0.441947
0.79089 0.818586 0.412161
0.836759 0.811994 0.384527
0.881819 0.810742 0.363088
0.920409 0.813397 0.361608
0.945174 0.814542 0.365774
0.959762 0.814404 0.367407
0.966613 0.813519 0.366964
0.967117 0.812238 0.36527
0.967361 0.811673 0.364538
0.967468 0.811399 0.364172
0.967559 0.811185 0.363882
0.967681 0.81091 0.363516
0.546288 0.927138 0.652583
0.54548 0.926848 0.651759
0.544808 0.926589 0.651057
0.543923 0.926268 0.650141
0.542916 0.925902 0.649104
0.541604 0.925414 0.647745
0.540078 0.924849 0.646174
0.538033 0.924102 0.644068
0.538506 0.924514 0.643992
0.540124 0.925307 0.644465
0.542519 0.925963 0.644587
0.545617 0.925933 0.643412
0.550179 0.925078 0.640925
0.562554 0.926284 0.641901
0.575677 0.92575 0.639963
0.582361 0.916045 0.625177
0.595605 0.904906 0.607019
0.62591 0.897917 0.58967
0.663767 0.892638 0.572503
0.702022 0.88098 0.543374
0.74374 0.868055 0.510277
0.784436 0.856825 0.478889
0.826078 0.84802 0.450004
0.864805 0.841291 0.424506
0.901488 0.839338 0.405905
0.934035 0.842649 0.403143
0.94876 0.842222 0.405356
0.959274 0.842329 0.407401
0.959991 0.84097 0.405692
0.960174 0.840391 0.404959
0.960266 0.840116 0.404593
0.960342 0.839902 0.404318
0.960433 0.839612 0.403952
0.547936 0.927703 0.654414
0.547646 0.927642 0.653986
0.546883 0.927367 0.653208
0.546044 0.927062 0.652338
0.545037 0.92668 0.651301
0.543801 0.926223 0.650019
0.542153 0.925628 0.648325
0.540154 0.92488 0.64625
0.537789 0.92401 0.643809
0.539284 0.924804 0.644282
0.541833 0.925597 0.644648
0.545617 0.926009 0.644175
0.550469 0.92549 0.642191
0.561486 0.926177 0.642267
0.575448 0.926268 0.64126
0.591821 0.925353 0.638636
0.613169 0.924865 0.636149
0.643412 0.922896 0.626947
0.675929 0.91693 0.610239
0.711925 0.911208 0.592248
0.74902 0.904738 0.571038
0.784588 0.89247 0.539864
0.821851 0.881865 0.509957
0.85774 0.874006 0.484688
0.889357 0.867582 0.462043
0.915282 0.862882 0.443366
0.936461 0.864729 0.43827
0.948592 0.865217 0.43621
0.952651 0.864683 0.435004
0.95285 0.864042 0.434241
0.952926 0.863798 0.433967
0.953017 0.863462 0.433555
0.953124 0.863157 0.433204
0.547814 0.927459 0.65481
0.547875 0.927581 0.654627
0.547921 0.927672 0.654475
0.547723 0.927672 0.654078
0.546731 0.927306 0.65304
0.545403 0.926818 0.651667
0.543801 0.926223 0.650019
0.541833 0.925505 0.64799
0.539513 0.924651 0.645594
0.538567 0.924376 0.644099
0.541268 0.925292 0.644648
0.545083 0.925811 0.644358
0.550652 0.92578 0.643107
0.560647 0.926101 0.642542
0.574517 0.926299 0.641718
0.591226 0.925719 0.639597
0.611673 0.925032 0.63711
0.645365 0.928206 0.635279
0.685039 0.933593 0.635782
0.722362 0.932677 0.626123
0.757412 0.926833 0.607492
0.78996 0.920302 0.587137
0.822568 0.910719 0.560311
0.855817 0.902495 0.535912
0.885344 0.895659 0.514443
0.909987 0.890227 0.496101
0.928908 0.887648 0.484123
0.939651 0.886137 0.4766
0.946181 0.885496 0.472389
0.946395 0.884901 0.471061
0.946532 0.88455 0.470298
0.946654 0.884215 0.469535
0.946777 0.883864 0.468757
0.547723 0.927291 0.655085
0.547784 0.927398 0.654902
0.547829 0.927504 0.654734
0.54789 0.927626 0.654551
0.547967 0.927764 0.654322
0.546639 0.927275 0.652964
0.545037 0.92668 0.651301
0.543084 0.925963 0.649271
0.540764 0.925109 0.646876
0.538384 0.924224 0.644221
0.540841 0.925048 0.644633
0.544686 0.925643 0.64448
0.550652 0.925902 0.643687
0.560006 0.92604 0.642741
0.573724 0.926253 0.641932
0.590814 0.925994 0.640314
0.610666 0.925185 0.637797
0.643122 0.927779 0.635111
0.682582 0.933104 0.635523
0.723873 0.938766 0.636027
0.764538 0.94374 0.635111
0.796155 0.938155 0.617319
0.828611 0.932967 0.599176
0.857267 0.924819 0.575692
0.884169 0.917342 0.554177
0.908263 0.912245 0.537575
0.926589 0.908507 0.524712
0.936233 0.905562 0.515938
0.94226 0.904128 0.511162
0.942916 0.903227 0.509224
0.942885 0.902739 0.508293
0.94287 0.902235 0.507362
0.942855 0.901747 0.506432
0.547662 0.927169 0.655268
0.547707 0.927275 0.6551
0.547768 0.927382 0.654932
0.547829 0.927504 0.654734
0.547906 0.927657 0.654505
0.547524 0.927596 0.653864
0.545892 0.927001 0.652171
0.543877 0.926253 0.650095
0.541512 0.925383 0.647669
