luts/changyun_kodaklike/kodaE200.cube
TITLE "Generated by Resolve"
LUT_3D_SIZE 9
0.000579843 0.0015259 0.00158694
0.0114137 0.00209049 0.00122072
0.102876 0.0192111 0.00376898
0.334615 0 0.00288396
0.721538 0 0
0.993729 0.0718547 0
1 0.177279 0
1 0.177279 0
1 0.177279 0
0.00015259 0.018143 0.0081178
0.00682078 0.012192 0.00347906
0.0971237 0.0179446 0.00326543
0.320623 0 0.00367742
0.709316 0 0
0.986862 0.0404517 0
1 0.177279 0
1 0.177279 0
1 0.177279 0
0 0.116808 0.0557107
0.000534066 0.104753 0.0466011
0.0843061 0.0929122 0.0159152
0.299443 0 0.000915541
0.679789 0 0
0.969924 0 0
1 0.177279 0
1 0.177279 0
1 0.177279 0
0 0.405432 0.161364
0 0.381781 0.148455
0 0.330968 0.121553
0.290715 0.276173 0
0.691417 0.0931411 0
0.949096 0.0683452 0
1 0.192386 0
1 0.182986 0
1 0.182254 0
0.357015 0.769421 0.440681
0.326223 0.751888 0.416724
0.270024 0.716335 0.37322
0.323568 0.645823 0.296712
0.635294 0.578195 0
0.942229 0.522728 0
1 0.485634 0
1 0.464729 0
1 0.461952 0
0.705852 0.95378 0.742107
0.695674 0.948821 0.731807
0.672343 0.937682 0.707927
0.636378 0.910033 0.651377
0.664958 0.853422 0.521096
0.8551 0.791608 0.0381933
1 0.765896 0
1 0.757885 0
1 0.756054 0
0.729335 0.963912 0.767163
0.726925 0.963012 0.763897
0.720409 0.960601 0.755673
0.736614 0.962905 0.759091
0.796521 0.96495 0.763851
0.868086 0.951995 0.64773
0.982376 0.918822 0.347173
1 0.897551 0.120256
1 0.89604 0.105165
0.727092 0.963165 0.766613
0.728878 0.96376 0.76704
0.724178 0.962005 0.760433
0.735607 0.963012 0.760189
0.794308 0.96553 0.765774
0.885466 0.978195 0.733516
0.978195 0.978408 0.625559
1 0.966903 0.496361
1 0.965057 0.483955
0.726787 0.963058 0.766537
0.728573 0.963668 0.766979
0.724681 0.962188 0.761074
0.735256 0.962951 0.760113
0.794125 0.965621 0.766049
0.884703 0.978042 0.733761
0.979232 0.986419 0.660166
1 0.975555 0.541924
1 0.973999 0.529671
0.000610361 0.00137331 0.0114137
0.00920119 0.0034638 0.00720226
0.100999 0.0186313 0.00491341
0.333913 0 0.00291447
0.720928 0 0
0.993393 0.0702831 0
1 0.177279 0
1 0.177279 0
1 0.177279 0
0.000137331 0.0188907 0.0208286
0.00598154 0.0123903 0.012665
0.0937362 0.0181582 0.00805676
0.319921 0 0.0037232
0.708995 0 0
0.986694 0.0396582 0
1 0.177279 0
1 0.177279 0
1 0.177279 0
0.000747692 0.120943 0.0781872
0.00221256 0.108583 0.0666667
0.0830549 0.0932784 0.0243229
0.295628 0 0.00276188
0.679362 0 0
0.969696 0 0
1 0.177279 0
1 0.177279 0
1 0.177279 0
0 0.409628 0.183001
0 0.384131 0.167208
0 0.335515 0.137774
0.291402 0.277974 0
0.688197 0.0968643 0
0.948653 0.0690471 0
1 0.192859 0
1 0.183261 0
1 0.182544 0
0.364706 0.771069 0.457008
0.340658 0.75671 0.437552
0.281773 0.719524 0.38996
0.326436 0.647028 0.30808
0.632303 0.577386 0
0.938842 0.52047 0
1 0.488777 0
1 0.465843 0
1 0.463066 0
0.712612 0.95639 0.753368
0.702281 0.95137 0.742733
0.671138 0.937148 0.711482
0.638041 0.910689 0.657282
0.665019 0.853391 0.527382
0.85594 0.793896 0.0458534
1 0.767239 0
1 0.757336 0
1 0.755428 0
0.726284 0.962982 0.769879
0.724727 0.962386 0.767102
0.727108 0.963165 0.766613
0.734707 0.962249 0.760723
0.799039 0.966262 0.769268
0.870283 0.955596 0.661143
0.98584 0.92491 0.372992
1 0.90164 0.161059
1 0.899687 0.143877
0.728267 0.963729 0.773404
0.72668 0.963134 0.770596
0.724865 0.962417 0.766064
0.735668 0.963119 0.764096
0.79472 0.96585 0.768795
0.883696 0.977172 0.732601
0.983368 0.983963 0.648127
1 0.972183 0.521187
1 0.970016 0.50985
0.728466 0.963821 0.77377
0.726909 0.963226 0.770993
0.724605 0.962325 0.766003
0.735759 0.963211 0.764446
0.794186 0.965789 0.768673
0.883131 0.977157 0.733333
0.98349 0.989258 0.671687
1 0.979995 0.562249
1 0.977737 0.550378
0.000610361 0.00117494 0.0907149
0.015198 0.00321965 0.0792554
0.0885786 0.0269169 0.0584726
0.324773 0 0.028748
0.707073 0 0
0.992706 0.067155 0
1 0.177279 0
1 0.177279 0
1 0.177279 0
0 0.0178836 0.0990921
0.00781262 0.0119631 0.0914778
0.0799878 0.0273136 0.0649882
0.312047 0 0.0366979
0.693004 0 0
0.986007 0.0365148 0
1 0.177279 0
1 0.177279 0
1 0.177279 0
0 0.124071 0.125444
0.00285344 0.112062 0.116381
0.0778363 0.0971389 0.0984817
0.283574 0.00373846 0.0579995
0.663447 0 0
0.964324 0 0
1 0.177279 0
1 0.177279 0
1 0.177279 0
0.000213626 0.424872 0.267308
0 0.401236 0.250858
0.00117494 0.350057 0.205875
0.299016 0.287327 0.0707561
0.679255 0.104219 0
0.931258 0.0207675 0
1 0.183734 0
1 0.179019 0
1 0.178653 0
0.385687 0.774136 0.505577
0.361624 0.759503 0.485832
0.310399 0.725017 0.441932
0.341772 0.652964 0.356466
0.640223 0.588693 0.00836194
0.936049 0.520989 0
1 0.484657 0
1 0.461357 0
1 0.458488 0
0.71075 0.956374 0.766766
0.700954 0.951308 0.756558
0.673167 0.938018 0.728603
0.642359 0.912337 0.67689
0.670405 0.855573 0.559731
0.855573 0.79736 0.130022
1 0.76704 0
1 0.757656 0
1 0.755749 0
0.723079 0.962798 0.783413
0.72079 0.961837 0.779446
0.722957 0.962325 0.777203
0.737987 0.963943 0.775723
0.796674 0.965667 0.77525
0.868757 0.955978 0.674632
0.983627 0.925261 0.39704
1 0.902358 0.197024
1 0.900526 0.178195
0.725902 0.963989 0.788327
0.723644 0.963043 0.784405
0.719875 0.961395 0.776913
0.7355 0.963592 0.776577
0.791745 0.965011 0.774777
0.881849 0.976394 0.740353
0.981689 0.985183 0.662699
1 0.973861 0.541878
1 0.971664 0.530541
0.726238 0.964141 0.788952
0.724025 0.963195 0.785061
0.719493 0.961273 0.776867
0.735195 0.963546 0.776669
0.79144 0.965057 0.775097
0.881346 0.97644 0.741299
0.98143 0.988586 0.677653
1 0.981201 0.579309
1 0.979385 0.569589
0 0 0.254688
0 1.5259e-05 0.242679
0.0936904 0.0128328 0.210315
0.300664 0.0235142 0.169848
0.684962 0 0.1093
0.985306 0.0553902 0
1 0.149477 0
1 0.154391 0
1 0.155077 0
0 0.0158236 0.270939
0 0.0087129 0.256794
0.0653849 0.0116426 0.224918
0.287694 0.0344091 0.178103
0.668498 0 0.123201
0.974701 0.0278477 0
1 0.154711 0
1 0.150393 0
1 0.150973 0
0 0.108705 0.318669
0 0.0986801 0.305379
0 0.0895247 0.272526
0.269352 0.0867781 0.199741
0.635523 0 0.150729
0.950881 0 0.000869764
1 0.167834 0
1 0.160357 0
1 0.159335 0
0.00256352 0.422248 0.416358
0 0.399588 0.400595
0.0030518 0.353414 0.364645
0.313481 0.312474 0.319356
0.636744 0.163134 0.198306
0.915846 0.0586862 0.0442817
1 0.188067 0
1 0.178271 0
1 0.177249 0
0.469306 0.77969 0.635554
0.44976 0.764324 0.61883
0.411917 0.730953 0.583993
0.412909 0.679118 0.513909
0.640848 0.600198 0.319524
0.929686 0.517815 0.00210575
1 0.482017 0
1 0.458991 0
1 0.456443 0
0.722789 0.956725 0.814511
0.711711 0.951507 0.804303
0.686183 0.940566 0.780682
0.65005 0.917189 0.730831
0.683726 0.860548 0.646876
0.8486 0.801404 0.354192
1 0.772152 0.0973831
1 0.760845 0.00698863
1 0.75877 0
0.736202 0.962386 0.833387
0.735012 0.962112 0.829541
0.729809 0.961303 0.819867
0.730816 0.964553 0.805722
0.791608 0.966033 0.79971
0.869245 0.960021 0.730968
0.977218 0.927611 0.495232
1 0.905867 0.36228
1 0.904173 0.356603
0.729503 0.962081 0.834073
0.734859 0.962325 0.833524
0.732815 0.961776 0.825467
0.729244 0.964141 0.808652
0.788479 0.966476 0.80293
0.880232 0.976852 0.778286
0.976165 0.98703 0.706996
0.999985 0.975631 0.602838
1 0.973663 0.593637
0.728664 0.962036 0.83415
0.733959 0.962295 0.833616
0.733166 0.961822 0.826108
0.72932 0.964034 0.809171
0.788128 0.966537 0.803372
0.879515 0.97673 0.778881
0.97528 0.987335 0.709194
0.999969 0.983001 0.634958
1 0.981216 0.62533
0 0 0.554543
0 0 0.541466
0 0 0.514763
0.441611 0 0.47396
0.661189 0.106065 0.376745
0.935119 0.117739 0.295018
0.993469 0.166903 0.249683
0.996124 0.170672 0.233494
0.996399 0.171099 0.2318
0 0 0.568963
0 0 0.557305
0 0 0.528572
0.425437 0 0.486656
0.651606 0.118883 0.390784
0.921386 0.118563 0.309377
0.99089 0.169604 0.263569
0.994018 0.167498 0.246418
0.994308 0.167956 0.244572
0 0.0682689 0.604654
0 0.0438697 0.591684
0 0.00701915 0.563394
0.39292 0 0.518853
0.637308 0.13814 0.422553
0.890074 0.131945 0.339376
0.98529 0.176211 0.294362
0.988479 0.172137 0.276631
0.988846 0.17174 0.274617
0 0.355627 0.652689
0 0.331792 0.63975
0 0.283116 0.613046
0.294759 0.264927 0.594308
0.626307 0.288655 0.490745
0.851545 0.218585 0.397894
0.973266 0.212375 0.345006
0.979232 0.204349 0.330602
0.979782 0.203296 0.328634
0.351888 0.77084 0.749172
0.32842 0.755093 0.736309
0.268605 0.719921 0.710063
0.340307 0.663249 0.66804
0.654902 0.645335 0.647074
0.866407 0.499031 0.490913
1 0.462562 0.410849
0.999893 0.44155 0.392737
0.999863 0.439063 0.390326
0.693202 0.956542 0.881132
0.684215 0.950576 0.872938
0.665034 0.937896 0.854627
0.650416 0.915618 0.821302
0.703014 0.869612 0.767117
0.836118 0.813642 0.615335
0.999924 0.779522 0.510796
1 0.766125 0.485115
1 0.764035 0.482292
0.696696 0.959609 0.896391
0.697505 0.959716 0.892546
0.698436 0.959716 0.884108
0.71371 0.96144 0.871046
0.789258 0.966781 0.859388
0.868544 0.963485 0.823896
0.964111 0.93283 0.660441
1 0.912856 0.578454
1 0.910979 0.573571
0.694575 0.959121 0.90071
0.696315 0.959518 0.897169
0.697902 0.959716 0.888975
0.710872 0.961074 0.87541
0.782055 0.966171 0.862074
0.877287 0.975418 0.850156
0.966293 0.988754 0.790173
0.999344 0.980545 0.721752
1 0.978851 0.714366
0.694362 0.959075 0.901167
0.696025 0.959457 0.897749
0.697826 0.959716 0.889632
0.71046 0.961013 0.875837
0.780972 0.96611 0.862272
0.876677 0.975311 0.850629
0.965255 0.988647 0.791302
0.999161 0.988159 0.743938
1 0.986358 0.735683
0 0 0.79646
0 0 0.785992
0 0 0.765408
0.483162 0 0.731792
0.769879 0.214115 0.664302
0.916365 0.326406 0.590555
0.956252 0.320867 0.550103
0.954849 0.306157 0.530434
0.954681 0.304463 0.528161
0 0 0.805966
0 0 0.795499
0 0 0.774884
0.470512 0 0.742214
0.779797 0.216098 0.684337
0.909102 0.332448 0.603479
0.956771 0.331395 0.564782
0.955978 0.317891 0.546136
0.95581 0.316197 0.543862
0 0 0.83032
0 0 0.822293
0 0 0.797192
0.443183 0 0.764538
0.793027 0.232502 0.719173
0.895094 0.350118 0.633326
0.954894 0.348852 0.592218
0.955962 0.338842 0.576471
0.956085 0.337697 0.57467
0 0.225254 0.862516
0 0.210895 0.852766
0 0.203189 0.835798
0.348501 0.17911 0.805005
0.778775 0.335668 0.769268
0.869978 0.388251 0.670314
0.954192 0.39884 0.643091
0.953765 0.381582 0.626184
0.953689 0.379294 0.623835
0 0.725338 0.904433
0 0.70425 0.895277
0 0.659663 0.87538
0 0.571252 0.83563
0.621592 0.56495 0.816068
0.842313 0.619974 0.748577
0.950072 0.568414 0.7075
0.949294 0.543923 0.689845
0.949279 0.541161 0.687785
0.476646 0.951019 0.955367
0.465888 0.94493 0.947982
0.456504 0.928939 0.92813
0.481392 0.904112 0.896819
0.606989 0.855055 0.855924
0.84271 0.848493 0.84538
0.955139 0.759869 0.752422
0.979934 0.735561 0.729732
0.979324 0.733501 0.728115
0.447898 0.965316 0.990143
0.456809 0.960327 0.978378
0.481163 0.952163 0.956344
0.574258 0.956634 0.939467
0.753826 0.964034 0.929839
0.86775 0.967956 0.909346
0.946624 0.937469 0.826932
1 0.922927 0.793851
1 0.921187 0.792172
0.46154 0.957671 0.972137
0.465934 0.9552 0.966323
0.480461 0.952178 0.956542
0.554574 0.953414 0.941253
0.734997 0.96495 0.93341
0.866987 0.975982 0.918715
0.953475 0.989273 0.890898
0.997177 0.98468 0.849302
1 0.982651 0.84387
0.460899 0.958022 0.972976
0.465415 0.955505 0.96701
0.479042 0.952178 0.95697
0.55198 0.952987 0.941497
0.732433 0.965072 0.933867
0.865873 0.975845 0.919188
0.95256 0.98912 0.891966
0.99675 0.993652 0.862135
1 0.991562 0.855985
0.290959 0 0.929763
0.277287 0 0.92166
0.317037 0 0.903624
0.557046 0 0.870848
0.866087 0.292271 0.834119
0.926513 0.431983 0.73991
0.953429 0.454093 0.7234
0.952285 0.444572 0.711482
0.952193 0.443427 0.710079
0.305501 0 0.938369
0.291569 0 0.929625
0.322576 0 0.911727
0.549981 0 0.879667
0.859846 0.260182 0.841749
0.92137 0.427634 0.745693
0.95433 0.461616 0.73283
0.953185 0.452094 0.720913
0.953063 0.451102 0.719661
0.315877 0 0.960525
0.301762 0 0.951141
0.324575 0 0.931289
0.536034 0 0.898512
0.844724 0.182391 0.858152
0.913619 0.424002 0.762325
0.955596 0.471458 0.749508
0.955047 0.467567 0.740948
0.955001 0.467155 0.740063
0 0.115648 0.991379
0 0.102373 0.98616
0.00367742 0.0646067 0.967163
0.457801 0 0.93257
0.809339 0.25948 0.890959
0.930785 0.476905 0.82388
0.957031 0.499062 0.778363
0.955291 0.48658 0.767315
0.955123 0.485283 0.765972
0 0.708095 0.992111
0 0.679088 0.991669
0 0.613336 0.990417
0 0.459998 0.975418
0.634867 0.486534 0.931868
0.923445 0.70045 0.889296
0.950637 0.651621 0.829725
0.949355 0.632837 0.818463
0.949371 0.631083 0.817395
0.444434 0.967254 0.99472
0.385489 0.961593 0.994476
0.259007 0.949371 0.993973
0.0566415 0.924849 0.993988
0.0611124 0.835035 0.979202
0.814603 0.800168 0.931884
0.937835 0.834531 0.893462
0.952071 0.818708 0.88397
0.951843 0.816709 0.882612
0.444434 0.967254 0.99472
0.444434 0.967254 0.99472
0.444434 0.967254 0.99472
0.471839 0.967697 0.994888
0.608011 0.970291 0.995148
0.806195 0.963867 0.966705
0.950744 0.955688 0.953079
0.983734 0.929641 0.92462
0.983093 0.927413 0.923003
0.444434 0.967254 0.99472
0.444434 0.967254 0.99472
0.444434 0.967254 0.99472
0.468238 0.967651 0.994873
0.600122 0.970092 0.995117
0.799496 0.973587 0.980362
0.95172 0.98883 0.969741
0.994492 0.989715 0.949523
0.999207 0.988144 0.946151
0.444434 0.967254 0.99472
0.444434 0.967254 0.99472
0.444434 0.967254 0.99472
0.467872 0.967636 0.994873
0.599252 0.970077 0.995117
0.797345 0.973907 0.981765
0.950805 0.988647 0.970382
0.99411 0.996185 0.953567
0.999893 0.995972 0.949905
0.382498 0 0.976745
0.377127 0 0.968856
0.406271 0 0.951034
0.59678 0 0.918486
0.878965 0.266804 0.878904
0.933822 0.457221 0.783505
0.957153 0.480217 0.765621
0.956024 0.474617 0.75642
0.955962 0.474128 0.755367
0.394568 0 0.982254
0.387274 0 0.976364
0.414603 0 0.959915
0.592172 0 0.92694
0.874144 0.236423 0.887495
0.931304 0.454612 0.791211
0.95848 0.486091 0.77377
0.956847 0.478904 0.76379
0.956664 0.47808 0.762646
0.365164 0 0.98352
0.375479 0 0.983673
0.414588 0 0.97705
0.581033 0 0.944137
0.860746 0.153384 0.903487
0.944442 0.467597 0.825788
0.960494 0.496025 0.789593
0.959716 0.491478 0.781247
0.959487 0.490501 0.779904
0 0.11696 0.991714
0 0.101106 0.987747
0.00656138 0 0.986969
0.511482 0 0.979049
0.825376 0.23328 0.93341
0.96466 0.544533 0.883009
0.961334 0.520851 0.815763
0.96022 0.511025 0.806424
0.960174 0.510231 0.805554
0 0.709895 0.992142
0 0.681697 0.991714
0 0.615747 0.990478
0 0.449989 0.989288
0.656504 0.452811 0.979492
0.941543 0.700801 0.927504
0.961807 0.677043 0.869383
0.958221 0.658778 0.85742
0.957992 0.656855 0.856077
0.444434 0.967254 0.99472
0.390845 0.962112 0.994492
0.264302 0.949889 0.994003
0.0637827 0.925444 0.993988
0 0.836225 0.996017
0.818891 0.786206 0.97911
0.969711 0.859281 0.941253
0.965042 0.839307 0.92047
0.964141 0.837491 0.918898
0.444434 0.967254 0.99472
0.444434 0.967254 0.99472
0.444434 0.967254 0.99472
0.471702 0.967697 0.994888
0.607614 0.970291 0.995148
0.784863 0.971984 0.995758
0.942412 0.943084 0.987137
0.985016 0.950393 0.970993
0.983688 0.948409 0.96907
0.444434 0.967254 0.99472
0.444434 0.967254 0.99472
0.444434 0.967254 0.99472
0.468116 0.967636 0.994873
0.599878 0.970092 0.995117
0.787915 0.977905 0.995865
0.934936 0.991348 0.998062
0.994186 0.994675 0.993378
0.998718 0.99353 0.991043
0.444434 0.967254 0.99472
0.444434 0.967254 0.99472
0.444434 0.967254 0.99472
0.46775 0.967636 0.994873
0.598932 0.970062 0.995117
0.786786 0.977844 0.99585
0.933639 0.991196 0.998032
0.993774 0.998642 0.995651
0.999786 0.999374 0.994324
0.389273 0 0.981857
0.384024 0 0.974044
0.417014 0 0.956771
0.601694 0 0.923903
0.881041 0.265492 0.884565
0.934951 0.459739 0.788571
0.957992 0.483955 0.770794
0.95639 0.476905 0.761013
0.956237 0.476127 0.759762
0.394568 0 0.982254
0.39556 0 0.981506
0.421515 0 0.964782
0.59736 0 0.932464
0.875319 0.232151 0.892271
0.932754 0.457359 0.796826
0.959335 0.489815 0.778943
0.957702 0.482643 0.768978
0.957504 0.481804 0.767819
0.365087 0 0.98352
0.375357 0 0.983673
0.424704 0 0.982361
0.58732 0 0.949813
0.86247 0.149584 0.908431
0.950591 0.476448 0.835401
0.960647 0.497719 0.793667
0.960342 0.494545 0.786038
0.960311 0.494118 0.785016
0 0.11696 0.991714
0 0.10135 0.987808
0.00656138 0 0.986969
0.518242 0 0.984604
0.828061 0.231861 0.938582
0.967071 0.550958 0.88809
0.962173 0.524163 0.820493
0.961028 0.514199 0.811154
0.960952 0.513329 0.810193
0 0.710307 0.992142
0 0.681697 0.991714
0 0.61622 0.990494
0 0.450034 0.989273
0.658991 0.448035 0.985092
0.94316 0.69929 0.931731
0.966003 0.682048 0.876417
0.959487 0.661265 0.861814
0.959335 0.659464 0.860716
0.444434 0.967254 0.99472
0.390845 0.962112 0.994492
0.264302 0.949889 0.994003
0.0637827 0.925444 0.993988
0 0.836591 0.996002
0.819699 0.784878 0.985382
0.974243 0.862394 0.947158
0.969436 0.842176 0.926574
0.968627 0.840406 0.925124
0.444434 0.967254 0.99472
0.444434 0.967254 0.99472
0.444434 0.967254 0.99472
0.471702 0.967697 0.994888
0.607614 0.970291 0.995148
0.785443 0.972305 0.995773
0.941299 0.942 0.992691
0.988922 0.953475 0.976532
0.987884 0.951583 0.974945
0.444434 0.967254 0.99472
0.444434 0.967254 0.99472
0.444434 0.967254 0.99472
0.468116 0.967636 0.994873
0.599725 0.970077 0.995117
0.787717 0.97789 0.995865
0.934936 0.991348 0.998062
0.994217 0.995438 0.998703
0.999191 0.994965 0.996979
0.444434 0.967254 0.99472
0.444434 0.967254 0.99472
0.444434 0.967254 0.99472
0.46775 0.967636 0.994873
0.598764 0.970062 0.995117
0.786679 0.977829 0.99585
0.933425 0.991165 0.998016
0.993667 0.999115 0.999817
1 1 1
