luts/changyun_kodaklike/kodaEC64.cube
TITLE "Generated by Resolve"
LUT_3D_SIZE 33
0.00360113 0.00378424 0.00448615
0.00621042 0.00283818 0.00369268
0.0134279 0.00215152 0.00280766
0.0235752 0.00163272 0.00213626
0.0420996 0.00134279 0.00177005
0.0755016 0.0018616 0.00154116
0.10251 0.00268559 0.00364691
0.127001 0.00657664 0.00604257
0.153552 0.0132448 0.00819409
0.185031 0.020737 0.0101015
0.221546 0.0278325 0.0123598
0.264729 0.0306706 0.013077
0.313634 0.0269932 0.0135805
0.368017 0.0184176 0.0106508
0.427176 0.000427253 0.00329595
0.489067 0 0
0.551812 0 0
0.617426 0 0
0.688609 0 0
0.758831 0 0
0.825879 0 0
0.848905 0 0
0.872312 0 0
0.872312 0 0
0.872312 0 0
0.872312 0 0
0.872312 0 0
0.872312 0 0
0.872312 0 0
0.872312 0 0
0.872312 0 0
0.872312 0 0
0.872312 0 0
0.00300603 0.00694286 0.00567636
0.00567636 0.00602731 0.00479133
0.011902 0.005066 0.00366217
0.0227054 0.00411994 0.00242618
0.039292 0.00334173 0.00163272
0.0722515 0.00271611 0.00143435
0.100526 0.00262455 0.00344854
0.125475 0.0062562 0.00588998
0.151949 0.0128481 0.00807202
0.183291 0.020264 0.0099794
0.219989 0.0276646 0.0122988
0.262821 0.0306096 0.013077
0.31162 0.0271763 0.013611
0.365942 0.0187839 0.0108186
0.425025 0.00115969 0.00361639
0.487083 0 0
0.549935 0 0
0.615259 0 0
0.686366 0 0
0.756283 0 0
0.823392 0 0
0.847913 0 0
0.872312 0 0
0.872312 0 0
0.872312 0 0
0.872312 0 0
0.872312 0 0
0.872312 0 0
0.872312 0 0
0.872312 0 0
0.872312 0 0
0.872312 0 0
0.872312 0 0
0.00222782 0.0174563 0.00967422
0.00483711 0.0140536 0.00764477
0.0100557 0.0104067 0.00556954
0.0215457 0.00660716 0.00306706
0.0371252 0.00538643 0.00167849
0.0697032 0.00457771 0.0012665
0.0987411 0.00440986 0.00273136
0.124041 0.00631724 0.00563058
0.150515 0.0124666 0.00796521
0.181979 0.019913 0.00987259
0.218387 0.0274052 0.0122072
0.261387 0.0305486 0.013077
0.309911 0.0273289 0.0136263
0.364172 0.019089 0.010956
0.423178 0.00177005 0.00387579
0.485206 0 0
0.547951 0 0
0.61297 0 0
0.684123 0 0
0.754009 0 0
0.821042 0 0
0.846494 0 0
0.872312 0 0
0.872312 0 0
0.872312 0 0
0.872312 0 0
0.872312 0 0
0.872312 0 0
0.872312 0 0
0.872312 0 0
0.872312 0 0
0.872312 0 0
0.872312 0 0
0.00146487 0.0310063 0.0149386
0.00367742 0.0278935 0.0127108
0.00698863 0.024506 0.0105287
0.0186313 0.020264 0.00769055
0.0332189 0.0148928 0.00433356
0.0670787 0.00917067 0.00158694
0.0970779 0.00668345 0.00196841
0.122423 0.00857557 0.00456245
0.148898 0.0126802 0.00753796
0.180056 0.019379 0.00973526
0.216678 0.0271458 0.0121157
0.259297 0.0304723 0.0130617
0.307912 0.027512 0.0136416
0.362081 0.0194553 0.0111086
0.421134 0.0024567 0.00418097
0.482994 0 0
0.545861 0 0
0.610559 0 0
0.681483 0 0
0.751324 0 0
0.818265 0 0
0.845075 0 0
0.872312 0 0
0.872312 0 0
0.872312 0 0
0.872312 0 0
0.872312 0 0
0.872312 0 0
0.872312 0 0
0.872312 0 0
0.872312 0 0
0.872312 0 0
0.872312 0 0
0.00122072 0.0565347 0.0258946
0.00270085 0.0508125 0.021973
0.00430304 0.0452735 0.0184482
0.0147555 0.0381781 0.0140383
0.0292363 0.0323339 0.0100099
0.0632029 0.0261234 0.00468452
0.095613 0.0188296 0.00164797
0.120775 0.01355 0.0030518
0.147143 0.0144808 0.00639353
0.178073 0.0206912 0.00933852
0.21445 0.0267948 0.0119783
0.257099 0.030396 0.0130617
0.305608 0.0277256 0.0136721
0.359686 0.0198672 0.0113069
0.41854 0.00332647 0.00456245
0.480232 0 0
0.543099 0 0
0.607385 0 0
0.678447 0 0
0.748241 0 0
0.814801 0 0
0.843519 0 0
0.872312 0 0
0.872312 0 0
0.872312 0 0
0.872312 0 0
0.872312 0 0
0.872312 0 0
0.872312 0 0
0.872312 0 0
0.872312 0 0
0.872312 0 0
0.872312 0 0
0.0021973 0.0905318 0.0440223
0.00236515 0.0876173 0.038056
0.00297551 0.0824903 0.0339666
0.00981155 0.0757 0.0298009
0.0229648 0.0669718 0.0246738
0.0544747 0.0564736 0.0160372
0.0932174 0.0426795 0.005066
0.119417 0.0304112 0.000564584
0.145266 0.0267948 0.0034638
0.175525 0.0251926 0.00825513
0.211582 0.0287633 0.0115206
0.254124 0.030518 0.0130312
0.302495 0.0280003 0.0137026
0.356466 0.0204318 0.0115663
0.415183 0.00445563 0.00505074
0.477043 0 0
0.53991 0 0
0.603693 0 0
0.674342 0 0
0.744076 0 0
0.810788 0 0
0.841245 0 0
0.872312 0 0
0.872312 0 0
0.872312 0 0
0.872312 0 0
0.872312 0 0
0.872312 0 0
0.872312 0 0
0.872312 0 0
0.872312 0 0
0.872312 0 0
0.872312 0 0
0.00537118 0.114046 0.0751354
0.00560006 0.111025 0.0698863
0.00531014 0.108095 0.0639353
0.00794995 0.104982 0.0578622
0.0199588 0.100359 0.0500954
0.0438849 0.0945602 0.0401312
0.0840925 0.0879988 0.0242008
0.116045 0.07393 0.00654612
0.143984 0.0559854 0.000579843
0.173602 0.0434577 0.00323491
0.208942 0.0389563 0.00859083
0.250217 0.0337072 0.012665
0.298589 0.0301213 0.0134585
0.352621 0.0211032 0.0118563
0.411292 0.00575265 0.00561532
0.47274 0 0
0.535607 0 0
0.598733 0 0
0.6692 0 0
0.739116 0 0
0.805386 0 0
0.838544 0 0
0.870039 0 0
0.872312 0 0
0.872312 0 0
0.872312 0 0
0.872312 0 0
0.872312 0 0
0.872312 0 0
0.872312 0 0
0.872312 0 0
0.872312 0 0
0.872312 0 0
0 0.143542 0.0951247
6.10361e-05 0.140322 0.0928511
0.000503548 0.137362 0.090013
0.00135805 0.133883 0.0858167
0.00782788 0.129656 0.0796826
0.0258488 0.123903 0.0724041
0.0697795 0.116258 0.0641184
0.107027 0.108629 0.0408789
0.1411 0.0978561 0.0118868
0.173404 0.0843214 0.000411994
0.207568 0.0695201 0.002121
0.24741 0.0530556 0.00714122
0.294011 0.041825 0.0107881
0.347173 0.0263676 0.0107881
0.405982 0.0089723 0.00588998
0.467658 0 0
0.530541 0 0
0.593286 0 0
0.663127 0 0
0.732952 0 0
0.798764 0 0
0.835172 0 0
0.866773 0 0
0.872312 0 0
0.872312 0 0
0.872312 0 0
0.872312 0 0
0.872312 0 0
0.872312 0 0
0.872312 0 0
0.872312 0 0
0.872312 0 0
0.872312 0 0
0 0.180316 0.113344
0 0.176989 0.11107
0 0.173968 0.108614
0 0.170291 0.105653
0 0.16585 0.101106
0.00115969 0.160464 0.0948043
0.0275731 0.152468 0.0901198
0.0869612 0.143053 0.0831311
0.129732 0.133364 0.0583963
0.170596 0.12108 0.0195315
0.208301 0.105119 0
0.246662 0.0923323 0
0.291524 0.0782025 0.00103761
0.342824 0.0543069 0.0052491
0.399954 0.0256199 0.00328069
0.461067 0 0
0.523964 0 0
0.587152 0 0
0.656016 0 0
0.725307 0 0
0.79118 0 0
0.831418 0 0
0.862943 0 0
0.872312 0 0
0.872312 0 0
0.872312 0 0
0.872312 0 0
0.872312 0 0
0.872312 0 0
0.872312 0 0
0.872312 0 0
0.872312 0 0
0.872312 0 0
0 0.224155 0.135027
0 0.2206 0.132769
0 0.217365 0.130617
0 0.213687 0.127733
0 0.209339 0.124178
0 0.203464 0.117418
0 0.19585 0.11043
0.0335699 0.18613 0.104631
0.105669 0.174502 0.0974594
0.158221 0.16379 0.0750439
0.205875 0.148867 0.0317235
0.249134 0.129366 0.000411994
0.292287 0.115114 0
0.341115 0.099382 4.57771e-05
0.396033 0.0747234 0
0.455253 0.0296025 0
0.516869 0 0
0.578714 0 0
0.646677 0 0
0.716884 0 0
0.782498 0 0
0.826856 0 0
0.858549 0 0
0.872312 0 0
0.872312 0 0
0.872312 0 0
0.872312 0 0
0.872312 0 0
0.872312 0 0
0.872312 0 0
0.872312 0 0
0.872312 0 0
0.872312 0 0
0 0.279393 0.160479
0 0.27541 0.15787
0 0.271611 0.155795
0 0.267277 0.153292
0 0.261936 0.149905
0 0.255421 0.144594
0 0.24744 0.136919
3.0518e-05 0.237476 0.129015
0.0378119 0.224857 0.12224
0.128664 0.210681 0.112795
0.18851 0.198566 0.090425
0.24686 0.182315 0.0457771
0.298512 0.160189 0.0068513
0.346334 0.142626 0
0.396826 0.123583 0
0.453361 0.100801 0
0.512291 0.0538338 0
0.571908 0.000137331 0
0.63714 0 0
0.704509 0 0
0.77023 0 0
0.820401 0 0
0.852781 0 0
0.872312 0 0
0.872312 0 0
0.872312 0 0
0.872312 0 0
0.872312 0 0
0.872312 0 0
0.872312 0 0
0.872312 0 0
0.872312 0 0
0.872312 0 0
0 0.344976 0.187991
0 0.34052 0.185595
0 0.3364 0.183352
0 0.331807 0.180774
0 0.326207 0.177417
0 0.319646 0.173114
0 0.310994 0.16669
0 0.300633 0.156283
0 0.287068 0.149599
0.0488441 0.270848 0.141817
0.152392 0.253941 0.129595
0.222827 0.239292 0.105791
0.292424 0.221897 0.0615244
0.351965 0.195727 0.0116274
0.405722 0.173724 0
0.460151 0.153918 0
0.515435 0.128908 0
0.575494 0.0966049 0
0.635065 0.0263523 0
0.696529 0 0
0.759991 0 0
0.813855 0 0
0.844617 0 0
0.869383 0 0
0.869657 0 0
0.869856 0 0
0.870024 0 0
0.870283 0 0
0.870466 0 0
0.870527 0 0
0.870558 0 0
0.870604 0 0
0.870634 0 0
0 0.417792 0.215396
0 0.413825 0.213382
0 0.409873 0.211383
0 0.405356 0.209079
0 0.399756 0.206226
0 0.392844 0.202258
0 0.384176 0.196384
0 0.372763 0.186618
0 0.359258 0.176715
0 0.342992 0.16968
0.0524453 0.323491 0.161303
0.178897 0.304112 0.146227
0.261387 0.28777 0.118547
0.34258 0.269291 0.0714122
0.409979 0.23798 0.00823987
0.468956 0.211261 0
0.523186 0.190021 0
0.57998 0.167483 0
0.641001 0.140826 0
0.704295 0.105791 0
0.765576 0.0417334 0
0.817166 0.000518807 0
0.843626 6.10361e-05 0
0.867445 0 0
0.869841 0 0
0.869627 0 0
0.86949 0 0
0.869383 0 0
0.869368 0 0
0.869368 0 0
0.869368 0 0
0.869352 0 0
0.869352 0 0
0 0.495171 0.244938
0 0.491005 0.242451
0 0.48716 0.240269
0 0.48307 0.238087
0 0.477867 0.235477
0 0.471351 0.231983
0 0.463066 0.227146
0 0.45275 0.219303
0 0.439002 0.206821
0 0.421805 0.19649
0 0.402747 0.189014
0.0399023 0.381476 0.180285
0.210071 0.362707 0.16228
0.307485 0.346456 0.130541
0.403098 0.330007 0.0726635
0.475074 0.294224 0.00419623
0.537423 0.259709 0
0.590555 0.236301 0
0.646891 0.217868 0
0.70547 0.196612 0
0.762051 0.174548 0
0.812634 0.154314 0
0.849073 0.134554 0
0.874739 0.11841 0
0.883177 0.0922713 0
0.88304 0.0637064 0
0.882948 0.0429236 0
0.882887 0.0295109 0
0.882841 0.0208591 0
0.882826 0.0178225 0
0.882826 0.016083 0
0.882811 0.0143587 0
0.882795 0.0126345 0
0 0.567422 0.276326
0 0.564111 0.274205
0 0.5608 0.272053
0 0.557015 0.269673
0 0.5523 0.266575
0 0.546639 0.26302
0 0.540063 0.258595
0 0.531868 0.252583
0 0.520623 0.242054
0 0.504829 0.226947
0 0.48687 0.217441
0 0.465263 0.208698
0.103349 0.440696 0.198459
0.248203 0.419867 0.175875
0.35433 0.404868 0.140398
0.458778 0.390585 0.0648356
0.536385 0.355627 0
0.608713 0.322866 0
0.665949 0.297826 0
0.715282 0.278737 0
0.764736 0.261311 0
0.811826 0.243915 0
0.851438 0.228992 0
0.875578 0.216297 0
0.889189 0.205447 0
0.888273 0.195514 0
0.887648 0.187762 0
0.887236 0.182559 0
0.887022 0.179873 0
0.886915 0.178607 0
0.88687 0.177981 0
0.886809 0.17734 0
0.886763 0.176715 0
0 0.640864 0.314946
0 0.637095 0.3122
0 0.633555 0.309621
0 0.629755 0.306767
0 0.624704 0.303105
0 0.618265 0.29836
0 0.610376 0.292576
0 0.601282 0.285512
0 0.590829 0.275517
0 0.578424 0.261341
0 0.563043 0.247257
0 0.544808 0.237949
0 0.523674 0.22829
0.151568 0.499092 0.216175
0.294865 0.479194 0.189059
0.404608 0.463233 0.149523
0.51252 0.450736 0.0498512
0.590829 0.417609 0
0.665949 0.388052 0
0.727962 0.363058 0
0.777386 0.345571 0
0.821897 0.333791 0
0.864775 0.320974 0
0.885832 0.30782 0
0.902968 0.296651 0
0.90042 0.286503 0
0.898543 0.278981 0
0.897276 0.273899 0
0.89688 0.271427 0
0.896681 0.269978 0
0.896605 0.269398 0
0.896529 0.268833 0
0.896498 0.268544 0
0 0.708537 0.360433
0 0.705242 0.357366
0 0.701915 0.354208
0 0.698131 0.350622
0 0.693263 0.346273
0 0.687709 0.341466
0 0.68101 0.335927
0 0.672374 0.328359
0 0.662455 0.31841
0 0.650843 0.304204
0 0.63679 0.284703
0 0.618479 0.271077
0 0.59881 0.259648
0.00820935 0.575906 0.247318
0.221378 0.551858 0.232425
0.349645 0.536004 0.202335
0.459113 0.520607 0.159625
0.566781 0.510246 0.0377661
0.644602 0.481895 0
0.716991 0.45594 0
0.781796 0.432868 0
0.827665 0.414923 0
0.869307 0.40351 0
0.895155 0.394827 0
0.913146 0.385733 0
0.91693 0.376761 0
0.91577 0.369802 0
0.915038 0.365393 0
0.914595 0.362692 0
0.914397 0.361547 0
0.914305 0.360983 0
0.914214 0.360418 0
0.914122 0.359838 0
0 0.776211 0.413611
0 0.772564 0.410025
0 0.769085 0.406577
0 0.765057 0.402533
0 0.75996 0.397452
0 0.753521 0.39089
0 0.745953 0.383474
0 0.737179 0.374777
0 0.727794 0.365179
0 0.716854 0.351904
0 0.705425 0.333837
0 0.690532 0.31371
0 0.671656 0.299886
0 0.652491 0.286702
0.118196 0.629145 0.271534
0.294133 0.602823 0.249149
0.407797 0.584894 0.214176
0.51284 0.570825 0.169192
0.62089 0.565896 0.0462654
0.697902 0.543923 0
0.764736 0.521721 0
0.821851 0.501961 0
0.873976 0.485908 0
0.906279 0.473854 0
0.923949 0.464881 0
0.93312 0.457771 0
0.931807 0.451606 0
0.931044 0.447791 0
0.930587 0.445457 0
0.930404 0.444465 0
0.930297 0.443976 0
0.930205 0.443488 0
0.930129 0.443122 0
0 0.848234 0.479194
0 0.844358 0.474571
0 0.841016 0.470939
0 0.837263 0.466835
0 0.832456 0.461799
0 0.826505 0.455467
0 0.818784 0.447272
0 0.808621 0.436439
0 0.796994 0.42356
0 0.783642 0.407263
0 0.768338 0.386328
0 0.751995 0.359976
0 0.73547 0.343297
0 0.717342 0.328801
0 0.697658 0.313619
0.246525 0.674144 0.296208
0.372763 0.653223 0.269368
0.477302 0.636728 0.232105
0.573785 0.622583 0.185138
0.673976 0.617777 0.0724193
0.746624 0.600305 0
0.803052 0.580835 0
0.85687 0.565179 0
0.903639 0.552712 0
0.927428 0.542275 0
0.946059 0.534249 0
0.946014 0.528069 0
0.945983 0.523812 0
0.945953 0.521614 0
0.945953 0.520577 0
0.945937 0.520073 0
0.945937 0.519554 0
0.945937 0.519036 0
0.0387579 0.929244 0.568368
0.0257115 0.924773 0.562493
0.0133669 0.920562 0.55697
0 0.915785 0.550652
0 0.910231 0.543893
0 0.903059 0.535088
0 0.893919 0.523781
0 0.882383 0.509606
0 0.869154 0.493858
0 0.854536 0.475364
0 0.839048 0.453437
0 0.822354 0.426795
0 0.803555 0.399847
0 0.782834 0.380148
0 0.7617 0.361471
0.201846 0.739483 0.342092
0.344503 0.715892 0.322026
0.4486 0.697566 0.290074
0.54229 0.681834 0.251026
0.630137 0.668376 0.204166
0.71754 0.661189 0.104067
0.788251 0.653208 0.000885023
0.842878 0.638865 0
0.890059 0.627024 0
0.920501 0.617212 0
0.939223 0.609064 0
0.945266 0.602579 0
0.945022 0.598108 0
0.944884 0.595529 0
0.944823 0.594446 0
0.944808 0.594034 0
0.944778 0.5935 0
0.944747 0.59295 0
0.072221 0.940764 0.584253
0.0660716 0.938613 0.581262
0.0601968 0.936584 0.578454
0.0538643 0.934432 0.575372
0.0454414 0.931579 0.571328
0.0351873 0.928161 0.56643
0.0221866 0.923919 0.560204
0.00529488 0.918517 0.552193
0 0.911788 0.542687
0 0.903532 0.53051
0 0.894041 0.514519
0 0.884581 0.49453
0 0.869505 0.46595
0 0.847425 0.440085
0 0.825208 0.417365
0.194659 0.802686 0.395499
0.335454 0.779293 0.373449
0.432944 0.755123 0.346716
0.519661 0.735393 0.30753
0.604425 0.720897 0.267674
0.682765 0.707988 0.220844
0.755062 0.70016 0.147051
0.825696 0.698863 0.0109407
0.873533 0.688029 0
0.910323 0.679088 0
0.930388 0.672251 0
0.943008 0.666957 0
0.943297 0.662943 0
0.943465 0.660624 0
0.943526 0.659648 0
0.943572 0.659159 0
0.943603 0.658686 0
0.943633 0.658198 0
0.132448 0.953933 0.603159
0.125673 0.953658 0.601999
0.118532 0.953353 0.600778
0.111742 0.953063 0.599603
0.105653 0.952926 0.598474
0.106783 0.953368 0.598337
0.108278 0.953964 0.598169
0.110018 0.95465 0.597971
0.102464 0.95201 0.593393
0.0786297 0.944396 0.581827
0.0360266 0.934234 0.564614
0.00849927 0.923674 0.543725
0 0.912932 0.518135
0 0.900893 0.499352
0.0412757 0.888609 0.484138
0.227405 0.867002 0.459312
0.342016 0.841993 0.431693
0.434592 0.818082 0.407263
0.515099 0.796384 0.3738
0.593271 0.779049 0.334112
0.664942 0.762417 0.290288
0.726482 0.746899 0.243244
0.791348 0.740322 0.181933
0.857252 0.744808 0.0522621
0.898939 0.738338 0
0.921096 0.731411 0
0.936843 0.726177 0
0.939284 0.722103 0
0.939345 0.719661 0
0.939376 0.718639 0
0.939376 0.718135 0
0.939391 0.717754 0
0.939406 0.717235 0
0.158877 0.955062 0.607691
0.151736 0.954757 0.60647
0.145663 0.954498 0.605432
0.137804 0.954162 0.604074
0.128878 0.953796 0.602548
0.117098 0.953292 0.600534
0.105577 0.952895 0.598474
0.107362 0.953597 0.598276
0.110063 0.954452 0.598016
0.11397 0.955489 0.597284
0.113298 0.956344 0.594553
0.0782788 0.95584 0.587274
0.0357519 0.950515 0.569924
0.104219 0.939437 0.54844
0.156634 0.925109 0.528679
0.283223 0.911559 0.510735
0.37731 0.899184 0.49604
0.452125 0.879026 0.471519
0.521645 0.854063 0.441382
0.58996 0.834897 0.400412
0.657237 0.817029 0.357458
0.717205 0.802289 0.315938
0.774487 0.790066 0.272725
0.825467 0.781277 0.223667
0.87953 0.785519 0.135439
0.912673 0.785016 0.0553445
0.929183 0.780606 0.0190738
0.936416 0.776837 0.000839246
0.936553 0.774533 0
0.936614 0.77351 0
0.93666 0.773007 0
0.93669 0.772641 0
0.936721 0.772122 0
0.18172 0.956024 0.611612
0.174578 0.955718 0.610391
0.168521 0.955474 0.609354
0.160662 0.955139 0.607996
0.151736 0.954757 0.60647
0.139956 0.954253 0.604456
0.12639 0.953689 0.602121
0.108171 0.952911 0.598993
0.107271 0.953521 0.598306
0.113313 0.95465 0.597848
0.11635 0.955749 0.595834
0.106828 0.956268 0.590219
0.0699779 0.956146 0.579965
0.176135 0.958373 0.574258
0.27863 0.957778 0.572702
0.341421 0.946426 0.557107
0.407782 0.932616 0.538415
0.475593 0.919295 0.520867
0.542657 0.906722 0.505028
0.600122 0.887907 0.471031
0.658167 0.869047 0.425971
0.711925 0.852094 0.382483
0.76466 0.837919 0.340047
0.811566 0.826444 0.299046
0.85211 0.818479 0.259754
0.891829 0.819928 0.215412
0.915969 0.822919 0.178988
0.932128 0.824475 0.151736
0.933333 0.82266 0.143877
0.933684 0.821897 0.140887
0.933852 0.821515 0.139406
0.933974 0.821225 0.138277
0.934142 0.820844 0.136797
0.19736 0.956558 0.61445
0.193866 0.956542 0.613703
0.187076 0.956252 0.612543
0.179583 0.955932 0.611246
0.170657 0.955566 0.60972
0.159594 0.955093 0.607813
0.144945 0.954467 0.60531
0.127092 0.953719 0.602243
0.106035 0.952819 0.598627
0.112139 0.953933 0.598245
0.117586 0.955184 0.596658
0.119646 0.956222 0.592035
0.0968338 0.956451 0.582681
0.164813 0.95819 0.574899
0.273365 0.958373 0.574166
0.357198 0.957229 0.572106
0.434058 0.956252 0.570336
0.50135 0.949599 0.562081
0.560647 0.937102 0.545861
0.616312 0.925216 0.525734
0.668147 0.91487 0.493111
0.714748 0.897368 0.449042
0.761883 0.881743 0.404135
0.805676 0.869398 0.364843
0.842954 0.859159 0.327153
0.872404 0.850996 0.29366
0.894194 0.848463 0.268498
0.908888 0.848173 0.251225
0.914565 0.847822 0.243275
0.915206 0.847318 0.241154
0.91545 0.84712 0.240375
0.915755 0.84686 0.239292
0.916091 0.846601 0.238254
0.200107 0.956146 0.615549
0.198825 0.956344 0.61503
0.197742 0.956512 0.614603
0.194583 0.956573 0.613825
0.185657 0.956191 0.612299
0.173861 0.955688 0.610269
0.159594 0.955093 0.607813
0.142092 0.954345 0.604822
0.121386 0.953475 0.601267
0.110765 0.953338 0.59852
0.118364 0.954696 0.597253
0.121706 0.95584 0.593042
0.115953 0.95668 0.58471
0.157412 0.958038 0.575525
0.266438 0.958389 0.574609
0.352956 0.957656 0.573175
0.429969 0.956634 0.571374
0.503365 0.956313 0.571115
0.574075 0.957687 0.574304
0.632197 0.951522 0.565713
0.680613 0.941802 0.53753
0.723339 0.931853 0.504829
0.76437 0.918059 0.462699
0.804974 0.905791 0.423896
0.840208 0.895552 0.387793
0.868788 0.887297 0.355749
0.889494 0.881849 0.332128
0.900359 0.877729 0.316899
0.906706 0.875303 0.307774
0.906706 0.874281 0.305943
0.906706 0.873701 0.304921
0.906706 0.873121 0.303868
0.906722 0.872526 0.302831
0.202029 0.95584 0.616312
0.200809 0.956024 0.615824
0.199588 0.956222 0.615335
0.198322 0.95642 0.614832
0.196719 0.956664 0.614191
0.184939 0.956161 0.612161
0.170657 0.955566 0.60972
0.153155 0.954818 0.606714
0.132448 0.953933 0.603159
0.111788 0.953094 0.599023
0.1187 0.95433 0.597665
0.123156 0.955566 0.593744
0.127138 0.956741 0.58613
0.15288 0.9579 0.576074
0.261036 0.958297 0.574792
0.349828 0.957961 0.573968
0.426917 0.956924 0.572106
0.499168 0.956085 0.570794
0.570031 0.957382 0.573831
0.634638 0.959213 0.577188
0.691127 0.962341 0.571618
0.732067 0.953613 0.542443
0.772671 0.945373 0.511284
0.807584 0.933684 0.472618
0.839796 0.923018 0.43595
0.867964 0.915312 0.406714
0.889052 0.909667 0.383001
0.900038 0.905425 0.367666
0.906905 0.903288 0.358892
0.907607 0.902113 0.356191
0.907561 0.901488 0.355032
0.907515 0.900862 0.353872
0.907469 0.900236 0.352697
0.203296 0.955642 0.616815
0.202152 0.955825 0.616358
0.200931 0.956008 0.615869
0.199588 0.956222 0.615335
0.198001 0.956466 0.614694
0.192798 0.956497 0.613519
0.178149 0.955871 0.611002
0.160296 0.955123 0.607935
0.139239 0.954223 0.604334
