luts/changyun_kodaklike/kodaP160.cube
TITLE "Generated by Resolve"
LUT_3D_SIZE 9
0.0191348 0.0255589 0.0210269
0.057969 0.024918 0.0200961
0.180423 0.0483864 0.0306249
0.471748 0 0.0423743
0.798535 0.0334173 0.0894636
0.996933 0.293339 0.186481
1 0.320287 0.20737
1 0.320287 0.20737
1 0.320287 0.20737
0.0215152 0.0705425 0.0281834
0.0401007 0.0543526 0.0232242
0.169848 0.0509499 0.0294194
0.457649 0 0.042649
0.789487 0.0077821 0.0864271
0.993576 0.286717 0.181796
1 0.320287 0.20737
1 0.320287 0.20737
1 0.320287 0.20737
0 0.202029 0.0610971
0.00407416 0.183185 0.053193
0.129458 0.152346 0.0386511
0.428626 0.0424659 0.0301061
0.768154 0 0.0783856
0.98291 0.272312 0.172137
1 0.320287 0.20737
1 0.320287 0.20737
1 0.320287 0.20737
0.0802319 0.470161 0.139895
0.0365148 0.45214 0.128099
0.0880446 0.410224 0.105608
0.316793 0.343999 0.0222782
0.728237 0.268376 0
0.955215 0.296513 0.144533
1 0.331411 0.201129
1 0.326436 0.202914
1 0.326055 0.203067
0.389151 0.734325 0.312978
0.374334 0.720577 0.297536
0.345403 0.691875 0.268406
0.360403 0.629313 0.218708
0.558312 0.565988 0.138476
0.889967 0.538231 0
0.999985 0.509575 0
1 0.49514 0.0601663
1 0.493278 0.0676738
0.570291 0.933806 0.525734
0.562737 0.925658 0.514046
0.546731 0.908385 0.488548
0.53521 0.871489 0.438849
0.586557 0.79469 0.351049
0.736889 0.738231 0.261799
0.946731 0.744213 0.102052
0.986755 0.729992 0.00141909
0.98764 0.727993 0.00111391
0.584314 0.946593 0.550683
0.583062 0.945876 0.54699
0.579858 0.944015 0.538445
0.593545 0.944976 0.534981
0.665034 0.944335 0.53576
0.772534 0.915175 0.479881
0.872038 0.868894 0.397116
0.922011 0.862913 0.374655
0.923018 0.862165 0.372869
0.583917 0.946212 0.55314
0.584222 0.946517 0.551171
0.58172 0.945098 0.543404
0.592309 0.945174 0.537194
0.661219 0.94493 0.53756
0.789487 0.956359 0.543832
0.895445 0.95555 0.526802
0.9337 0.935103 0.485573
0.9346 0.932342 0.480858
0.583871 0.946166 0.553475
0.584176 0.946456 0.551507
0.581964 0.945235 0.54406
0.592065 0.945144 0.537362
0.660822 0.945006 0.53782
0.788571 0.956222 0.54377
0.90042 0.968536 0.54815
0.939162 0.949401 0.510674
0.940414 0.9467 0.505623
0.017792 0.0297398 0.0458076
0.0535439 0.0273899 0.0380102
0.17821 0.0484779 0.0367132
0.471046 0 0.0423896
0.798077 0.0321202 0.0893111
0.996765 0.293019 0.186252
1 0.320287 0.20737
1 0.320287 0.20737
1 0.320287 0.20737
0.0184939 0.0776989 0.0590982
0.0433967 0.0584115 0.0478065
0.167544 0.0523537 0.0411688
0.456947 0 0.0426642
0.789258 0.00714122 0.0863508
0.9935 0.286564 0.181674
1 0.320287 0.20737
1 0.320287 0.20737
1 0.320287 0.20737
0.00483711 0.208286 0.0981308
0.0147402 0.189334 0.0881666
0.130938 0.153903 0.0605631
0.426596 0.0454566 0.0340429
0.767865 0 0.0782635
0.982727 0.272145 0.17203
1 0.320287 0.20737
1 0.320287 0.20737
1 0.320287 0.20737
0.116411 0.47483 0.172717
0.0892653 0.45597 0.159106
0.11075 0.414527 0.132738
0.318288 0.345968 0.0560159
0.72668 0.269474 0
0.954772 0.296757 0.144076
1 0.33167 0.201038
1 0.326589 0.202838
1 0.326207 0.203006
0.395132 0.736843 0.335805
0.382147 0.724147 0.321721
0.352605 0.694713 0.289509
0.364492 0.631418 0.234226
0.557565 0.566339 0.146609
0.888151 0.538048 0
1 0.511162 0
1 0.495872 0.057145
1 0.494026 0.0646677
0.574533 0.936233 0.541131
0.566934 0.928206 0.529137
0.547829 0.908782 0.499245
0.536767 0.872709 0.449317
0.586816 0.795361 0.358892
0.737362 0.739605 0.266728
0.95259 0.745144 0.0860761
0.985748 0.730404 0.00225834
0.986679 0.728313 0.00172427
0.584878 0.946502 0.562142
0.583856 0.945953 0.558251
0.583932 0.946227 0.553124
0.593881 0.944839 0.542351
0.666484 0.94548 0.542626
0.775341 0.921111 0.491325
0.877195 0.875547 0.408225
0.920363 0.865049 0.380682
0.921218 0.864057 0.378347
0.586191 0.947204 0.567086
0.585153 0.946654 0.563134
0.583535 0.945846 0.555581
0.593515 0.945632 0.546517
0.661799 0.945342 0.543465
0.78854 0.955642 0.545251
0.901793 0.962325 0.540703
0.939132 0.941588 0.49868
0.937621 0.938155 0.4925
0.586328 0.94728 0.56759
0.58529 0.946731 0.563699
0.583505 0.9458 0.555871
0.593454 0.945708 0.54696
0.661265 0.945312 0.543557
0.787732 0.955612 0.545464
0.904768 0.97113 0.555276
0.944579 0.954543 0.52163
0.943008 0.950927 0.515129
0.00631724 0.0627146 0.148501
0.0468605 0.0579538 0.137148
0.17496 0.0602121 0.116335
0.466468 0 0.0982834
0.793805 0.0288853 0.0951095
0.996429 0.292348 0.185779
1 0.320287 0.20737
1 0.320287 0.20737
1 0.320287 0.20737
0.0021973 0.101305 0.161822
0.0270542 0.0869001 0.149142
0.163516 0.0674449 0.125872
0.453101 0.000366217 0.10753
0.784161 0.00456245 0.0979934
0.993164 0.285893 0.181201
1 0.320287 0.20737
1 0.320287 0.20737
1 0.320287 0.20737
0 0.226184 0.180468
0.00227359 0.20827 0.17174
0.147936 0.166476 0.153292
0.421042 0.0943008 0.125048
0.762554 0.00456245 0.106416
0.980438 0.270176 0.171801
1 0.320287 0.20737
1 0.320287 0.20737
1 0.320287 0.20737
0.186236 0.492622 0.270237
0.170047 0.473899 0.255634
0.169406 0.430808 0.224765
0.333013 0.357382 0.163806
0.723201 0.275547 0.0559854
0.947936 0.294087 0.151003
1 0.330678 0.200351
1 0.326299 0.202548
1 0.325917 0.202731
0.413657 0.743816 0.403723
0.401297 0.731167 0.389532
0.37464 0.702556 0.357687
0.382483 0.639384 0.296147
0.563897 0.573327 0.208942
0.886076 0.539849 0
1 0.511925 0.0493935
1 0.496117 0.0720531
1 0.494285 0.0769818
0.579019 0.938415 0.574456
0.571801 0.930297 0.56318
0.553857 0.911482 0.535485
0.542138 0.876341 0.485222
0.588922 0.797925 0.394018
0.738003 0.742351 0.299321
0.950637 0.745907 0.156863
0.984894 0.731502 0.0538643
0.985733 0.729473 0.0441901
0.588602 0.948196 0.596063
0.587091 0.947295 0.590784
0.586725 0.947143 0.583093
0.598596 0.947173 0.571405
0.667033 0.945739 0.560342
0.775769 0.922988 0.509422
0.876753 0.87686 0.424735
0.919799 0.865995 0.396262
0.920607 0.865049 0.393866
0.590463 0.949294 0.602594
0.588968 0.948409 0.597391
0.586206 0.946792 0.586648
0.597131 0.947188 0.575235
0.662379 0.945495 0.562478
0.788067 0.955276 0.558343
0.902358 0.965011 0.554604
0.940551 0.944793 0.514458
0.93901 0.941131 0.508034
0.590692 0.949432 0.603464
0.589227 0.948562 0.59826
0.586145 0.946746 0.587091
0.596948 0.947204 0.575677
0.661967 0.945571 0.562997
0.78732 0.955276 0.558755
0.903914 0.970687 0.563684
0.94551 0.957183 0.535515
0.944396 0.954009 0.529961
0 0.113909 0.387717
0 0.110475 0.372869
0.139879 0.110033 0.334905
0.470115 0.103136 0.283116
0.783185 0.178897 0.264332
0.993515 0.309911 0.261662
1 0.32604 0.246815
1 0.324819 0.239414
1 0.324651 0.238392
0 0.140566 0.402564
0 0.12755 0.38761
0.101381 0.114931 0.351141
0.455467 0.106203 0.296208
0.772763 0.182177 0.276417
0.987716 0.307057 0.268864
1 0.32903 0.256138
1 0.325811 0.245441
1 0.325673 0.244572
0 0.285145 0.434485
0 0.265293 0.41976
0.0987869 0.20972 0.385763
0.422934 0.149874 0.325521
0.755627 0.160769 0.291707
0.97171 0.301289 0.285786
1 0.33576 0.276417
1 0.331914 0.26482
1 0.33138 0.263249
0.189868 0.531411 0.452567
0.143954 0.515633 0.442603
0.145144 0.4757 0.418601
0.382589 0.391638 0.380652
0.708904 0.31989 0.334951
0.937881 0.332815 0.31429
1 0.356649 0.309209
1 0.349142 0.297871
1 0.348333 0.296681
0.460121 0.768338 0.553307
0.453101 0.755673 0.543816
0.428382 0.728161 0.516854
0.444343 0.670558 0.470481
0.581827 0.590326 0.385275
0.882826 0.547356 0.289387
1 0.523262 0.302724
1 0.507988 0.294163
1 0.506264 0.293416
0.591745 0.9467 0.656352
0.585443 0.938445 0.646906
0.571206 0.920882 0.625238
0.561242 0.887434 0.582605
0.598932 0.806638 0.500435
0.740139 0.748455 0.41709
0.953597 0.747967 0.327474
0.988479 0.732036 0.2869
0.989242 0.729915 0.28304
0.602106 0.955657 0.680079
0.600351 0.954849 0.67393
0.596292 0.952911 0.660426
0.606165 0.95198 0.641703
0.670359 0.948974 0.617777
0.779965 0.929427 0.574929
0.877562 0.88098 0.496117
0.923644 0.871641 0.470634
0.924453 0.87071 0.468498
0.60354 0.956222 0.687282
0.602396 0.955779 0.681529
0.598627 0.954025 0.668223
0.605173 0.952331 0.647745
0.666941 0.949767 0.623804
0.789273 0.956664 0.609155
0.90399 0.969726 0.601373
0.943038 0.949798 0.567544
0.94197 0.946456 0.562432
0.603723 0.956283 0.688167
0.602579 0.95584 0.68249
0.598901 0.954162 0.669123
0.605051 0.952361 0.648508
0.66656 0.949874 0.624628
0.788373 0.956558 0.609567
0.903334 0.970336 0.602564
0.947173 0.96199 0.584543
0.94728 0.958953 0.579904
0 0.216358 0.676097
0 0.210208 0.665858
0 0.204608 0.640009
0.466804 0.222141 0.582681
0.791699 0.274708 0.529625
0.984634 0.358694 0.488487
1 0.401541 0.481224
1 0.39884 0.46894
1 0.39852 0.467628
0 0.24242 0.685405
0 0.229938 0.67599
0.000122072 0.212711 0.651667
0.455222 0.224048 0.595438
0.783154 0.276814 0.541588
0.977768 0.359899 0.499245
1 0.394232 0.485115
1 0.401282 0.478935
1 0.400931 0.477516
0 0.354482 0.701579
0 0.334997 0.692927
0.0236362 0.296513 0.671748
0.433433 0.254978 0.622629
0.761471 0.269398 0.567239
0.962966 0.362478 0.522683
1 0.380087 0.494865
1 0.387366 0.488777
1 0.388434 0.488212
0.300114 0.606027 0.722957
0.283268 0.589792 0.715099
0.276677 0.552285 0.697398
0.418235 0.463584 0.659129
0.707805 0.38941 0.603525
0.930129 0.404486 0.563195
1 0.409369 0.536324
1 0.401511 0.524392
1 0.400778 0.522957
0.505592 0.805524 0.722789
0.494179 0.793347 0.714305
0.468956 0.766339 0.696193
0.480018 0.717021 0.667887
0.634562 0.638651 0.632395
0.855924 0.59202 0.60264
0.991653 0.576776 0.590997
0.99295 0.563073 0.580179
0.993164 0.561318 0.578637
0.601495 0.965682 0.774853
0.595483 0.958282 0.766598
0.581918 0.941802 0.748043
0.576272 0.912139 0.715969
0.645701 0.836912 0.678416
0.755749 0.764828 0.606073
0.968566 0.745129 0.552911
0.9991 0.727214 0.541421
0.999146 0.725429 0.540261
0.614801 0.971588 0.798642
0.611292 0.97084 0.791638
0.603586 0.969177 0.776654
0.604166 0.966766 0.751873
0.686748 0.959869 0.734295
0.785992 0.938323 0.686671
0.88426 0.88922 0.628061
0.941283 0.886946 0.61033
0.941817 0.885679 0.608362
0.618799 0.972351 0.80708
0.615534 0.971725 0.800168
0.608042 0.970138 0.785306
0.606119 0.967559 0.760174
0.685389 0.960861 0.743191
0.790356 0.958907 0.706813
0.908034 0.973571 0.691676
0.950973 0.95903 0.670634
0.951659 0.956176 0.667124
0.619211 0.972427 0.80795
0.616068 0.971832 0.801282
0.608637 0.970275 0.78648
0.606271 0.967636 0.761028
0.685222 0.960983 0.744213
0.789578 0.958862 0.70753
0.907012 0.973449 0.692348
0.955077 0.971603 0.682338
0.956786 0.968582 0.678904
0.195743 0.357717 0.850797
0.187427 0.349538 0.843305
0.258564 0.338262 0.826215
0.499168 0.339788 0.789853
0.76492 0.369284 0.736919
0.978759 0.478706 0.699657
1 0.475547 0.673228
1 0.46717 0.661387
1 0.466194 0.660014
0.227283 0.377997 0.857252
0.211994 0.365927 0.849989
0.259876 0.347341 0.8336
0.490455 0.345098 0.798459
0.754131 0.376593 0.74493
0.971969 0.480293 0.708034
1 0.481926 0.682338
1 0.473854 0.670832
1 0.472892 0.669474
0.316854 0.46595 0.870741
0.301076 0.449729 0.864698
0.30074 0.412558 0.847776
0.475639 0.375021 0.815824
0.731411 0.393973 0.762692
0.955779 0.474464 0.726192
1 0.494469 0.700771
1 0.487266 0.690196
1 0.486442 0.688975
0.505776 0.678111 0.888533
0.496071 0.664378 0.881086
0.471672 0.629511 0.866804
0.48954 0.549264 0.839857
0.69662 0.500298 0.79292
0.919112 0.490272 0.755779
1 0.529335 0.734096
1 0.518288 0.723415
1 0.516777 0.721935
0.548669 0.858625 0.917479
0.541573 0.847349 0.910201
0.527932 0.823224 0.894728
0.546227 0.776226 0.867109
0.675792 0.705043 0.829053
0.859617 0.654002 0.788357
0.991104 0.65713 0.776287
0.991424 0.642054 0.765576
0.991516 0.640299 0.764279
0.63595 0.984253 0.928405
0.631479 0.979355 0.921889
0.624903 0.961395 0.901701
0.628702 0.935332 0.871794
0.687633 0.881651 0.843671
0.81474 0.808972 0.807202
0.962539 0.777417 0.788251
0.984268 0.766827 0.782544
0.984482 0.765347 0.781476
0.628382 0.998154 0.974838
0.631296 0.993378 0.959014
0.637324 0.984756 0.928832
0.657923 0.979965 0.89688
0.722103 0.978042 0.867674
0.817548 0.960174 0.838193
0.902586 0.90074 0.782101
0.975738 0.900084 0.767773
0.976242 0.897887 0.766262
0.632822 0.990845 0.950637
0.634272 0.988495 0.942809
0.637232 0.984817 0.929152
0.654994 0.980331 0.904662
0.721813 0.978805 0.874815
0.815686 0.974273 0.848966
0.916411 0.978256 0.814801
0.966064 0.970367 0.800504
0.968688 0.967681 0.797986
0.632624 0.99118 0.951751
0.634089 0.988769 0.94374
0.637034 0.984939 0.929793
0.654673 0.980392 0.905745
0.721752 0.978897 0.8757
0.814969 0.974533 0.85008
0.91545 0.978134 0.815778
0.969482 0.983505 0.807996
0.973068 0.980529 0.805341
0.383612 0.479088 0.948928
0.37615 0.470024 0.942535
0.392767 0.454658 0.927916
0.530388 0.446738 0.897307
0.750317 0.48188 0.850584
0.966293 0.511589 0.813016
1 0.536385 0.789502
1 0.533974 0.779873
1 0.533715 0.778775
0.399466 0.49688 0.955108
0.389242 0.484688 0.948623
0.397543 0.464652 0.93434
0.524651 0.452979 0.904601
0.742824 0.484718 0.858289
0.958129 0.506798 0.82031
1 0.538308 0.797116
1 0.535882 0.787488
1 0.535637 0.78648
0.452934 0.566049 0.968353
0.438788 0.550088 0.961913
0.427512 0.517571 0.947677
0.518303 0.481407 0.91957
0.726452 0.491951 0.874876
0.939925 0.502693 0.836362
0.999405 0.54139 0.812985
0.999908 0.53991 0.804044
0.999969 0.539742 0.803113
0.574533 0.721996 0.983413
0.561685 0.708766 0.981811
0.534096 0.676081 0.968643
0.549706 0.620066 0.942657
0.704799 0.577127 0.90277
0.899168 0.55259 0.862791
0.995407 0.558083 0.840787
0.996414 0.55172 0.831373
0.996567 0.551049 0.830137
0.59794 0.874159 0.984192
0.596139 0.864576 0.984421
0.59234 0.844007 0.984726
0.617426 0.806577 0.975158
0.704082 0.745785 0.93901
0.857893 0.709407 0.896178
0.982773 0.676921 0.87628
0.983352 0.665354 0.866941
0.98352 0.664149 0.865965
0.627253 1 0.980987
0.625132 0.998779 0.981659
0.620676 0.996139 0.983108
0.637018 0.977157 0.983993
0.718608 0.921294 0.974899
0.85301 0.857023 0.940856
0.963821 0.822675 0.913481
0.986191 0.816251 0.907164
0.98616 0.814755 0.905959
0.627253 1 0.980987
0.627253 1 0.980987
0.627253 1 0.980987
0.64033 1 0.981399
0.718532 1 0.983566
0.851209 0.984237 0.956695
0.942672 0.931884 0.931975
0.996078 0.922103 0.923949
0.995865 0.920211 0.923079
0.627253 1 0.980987
0.627253 1 0.980987
0.627253 1 0.980987
0.638468 1 0.981338
0.713619 1 0.983429
0.847181 0.993088 0.968978
0.940429 0.988388 0.945037
0.985656 0.983307 0.926574
0.991455 0.981598 0.924819
0.627253 1 0.980987
0.627253 1 0.980987
0.627253 1 0.980987
0.638285 1 0.981338
0.713069 1 0.983413
0.846174 0.993713 0.970718
0.940291 0.988602 0.946593
0.983688 0.991867 0.929412
0.990112 0.991409 0.927749
0.443046 0.5337 0.983978
0.434302 0.523522 0.977813
0.440085 0.505455 0.963653
0.546563 0.492241 0.934813
0.749981 0.517861 0.891081
0.959945 0.524071 0.853056
0.998337 0.54461 0.829236
0.999008 0.542596 0.820218
0.999069 0.542412 0.819104
0.45449 0.547387 0.988159
0.44686 0.538003 0.983673
0.44683 0.51664 0.970336
0.542657 0.499367 0.941833
0.74316 0.522347 0.899077
0.950439 0.526116 0.859724
0.99765 0.54667 0.836851
0.998489 0.544152 0.827527
0.998581 0.543862 0.826459
0.480079 0.589441 0.986694
0.476463 0.582834 0.98706
0.475822 0.56437 0.982544
0.539956 0.526558 0.95584
0.727779 0.531243 0.914778
0.928725 0.541207 0.874998
0.995819 0.550225 0.852506
0.997024 0.548547 0.843854
0.997147 0.548211 0.842588
0.575555 0.723064 0.983474
0.563241 0.710185 0.982818
0.545983 0.685557 0.98378
0.576715 0.650629 0.978958
0.710231 0.608576 0.9411
0.891691 0.593927 0.901656
0.989563 0.567239 0.879072
0.991547 0.560754 0.870359
0.991791 0.560159 0.86949
0.598032 0.874815 0.984161
0.596307 0.865446 0.984405
0.592508 0.844739 0.984726
0.624979 0.810544 0.983719
0.717205 0.762005 0.977295
0.862089 0.729198 0.936645
0.977707 0.690517 0.913756
0.979034 0.677104 0.905013
0.979278 0.675578 0.903868
0.627253 1 0.980987
0.625315 0.998886 0.981598
0.620874 0.996246 0.983047
0.636957 0.977661 0.983993
0.725338 0.924987 0.986297
0.860914 0.869612 0.981537
0.962951 0.840162 0.953185
0.983368 0.824521 0.944121
0.983307 0.822919 0.943053
0.627253 1 0.980987
0.627253 1 0.980987
0.627253 1 0.980987
0.640253 1 0.981399
0.718288 1 0.983566
0.85156 0.995972 0.98909
0.95877 0.956176 0.987808
0.994247 0.943313 0.976898
0.994049 0.941238 0.975387
0.627253 1 0.980987
0.627253 1 0.980987
0.627253 1 0.980987
0.638407 1 0.981338
0.713466 1 0.983429
0.844968 1 0.988479
0.954238 1 0.995239
0.994354 0.994156 0.991119
0.998123 0.991806 0.989044
0.627253 1 0.980987
0.627253 1 0.980987
0.627253 1 0.980987
0.638224 1 0.981338
0.712871 1 0.983413
0.844114 1 0.988449
0.953338 1 0.995163
0.993973 0.998993 0.99324
0.998718 0.998871 0.991928
0.449775 0.540093 0.987915
0.441138 0.530037 0.981826
0.445991 0.511864 0.967941
0.54873 0.497749 0.939132
0.750179 0.522637 0.89604
0.958602 0.527108 0.857404
0.997894 0.545922 0.834073
0.998718 0.543465 0.824933
0.99881 0.543175 0.823713
0.45449 0.547387 0.988159
0.453574 0.544335 0.987655
0.452506 0.522744 0.974151
0.544976 0.505013 0.946242
0.742992 0.526619 0.903593
0.948684 0.530297 0.864134
0.997223 0.547967 0.841703
0.998047 0.545464 0.83238
0.998154 0.545174 0.831296
0.48011 0.589487 0.986694
0.476524 0.582925 0.987045
0.481743 0.570123 0.986603
0.543114 0.532509 0.96022
0.727993 0.535882 0.919295
0.927474 0.546838 0.879744
0.995026 0.550896 0.857038
0.99649 0.549645 0.848569
0.996689 0.549462 0.84741
0.575555 0.723064 0.983474
0.563424 0.710384 0.982834
0.545983 0.685557 0.98378
0.580133 0.654337 0.983246
0.71133 0.612589 0.945586
0.8907 0.598215 0.905913
0.988769 0.568933 0.883619
0.990692 0.562478 0.874952
0.990951 0.561837 0.873991
0.598047 0.874952 0.984161
0.596307 0.865446 0.984405
0.592538 0.844877 0.984726
0.624903 0.810544 0.983719
0.718791 0.763958 0.98175
0.862654 0.731319 0.941161
0.977066 0.693706 0.918349
0.978195 0.679103 0.909194
0.978363 0.677714 0.908293
0.627253 1 0.980987
0.625315 0.998886 0.981598
0.620874 0.996246 0.983047
0.636957 0.977661 0.983993
0.725338 0.925124 0.986297
0.86186 0.871214 0.986419
0.962982 0.842359 0.95787
0.983047 0.826612 0.948669
0.982986 0.82504 0.947662
0.627253 1 0.980987
0.627253 1 0.980987
0.627253 1 0.980987
0.640253 1 0.981399
0.718288 1 0.983566
0.851591 0.996155 0.989075
0.960174 0.958663 0.99353
0.994369 0.945693 0.981872
0.994186 0.943648 0.980636
0.627253 1 0.980987
0.627253 1 0.980987
0.627253 1 0.980987
0.638407 1 0.981338
0.713375 1 0.983429
0.844831 1 0.988479
0.954238 1 0.995239
0.995453 0.995666 0.998764
0.999039 0.993744 0.997009
0.627253 1 0.980987
0.627253 1 0.980987
0.627253 1 0.980987
0.638224 1 0.981338
0.712779 1 0.983413
0.844038 1 0.988449
0.953185 1 0.995163
0.995026 1 0.999451
1 1 1
