luts/changyun_kodaklike/kodaG200.cube
TITLE "Generated by Resolve"
LUT_3D_SIZE 5
0.0323949 0.0207675 0.040116
0.0778363 0.0244297 0.0459449
0.758587 0 0.00572213
1 0 0.144747
1 0 0.144747
0.00956741 0.0919509 0.0770733
0.0572213 0.0577096 0.0459449
0.703838 0 0.0153353
1 0 0.144747
1 0 0.144747
0.238804 0.79762 0.528847
0 0.740871 0.445212
0.605539 0.580484 0
1 0.382864 0
1 0.358923 0
0.781155 0.96379 0.856703
0.773556 0.961715 0.849577
0.787396 0.965713 0.812634
0.99202 0.928252 0.44184
1 0.91249 0.272633
0.778698 0.963302 0.856123
0.777218 0.962707 0.852934
0.786999 0.966201 0.816587
0.964797 0.973785 0.715068
1 0.96466 0.594003
0.0312505 0.0269017 0.0800183
0.0752728 0.0253452 0.0577554
0.746105 0 0.00668345
1 0 0.144747
1 0 0.144747
0.00358587 0.100237 0.112657
0.052903 0.0698253 0.0904097
0.690501 0 0.0121157
1 0 0.144747
1 0 0.144747
0.30985 0.799573 0.579919
0.100984 0.746242 0.503761
0.611612 0.591653 0.00808728
1 0.383719 0
1 0.355261 0
0.771679 0.9635 0.864759
0.772808 0.963073 0.861357
0.794171 0.966094 0.826596
0.99025 0.932769 0.489799
1 0.916716 0.336599
0.774014 0.964416 0.868162
0.76907 0.962432 0.860746
0.791623 0.965789 0.828885
0.966232 0.975525 0.734371
1 0.968551 0.633951
0 0.125994 0.462562
0 0.11809 0.426841
0.751553 0 0.286442
1 0 0.0943618
1 0 0.0979782
0 0.212085 0.512291
0 0.169757 0.472877
0.706783 0 0.329061
1 0.00560006 0.0962081
1 0 0.0941329
0.379873 0.792554 0.771954
0.280705 0.735317 0.717708
0.60972 0.605066 0.584665
1 0.4636 0.273777
1 0.434272 0.235386
0.776623 0.965576 0.935363
0.770977 0.965179 0.927794
0.816464 0.96698 0.905318
0.968399 0.939529 0.752117
1 0.926574 0.689113
0.769436 0.96527 0.936782
0.774517 0.965408 0.931365
0.806973 0.966949 0.906706
0.954253 0.976608 0.846494
0.996338 0.974731 0.809491
0.193881 0.409506 0.900954
0.180041 0.375906 0.877409
0.830777 0.418708 0.838407
1 0.426001 0.660426
1 0.418204 0.642924
0.346319 0.507164 0.929015
0.267048 0.43946 0.902342
0.79144 0.437171 0.859129
1 0.438025 0.696086
1 0.435599 0.682475
0.481727 0.863432 0.96202
0.398367 0.82591 0.95845
0.632853 0.674113 0.90399
1 0.646754 0.816205
1 0.620966 0.797238
0.781521 0.976867 0.980194
0.781521 0.976867 0.980194
0.826719 0.977905 0.980987
0.948013 0.943664 0.946212
0.985687 0.935393 0.934615
0.781521 0.976867 0.980194
0.781521 0.976867 0.980194
0.823957 0.977829 0.980926
0.957427 0.980606 0.972839
0.98761 0.984741 0.963119
0.418021 0.510857 0.946471
0.382406 0.467002 0.927871
0.838331 0.500618 0.889204
1 0.449516 0.727123
1 0.440681 0.710872
0.412985 0.541039 0.944991
0.439231 0.529503 0.945357
0.802045 0.502602 0.902998
1 0.46424 0.762081
1 0.461173 0.748119
0.483543 0.86424 0.962097
0.401129 0.827115 0.958587
0.691356 0.72398 0.949325
1 0.677974 0.874342
1 0.654093 0.85861
0.781521 0.976867 0.980194
0.781521 0.976867 0.980194
0.826596 0.977905 0.980987
0.950088 0.951461 0.97966
0.985611 0.949355 0.968856
0.781521 0.976867 0.980194
0.781521 0.976867 0.980194
0.823804 0.977829 0.980926
0.961059 0.987182 0.988083
0.993255 0.992645 0.993042
