luts/changyun_kodaklike/kodaM800.cube
TITLE "Generated by Resolve"
LUT_3D_SIZE 33
0.0144503 0.0923781 0.10428
0.0152285 0.0923018 0.104097
0.0176394 0.0922866 0.104067
0.0212558 0.0923018 0.104112
0.0277867 0.0924392 0.104402
0.0388952 0.0927901 0.105211
0.06392 0.0936294 0.106859
0.0894026 0.0950484 0.109133
0.112093 0.0965286 0.112383
0.140444 0.0974441 0.116106
0.178027 0.0962692 0.120012
0.229618 0.0910964 0.124392
0.296178 0.0614939 0.129274
0.375937 0.00370794 0.134661
0.465232 0 0.140612
0.559152 0 0.147219
0.650965 0 0.154742
0.743374 0 0.164767
0.833082 0 0.178714
0.912062 0 0.196704
0.981003 0 0.220798
0.994171 0 0.230976
1 0 0.241917
1 0 0.241917
1 0 0.241917
1 0 0.241917
1 0 0.241917
1 0 0.241917
1 0 0.241917
1 0 0.241917
1 0 0.241917
1 0 0.241917
1 0 0.241917
0.014313 0.0927443 0.104509
0.0151217 0.0926833 0.10428
0.016968 0.0926528 0.104189
0.0202335 0.092668 0.104219
0.0258946 0.0927443 0.104433
0.0375372 0.0929122 0.105165
0.0618448 0.0935683 0.106722
0.0878309 0.0949416 0.108965
0.11078 0.0964523 0.112184
0.138766 0.0974136 0.115892
0.176287 0.096376 0.11986
0.227207 0.0914015 0.124224
0.293339 0.0634012 0.129061
0.372839 0.00538643 0.134447
0.461936 0 0.140383
0.556176 0 0.147005
0.648356 0 0.154498
0.740475 0 0.164416
0.830396 0 0.178241
0.90927 0 0.195956
0.978546 0 0.219776
0.993927 0 0.230518
1 0 0.241917
1 0 0.241917
1 0 0.241917
1 0 0.241917
1 0 0.241917
1 0 0.241917
1 0 0.241917
1 0 0.241917
1 0 0.241917
1 0 0.241917
1 0 0.241917
0.0134585 0.0941024 0.105318
0.0145113 0.0937057 0.104875
0.0162051 0.0933089 0.104494
0.0193027 0.093019 0.104356
0.0240787 0.09308 0.104509
0.0361639 0.0932326 0.105196
0.0593118 0.0937819 0.1066
0.0862898 0.0948806 0.108812
0.109621 0.096376 0.112001
0.137499 0.0973983 0.11574
0.174578 0.0964675 0.119692
0.225406 0.0916457 0.124086
0.290929 0.0650492 0.128878
0.370184 0.00682078 0.134249
0.459129 0 0.140185
0.553353 0 0.146807
0.645579 0 0.154253
0.737392 0 0.164034
0.82771 0 0.177752
0.906783 0 0.1953
0.976226 0 0.218814
0.993576 0 0.229847
1 0 0.241917
1 0 0.241917
1 0 0.241917
1 0 0.241917
1 0 0.241917
1 0 0.241917
1 0 0.241917
1 0 0.241917
1 0 0.241917
1 0 0.241917
1 0 0.241917
0.0124819 0.0959029 0.10634
0.0134585 0.0954757 0.105943
0.0147555 0.0950484 0.105516
0.0183719 0.0946517 0.105028
0.0225528 0.0942092 0.104677
0.0347601 0.0938125 0.105241
0.0565652 0.0941024 0.106477
0.0841535 0.0950484 0.108614
0.108217 0.0963607 0.111788
0.135668 0.0973678 0.115511
0.172778 0.0965591 0.119524
0.222766 0.0919814 0.123888
0.28809 0.0669566 0.128664
0.367071 0.00849927 0.134035
0.455985 0 0.139956
0.550027 0 0.146563
0.642649 0 0.153994
0.734157 0 0.163638
0.824552 0 0.177203
0.903853 0 0.194507
0.973495 0 0.21767
0.993225 0 0.229191
1 0 0.241917
1 0 0.241917
1 0 0.241917
1 0 0.241917
1 0 0.241917
1 0 0.241917
1 0 0.241917
1 0 0.241917
1 0 0.241917
1 0 0.241917
1 0 0.241917
0.0109102 0.0997787 0.108736
0.0120546 0.0988327 0.107958
0.0131075 0.0979019 0.107256
0.0169833 0.0968643 0.106126
0.0219883 0.0962234 0.10515
0.033814 0.0956436 0.105318
0.053727 0.0954299 0.106447
0.0816358 0.095613 0.108461
0.106523 0.0964981 0.111513
0.133593 0.0975967 0.115236
0.170413 0.0966812 0.11931
0.220005 0.0923476 0.123674
0.284825 0.0691691 0.128405
0.3635 0.0104372 0.133791
0.452018 0 0.139666
0.545846 0 0.146242
0.638788 0 0.153658
0.72987 0 0.163104
0.82092 0 0.176547
0.900481 0 0.193606
0.970077 0 0.216251
0.992844 0 0.228458
1 0 0.241917
1 0 0.241917
1 0 0.241917
1 0 0.241917
1 0 0.241917
1 0 0.241917
1 0 0.241917
1 0 0.241917
1 0 0.241917
1 0 0.241917
1 0 0.241917
0.00851453 0.106065 0.11284
0.00978103 0.104677 0.111604
0.0108949 0.103777 0.11075
0.0134585 0.102708 0.109804
0.0178988 0.101366 0.108568
0.0297551 0.100023 0.106798
0.05066 0.0983444 0.106462
0.078294 0.0978408 0.108598
0.104356 0.0980392 0.111376
0.13077 0.0983139 0.114885
0.166873 0.0973526 0.119005
0.21619 0.0928817 0.1234
0.28043 0.0721447 0.128069
0.358679 0.0130465 0.133455
0.446906 0 0.139315
0.540993 0 0.145892
0.634287 0 0.153246
0.724926 0 0.162493
0.816022 0 0.175677
0.895949 0 0.192401
0.966125 0 0.214603
0.992279 0 0.227405
1 0 0.241917
1 0 0.241917
1 0 0.241917
1 0 0.241917
1 0 0.241917
1 0 0.241917
1 0 0.241917
1 0 0.241917
1 0 0.241917
1 0 0.241917
1 0 0.241917
0.00570687 0.116564 0.11989
0.0065919 0.115084 0.118669
0.00729381 0.113756 0.117464
0.00863661 0.112383 0.116152
0.012253 0.11043 0.11429
0.0214389 0.108232 0.111696
0.0430152 0.106081 0.107683
0.0776532 0.103243 0.10811
0.101732 0.101823 0.11165
0.127749 0.100587 0.114809
0.162997 0.0991684 0.118669
0.210513 0.0941634 0.123064
0.27451 0.0767224 0.127642
0.352926 0.0161593 0.133059
0.44097 0 0.138888
0.534478 0 0.145403
0.628016 0 0.152697
0.718257 0 0.161669
0.809857 0 0.174578
0.890517 0 0.190951
0.9608 0 0.212375
0.991608 0 0.226139
0.999435 0 0.240864
1 0 0.241917
1 0 0.241917
1 0 0.241917
1 0 0.241917
1 0 0.241917
1 0 0.241917
1 0 0.241917
1 0 0.241917
1 0 0.241917
1 0 0.241917
0 0.132677 0.128679
0 0.130556 0.127428
0.000320439 0.128771 0.126192
0.00123598 0.126894 0.124743
0.00300603 0.124758 0.122408
0.00819409 0.121889 0.119829
0.0230259 0.118227 0.117235
0.0642405 0.115846 0.10985
0.10074 0.11075 0.110765
0.125185 0.106691 0.115114
0.159289 0.103807 0.118654
0.205203 0.0982986 0.122667
0.266651 0.0854353 0.127123
0.343862 0.0243839 0.13254
0.432547 0 0.138308
0.526787 0 0.144839
0.620615 0 0.152056
0.71043 0 0.160784
0.802579 0 0.173297
0.883787 0 0.189151
0.954177 0 0.209796
0.990143 0 0.224613
0.998627 0 0.239338
1 0 0.241917
1 0 0.241917
1 0 0.241917
1 0 0.241917
1 0 0.241917
1 0 0.241917
1 0 0.241917
1 0 0.241917
1 0 0.241917
1 0 0.241917
0 0.157977 0.141085
0 0.155444 0.139666
0 0.15314 0.138277
0 0.150317 0.136599
0 0.146838 0.134005
4.57771e-05 0.143313 0.130373
0.00500496 0.138369 0.127153
0.0326696 0.133059 0.123064
0.0926375 0.129366 0.113039
0.126024 0.120974 0.113405
0.155047 0.113512 0.118791
0.200305 0.107393 0.122454
0.260151 0.09514 0.126802
0.334661 0.048249 0.131731
0.421302 0 0.137621
0.515557 0 0.143984
0.610529 0 0.151186
0.701503 0 0.159808
0.7935 0 0.171908
0.875196 0 0.187259
0.946227 0 0.207248
0.986465 0 0.223072
0.997665 0 0.237537
1 0 0.241917
1 0 0.241917
1 0 0.241917
1 0 0.241917
1 0 0.241917
1 0 0.241917
1 0 0.241917
1 0 0.241917
1 0 0.241917
1 0 0.241917
0 0.195819 0.158556
0 0.192294 0.156802
0 0.189349 0.155184
0 0.186007 0.153185
0 0.182055 0.150866
0 0.17673 0.146792
0 0.169986 0.141176
0.00270085 0.162158 0.136324
0.0492714 0.154864 0.130556
0.120775 0.150942 0.115892
0.162219 0.13695 0.115557
0.19733 0.12372 0.122438
0.254383 0.112535 0.12636
0.325963 0.0889906 0.131106
0.410315 0.0103304 0.13666
0.502724 0 0.142718
0.597513 0 0.149935
0.68748 0 0.158312
0.780255 0 0.169909
0.865644 0 0.185245
0.937133 0 0.204334
0.981964 0 0.221195
0.996582 0 0.235492
1 0 0.241917
1 0 0.241917
1 0 0.241917
1 0 0.241917
1 0 0.241917
1 0 0.241917
1 0 0.241917
1 0 0.241917
1 0 0.241917
1 0 0.241917
0 0.25536 0.183062
0 0.250843 0.180789
0 0.246448 0.178759
0 0.241428 0.176364
0 0.235203 0.173312
0 0.22771 0.169055
0 0.219059 0.162966
0 0.209186 0.154742
0.00424201 0.196551 0.148714
0.0791485 0.18584 0.139971
0.159075 0.182712 0.119249
0.214862 0.162219 0.114885
0.258091 0.141665 0.125551
0.325185 0.123568 0.130098
0.402655 0.0865644 0.135286
0.492149 0.0031281 0.141238
0.584314 0 0.148104
0.673014 0 0.156313
0.764172 0 0.167239
0.848035 0 0.181262
0.922057 0 0.199451
0.974472 0 0.218051
0.994827 0 0.232609
1 0 0.241917
1 0 0.241917
1 0 0.241917
1 0 0.241917
1 0 0.241917
1 0 0.241917
1 0 0.241917
1 0 0.241917
1 0 0.241917
1 0 0.241917
0 0.334615 0.216648
0 0.328817 0.213703
0 0.323537 0.211032
0 0.317693 0.208057
0 0.310658 0.204349
0 0.30251 0.199878
0 0.292134 0.193683
0 0.279606 0.183886
0 0.264149 0.171298
0.00686656 0.245487 0.16466
0.113329 0.23154 0.150668
0.210636 0.227298 0.120958
0.283879 0.200076 0.110582
0.326986 0.167742 0.127687
0.404334 0.14345 0.133455
0.491798 0.0986801 0.139254
0.580056 0.00364691 0.146212
0.676799 0 0.15523
0.75761 0 0.165164
0.833707 0 0.177646
0.907515 0 0.194842
0.965026 0 0.213993
0.989715 0 0.227207
1 0 0.239139
1 0 0.239536
1 0 0.239841
1 0 0.24007
1 0 0.240299
1 0 0.240436
1 0 0.240482
1 0 0.240513
1 0 0.240543
1 0 0.240574
0 0.428458 0.257725
0 0.423209 0.254932
0 0.417975 0.252186
0 0.411994 0.249027
0 0.404562 0.245106
0 0.395422 0.239841
0 0.383963 0.232746
0 0.369177 0.222004
0 0.352071 0.207492
0 0.332097 0.193027
0.0108186 0.308019 0.184756
0.158404 0.292287 0.1617
0.281361 0.288151 0.115801
0.369116 0.253437 0.0996872
0.40737 0.2047 0.126284
0.487755 0.176806 0.134447
0.575936 0.137575 0.141833
0.666819 0.0476081 0.150851
0.757321 0 0.162417
0.841856 0 0.177142
0.914733 0 0.195544
0.968704 0.005066 0.21471
0.989487 0.0147707 0.225223
0.998734 0 0.235996
1 0 0.237552
1 0 0.237812
1 0 0.23801
1 0 0.238132
1 0 0.238178
1 0 0.238209
1 0 0.238224
1 0 0.238224
1 0 0.238239
0 0.534554 0.311376
0 0.52871 0.307301
0 0.523445 0.303838
0 0.518029 0.30045
0 0.511147 0.29633
0 0.50248 0.290959
0 0.491463 0.283803
0 0.477409 0.27332
0 0.458274 0.257176
0 0.435111 0.234287
0 0.410163 0.219623
0.0451057 0.383688 0.209232
0.224079 0.371344 0.174533
0.370489 0.368078 0.0923171
0.48603 0.334676 0.0366369
0.52015 0.269123 0.108293
0.578256 0.226947 0.133455
0.662242 0.196231 0.143267
0.745266 0.163439 0.155322
0.826551 0.136736 0.169848
0.897261 0.108034 0.187457
0.954894 0.134279 0.207172
0.993149 0.151522 0.224537
0.998779 0.17026 0.238712
1 0.171481 0.2439
1 0.163149 0.244556
1 0.157092 0.245045
1 0.153185 0.24535
1 0.150668 0.245548
1 0.149783 0.245624
1 0.149279 0.24567
1 0.148775 0.245701
1 0.148272 0.245747
0 0.63154 0.371557
0 0.627268 0.368109
0 0.62298 0.36463
0 0.618051 0.360708
0 0.611948 0.355749
0 0.60473 0.350286
0 0.597009 0.344091
0 0.587289 0.335714
0 0.572488 0.321324
0 0.550225 0.297978
0 0.527001 0.268391
0 0.497841 0.253986
0.166369 0.46537 0.239277
0.300145 0.451499 0.185962
0.462608 0.451881 0.0583352
0.589319 0.41944 0
0.624628 0.345907 0.0591287
0.675715 0.299107 0.129061
0.754604 0.278691 0.144503
0.819684 0.255909 0.160006
0.881773 0.241535 0.177646
0.938567 0.241581 0.197665
0.982269 0.24889 0.21738
0.995743 0.253895 0.231785
1 0.254795 0.240299
1 0.24564 0.240681
1 0.238743 0.24094
1 0.234089 0.241108
1 0.231693 0.241184
1 0.230564 0.24123
1 0.229999 0.241245
1 0.229435 0.241276
1 0.22887 0.241291
0 0.732738 0.44976
0 0.727459 0.4448
0 0.722499 0.440116
0 0.717159 0.435019
0 0.710063 0.428321
0 0.700999 0.41973
0 0.689967 0.409415
0 0.677882 0.398093
0 0.664317 0.383825
0 0.648402 0.36466
0 0.629236 0.337682
0 0.606973 0.308812
0.0700084 0.580102 0.294102
0.266941 0.551339 0.271626
0.391684 0.539178 0.201358
0.555016 0.537789 0.0407111
0.679133 0.507988 0
0.712352 0.430732 0
0.748074 0.374975 0.114534
0.815793 0.357305 0.14406
0.880262 0.348318 0.166796
0.934142 0.344686 0.189349
0.981445 0.349264 0.214664
0.996033 0.347875 0.229267
1 0.346349 0.241108
1 0.334844 0.240024
1 0.326284 0.239216
1 0.320531 0.238666
1 0.318029 0.238651
1 0.316625 0.238666
1 0.31606 0.238666
1 0.315496 0.238682
1 0.315206 0.238682
0.2224 0.816449 0.537194
0.207858 0.812741 0.531929
0.19266 0.808988 0.526574
0.175097 0.8047 0.520485
0.141863 0.798505 0.512856
0.104906 0.791669 0.504601
0.0646525 0.783688 0.495323
0.0142519 0.773175 0.482582
0 0.760876 0.467414
0 0.746563 0.447791
0 0.728511 0.42034
0 0.705226 0.38201
0.0100862 0.680781 0.355505
0.237186 0.651072 0.335821
0.360189 0.626078 0.304494
0.487633 0.623514 0.223423
0.642573 0.623529 0.0398718
0.760586 0.598688 0
0.791989 0.523812 0
0.81883 0.463264 0.0791943
0.869383 0.440955 0.147936
0.921126 0.43508 0.17525
0.967773 0.435111 0.203754
0.99205 0.433707 0.223438
0.998352 0.432563 0.238071
1 0.426352 0.241917
1 0.419577 0.241856
1 0.41529 0.241825
1 0.412665 0.24181
1 0.411566 0.241794
1 0.411002 0.241794
1 0.410452 0.241794
1 0.409903 0.241779
0.424933 0.879347 0.632731
0.414511 0.876402 0.627024
0.404242 0.873533 0.621454
0.39202 0.870176 0.614908
0.376242 0.865873 0.606516
0.355322 0.860288 0.59556
0.329519 0.853101 0.583062
0.298573 0.844556 0.568673
0.269169 0.835996 0.554299
0.231861 0.82533 0.536187
0.196658 0.814603 0.514885
0.131121 0.79881 0.482094
0.0961013 0.778012 0.440055
0.262592 0.75639 0.41886
0.370489 0.727581 0.394736
0.453712 0.69929 0.340078
0.567407 0.69015 0.245899
0.709621 0.691615 0.0501564
0.827634 0.680995 0
0.861601 0.616938 0
0.886702 0.561578 0.0264439
0.914336 0.528038 0.155718
0.956405 0.522423 0.195239
0.988067 0.520882 0.221942
0.996048 0.517845 0.238834
1 0.513634 0.247379
1 0.506722 0.246555
1 0.502434 0.246281
1 0.499794 0.246113
1 0.49868 0.246036
1 0.498131 0.246006
1 0.497581 0.24596
1 0.497154 0.24593
0.581811 0.921889 0.726406
0.574182 0.920226 0.721462
0.56762 0.918608 0.717281
0.560281 0.916808 0.712596
0.550683 0.914443 0.706538
0.538506 0.911498 0.698878
0.522332 0.907607 0.688746
0.497978 0.901564 0.674022
0.467628 0.893843 0.655756
0.432944 0.884993 0.633661
0.388052 0.872389 0.604776
0.343999 0.859312 0.570779
0.305486 0.846006 0.532921
0.32697 0.830793 0.501076
0.401801 0.811597 0.479332
0.475013 0.785931 0.452125
0.550668 0.771618 0.388235
0.657069 0.764736 0.291112
0.780697 0.763607 0.0931716
0.886687 0.757717 0
0.914626 0.699931 0
0.934554 0.651484 0.00241093
0.955245 0.617411 0.155093
0.98027 0.603067 0.225452
0.992416 0.598688 0.245182
1 0.596429 0.260502
1 0.590127 0.259266
1 0.585809 0.258427
1 0.583581 0.257984
1 0.582528 0.257786
1 0.581994 0.257679
1 0.581476 0.257588
1 0.580957 0.257481
0.715267 0.95256 0.812848
0.709346 0.951217 0.80882
0.703716 0.94995 0.80499
0.697246 0.948501 0.80058
0.688365 0.946548 0.794675
0.676722 0.944015 0.786954
0.661631 0.94078 0.776944
0.641794 0.936568 0.763867
0.616724 0.931075 0.747509
0.588602 0.924865 0.728374
0.558541 0.917937 0.70634
0.524559 0.909483 0.678889
0.485634 0.899046 0.642878
0.449119 0.887465 0.598566
0.473152 0.871366 0.570733
0.515999 0.853758 0.542855
0.56878 0.834546 0.508705
0.636072 0.825391 0.435782
0.729015 0.819394 0.339208
0.833982 0.816236 0.180423
0.925811 0.811826 0
0.952544 0.771069 0
0.9729 0.734493 0.00939956
0.989792 0.707729 0.171328
0.997879 0.690608 0.239155
0.998978 0.678737 0.269261
1 0.670481 0.277363
1 0.66479 0.276326
1 0.661509 0.275731
1 0.660136 0.275486
1 0.659617 0.275395
1 0.65893 0.275273
1 0.658244 0.275135
0.730083 0.955901 0.823117
0.727382 0.955291 0.821225
0.724788 0.954696 0.819425
0.722042 0.954086 0.817502
0.718364 0.953277 0.814939
0.713924 0.9523 0.811841
0.708354 0.95108 0.807919
0.701167 0.949538 0.802869
0.690303 0.947265 0.795483
0.675303 0.944198 0.78497
0.658686 0.940764 0.77232
0.642939 0.937469 0.758099
0.617212 0.931579 0.733928
0.582422 0.923232 0.697185
0.569406 0.912718 0.663523
0.587045 0.900435 0.637507
0.617777 0.885924 0.61001
0.652659 0.871412 0.559777
0.70634 0.861967 0.474693
0.788724 0.857069 0.380194
0.876616 0.853605 0.221134
0.950988 0.849928 0.0234684
0.977981 0.819303 0
0.993896 0.791592 0.0139925
1 0.772213 0.193835
1 0.760098 0.240375
1 0.751568 0.268193
1 0.746746 0.269291
1 0.743969 0.269932
1 0.742794 0.270207
1 0.742199 0.270329
1 0.741619 0.270466
1 0.741039 0.270604
0.750134 0.96022 0.836683
0.749081 0.960082 0.83592
0.747997 0.95993 0.835126
0.74696 0.959792 0.834363
0.746227 0.959716 0.833783
0.747127 0.95996 0.834241
0.748318 0.960266 0.834836
0.749706 0.960616 0.835554
0.7467 0.959976 0.833249
0.73666 0.957778 0.826032
0.720897 0.954437 0.814313
0.704921 0.951049 0.801053
0.688746 0.947524 0.785306
0.672251 0.943755 0.765774
0.662898 0.940139 0.745647
0.664073 0.931456 0.722652
0.674037 0.920577 0.695918
0.696681 0.908568 0.669062
0.724529 0.901198 0.611505
0.774166 0.895506 0.534401
0.837858 0.888106 0.43357
0.902724 0.881148 0.308278
0.966598 0.877928 0.0966812
0.996536 0.860624 0.00479133
0.999954 0.840314 0.137301
1 0.827039 0.20824
1 0.817716 0.251209
1 0.813016 0.257282
1 0.810544 0.257099
1 0.809506 0.257008
1 0.808988 0.256977
1 0.808606 0.256947
1 0.808087 0.256916
0.754177 0.960769 0.839643
0.753079 0.960616 0.838834
0.752148 0.960494 0.838163
0.750942 0.960327 0.837278
0.749584 0.960143 0.836286
0.747768 0.959899 0.834958
0.746166 0.959701 0.833753
0.747585 0.960082 0.83447
0.749355 0.960525 0.83537
0.751431 0.961074 0.836271
0.75288 0.961471 0.836225
0.750607 0.961181 0.832944
0.74229 0.959426 0.823957
0.729473 0.95639 0.809232
0.713161 0.952392 0.788128
0.715328 0.947753 0.774273
0.729229 0.942977 0.764019
0.741573 0.935286 0.745464
0.755596 0.926299 0.712016
0.779507 0.921736 0.652354
0.821591 0.916228 0.575647
0.87306 0.911345 0.488548
0.929808 0.907057 0.381704
0.98143 0.90396 0.236347
0.99968 0.892378 0.144305
1 0.879042 0.193332
1 0.869871 0.238392
1 0.864607 0.258625
1 0.862577 0.258488
1 0.861662 0.258503
1 0.861219 0.258503
1 0.860868 0.258518
1 0.860426 0.258518
0.757671 0.961242 0.842191
0.756588 0.961089 0.841398
0.755657 0.960967 0.840711
0.754452 0.9608 0.839841
0.753079 0.960616 0.838834
0.751278 0.960372 0.837522
0.749203 0.960098 0.835996
0.74641 0.959716 0.833967
0.747433 0.960037 0.834394
0.749889 0.960632 0.835569
0.751965 0.961166 0.836042
0.752392 0.961395 0.834562
0.750957 0.961242 0.83061
0.756893 0.962386 0.830076
0.758358 0.962646 0.824598
0.75491 0.958892 0.81091
0.760021 0.953994 0.798688
0.772747 0.949401 0.789029
0.789761 0.944732 0.77908
0.800061 0.940566 0.73959
0.822583 0.936263 0.680766
0.856718 0.931594 0.610529
0.900725 0.927138 0.527214
0.946288 0.923171 0.431373
0.984405 0.92108 0.327626
1 0.916793 0.259373
1 0.909789 0.268482
1 0.904692 0.284001
1 0.90277 0.283696
1 0.902022 0.283391
1 0.90164 0.283238
1 0.901366 0.283116
1 0.900984 0.282963
0.759762 0.961501 0.843809
0.759533 0.961486 0.843549
0.758495 0.961349 0.842786
0.757351 0.961196 0.841947
0.755978 0.961013 0.840955
0.754284 0.960784 0.839719
0.752041 0.960479 0.838087
0.74931 0.960113 0.836088
0.746075 0.95967 0.833722
0.748516 0.960266 0.834928
0.751019 0.960891 0.835721
0.752789 0.961364 0.835187
0.752285 0.961395 0.831983
0.756558 0.962234 0.830457
0.759793 0.96286 0.826352
0.767163 0.962432 0.822675
0.782528 0.961456 0.822522
0.79646 0.958877 0.818296
0.809094 0.954513 0.809339
0.821042 0.952117 0.791104
0.833997 0.950607 0.755093
0.854185 0.946487 0.698878
0.885542 0.942702 0.632776
0.922469 0.938903 0.55726
0.958434 0.93547 0.474617
0.988067 0.932662 0.393851
0.995727 0.931289 0.350011
0.9991 0.929473 0.329717
1 0.928206 0.32256
1 0.927657 0.320882
1 0.927459 0.320272
1 0.927169 0.319387
1 0.926894 0.318608
0.758877 0.961303 0.843549
0.759289 0.961395 0.843671
0.75964 0.961471 0.843778
0.759655 0.961501 0.843626
0.758282 0.961318 0.842634
0.756481 0.961074 0.841321
0.754284 0.960784 0.839719
0.751598 0.960418 0.837766
0.748425 0.959991 0.835447
0.747356 0.95996 0.834363
0.750179 0.960647 0.835401
0.752239 0.961181 0.835126
0.753262 0.961501 0.83299
0.756283 0.962127 0.830732
0.759808 0.962814 0.826993
0.767132 0.962646 0.823484
0.782162 0.961685 0.823255
0.800565 0.960967 0.824506
0.822385 0.960998 0.828809
0.83714 0.959548 0.8215
0.846311 0.958358 0.792416
0.859648 0.956558 0.75584
0.88014 0.953323 0.702495
0.909255 0.950317 0.642313
0.939559 0.947662 0.5794
0.967254 0.945144 0.514015
0.985916 0.943358 0.461875
0.994354 0.942214 0.430167
0.998642 0.941619 0.411505
0.998718 0.941329 0.40824
0.998764 0.941161 0.406394
0.998795 0.940993 0.404517
0.99884 0.940826 0.40264
0.758251 0.961166 0.843366
0.758648 0.961242 0.843488
0.759045 0.961334 0.843595
0.759457 0.961425 0.843717
0.759976 0.961547 0.84387
0.758175 0.961303 0.842557
0.755978 0.961013 0.840955
0.753307 0.960647 0.839002
0.750134 0.96022 0.836683
0.74699 0.959823 0.834272
0.749523 0.960464 0.835157
0.751812 0.961028 0.835065
0.753735 0.961532 0.833585
0.756069 0.962036 0.83093
0.759594 0.962722 0.827283
0.767132 0.962814 0.824094
0.781888 0.961852 0.823789
0.7991 0.960876 0.824018
0.820844 0.960891 0.828214
0.841199 0.961578 0.830427
0.856519 0.964233 0.819745
0.866758 0.962707 0.788647
0.883482 0.961089 0.750088
0.903624 0.958175 0.698314
0.928344 0.955642 0.643778
0.953506 0.953552 0.589471
0.973526 0.951858 0.544289
0.98497 0.950561 0.515587
0.991928 0.949889 0.498543
0.993164 0.949538 0.494026
0.993454 0.949355 0.492256
0.993759 0.949172 0.490471
0.994049 0.948974 0.488701
0.757824 0.961074 0.843244
0.758206 0.961151 0.843351
0.758602 0.961242 0.843473
0.759045 0.961334 0.843595
0.759564 0.961456 0.843748
0.75938 0.961471 0.843427
0.757137 0.961166 0.841794
0.754391 0.9608 0.839796
0.751171 0.960357 0.837446
