luts/changyun_kodaklike/kodaE100VS.cube
TITLE "Generated by Resolve"
LUT_3D_SIZE 9
0.000640879 0.000518807 0.000991836
0.00476081 0.0010071 0.000259403
0.0915084 0.00556954 0.00164797
0.342275 0 0
0.773373 0 0
1 0 0
1 0 0
1 0 0
1 0 0
0 0.00947585 0.00471504
0.00131228 0.00572213 0.00184634
0.0815442 0.0059968 0.000686656
0.326696 0 0
0.760204 0 0
1 0 0
1 0 0
1 0 0
1 0 0
0 0.0972 0.0342565
0 0.0870527 0.0263676
0.0402686 0.0666972 0.00712596
0.299947 0 0
0.728649 0 0
0.99968 0 0
1 0 0
1 0 0
1 0 0
0 0.337621 0.108095
0 0.31548 0.100481
0 0.262226 0.0737926
0.227619 0.240757 0.000564584
0.722728 0.000579843 0
0.998123 0 0
1 0.0785077 0
1 0.0286259 0
1 0.0344396 0
0 0.721553 0.280125
0 0.700618 0.259007
0 0.655909 0.218662
0 0.545342 0.126848
0.560723 0.598444 0
0.990372 0.558389 0
1 0.527825 0
1 0.505577 0
1 0.501945 0
0.280064 0.974411 0.708873
0.173495 0.968048 0.688411
0.0253452 0.954894 0.64622
0.00962844 0.91574 0.528496
0.0344701 0.79469 0.362554
0.835523 0.824857 0.0204623
1 0.820325 0
1 0.807431 0
1 0.80502 0
0.44419 0.985382 0.74931
0.435767 0.984726 0.745296
0.41735 0.9832 0.735958
0.454047 0.983795 0.733898
0.609476 0.977584 0.745388
0.767636 0.953216 0.686748
0.964675 0.942153 0.405203
0.999985 0.941146 0.181155
0.999985 0.939956 0.159045
0.440711 0.984894 0.749554
0.443778 0.985321 0.749386
0.426688 0.983978 0.740764
0.453498 0.984085 0.736095
0.601022 0.979232 0.745632
0.808499 0.981765 0.803326
0.929168 0.990799 0.716655
0.991791 0.982818 0.583795
0.994797 0.981643 0.570047
0.44036 0.984848 0.749569
0.443412 0.98526 0.749401
0.427527 0.984054 0.741314
0.453086 0.984176 0.736507
0.59791 0.979568 0.74519
0.806348 0.981384 0.803861
0.926955 0.998062 0.758618
0.986572 0.988327 0.63331
0.990555 0.98732 0.619547
9.15541e-05 0.000503548 0.00610361
0.00447089 0.000793469 0.0041352
0.0897993 0.00590524 0.00164797
0.341482 0 0
0.773037 0 0
1 0 0
1 0 0
1 0 0
1 0 0
0 0.00988785 0.0104372
0.0015259 0.0055848 0.00645457
0.079118 0.00624094 0.00198367
0.325887 0 0
0.760052 0 0
1 0 0
1 0 0
1 0 0
1 0 0
0 0.100893 0.0519722
0 0.0907301 0.0411536
0.0393835 0.0663462 0.0130465
0.296956 0 0
0.728359 0 0
0.99968 0 0
1 0 0
1 0 0
1 0 0
0 0.34876 0.134401
0 0.324102 0.123217
0 0.270695 0.0957046
0.227298 0.241856 0.000808728
0.719295 0.0011902 0
0.998169 0 0
1 0.0811017 0
1 0.0332341 0
1 0.0391852 0
0 0.728069 0.309148
0 0.70927 0.289448
0 0.664347 0.245304
0 0.552102 0.141253
0.557443 0.597925 0
0.988052 0.558587 0
1 0.531792 0
1 0.50695 0
1 0.503151 0
0.347509 0.976577 0.724788
0.282795 0.970718 0.705867
0.0855879 0.955764 0.657282
0.0290837 0.919432 0.547311
0.0372625 0.796445 0.368353
0.835309 0.826368 0.0267491
1 0.821469 0
1 0.807263 0
1 0.805249 0
0.446433 0.985046 0.756283
0.43978 0.984512 0.7523
0.441108 0.984909 0.74966
0.454826 0.983474 0.737545
0.615091 0.979278 0.75172
0.773342 0.957336 0.705013
0.966339 0.946441 0.429114
0.999969 0.943481 0.220722
0.999985 0.942184 0.199603
0.454078 0.985656 0.760876
0.447395 0.985107 0.756893
0.438178 0.984482 0.750103
0.458457 0.984237 0.742245
0.599512 0.979599 0.747097
0.806683 0.981033 0.802563
0.932967 0.9944 0.737942
0.993286 0.985977 0.606256
0.994308 0.984573 0.593454
0.454643 0.985687 0.761181
0.447883 0.985153 0.757229
0.437934 0.984451 0.750134
0.458671 0.98439 0.742931
0.595422 0.979767 0.746014
0.804639 0.980743 0.803571
0.930678 0.999359 0.768002
0.989654 0.990585 0.648936
0.990433 0.989288 0.637064
0 0 0.068574
0.000793469 0 0.0579995
0.0862593 0.00122072 0.034226
0.333501 0 0.00354009
0.761959 0 0
1 0 0
1 0 0
1 0 0
1 0 0
0 0.00384527 0.0803845
0 0.000167849 0.0713054
0.0753185 0.00120546 0.0436408
0.319341 0 0.00656138
0.747189 0 0
1 0 0
1 0 0
1 0 0
1 0 0
0 0.106676 0.107408
0 0.0949722 0.0993515
0.0492866 0.0672923 0.0792859
0.286885 1.5259e-05 0.0222171
0.714961 0 0
0.999466 0 0
1 0 0
1 0 0
1 0 0
0 0.382467 0.203037
0 0.356649 0.189502
0 0.30309 0.166735
0.241642 0.247684 0.041001
0.712428 0.00196841 0
0.992264 0 0
1 0.0660258 0
1 0.0275883 0
1 0.0332036 0
0 0.74522 0.398184
0 0.728115 0.378485
0 0.686839 0.333669
0 0.577981 0.20853
0.565072 0.605905 0.00106813
0.986358 0.559503 0
1 0.528954 0
1 0.503243 0
1 0.499794 0
0.393668 0.977569 0.751354
0.343954 0.971817 0.734752
0.211856 0.958053 0.692836
0.0388342 0.922957 0.587594
0.0561379 0.804013 0.396704
0.832303 0.827039 0.0768902
1 0.821958 0
1 0.807767 0
1 0.805631 0
0.466331 0.98584 0.78262
0.459449 0.985061 0.777508
0.453651 0.984756 0.770443
0.478828 0.984985 0.760632
0.60589 0.979797 0.753964
0.773495 0.957855 0.718807
0.963134 0.946777 0.456031
0.999939 0.944198 0.272312
0.999985 0.942809 0.250797
0.470588 0.986618 0.787289
0.466728 0.985916 0.783017
0.453391 0.984588 0.772702
0.476585 0.985077 0.763439
0.589288 0.980255 0.74995
0.804593 0.979873 0.80679
0.931105 0.99559 0.751888
0.991775 0.986969 0.627146
0.992737 0.985489 0.614115
0.472557 0.986679 0.787945
0.467216 0.985946 0.783246
0.452338 0.984451 0.772366
0.475135 0.985016 0.763424
0.585489 0.980514 0.749218
0.802152 0.9794 0.807172
0.929046 0.99881 0.770977
0.987945 0.991363 0.666545
0.989288 0.990173 0.655268
0 0 0.235096
0 0 0.223102
0.0163424 0 0.20264
0.337377 0 0.137972
0.744045 0 0.0217594
1 0 0
1 0 0
1 0 0
1 0 0
0 0 0.253635
0 0 0.238621
0.005066 0 0.216266
0.32575 0 0.152117
0.726833 0 0.039826
1 0 0
1 0 0
1 0 0
1 0 0
0 0.0575875 0.300557
0 0.0472877 0.285679
0 0.0218509 0.254475
0.302998 0 0.186221
0.693278 0 0.0867628
0.998932 0 0
1 0 0
1 0 0
1 0 0
0 0.434119 0.414328
0 0.402167 0.395972
0 0.339223 0.359792
0.295979 0.260334 0.306538
0.685328 0 0.147784
0.986542 0 0
1 0.00280766 0
1 0.00332647 0
1 0.00427253 0
0 0.785183 0.528222
0 0.769055 0.512551
0 0.733532 0.48127
0 0.662913 0.439765
0.596979 0.618616 0.29958
0.981292 0.544289 0
1 0.51487 0
1 0.489372 0
1 0.486076 0
0.0104982 0.991821 0.777432
0.0451514 0.985687 0.765789
0.0237888 0.971481 0.738933
0.0778058 0.935027 0.68954
0.155566 0.827634 0.490639
0.82974 0.827802 0.355413
1 0.822171 0.0102541
1 0.807538 7.62951e-05
1 0.805341 0
0 0.999603 0.79176
0 0.999023 0.791058
0.00920119 0.997284 0.78883
0.421729 0.991089 0.798703
0.603113 0.983383 0.782712
0.775586 0.958709 0.764401
0.956298 0.947646 0.555596
0.999924 0.946838 0.442496
0.999908 0.945388 0.433646
0 0.999634 0.792142
0 0.999573 0.791669
0.000503548 0.998138 0.789822
0.380804 0.992325 0.796841
0.598108 0.983917 0.787381
0.803006 0.977707 0.830121
0.927596 0.997696 0.791089
0.986801 0.987915 0.686702
0.988357 0.986603 0.676204
0 0.999634 0.79205
0 0.999557 0.791638
0.000320439 0.998138 0.789837
0.375586 0.992462 0.796551
0.596017 0.983963 0.787579
0.800656 0.977203 0.830289
0.925521 0.998199 0.794476
0.982025 0.992645 0.720241
0.984665 0.991516 0.710002
0 0 0.55407
0 0 0.540215
0 0 0.518761
0.341253 0 0.506569
0.772763 0 0.345083
0.998917 0 0.213107
1 0 0.140826
1 0 0.0905928
1 0 0.0843366
0 0 0.572442
0 0 0.558724
0 0 0.533211
0.314168 0 0.52163
0.765957 0 0.368154
0.998199 0 0.230137
1 0 0.161318
1 0 0.128267
1 0 0.122972
0 0 0.612436
0 0 0.599039
0 0 0.571633
0.245808 0 0.54963
0.753429 0 0.42266
0.990356 0 0.260182
1 0 0.203861
1 0 0.178134
1 0 0.176883
0 0.236469 0.665187
0 0.213581 0.652064
0 0.170397 0.626566
0.101625 0.102922 0.610666
0.729152 0 0.521523
0.973663 0 0.323461
1 0 0.272511
1 0 0.258366
1 0 0.260761
0 0.821698 0.779995
0 0.806592 0.770413
0 0.76791 0.744839
0 0.702708 0.705577
0.671946 0.65803 0.691844
0.942107 0.47245 0.475532
1 0.434546 0.360678
1 0.408133 0.338735
1 0.404547 0.335851
0 1 0.860136
0 0.999969 0.853727
0 0.999161 0.833494
0 0.970626 0.790021
0.389471 0.876432 0.723796
0.836316 0.834653 0.654612
1 0.813306 0.515938
1 0.796902 0.466407
1 0.794202 0.461234
0 1 0.883665
0 1 0.877501
0 1 0.863844
0 0.999969 0.84242
0.47512 0.996887 0.842664
0.771878 0.961379 0.828061
0.946777 0.949371 0.72224
0.999802 0.949447 0.675731
0.999863 0.948272 0.671138
0 1 0.890074
0 1 0.883635
0 1 0.869947
0 0.999969 0.847715
0.36846 0.998459 0.840238
0.788724 0.981628 0.857862
0.923201 0.997787 0.852689
0.980453 0.990402 0.795956
0.983719 0.989227 0.788663
0 1 0.889738
0 1 0.883421
0 1 0.86981
0 0.999969 0.847486
0.355245 0.998688 0.839048
0.785809 0.981857 0.856916
0.921202 0.997589 0.852979
0.976623 0.995575 0.815915
0.980819 0.994247 0.808011
0 0 0.829419
0 0 0.81796
0 0 0.796216
0.258488 0 0.776379
0.810636 0 0.717784
1 0 0.586877
1 0 0.512276
1 0 0.482918
1 0 0.479362
0 0 0.841031
0 0 0.829602
0 0 0.807645
0.217624 0 0.78584
0.799054 0 0.734874
1 0 0.607813
1 0 0.533562
1 0 0.505074
1 0 0.50219
0 0 0.873289
0 0 0.863951
0 0 0.83624
0.118151 0 0.808865
0.773144 0 0.772503
1 0 0.654932
1 0 0.574563
1 0 0.550149
1 0 0.548699
0 0.0396277 0.909438
0 0.00981155 0.899351
0 0 0.880369
0 0 0.850248
0.732998 0 0.837751
0.998917 0 0.723552
1 0 0.652811
1 0 0.635416
1 0 0.635996
0 0.703044 0.949203
0 0.676326 0.941405
0 0.616388 0.923949
0 0.481086 0.887282
0.575647 0.435294 0.876188
0.961151 0.459419 0.817761
1 0.403418 0.736126
1 0.364813 0.716594
1 0.358785 0.713252
0 0.999115 0.987167
0 0.996353 0.983917
0 0.992523 0.970855
0 0.97203 0.945998
0.0143282 0.892882 0.907469
0.874495 0.857527 0.899367
0.999573 0.761715 0.794507
1 0.737835 0.767758
1 0.734768 0.764874
0 0.999741 0.99765
0 0.999786 0.994476
0 0.999802 0.987411
0 0.999878 0.970947
0 0.999969 0.935485
0.75462 0.984497 0.911421
0.942992 0.948974 0.880262
0.999817 0.94699 0.869413
0.999832 0.94519 0.867079
0 0.999802 0.99321
0 0.999802 0.991409
0 0.999802 0.987503
0 0.999847 0.975387
0 0.999985 0.94255
0.722942 0.998199 0.91725
0.918563 0.993515 0.920607
0.982544 0.992554 0.900725
0.987305 0.991363 0.897612
0 0.999802 0.993179
0 0.999802 0.991272
0 0.999817 0.987182
0 0.999832 0.97557
0 0.999969 0.942672
0.7149 0.998489 0.916518
0.916548 0.992966 0.920501
0.979232 0.998322 0.90721
0.985534 0.996872 0.903487
0 0 0.967315
0 0 0.960037
0 0 0.943709
0.247028 0 0.9178
0.828382 0 0.902922
1 0 0.806287
1 0 0.765347
1 0 0.745556
1 0 0.743145
0 0 0.975326
0 0 0.967758
0 0 0.951568
0.209766 0 0.925811
0.815167 0 0.911269
1 0 0.817395
1 0 0.780392
1 0 0.760906
1 0 0.758755
0 0 0.995697
0 0 0.987732
0 0 0.970626
0.113848 0 0.943404
0.783566 0 0.925978
1 0 0.844831
1 0 0.806271
1 0 0.793149
1 0 0.792096
0 0 0.999985
0 0 0.999954
0 0 0.999847
0.186908 0 0.978469
0.729976 0 0.952422
1 0 0.900557
1 0 0.849348
1 0 0.837217
1 0 0.836271
0 0.632929 0.999878
0 0.584085 0.999924
0 0.458579 0.999924
0 0.213245 0.999908
0.555932 0.0346838 0.986175
0.994034 0.078996 0.959258
1 0.309148 0.901198
1 0.277043 0.889479
1 0.27039 0.888106
0 0.999603 0.999741
0 0.996414 0.999756
0 0.989334 0.999802
0 0.959823 0.999817
0 0.833204 0.996185
0.819913 0.747082 0.972854
0.999771 0.773587 0.943969
1 0.762356 0.933318
1 0.759335 0.932052
0 0.99968 0.99971
0 0.99968 0.99971
0 0.99971 0.999741
0 0.999786 0.999802
0 0.999771 0.999725
0.591424 0.987991 0.987259
0.96463 0.958663 0.97435
0.999664 0.932479 0.954452
0.99971 0.929793 0.953048
0 0.99968 0.99971
0 0.99968 0.99971
0 0.99971 0.999725
0 0.999741 0.999756
0 0.999725 0.999786
0.489281 0.998184 0.993164
0.919921 0.996811 0.973571
0.989425 0.992126 0.968582
0.996262 0.991363 0.96762
0 0.99968 0.99971
0 0.99968 0.99971
0 0.999695 0.999725
0 0.999741 0.999756
0 0.999725 0.999786
0.465705 0.998245 0.993637
0.916533 0.99704 0.9738
0.985992 0.997177 0.969284
0.994858 0.997391 0.968368
0 0 0.998123
0 0 0.995941
0 0 0.986725
0.274434 0 0.96202
0.832654 0 0.946456
1 0 0.866651
1 0 0.829847
1 0 0.816297
1 0 0.814511
0 0 0.999802
0 0 0.998138
0 0 0.993942
0.245609 0 0.9691
0.818952 0 0.952651
1 0 0.878523
1 0 0.840894
1 0 0.826795
1 0 0.825315
0 0 0.999939
0 0 0.999939
0 0 0.998367
0.165408 0 0.983871
0.784543 0 0.963577
1 0 0.907897
1 0 0.862501
1 0 0.850614
1 0 0.849119
0 0 0.999985
0 0 0.999985
0 0 1
0.0967727 0 0.999847
0.743328 0 0.987137
1 0 0.953567
1 0 0.898329
1 0 0.887266
1 0 0.886168
0 0.637522 0.999878
0 0.590265 0.999924
0 0.467033 0.999939
0 0.192279 1
0.550988 0.000137331 1
0.996521 0.000701915 0.993805
1 0.104921 0.94725
1 0.0786603 0.936217
1 0.0761425 0.934829
0 0.999619 0.999725
0 0.996674 0.999771
0 0.989593 0.999817
0 0.960555 0.999817
0 0.830503 0.999832
0.815396 0.675685 0.998138
0.999985 0.736217 0.982238
1 0.729641 0.968704
1 0.726772 0.967575
0 0.99968 0.99971
0 0.99968 0.99971
0 0.99971 0.999741
0 0.999786 0.999802
0 0.999771 0.999817
0.506157 0.985824 0.999725
0.951476 0.932235 0.996307
0.999847 0.932692 0.987884
0.999832 0.930434 0.986664
0 0.99968 0.99971
0 0.99968 0.99971
0 0.999695 0.999725
0 0.999771 0.999756
0 0.999725 0.999786
0.423438 0.997116 0.999771
0.904265 0.994842 0.999695
0.992813 0.993118 0.996201
0.998932 0.991196 0.995056
0 0.99968 0.99971
0 0.99968 0.99971
0 0.999695 0.999725
0 0.999741 0.999756
0 0.999725 0.999786
0.397345 0.99736 0.999771
0.900221 0.994705 0.999695
0.990417 0.998672 0.996979
0.998795 0.999054 0.996216
0 0 0.999649
0 0 0.997436
0 0 0.991638
0.279255 0 0.966827
0.83357 0 0.951217
1 0 0.873381
1 0 0.836927
1 0 0.823133
1 0 0.821347
0 0 0.999817
0 0 0.999619
0 0 0.995315
0.252308 0 0.973922
0.81799 0 0.95642
1 0 0.885603
1 0 0.847974
1 0 0.834012
1 0 0.83238
0 0 0.999924
0 0 0.999939
0 0 0.999649
0.180682 0 0.988525
0.784512 0 0.967605
1 0 0.915541
1 0 0.868086
1 0 0.857282
1 0 0.856062
0 0 0.999985
0 0 0.999985
0 0 1
0.0776989 0 0.999969
0.744533 0 0.990356
1 0 0.95845
1 0 0.904356
1 0 0.892989
1 0 0.891814
0 0.640116 0.999878
0 0.593378 0.999924
0 0.473213 0.999939
0 0.195651 0.999985
0.549813 0 1
0.996628 0.000518807 0.995315
1 0.0780499 0.953292
1 0.0502632 0.941619
1 0.045655 0.940276
0 0.999619 0.999725
0 0.996689 0.999771
0 0.989624 0.999817
0 0.960693 0.999817
0 0.830411 0.999832
0.815549 0.666438 0.999588
1 0.731106 0.986618
1 0.723384 0.973602
1 0.720134 0.972503
0 0.99968 0.99971
0 0.99968 0.99971
0 0.99971 0.999741
0 0.999786 0.999802
0 0.999771 0.999817
0.506142 0.985962 0.999725
0.950011 0.929137 0.999512
0.999878 0.931395 0.991867
0.999817 0.92903 0.990707
0 0.99968 0.99971
0 0.99968 0.99971
0 0.999695 0.999725
0 0.999771 0.999756
0 0.999725 0.999786
0.422568 0.997131 0.999771
0.904173 0.994842 0.999695
0.992859 0.993454 0.999649
0.999512 0.991897 0.99884
0 0.99968 0.99971
0 0.99968 0.99971
0 0.999695 0.999725
0 0.999741 0.999756
0 0.999725 0.999786
0.395285 0.997375 0.999771
0.899855 0.99469 0.999695
0.990646 0.999161 0.999725
0.999405 0.999496 0.999725
