luts/changyun_kodaklike/kodaP800.cube
TITLE "Generated by Resolve"
LUT_3D_SIZE 9
0.0332036 0.0358282 0.0447547
0.0590066 0.0359655 0.0437324
0.149172 0.0548409 0.0504158
0.423728 0 0.0670939
0.843153 0 0.019028
1 0.292821 0.0849928
1 0.332708 0.112306
1 0.332708 0.112306
1 0.332708 0.112306
0.0326238 0.0638895 0.0531777
0.0491646 0.0527962 0.0467842
0.141558 0.0554055 0.049897
0.407446 0 0.0672923
0.831769 0 0.02121
1 0.282658 0.0762951
1 0.332708 0.112306
1 0.332708 0.112306
1 0.332708 0.112306
0.0145113 0.148898 0.0956588
0.0279698 0.1364 0.0906844
0.117769 0.122377 0.0612955
0.373297 0.00421149 0.0658885
0.803738 0 0.0280919
1 0.260014 0.0571145
1 0.332708 0.112306
1 0.332708 0.112306
1 0.332708 0.112306
0 0.410544 0.142504
0 0.388724 0.13608
0 0.342092 0.124697
0.282155 0.301289 0.0131685
0.757443 0.206226 0
1 0.286641 0.0102998
1 0.343572 0.104845
1 0.338018 0.106355
1 0.337606 0.106523
0 0.742641 0.297215
0 0.726726 0.279133
0 0.693523 0.246708
6.10361e-05 0.624781 0.195392
0.58024 0.592325 0
0.956222 0.561044 0
1 0.544198 0.0464027
1 0.529412 0.069337
1 0.527428 0.0709544
0.48217 0.938781 0.559991
0.468452 0.932219 0.547204
0.437003 0.917967 0.518135
0.403738 0.885344 0.457145
0.514122 0.82153 0.3393
0.803693 0.784665 0
1 0.773129 0
1 0.759976 0
1 0.758144 0
0.512612 0.950103 0.590402
0.508934 0.94934 0.585794
0.499718 0.947311 0.574762
0.520928 0.948974 0.573404
0.618814 0.949569 0.576379
0.767498 0.934661 0.449348
0.927642 0.90428 0.184329
0.99202 0.89958 0
0.993011 0.898619 0
0.512108 0.949477 0.592218
0.512505 0.949981 0.590768
0.505058 0.948501 0.581155
0.519814 0.949126 0.575738
0.614664 0.950134 0.578805
0.775311 0.965347 0.534981
0.910536 0.966903 0.415625
0.970062 0.954131 0.288746
0.972747 0.952316 0.277455
0.512047 0.949401 0.592462
0.512444 0.949889 0.591012
0.505776 0.948653 0.58201
0.519448 0.949065 0.575845
0.614282 0.950225 0.579156
0.774166 0.965194 0.535378
0.910033 0.975891 0.445426
0.968933 0.963623 0.326223
0.972015 0.961898 0.315038
0.0341497 0.0384375 0.066331
0.0593576 0.0369116 0.0588846
0.147326 0.0545052 0.0555123
0.422919 0 0.0671092
0.842573 0 0.0191501
1 0.292317 0.0845502
1 0.332708 0.112306
1 0.332708 0.112306
1 0.332708 0.112306
0.0373999 0.0676432 0.0780499
0.0514382 0.0548714 0.0679332
0.139834 0.055848 0.059556
0.406638 0 0.0672923
0.831479 0 0.0212711
1 0.282399 0.0760815
1 0.332708 0.112306
1 0.332708 0.112306
1 0.332708 0.112306
0.028275 0.154238 0.110903
0.0394293 0.141207 0.104372
0.117998 0.123156 0.0796979
0.37023 0.00509651 0.0693828
0.803357 0 0.0282139
1 0.259724 0.0568704
1 0.332708 0.112306
1 0.332708 0.112306
1 0.332708 0.112306
0 0.416358 0.166262
0 0.393301 0.156924
0 0.347295 0.14049
0.282948 0.302983 0.0272374
0.754849 0.207263 0
1 0.286824 0.00970474
1 0.343862 0.104768
1 0.33817 0.106279
1 0.337758 0.106447
0 0.744869 0.320867
0 0.730953 0.305089
0 0.696757 0.268818
0.00308232 0.626902 0.211398
0.577951 0.591867 0
0.953841 0.560037 0
1 0.546441 0.0560922
1 0.530205 0.0686961
1 0.528222 0.0703136
0.495354 0.9411 0.578088
0.481621 0.9346 0.564797
0.442405 0.917784 0.528969
0.410788 0.886213 0.468711
0.515129 0.821744 0.349081
0.803937 0.786145 0
0.999939 0.773846 0
1 0.760098 0
1 0.758175 0
0.515984 0.949401 0.601373
0.51284 0.948867 0.59675
0.512123 0.949493 0.592203
0.522866 0.94847 0.580484
0.62269 0.950713 0.584802
0.768856 0.938964 0.464729
0.93109 0.910002 0.209812
0.990509 0.902205 0
0.991455 0.900954 0
0.519966 0.950057 0.607217
0.516777 0.949523 0.602533
0.51162 0.948867 0.594018
0.524193 0.949248 0.585595
0.616785 0.950423 0.585321
0.774014 0.964477 0.537011
0.915328 0.972152 0.435966
0.973541 0.95903 0.310002
0.973571 0.956725 0.300679
0.520378 0.950134 0.607828
0.517235 0.949599 0.603204
0.511559 0.948806 0.594217
0.524285 0.94934 0.58613
0.616098 0.950362 0.585351
0.773053 0.964431 0.537926
0.914412 0.97818 0.456611
0.973098 0.967651 0.343633
0.973144 0.965225 0.333837
0.0474861 0.0586099 0.139406
0.0731518 0.0554665 0.130922
0.151019 0.0488441 0.114702
0.417731 0 0.100053
0.834974 0 0.0315404
1 0.291295 0.0836805
1 0.332708 0.112306
1 0.332708 0.112306
1 0.332708 0.112306
0.0344701 0.0854353 0.14873
0.0605173 0.0758984 0.139635
0.142428 0.0563211 0.122118
0.403311 0 0.105547
0.822553 0 0.0445411
1 0.281392 0.0752117
1 0.332708 0.112306
1 0.332708 0.112306
1 0.332708 0.112306
0.0671397 0.165698 0.16997
0.0655222 0.152972 0.16083
0.126345 0.130465 0.143023
0.366079 0.0339971 0.120256
0.794308 0 0.0727855
1 0.255314 0.0567941
1 0.332708 0.112306
1 0.332708 0.112306
1 0.332708 0.112306
0 0.437522 0.249241
0 0.414923 0.235142
0 0.36611 0.20734
0.296498 0.313313 0.134585
0.74931 0.219944 0.0770886
0.999741 0.278035 0.037705
1 0.341161 0.10399
1 0.337072 0.105699
1 0.336721 0.105882
0.119493 0.750347 0.391424
0.0504158 0.736492 0.374838
0 0.704295 0.338689
0.0929732 0.635294 0.273518
0.586175 0.600031 0.0087892
0.95108 0.562539 0
1 0.546502 0.100557
1 0.529488 0.0910658
1 0.527459 0.0884871
0.511009 0.941711 0.611887
0.498711 0.935149 0.599344
0.464897 0.919097 0.566903
0.434714 0.888518 0.508049
0.523598 0.823438 0.393912
0.803876 0.78851 0.0970474
0.999725 0.774746 0
1 0.761364 0.0120241
1 0.759487 0.0125124
0.530068 0.949615 0.635889
0.525795 0.948791 0.629709
0.523629 0.949096 0.622278
0.538643 0.950072 0.611948
0.62649 0.950317 0.603021
0.768734 0.939773 0.491646
0.929244 0.910674 0.259785
0.989471 0.902998 0.0529183
0.990402 0.901762 0.0435645
0.535348 0.950652 0.643534
0.531136 0.949828 0.63743
0.52311 0.948379 0.625132
0.537301 0.949859 0.615564
0.620783 0.949828 0.604578
0.773831 0.963745 0.557015
0.913939 0.973754 0.462943
0.972839 0.961044 0.34612
0.972992 0.958618 0.336858
0.536004 0.950774 0.644541
0.531838 0.949966 0.638468
0.523033 0.948287 0.625483
0.537148 0.949828 0.615976
0.620386 0.949889 0.605158
0.772946 0.963729 0.55819
0.912902 0.977615 0.475883
0.972045 0.969192 0.375555
0.972473 0.967132 0.367498
0 0.0927596 0.339757
0 0.0907149 0.32639
0.1523 0.0873426 0.295079
0.437369 0 0.246632
0.824842 0.0154116 0.22153
1 0.315724 0.200931
1 0.338231 0.173892
1 0.336904 0.163226
1 0.336721 0.161761
0 0.109148 0.353353
0 0.10132 0.339712
0.13753 0.0910811 0.309514
0.422187 0 0.260029
0.812024 0.000320439 0.232837
1 0.310887 0.210346
1 0.342901 0.186221
1 0.337987 0.171908
1 0.337835 0.170657
0 0.205097 0.385687
0 0.188388 0.371618
0.115328 0.15671 0.340475
0.387701 0.0435798 0.287678
0.785199 0.0265202 0.257877
1 0.300771 0.232136
1 0.353536 0.212818
1 0.347463 0.197604
1 0.346639 0.195529
0.109026 0.474754 0.433066
0.0761273 0.453223 0.419043
0.108965 0.406943 0.38819
0.342947 0.340078 0.343954
0.735332 0.280308 0.301381
0.994293 0.334783 0.273121
1 0.377905 0.25507
1 0.368643 0.240299
1 0.367651 0.238712
0.431525 0.765148 0.581674
0.419013 0.751537 0.56849
0.376959 0.721782 0.533822
0.340337 0.666819 0.45417
0.602502 0.610025 0.334752
0.939971 0.579889 0.321828
1 0.568032 0.318517
1 0.550835 0.30106
1 0.548913 0.299336
0.554589 0.945144 0.697658
0.544732 0.938338 0.686809
0.516167 0.924285 0.659266
0.495094 0.895399 0.610498
0.55697 0.826871 0.52314
0.803357 0.791928 0.353994
0.999222 0.780667 0.332189
1 0.767086 0.335775
1 0.765179 0.334722
0.591394 0.951202 0.731975
0.581521 0.951095 0.722713
0.559442 0.950637 0.702159
0.565057 0.951629 0.682963
0.641245 0.951324 0.662608
0.774182 0.943633 0.587167
0.925643 0.913375 0.414145
0.989822 0.908034 0.32755
0.990616 0.906569 0.322713
0.601724 0.950668 0.742229
0.593454 0.951095 0.734035
0.572198 0.950896 0.714031
0.56463 0.951553 0.688563
0.638468 0.951827 0.668894
0.777401 0.963607 0.631296
0.910689 0.976196 0.552438
0.969543 0.963729 0.465263
0.970184 0.961547 0.458396
0.602991 0.950607 0.743496
0.594827 0.951019 0.735393
0.573678 0.950927 0.715404
0.564584 0.951522 0.68925
0.638193 0.951904 0.669749
0.776379 0.963455 0.632212
0.909545 0.976562 0.554757
0.967742 0.971725 0.486778
0.969635 0.969772 0.479515
0 0.142565 0.653513
0 0.138155 0.641306
0.157488 0.130831 0.613748
0.51104 0.118334 0.568231
0.843259 0 0.503838
1 0.415305 0.483742
1 0.436179 0.454276
1 0.4309 0.43827
1 0.430365 0.436591
0 0.164752 0.664973
0 0.154498 0.654078
0.147143 0.13698 0.627131
0.498085 0.121096 0.580819
0.834134 0 0.519921
1 0.392905 0.484565
1 0.442588 0.46836
1 0.435065 0.451041
1 0.43447 0.44921
0.0755627 0.27216 0.685557
0.0362402 0.253132 0.675059
0.173281 0.216434 0.651179
0.472984 0.164767 0.608438
0.808331 0 0.551141
1 0.348837 0.493156
1 0.455741 0.498741
1 0.4486 0.48159
1 0.447669 0.479561
0.03682 0.547311 0.708721
0.0113985 0.527276 0.699321
0.0556039 0.481773 0.679133
0.413977 0.404318 0.645533
0.742031 0.321004 0.592004
0.988022 0.376013 0.541619
1 0.466117 0.535973
1 0.470344 0.528649
1 0.4692 0.526711
0.501686 0.788205 0.748653
0.485481 0.775845 0.737606
0.451194 0.747753 0.713176
0.458854 0.69807 0.673259
0.64715 0.641016 0.632044
0.902495 0.624979 0.617319
1 0.629618 0.610681
1 0.614771 0.595895
1 0.612909 0.593912
0.66009 0.950622 0.844144
0.652049 0.943954 0.835401
0.634302 0.929351 0.815854
0.620722 0.903517 0.780041
0.644617 0.845014 0.707408
0.809384 0.801892 0.6168
0.992294 0.795727 0.634623
1 0.785351 0.635615
1 0.783749 0.634394
0.673045 0.955322 0.864103
0.670008 0.954894 0.858564
0.66334 0.953887 0.846616
0.663737 0.953048 0.825681
0.684245 0.955383 0.779492
0.784268 0.946532 0.731884
0.921584 0.919051 0.631464
0.988724 0.915816 0.587045
0.989929 0.914656 0.584024
0.676417 0.955688 0.870634
0.673655 0.955383 0.865278
0.667201 0.954467 0.853513
0.665385 0.953399 0.832609
0.694301 0.954742 0.793118
0.785702 0.961181 0.756039
0.908019 0.9776 0.70106
0.964935 0.969177 0.654398
0.967315 0.967391 0.649744
0.676768 0.955734 0.871321
0.674098 0.955444 0.866163
0.66772 0.954543 0.854444
0.665507 0.953414 0.833295
0.695491 0.954665 0.794705
0.784955 0.961013 0.756924
0.906889 0.977478 0.702464
0.963211 0.977295 0.665766
0.966812 0.975402 0.660716
0.369223 0.273518 0.858534
0.358938 0.263478 0.850385
0.387579 0.250813 0.833112
0.578592 0.254139 0.800351
0.842725 0.31339 0.761776
1 0.412757 0.706477
1 0.452705 0.673808
1 0.448325 0.659281
1 0.447822 0.657603
0.385534 0.296468 0.865492
0.373663 0.282277 0.857633
0.392248 0.26096 0.840818
0.572213 0.260502 0.809232
0.83563 0.326192 0.769863
1 0.40705 0.717372
1 0.455451 0.684855
1 0.45182 0.670863
1 0.451316 0.6692
0.425467 0.396597 0.879942
0.415183 0.377584 0.87396
0.413474 0.334508 0.856016
0.559731 0.295735 0.826932
0.822766 0.355352 0.788067
1 0.403952 0.740826
1 0.457832 0.706645
1 0.456474 0.694148
1 0.456306 0.692714
0.461112 0.619165 0.895582
0.449882 0.601068 0.888777
0.434684 0.559442 0.875395
0.535622 0.49781 0.849393
0.781842 0.476753 0.815534
0.970733 0.451286 0.772824
1 0.48481 0.747082
1 0.475334 0.733928
1 0.474174 0.732113
0.542947 0.831479 0.918105
0.52874 0.819333 0.910918
0.500298 0.793362 0.895613
0.498878 0.743847 0.867948
0.699397 0.690517 0.840299
0.897551 0.659663 0.809155
1 0.655406 0.796597
1 0.639612 0.784497
1 0.637812 0.783047
0.686473 0.964172 0.952575
0.679713 0.958755 0.946288
0.66276 0.943496 0.929122
0.653925 0.919295 0.901183
0.701701 0.868696 0.862501
0.837491 0.826154 0.832502
0.972961 0.821942 0.831525
0.991745 0.814557 0.825696
0.992264 0.812711 0.824338
0.713603 0.976867 0.979675
0.704051 0.972457 0.970642
0.687648 0.965133 0.953384
0.696849 0.96347 0.933928
0.760296 0.962005 0.911711
0.829572 0.956146 0.874678
0.92398 0.926177 0.820951
0.98439 0.92314 0.815442
0.984634 0.921462 0.815091
0.698985 0.970123 0.96585
0.69427 0.967941 0.961379
0.687709 0.965148 0.953567
0.692836 0.964324 0.939132
0.758206 0.962493 0.916899
0.833829 0.966323 0.887938
0.910689 0.978546 0.850462
0.965698 0.975631 0.82707
0.969757 0.974105 0.824308
0.699657 0.970428 0.966491
0.694835 0.9682 0.961913
0.687846 0.965179 0.953933
0.692348 0.964446 0.939849
0.757885 0.962554 0.91754
0.834424 0.966308 0.889525
0.909789 0.978393 0.851621
0.963958 0.98378 0.832456
0.969116 0.982055 0.829267
0.548898 0.440146 0.956542
0.539834 0.426688 0.950637
0.542763 0.403815 0.937392
0.643427 0.395636 0.910796
0.853239 0.472923 0.87631
0.99855 0.498421 0.83328
1 0.50425 0.811093
1 0.495308 0.800839
1 0.494301 0.799664
0.56112 0.46363 0.96202
0.550652 0.446159 0.956237
0.549447 0.418036 0.943282
0.640986 0.404105 0.917601
0.846067 0.474556 0.88278
0.996277 0.499153 0.839643
1 0.511315 0.819196
1 0.502373 0.808942
1 0.501442 0.807874
0.591836 0.54583 0.973342
0.579629 0.525078 0.967681
0.568399 0.48275 0.955184
0.638178 0.440375 0.931029
0.830793 0.479866 0.896819
0.984482 0.505653 0.85687
1 0.524361 0.835096
1 0.517494 0.826429
1 0.516777 0.825513
0.620813 0.694438 0.986328
0.61828 0.683345 0.984771
0.603647 0.651148 0.97261
0.639017 0.596445 0.949844
0.801358 0.569146 0.919051
0.96672 0.567437 0.892439
1 0.559136 0.861524
1 0.546731 0.852689
1 0.545266 0.851545
0.607553 0.858289 0.982818
0.600977 0.84892 0.9832
0.586725 0.828214 0.983795
0.610269 0.784833 0.975433
0.751919 0.735592 0.944884
0.923934 0.73228 0.918044
1 0.69662 0.894392
1 0.68191 0.886519
1 0.680339 0.885664
0.717311 0.978576 0.983185
0.712978 0.974456 0.983032
0.7037 0.96556 0.982727
0.700908 0.949599 0.982727
0.730251 0.904082 0.97322
0.866407 0.85655 0.944976
0.968948 0.844404 0.926848
0.989578 0.835996 0.922606
0.989822 0.834379 0.921614
0.717311 0.978576 0.983185
0.717311 0.978576 0.983185
0.717311 0.978576 0.983185
0.725475 0.978805 0.983352
0.775311 0.980133 0.984253
0.85716 0.970687 0.964935
0.939803 0.941115 0.94342
0.983948 0.940017 0.943893
0.983917 0.938491 0.943069
0.717311 0.978576 0.983185
0.717311 0.978576 0.983185
0.717311 0.978576 0.983185
0.72433 0.97879 0.983337
0.772107 0.980026 0.984176
0.857359 0.979339 0.974807
0.935149 0.981857 0.956893
0.975357 0.982376 0.942992
0.980758 0.981476 0.942031
0.717311 0.978576 0.983185
0.717311 0.978576 0.983185
0.717311 0.978576 0.983185
0.724208 0.97879 0.983337
0.77174 0.980026 0.984176
0.857114 0.97969 0.975845
0.935149 0.981872 0.958022
0.973175 0.987793 0.943725
0.979522 0.987762 0.942214
0.613382 0.525673 0.987488
0.603143 0.509758 0.982193
0.598566 0.481422 0.969924
0.672267 0.462562 0.945327
0.855512 0.518151 0.912077
0.995331 0.535363 0.872007
1 0.537453 0.850645
1 0.529915 0.84213
1 0.529061 0.841047
0.622293 0.543313 0.991043
0.614588 0.529839 0.987198
0.60708 0.49807 0.975784
0.671641 0.473091 0.951522
0.849668 0.522622 0.918685
0.996078 0.539818 0.882765
1 0.544228 0.857694
1 0.535927 0.849073
1 0.534981 0.848081
0.6262 0.583459 0.98938
0.626261 0.577356 0.989746
0.627939 0.556756 0.985977
0.672633 0.508629 0.963516
0.836896 0.531731 0.931563
0.991165 0.559823 0.903761
1 0.557443 0.871778
1 0.550454 0.864149
1 0.549325 0.862989
0.62089 0.695277 0.986374
0.620111 0.685145 0.985702
0.629969 0.669657 0.986145
0.684428 0.644312 0.982147
0.813504 0.610544 0.952102
0.967025 0.623377 0.925582
1 0.589578 0.895338
1 0.578637 0.887327
1 0.577569 0.886503
0.607996 0.8589 0.982788
0.601572 0.84976 0.983154
0.587274 0.828962 0.98378
0.624949 0.790768 0.983902
0.778973 0.760464 0.979324
0.930434 0.753552 0.950545
1 0.72015 0.932082
1 0.705165 0.92314
1 0.703426 0.921828
0.717311 0.978576 0.983185
0.713375 0.974838 0.983047
0.704082 0.965942 0.982742
0.701198 0.949981 0.982727
0.73872 0.909575 0.984146
0.880369 0.871107 0.980774
0.979461 0.864713 0.963104
0.990417 0.850034 0.95436
0.990372 0.848463 0.95349
0.717311 0.978576 0.983185
0.717311 0.978576 0.983185
0.717311 0.978576 0.983185
0.725414 0.978805 0.983352
0.775158 0.980117 0.984253
0.864317 0.979644 0.986389
0.951247 0.954696 0.984268
0.986038 0.9505 0.977157
0.985611 0.948837 0.976013
0.717311 0.978576 0.983185
0.717311 0.978576 0.983185
0.717311 0.978576 0.983185
0.724285 0.97879 0.983337
0.772 0.980026 0.984176
0.861357 0.983597 0.986313
0.946319 0.988952 0.989639
0.984665 0.988113 0.986633
0.988327 0.986969 0.985351
0.717311 0.978576 0.983185
0.717311 0.978576 0.983185
0.717311 0.978576 0.983185
0.724178 0.97879 0.983337
0.771618 0.980026 0.984161
0.860761 0.983566 0.986297
0.945525 0.988891 0.989593
0.984222 0.991379 0.987869
0.988785 0.991653 0.986877
0.620859 0.53579 0.99089
0.610727 0.520073 0.985641
0.605447 0.491371 0.973739
0.675898 0.470848 0.949203
0.856107 0.524285 0.916365
0.996704 0.540169 0.877653
1 0.541756 0.855116
1 0.533623 0.846662
1 0.532586 0.845518
0.622293 0.543313 0.991043
0.622126 0.539879 0.990631
0.613764 0.507698 0.97908
0.675502 0.481605 0.955459
0.850019 0.52813 0.922499
0.998199 0.545281 0.88954
1 0.548531 0.862165
1 0.540246 0.853544
1 0.539284 0.852552
0.6262 0.58352 0.98938
0.626276 0.577447 0.989731
0.635218 0.565911 0.989502
0.677302 0.517678 0.967346
0.83772 0.537881 0.935378
0.99089 0.567452 0.908034
1 0.560845 0.875624
1 0.554452 0.868406
1 0.553582 0.86743
0.62089 0.695277 0.986374
0.620111 0.685298 0.985702
0.629969 0.669657 0.986145
0.690105 0.650294 0.985901
0.815473 0.616053 0.955871
0.967056 0.629221 0.929076
1 0.593561 0.899519
1 0.582696 0.891585
1 0.581552 0.8907
0.608103 0.859037 0.982788
0.601572 0.84976 0.983154
0.587381 0.829114 0.98378
0.624857 0.790768 0.983902
0.782361 0.763653 0.983291
0.93106 0.755993 0.95407
1 0.724269 0.936767
1 0.708049 0.928084
1 0.706477 0.927092
0.717311 0.978576 0.983185
0.713375 0.974838 0.983047
0.704082 0.965942 0.982742
0.701198 0.949981 0.982727
0.738796 0.909712 0.984131
0.882216 0.873152 0.985046
0.980179 0.867353 0.966659
0.991775 0.852476 0.958602
0.991714 0.85095 0.957778
0.717311 0.978576 0.983185
0.717311 0.978576 0.983185
0.717311 0.978576 0.983185
0.725414 0.978805 0.983352
0.775158 0.980117 0.984253
0.864424 0.979843 0.986389
0.952483 0.95642 0.988846
0.98735 0.952712 0.980941
0.98703 0.951095 0.980011
0.717311 0.978576 0.983185
0.717311 0.978576 0.983185
0.717311 0.978576 0.983185
0.724285 0.97879 0.983337
0.771939 0.980026 0.984176
0.86125 0.983597 0.986313
0.946319 0.988952 0.989639
0.986068 0.988891 0.991638
0.98967 0.987961 0.990509
0.717311 0.978576 0.983185
0.717311 0.978576 0.983185
0.717311 0.978576 0.983185
0.724178 0.97879 0.983337
0.771557 0.980011 0.984161
0.8607 0.983566 0.986297
0.945388 0.988876 0.989593
0.985397 0.991913 0.991958
0.990204 0.992248 0.992218
