luts/changyun_kodaklike/kodaP100T.cube
TITLE "Generated by Resolve"
LUT_3D_SIZE 33
0.00428779 0.00418097 0.00277714
0.00621042 0.00352483 0.00244144
0.0123903 0.00341802 0.00222782
0.02121 0.00357061 0.00205997
0.0380407 0.00453193 0.00202945
0.0697642 0.00695811 0.00215152
0.098558 0.0133364 0.00350958
0.123827 0.0244755 0.00587472
0.150134 0.0400244 0.00946059
0.180987 0.0635233 0.0148623
0.217853 0.0862287 0.0205386
0.26128 0.100114 0.0280308
0.311086 0.112886 0.032929
0.365621 0.126818 0.0360723
0.423484 0.142229 0.0410163
0.483574 0.158526 0.0482338
0.544656 0.17615 0.0580758
0.610025 0.195758 0.0702678
0.678355 0.216968 0.0799878
0.745373 0.239567 0.0888838
0.809781 0.263127 0.0976272
0.831815 0.271656 0.10161
0.854154 0.280613 0.105989
0.854154 0.280613 0.105989
0.854154 0.280613 0.105989
0.854154 0.280613 0.105989
0.854154 0.280613 0.105989
0.854154 0.280613 0.105989
0.854154 0.280613 0.105989
0.854154 0.280613 0.105989
0.854154 0.280613 0.105989
0.854154 0.280613 0.105989
0.854154 0.280613 0.105989
0.00440986 0.00721752 0.00349432
0.0062562 0.00627146 0.00311284
0.011429 0.00582895 0.00280766
0.0208591 0.00581369 0.00257877
0.0357671 0.00637827 0.00244144
0.0665141 0.00808728 0.00251774
0.0963912 0.0127871 0.0033875
0.122286 0.0236515 0.00570687
0.148547 0.0390326 0.00923171
0.179232 0.0623026 0.0146639
0.216281 0.0855573 0.0201724
0.259342 0.0995346 0.0278935
0.309026 0.112383 0.0327764
0.363516 0.126284 0.0359655
0.421363 0.141649 0.0408026
0.481651 0.157977 0.0479286
0.542824 0.175616 0.0576638
0.607965 0.195132 0.0699016
0.676204 0.216281 0.0797742
0.742947 0.238712 0.0885328
0.807385 0.262242 0.0972457
0.830869 0.27129 0.101411
0.854154 0.280613 0.105989
0.854154 0.280613 0.105989
0.854154 0.280613 0.105989
0.854154 0.280613 0.105989
0.854154 0.280613 0.105989
0.854154 0.280613 0.105989
0.854154 0.280613 0.105989
0.854154 0.280613 0.105989
0.854154 0.280613 0.105989
0.854154 0.280613 0.105989
0.854154 0.280613 0.105989
0.00616464 0.0170291 0.00616464
0.00747692 0.0137026 0.00508125
0.0108949 0.010544 0.0040589
0.0201724 0.00801099 0.00318914
0.0340887 0.00825513 0.00294499
0.0640879 0.0104219 0.00292973
0.0944228 0.0143893 0.00344854
0.120851 0.0232395 0.00561532
0.147143 0.0381781 0.00903334
0.17792 0.0614023 0.0144961
0.214664 0.0846113 0.0198978
0.257908 0.0990921 0.0278019
0.307301 0.11194 0.0326543
0.361746 0.125841 0.035874
0.419577 0.141161 0.0406195
0.47982 0.157443 0.0476387
0.540871 0.175036 0.0572213
0.605798 0.194476 0.0695201
0.674052 0.215595 0.0795605
0.740764 0.237934 0.0882277
0.805112 0.261402 0.0968948
0.829511 0.270741 0.101152
0.854154 0.280613 0.105989
0.854154 0.280613 0.105989
0.854154 0.280613 0.105989
0.854154 0.280613 0.105989
0.854154 0.280613 0.105989
0.854154 0.280613 0.105989
0.854154 0.280613 0.105989
0.854154 0.280613 0.105989
0.854154 0.280613 0.105989
0.854154 0.280613 0.105989
0.854154 0.280613 0.105989
0.00854505 0.0295415 0.00956741
0.0099031 0.0266117 0.00857557
0.0119326 0.0235447 0.00753796
0.0204318 0.0209354 0.00636301
0.0317235 0.0173342 0.00495918
0.0620127 0.0151217 0.00383001
0.0924544 0.0167239 0.00389105
0.119249 0.024918 0.00590524
0.14548 0.0381628 0.00906386
0.175998 0.0600595 0.0142672
0.21294 0.0836042 0.0196078
0.255787 0.0984512 0.0276493
0.305241 0.111437 0.032517
0.359655 0.125322 0.0357671
0.417563 0.140612 0.0404212
0.477684 0.156847 0.0473182
0.538811 0.174441 0.0567636
0.603494 0.193774 0.0691081
0.671534 0.214786 0.0793011
0.738201 0.237034 0.0878767
0.802457 0.26041 0.0964675
0.828153 0.270207 0.100893
0.854154 0.280613 0.105989
0.854154 0.280613 0.105989
0.854154 0.280613 0.105989
0.854154 0.280613 0.105989
0.854154 0.280613 0.105989
0.854154 0.280613 0.105989
0.854154 0.280613 0.105989
0.854154 0.280613 0.105989
0.854154 0.280613 0.105989
0.854154 0.280613 0.105989
0.854154 0.280613 0.105989
0.0146639 0.0550698 0.0166476
0.0149233 0.0491188 0.014847
0.015259 0.0434424 0.0130922
0.0213169 0.0377661 0.0106966
0.0310063 0.034165 0.00872816
0.0603647 0.0311589 0.00677501
0.0910811 0.0288853 0.00573739
0.117601 0.029633 0.00645457
0.143542 0.0402686 0.00965896
0.174121 0.0600748 0.0142367
0.210681 0.0822766 0.0192416
0.253574 0.0977798 0.0274968
0.302892 0.110857 0.0323491
0.357244 0.124727 0.0356298
0.41503 0.139925 0.0401617
0.475013 0.156115 0.0469215
0.536095 0.173648 0.0561532
0.600473 0.192874 0.068574
0.66862 0.213855 0.0790112
0.735256 0.235996 0.0874495
0.79913 0.259174 0.0959335
0.826658 0.269596 0.100587
0.854154 0.280613 0.105989
0.854154 0.280613 0.105989
0.854154 0.280613 0.105989
0.854154 0.280613 0.105989
0.854154 0.280613 0.105989
0.854154 0.280613 0.105989
0.854154 0.280613 0.105989
0.854154 0.280613 0.105989
0.854154 0.280613 0.105989
0.854154 0.280613 0.105989
0.854154 0.280613 0.105989
0.0261692 0.0899672 0.0283207
0.0243687 0.086656 0.0256046
0.0243076 0.0811322 0.024033
0.028336 0.0749065 0.0218967
0.0361639 0.0677501 0.0189975
0.0588846 0.0599527 0.0148318
0.0903792 0.0513313 0.0102235
0.115877 0.0481117 0.00892653
0.141604 0.0527199 0.0112612
0.171786 0.0624704 0.014374
0.207889 0.0825055 0.0197452
0.250568 0.0969558 0.0272984
0.299718 0.110063 0.0321202
0.354009 0.123919 0.035462
0.411765 0.13904 0.0398413
0.471916 0.155261 0.046479
0.532967 0.172732 0.0554971
0.596979 0.191806 0.0679637
0.664698 0.212589 0.0786297
0.731273 0.234592 0.0869001
0.79527 0.25774 0.0953231
0.824491 0.268742 0.10016
0.854154 0.280613 0.105989
0.854154 0.280613 0.105989
0.854154 0.280613 0.105989
0.854154 0.280613 0.105989
0.854154 0.280613 0.105989
0.854154 0.280613 0.105989
0.854154 0.280613 0.105989
0.854154 0.280613 0.105989
0.854154 0.280613 0.105989
0.854154 0.280613 0.105989
0.854154 0.280613 0.105989
0.0484779 0.113619 0.0505379
0.0474098 0.110567 0.0471351
0.0456092 0.107591 0.0439918
0.0455482 0.104555 0.0410468
0.0504616 0.100786 0.0369268
0.0629587 0.0965286 0.0315099
0.088365 0.0921645 0.0238804
0.113603 0.0829633 0.0177615
0.140215 0.0768139 0.0155947
0.169711 0.0797742 0.0162661
0.205249 0.0874647 0.0211795
0.246769 0.0972 0.0268254
0.295888 0.109468 0.032166
0.350134 0.122957 0.0352636
0.407965 0.138003 0.0394598
0.467735 0.154131 0.0458686
0.528786 0.171527 0.0549172
0.592264 0.190387 0.0671244
0.65977 0.211017 0.0781262
0.726543 0.232929 0.0862287
0.790082 0.255818 0.0944991
0.821927 0.267704 0.0996567
0.851987 0.279744 0.105562
0.854154 0.280613 0.105989
0.854154 0.280613 0.105989
0.854154 0.280613 0.105989
0.854154 0.280613 0.105989
0.854154 0.280613 0.105989
0.854154 0.280613 0.105989
0.854154 0.280613 0.105989
0.854154 0.280613 0.105989
0.854154 0.280613 0.105989
0.854154 0.280613 0.105989
0.0601358 0.143206 0.0724498
0.0590066 0.139971 0.0698253
0.0594949 0.137057 0.0671092
0.0598154 0.133577 0.063508
0.0653544 0.12987 0.0598917
0.0742657 0.125154 0.0556954
0.0905776 0.119631 0.0501869
0.110323 0.114366 0.040238
0.13846 0.10811 0.0288243
0.169436 0.101961 0.0238651
0.203616 0.100679 0.0259403
0.243885 0.103914 0.0283055
0.291371 0.11165 0.032578
0.345083 0.122606 0.0346838
0.402884 0.136934 0.0391089
0.462821 0.152789 0.0451514
0.523857 0.170123 0.0542306
0.586725 0.188708 0.0661784
0.653956 0.209155 0.0775311
0.720638 0.230854 0.0854047
0.783734 0.253468 0.0935531
0.818692 0.266438 0.0990616
0.848875 0.278492 0.104952
0.854154 0.280613 0.105989
0.854154 0.280613 0.105989
0.854154 0.280613 0.105989
0.854154 0.280613 0.105989
0.854154 0.280613 0.105989
0.854154 0.280613 0.105989
0.854154 0.280613 0.105989
0.854154 0.280613 0.105989
0.854154 0.280613 0.105989
0.854154 0.280613 0.105989
0.0788281 0.179782 0.090959
0.0764782 0.176471 0.0891737
0.0753033 0.17348 0.0874495
0.0747234 0.169833 0.0853895
0.0764477 0.165484 0.0828107
0.0824445 0.16054 0.0790723
0.09308 0.154253 0.0737774
0.109438 0.147875 0.0671855
0.134859 0.141314 0.0548104
0.168658 0.132769 0.040177
0.204196 0.124041 0.0339971
0.242908 0.120882 0.0340276
0.288579 0.122301 0.0348821
0.34049 0.128527 0.0365148
0.39707 0.138735 0.0400092
0.456626 0.152026 0.0447852
0.517555 0.168521 0.0533608
0.580377 0.186801 0.0650797
0.647074 0.20705 0.0764324
0.713359 0.228412 0.0844129
0.776425 0.250813 0.0926833
0.815091 0.265095 0.0984817
0.845212 0.277028 0.104234
0.854154 0.280613 0.105989
0.854154 0.280613 0.105989
0.854154 0.280613 0.105989
0.854154 0.280613 0.105989
0.854154 0.280613 0.105989
0.854154 0.280613 0.105989
0.854154 0.280613 0.105989
0.854154 0.280613 0.105989
0.854154 0.280613 0.105989
0.854154 0.280613 0.105989
0.0965438 0.223056 0.108507
0.0950942 0.219562 0.106691
0.0937514 0.216358 0.105089
0.0927596 0.212757 0.103227
0.0915999 0.20853 0.101015
0.0934462 0.203021 0.0981918
0.0990921 0.196414 0.0946059
0.111406 0.189029 0.0899825
0.132647 0.181186 0.0836042
0.165438 0.173526 0.0688792
0.204532 0.16286 0.0510872
0.245426 0.151812 0.0419165
0.28864 0.145998 0.0408331
0.338079 0.145129 0.040589
0.39263 0.149325 0.04271
0.450675 0.1579 0.0465248
0.510643 0.169986 0.053666
0.571893 0.185657 0.0641642
0.638254 0.204776 0.0749218
0.705333 0.225772 0.0833295
0.768078 0.247761 0.0917067
0.810712 0.263478 0.0977798
0.841016 0.275349 0.10341
0.854154 0.280613 0.105989
0.854154 0.280613 0.105989
0.854154 0.280613 0.105989
0.854154 0.280613 0.105989
0.854154 0.280613 0.105989
0.854154 0.280613 0.105989
0.854154 0.280613 0.105989
0.854154 0.280613 0.105989
0.854154 0.280613 0.105989
0.854154 0.280613 0.105989
0.114946 0.275166 0.132219
0.113115 0.271489 0.129915
0.111589 0.268009 0.128023
0.110094 0.264057 0.125872
0.108705 0.259159 0.123186
0.108553 0.253285 0.119936
0.110903 0.246128 0.115984
0.118914 0.237812 0.111223
0.13492 0.228626 0.105684
0.160952 0.219242 0.0985885
0.199786 0.21062 0.0862745
0.246082 0.198871 0.0660258
0.294041 0.186587 0.051957
0.340856 0.177737 0.0505531
0.391455 0.173571 0.0512856
0.447257 0.175387 0.0535134
0.505241 0.181598 0.0591287
0.564614 0.191485 0.0671702
0.628748 0.206668 0.0755322
0.694133 0.224537 0.0829938
0.757092 0.244633 0.0905013
0.805005 0.261646 0.0969711
0.83566 0.273304 0.102342
0.854154 0.280613 0.105989
0.854154 0.280613 0.105989
0.854154 0.280613 0.105989
0.854154 0.280613 0.105989
0.854154 0.280613 0.105989
0.854154 0.280613 0.105989
0.854154 0.280613 0.105989
0.854154 0.280613 0.105989
0.854154 0.280613 0.105989
0.854154 0.280613 0.105989
0.135134 0.334493 0.16321
0.133486 0.330587 0.160708
0.13196 0.32697 0.158389
0.130205 0.322896 0.155734
0.128542 0.317937 0.152468
0.127031 0.312108 0.148608
0.127367 0.304524 0.144244
0.131975 0.295796 0.13904
0.143816 0.285435 0.132616
0.164126 0.274449 0.125673
0.195163 0.263539 0.116167
0.239673 0.253605 0.102647
0.292332 0.240543 0.0868391
0.345464 0.226795 0.0721599
0.396399 0.215137 0.0684062
0.449516 0.20914 0.0692302
0.504616 0.208042 0.0725109
0.565087 0.212619 0.0776684
0.623941 0.220874 0.0823529
0.685542 0.232807 0.0864118
0.746975 0.248631 0.0912032
0.799039 0.2645 0.0973373
0.828626 0.27364 0.101564
0.852293 0.281697 0.105501
0.852461 0.281132 0.105409
0.852583 0.280674 0.105348
0.852689 0.280354 0.105287
0.852857 0.280369 0.105364
0.852964 0.280385 0.105425
0.85301 0.2804 0.10544
0.853025 0.2804 0.105455
0.853056 0.280415 0.105455
0.853071 0.280415 0.10547
0.154498 0.399939 0.200259
0.153277 0.396353 0.197818
0.152056 0.392767 0.195392
0.150652 0.388678 0.192615
0.148943 0.383612 0.189181
0.147189 0.377432 0.184924
0.146532 0.369726 0.179629
0.148333 0.360159 0.173129
0.156558 0.349371 0.166308
0.172778 0.337636 0.158694
0.198123 0.325154 0.150195
0.234653 0.312764 0.138003
0.284581 0.301839 0.121782
0.342245 0.287968 0.104158
0.399771 0.272602 0.0932784
0.454307 0.259251 0.0891585
0.507881 0.250553 0.0889754
0.564019 0.247684 0.0906844
0.624384 0.250843 0.0925765
0.6869 0.258228 0.0948348
0.746914 0.269154 0.0984665
0.798398 0.280568 0.103288
0.826001 0.285863 0.105531
0.850233 0.291508 0.108614
0.852613 0.290242 0.108324
0.852461 0.288487 0.107713
0.852369 0.287175 0.107271
0.852293 0.286305 0.106966
0.852277 0.286015 0.106874
0.852277 0.285893 0.106828
0.852277 0.285817 0.106798
0.852277 0.285756 0.106783
0.852277 0.285695 0.106752
0.170001 0.473396 0.244755
0.168933 0.469261 0.241688
0.167971 0.465522 0.238972
0.166949 0.46154 0.236149
0.165713 0.456443 0.23267
0.164279 0.450111 0.228275
0.163241 0.442161 0.222736
0.164645 0.432639 0.215991
0.170367 0.420874 0.207721
0.182773 0.407248 0.198276
0.205005 0.393835 0.189258
0.236667 0.380606 0.179522
0.27921 0.368353 0.165057
0.335073 0.357031 0.146639
0.399634 0.34432 0.126574
0.459541 0.327153 0.114046
0.515648 0.310613 0.104753
0.568246 0.299763 0.10515
0.624491 0.295186 0.105211
0.683635 0.296223 0.10602
0.740551 0.301167 0.108431
0.791287 0.307729 0.112261
0.827543 0.313222 0.115938
0.852872 0.316838 0.118761
0.861219 0.315724 0.118868
0.861128 0.312718 0.117845
0.861051 0.310536 0.117113
0.861006 0.309117 0.11664
0.860975 0.308202 0.11632
0.86096 0.307881 0.116213
0.860945 0.307698 0.116152
0.860945 0.30753 0.116091
0.860945 0.307347 0.11603
0.181033 0.550866 0.293385
0.180423 0.547051 0.290623
0.179812 0.543236 0.287846
0.179156 0.538888 0.284718
0.178271 0.533471 0.280751
0.177005 0.52726 0.276188
0.176043 0.519814 0.270726
0.176913 0.510704 0.264363
0.181613 0.499275 0.256229
0.192706 0.485206 0.246204
0.211658 0.470497 0.235264
0.240513 0.455161 0.22472
0.278004 0.439933 0.213291
0.325338 0.425101 0.194766
0.386252 0.414237 0.17496
0.454688 0.401633 0.151583
0.517678 0.385122 0.138964
0.579812 0.370672 0.127474
0.635615 0.359457 0.124804
0.68687 0.351766 0.123964
0.73846 0.348989 0.124208
0.786877 0.350881 0.127214
0.827222 0.353491 0.130312
0.851637 0.354162 0.132372
0.865446 0.352834 0.132753
0.864805 0.348028 0.130861
0.864363 0.344732 0.129656
0.864073 0.342519 0.128832
0.86392 0.341375 0.12842
0.863844 0.340841 0.128222
0.863813 0.340566 0.12813
0.863767 0.340307 0.128023
0.863737 0.340032 0.127932
0.196399 0.637797 0.352255
0.195041 0.633265 0.348669
0.193759 0.629023 0.345312
0.192355 0.624475 0.34165
0.190539 0.618448 0.336858
0.188205 0.610773 0.330724
0.185763 0.601434 0.323354
0.185199 0.590784 0.315343
0.188052 0.578668 0.306157
0.197436 0.564843 0.296223
0.215671 0.549584 0.285451
0.242603 0.533852 0.273808
0.278859 0.518288 0.262547
0.322805 0.502495 0.249332
0.375021 0.486503 0.228534
0.439002 0.474571 0.206744
0.508736 0.461295 0.181003
0.572595 0.445243 0.16733
0.636744 0.432654 0.154665
0.694179 0.421897 0.148394
0.744701 0.414603 0.149065
0.790158 0.410681 0.150652
0.834394 0.410895 0.154116
0.856565 0.407767 0.154726
0.874922 0.405798 0.155505
0.873213 0.399176 0.152361
0.871931 0.394247 0.150027
0.871077 0.390936 0.148455
0.870817 0.389441 0.147814
0.87068 0.388586 0.147463
0.870619 0.388251 0.147326
0.870573 0.3879 0.147173
0.870542 0.387732 0.147112
0.239368 0.723049 0.422629
0.236072 0.719005 0.418524
0.232731 0.714931 0.414374
0.228962 0.710307 0.409659
0.225162 0.704341 0.404013
0.220874 0.697383 0.397543
0.215824 0.688823 0.389792
0.209842 0.677989 0.379828
0.20798 0.66566 0.3691
0.211276 0.651469 0.35697
0.223331 0.635447 0.343679
0.24535 0.617136 0.329168
0.278248 0.599664 0.315251
0.319829 0.582116 0.301732
0.368963 0.565469 0.286229
0.426856 0.550942 0.264897
0.492897 0.538277 0.242008
0.562936 0.525307 0.215152
0.627024 0.510338 0.200153
0.688899 0.498482 0.189395
0.746899 0.489204 0.181018
0.792325 0.481025 0.179812
0.834882 0.476707 0.182513
0.861387 0.472236 0.183459
0.880293 0.46836 0.18381
0.884642 0.462791 0.181811
0.883833 0.457527 0.179339
0.883314 0.454185 0.177783
0.882994 0.452155 0.176837
0.882872 0.451286 0.176425
0.882795 0.450858 0.176226
0.882734 0.450431 0.176028
0.882673 0.450004 0.17583
0.31809 0.804074 0.504631
0.313024 0.799985 0.49984
0.308202 0.796109 0.495277
0.302602 0.791638 0.489998
0.295537 0.786007 0.483345
0.286595 0.778973 0.474907
0.277043 0.770169 0.465019
0.266575 0.759731 0.453544
0.257115 0.748226 0.44126
0.25211 0.73463 0.427604
0.254444 0.720394 0.413458
0.266499 0.70367 0.397559
0.289799 0.6851 0.380407
0.325872 0.667948 0.365194
0.369833 0.64979 0.349386
0.419333 0.629068 0.326955
0.477211 0.611994 0.302144
0.543389 0.59968 0.27866
0.615366 0.590814 0.253544
0.678721 0.578073 0.239963
0.73695 0.567071 0.231174
0.787961 0.558328 0.224079
0.83592 0.552651 0.220111
0.868315 0.546792 0.220722
0.88661 0.540871 0.220737
0.896254 0.535302 0.219287
0.895308 0.529152 0.215869
0.894743 0.525429 0.213916
0.894392 0.52314 0.212726
0.89424 0.522179 0.212222
0.894163 0.521691 0.211963
0.894087 0.521218 0.211704
0.894041 0.520851 0.211521
0.420722 0.877089 0.590967
0.414832 0.873671 0.586221
0.409827 0.870375 0.581994
0.404166 0.866651 0.577203
0.396994 0.861952 0.571206
0.388098 0.856153 0.56376
0.376562 0.848661 0.554116
0.361715 0.838544 0.541329
0.345663 0.826642 0.526528
0.32958 0.813062 0.509651
0.317617 0.796796 0.490501
0.312917 0.779522 0.470207
0.323217 0.762646 0.451911
0.345998 0.745632 0.434058
0.381399 0.728893 0.417288
0.424872 0.711162 0.399878
0.474907 0.692927 0.374792
0.532815 0.676661 0.348898
0.596201 0.663935 0.324514
0.664332 0.655222 0.299596
0.725185 0.644343 0.285557
0.77525 0.633463 0.27776
0.823545 0.626657 0.27393
0.866255 0.622431 0.272053
0.888121 0.616587 0.26865
0.905562 0.612177 0.266606
0.905425 0.606088 0.262043
0.905348 0.601892 0.2589
0.905303 0.599741 0.257282
0.905272 0.598718 0.256535
0.905272 0.598215 0.256153
0.905257 0.597696 0.255772
0.905241 0.597192 0.25539
0.54168 0.943358 0.682597
0.534646 0.940002 0.677317
0.528023 0.936828 0.672374
0.5205 0.933227 0.666712
0.512078 0.928756 0.660227
0.501213 0.922988 0.651835
0.487343 0.915709 0.641138
0.469963 0.906645 0.627848
0.450492 0.895399 0.612207
0.430335 0.882689 0.594766
0.412085 0.868757 0.576059
0.398306 0.853208 0.556191
0.391852 0.836164 0.534783
0.396338 0.818402 0.512978
0.415137 0.800671 0.492454
0.445304 0.783719 0.472923
0.485328 0.766735 0.452613
0.532692 0.749599 0.425086
0.586801 0.734508 0.398123
0.646021 0.722194 0.373663
0.70808 0.713359 0.34963
0.764294 0.706752 0.336187
0.812497 0.699474 0.332891
0.854887 0.694362 0.331884
0.882475 0.689235 0.329793
0.89984 0.684428 0.327245
0.905516 0.679164 0.322957
0.905379 0.674784 0.318929
0.905303 0.672251 0.316609
0.905272 0.671199 0.315633
0.905257 0.670802 0.315267
0.905241 0.670268 0.314778
0.905226 0.669734 0.31429
0.560037 0.952193 0.696635
0.556603 0.950545 0.693996
0.553353 0.948974 0.691508
0.549889 0.947311 0.688823
0.545327 0.945113 0.685298
0.539834 0.942489 0.681056
0.532967 0.939239 0.675731
0.524224 0.935119 0.668925
0.51397 0.929824 0.660761
0.502556 0.923476 0.651041
0.491402 0.916091 0.639887
0.483925 0.908782 0.628809
0.474861 0.896696 0.611963
0.466712 0.879774 0.589105
0.471 0.862776 0.56733
0.487572 0.846418 0.547143
0.515023 0.830396 0.527871
0.549615 0.813169 0.502876
0.59028 0.79585 0.47216
0.640558 0.782483 0.446067
0.693721 0.771038 0.421912
0.746075 0.76289 0.399954
0.800137 0.759548 0.387015
0.84242 0.754376 0.38587
0.875029 0.750149 0.386007
0.893019 0.745983 0.384695
0.904326 0.742473 0.382834
0.904463 0.738567 0.378958
0.90454 0.736309 0.37673
0.90457 0.735363 0.375784
0.904585 0.73489 0.375311
0.904616 0.734417 0.374838
0.904631 0.733944 0.37438
0.580514 0.961746 0.7122
0.580026 0.961608 0.711681
0.579507 0.961456 0.711131
0.579019 0.961318 0.710597
0.578683 0.961242 0.71014
0.579187 0.961456 0.710262
0.579828 0.96173 0.710414
0.580591 0.962051 0.710582
0.576242 0.959884 0.706889
0.564691 0.954086 0.697536
0.551278 0.946807 0.685679
0.540063 0.939254 0.673411
0.533211 0.931472 0.661158
0.532769 0.923262 0.649348
0.540337 0.915816 0.638788
0.54638 0.901518 0.619318
0.559884 0.885496 0.598184
0.584985 0.870588 0.5794
0.614984 0.8551 0.552789
0.652918 0.840925 0.526055
0.695186 0.827298 0.499153
0.735943 0.814801 0.473518
0.783291 0.808484 0.455009
0.831861 0.80824 0.444465
0.867811 0.805142 0.443351
0.887282 0.801022 0.442512
0.901167 0.797971 0.441642
0.903197 0.794583 0.438117
0.903136 0.792416 0.435599
0.90312 0.791501 0.434546
0.903105 0.791043 0.434012
0.90309 0.790692 0.433616
0.903075 0.790234 0.433082
0.582437 0.96231 0.714244
0.581918 0.962158 0.713695
0.581476 0.962036 0.713222
0.580911 0.961868 0.712612
0.580255 0.961669 0.711925
0.5794 0.961425 0.711025
0.578653 0.961227 0.71014
0.579431 0.961563 0.710323
0.580453 0.961975 0.710567
0.582116 0.962463 0.710918
0.584863 0.96289 0.711086
0.587961 0.962737 0.710262
0.587152 0.958999 0.704097
0.583566 0.951278 0.692317
0.583673 0.942824 0.679088
0.592767 0.935271 0.667887
0.611643 0.92871 0.659602
0.629313 0.917647 0.644556
0.649989 0.902968 0.622461
0.676783 0.889311 0.596613
0.709773 0.876066 0.570962
0.744381 0.864866 0.548409
0.781918 0.855436 0.528252
0.818708 0.848798 0.511452
0.858305 0.848569 0.502266
0.884215 0.846922 0.498268
0.898009 0.844083 0.49575
0.904158 0.841703 0.4934
0.904112 0.839796 0.491112
0.904097 0.838941 0.490105
0.904097 0.838529 0.489601
0.904082 0.838209 0.489219
0.904082 0.837781 0.488716
0.5841 0.962783 0.715999
0.583581 0.962646 0.71545
0.583139 0.962509 0.714977
0.582574 0.962341 0.714382
0.581918 0.962158 0.713695
0.581064 0.961913 0.712779
0.580072 0.961624 0.711727
0.578759 0.961242 0.710323
0.579355 0.961532 0.710307
0.581109 0.962081 0.710765
0.583871 0.962615 0.711147
0.588098 0.962951 0.711147
0.594675 0.963027 0.710857
0.608743 0.964508 0.713542
0.625132 0.965362 0.715251
0.633356 0.959289 0.706249
0.645182 0.95198 0.695613
0.663722 0.945525 0.686748
0.688746 0.939895 0.679774
0.709087 0.928969 0.658625
0.732952 0.916259 0.633585
0.759258 0.904616 0.610376
0.789624 0.894728 0.589868
0.819806 0.886503 0.57229
0.848173 0.880934 0.558938
0.877104 0.880186 0.55227
0.894041 0.879911 0.549096
0.905684 0.879622 0.547158
0.906142 0.877928 0.544366
0.906218 0.877226 0.543236
0.906249 0.876875 0.542657
0.906279 0.876616 0.542229
0.90631 0.876265 0.541665
0.585122 0.963058 0.71722
0.584985 0.963043 0.716945
0.584497 0.962905 0.716411
0.583947 0.962737 0.715831
0.583307 0.962554 0.715145
0.582498 0.962325 0.71429
0.58143 0.96202 0.713161
0.580133 0.961639 0.711788
0.578592 0.961196 0.71017
0.58024 0.961746 0.710628
0.583047 0.962356 0.711131
0.587747 0.962921 0.711543
0.594446 0.963149 0.711513
0.607355 0.96434 0.713573
0.624323 0.96553 0.715816
0.644785 0.966476 0.717983
0.670069 0.967758 0.721233
0.692943 0.965301 0.719203
0.713634 0.95935 0.711727
0.73611 0.953887 0.700786
0.759915 0.948196 0.68661
0.779797 0.936904 0.663844
0.803525 0.926955 0.642847
0.82887 0.918593 0.625406
0.852384 0.911833 0.61059
0.872053 0.906508 0.598596
0.887449 0.904143 0.592218
0.897642 0.903166 0.588754
0.90132 0.902419 0.586755
0.901503 0.901869 0.585718
0.901579 0.901656 0.585336
0.901671 0.901381 0.584802
0.901762 0.901106 0.584298
0.584772 0.962875 0.717449
0.584924 0.962951 0.717342
0.585077 0.963027 0.71725
0.585046 0.963058 0.716991
0.58439 0.962875 0.716304
0.583535 0.962631 0.715404
0.582498 0.962325 0.71429
0.581216 0.961959 0.712947
0.579721 0.961517 0.711345
0.579507 0.961471 0.710475
0.582391 0.962127 0.711086
0.587015 0.962737 0.711574
0.594232 0.963241 0.712001
0.606271 0.964218 0.713573
0.623041 0.965438 0.715862
0.643717 0.966537 0.718303
0.668574 0.967803 0.721447
0.697932 0.969665 0.726223
0.731136 0.972351 0.733349
0.757443 0.97023 0.730419
0.778988 0.96495 0.717571
0.799542 0.959442 0.70396
0.819471 0.951476 0.685527
0.841047 0.943633 0.668833
0.861357 0.937148 0.654643
0.879026 0.931914 0.642954
0.892683 0.928283 0.634928
0.899702 0.925505 0.629084
0.903853 0.923903 0.62565
0.903624 0.923201 0.624384
0.903502 0.922805 0.623667
0.903365 0.922393 0.62295
0.903227 0.921996 0.622232
0.584527 0.962737 0.717617
0.58468 0.962829 0.717525
0.584833 0.962905 0.717418
0.585 0.962997 0.717296
0.585199 0.963104 0.717159
0.584344 0.96286 0.716243
0.583307 0.962554 0.715145
0.582025 0.962188 0.713802
0.580514 0.961746 0.7122
0.579217 0.961349 0.710552
0.581888 0.961959 0.711055
0.586511 0.9626 0.711604
0.593957 0.963256 0.712276
0.605463 0.964126 0.713588
0.622019 0.965331 0.715846
0.642954 0.966598 0.718563
0.667491 0.967819 0.721614
0.696071 0.969467 0.725795
0.729091 0.972107 0.732815
0.762646 0.974975 0.739101
0.794141 0.977615 0.741207
