recommended/Classic_Rec709.cube
TITLE "Software Leica Camera LUT Film V6.3 Rec709 Gamma 2.4"
LUT_3D_SIZE 9
0.00347906 0.00161746 0.00302129
0.0312047 0.0197604 0.0197299
0.174182 0.0570077 0.0250248
0.438849 0 0
0.691691 0 0
0.787076 0 0.0296941
0.798306 0 0.103166
0.798993 0 0.104479
0.799023 0 0.104585
0.0124361 0.0105592 0.012314
0.0223392 0.0167544 0.0178225
0.150149 0.0541848 0.0263676
0.395865 0.0123598 0
0.661128 0 0
0.78468 0 0.00729381
0.797909 0 0.102586
0.798978 0 0.104448
0.799023 0 0.104585
0 0.112169 0.0512856
0 0.0985275 0.0494392
0.122637 0.099382 0.043061
0.388312 0.0827802 0
0.647959 0 0
0.783047 0 0.000595102
0.797787 0 0.102403
0.798978 0 0.104448
0.799023 0 0.104585
0 0.318456 0
0 0.287953 0.00477607
0 0.281605 0.00416571
0.342046 0.29102 0
0.672847 0.23682 0
0.833799 0.100801 0.0841535
0.797528 0 0.101549
0.798978 0 0.104448
0.799023 0 0.104585
0 0.536828 0
0 0.527962 0
0 0.497719 0
0.0781262 0.54313 0
0.621714 0.550057 0
0.907515 0.49369 0
0.931212 0.383246 0.0270542
0.805859 0 0.110979
0.799023 0 0.104585
0 0.673716 0.156603
0 0.669337 0.144793
0 0.667597 0.13994
0 0.66212 0.00527962
0.492775 0.746639 0
0.871916 0.790143 0
0.999969 0.747677 0
0.999985 0.64976 0
0.877531 0.241245 0.0965744
0 0.730312 0.392798
0 0.729076 0.381033
0 0.728679 0.376333
0 0.728405 0.373144
0.169284 0.750744 0.278676
0.81677 0.840101 0.0851759
0.999985 0.890059 0.0392004
0.999985 0.893996 0.107622
0.999985 0.869535 0.141421
0 0.753033 0.610925
0 0.75259 0.601038
0 0.752392 0.596628
0 0.752285 0.594018
0 0.752209 0.591852
0.502541 0.868544 0.603296
0.947524 0.939132 0.561761
1 0.946258 0.52459
1 0.951522 0.558648
0 0.760098 0.715557
0 0.760098 0.715511
0 0.760098 0.71548
0 0.760098 0.715373
0 0.760098 0.715358
0 0.760082 0.715145
0.831861 0.955032 0.823957
1 0.979965 0.821576
1 0.9823 0.814389
0.00892653 0.0062562 0.0113069
0.0297551 0.0191348 0.0211795
0.162463 0.0548562 0.0278782
0.414893 0.00582895 0
0.672389 0 0
0.784512 0 0.0167391
0.798032 0 0.102739
0.798993 0 0.104479
0.799023 0 0.104585
0.0161746 0.0157015 0.0189975
0.0219425 0.0177157 0.0201114
0.137163 0.0514534 0.027863
0.370047 0.033402 0
0.634256 0 0
0.781765 0 0.00207523
0.797513 0 0.101884
0.798978 0 0.104448
0.799023 0 0.104585
0 0.111543 0.0519875
0 0.0957656 0.0496681
0.108614 0.0953689 0.0447089
0.358694 0.0811475 0
0.620066 0 0
0.778897 0 0
0.797238 0 0.101228
0.798978 0 0.104448
0.799023 0 0.104585
0 0.310857 0.00323491
0 0.278508 0.00840772
0 0.266514 0.00991836
0.314855 0.272099 0
0.63946 0.218967 0
0.822995 0.0606546 0.071397
0.796551 0 0.0984207
0.798978 0 0.104433
0.799023 0 0.104585
0 0.532921 0.00285344
0 0.523262 0.000427253
0 0.489189 0
0.0546578 0.527443 0
0.602884 0.535302 0
0.894743 0.476844 0
0.922011 0.358404 0.0377203
0.805508 0.00383001 0.109834
0.799023 0 0.104585
0 0.676326 0.18204
0 0.671641 0.171511
0 0.669902 0.167254
0 0.661479 0.0522011
0.467903 0.745617 0
0.863218 0.783612 0
0.998764 0.739391 0
0.998886 0.641108 0
0.867903 0.213779 0.101045
0 0.7308 0.401907
0 0.729381 0.390005
0 0.729015 0.385534
0 0.728771 0.38262
0.140108 0.751949 0.297017
0.803388 0.844343 0.124865
0.999985 0.891356 0.0664073
0.999985 0.893919 0.133013
0.999985 0.865309 0.183978
0 0.753033 0.612497
0 0.75256 0.603357
0 0.752346 0.599222
0 0.752209 0.59675
0 0.752194 0.594263
0.492851 0.86714 0.603159
0.944579 0.93872 0.56228
1 0.946227 0.525078
1 0.951522 0.559197
0 0.760143 0.716609
0 0.760143 0.716548
0 0.760143 0.716518
0 0.760143 0.716503
0 0.760128 0.716381
0 0.760128 0.716167
0.82295 0.953628 0.823789
0.999237 0.979904 0.823362
1 0.982452 0.816205
0.0302434 0.0176089 0.108934
0.0349432 0.0193332 0.100038
0.147967 0.0470588 0.100893
0.392828 0.0163729 0.0944991
0.667399 0 0.101915
0.787518 0 0.128191
0.800305 0 0.129213
0.799084 0 0.105211
0.799023 0 0.104585
0.0286412 0.0247501 0.107988
0.029984 0.0230411 0.0920577
0.124147 0.0446632 0.0902876
0.350042 0.0375219 0.0748302
0.617151 0 0.07776
0.784543 0 0.117632
0.799496 0 0.124147
0.799039 0 0.104982
0.799023 0 0.104585
0 0.111711 0.110521
0 0.0937819 0.0920119
0.0929885 0.0908675 0.0883497
0.337621 0.0797131 0.0754864
0.606424 0 0.0683299
0.778943 0 0.0986191
0.79939 0 0.125719
0.799115 0 0.105547
0.799023 0 0.104585
0 0.308949 0.112779
0 0.273335 0.0898909
0 0.259236 0.0682231
0.292882 0.262608 0.0584421
0.617838 0.215503 0.0677958
0.816587 0.0186465 0.107027
0.798871 0 0.127977
0.79971 0 0.109804
0.799023 0 0.104585
0 0.532357 0.119142
0 0.522286 0.113893
0 0.483619 0.0673075
0.0302434 0.514336 0.0100099
0.583169 0.521904 0.0120241
0.883696 0.463752 0.0404822
0.91696 0.345632 0.0776989
0.807614 0.00314336 0.133577
0.799023 0 0.104585
0 0.684993 0.240162
0 0.677913 0.224399
0 0.675593 0.218845
0 0.663691 0.127825
0.436027 0.748486 0.00794995
0.854154 0.777646 4.57771e-05
0.996536 0.731029 0.0423285
0.997772 0.633494 0.0744793
0.864622 0.201358 0.117357
0 0.734936 0.42977
0 0.732555 0.416083
0 0.731563 0.410025
0 0.731014 0.406485
0.103777 0.757214 0.33611
0.786374 0.854109 0.204685
0.999985 0.894942 0.133028
0.999985 0.895552 0.193027
0.999985 0.863325 0.254307
0 0.753323 0.62031
0 0.752865 0.611246
0 0.752636 0.606973
0 0.752529 0.604242
0 0.752468 0.602045
0.485924 0.867521 0.610285
0.941482 0.939956 0.574044
1 0.947845 0.537942
1 0.952926 0.57113
0 0.76025 0.718929
0 0.760235 0.718715
0 0.760235 0.718608
0 0.760235 0.718486
0 0.760235 0.718395
0 0.76022 0.718242
0.818647 0.953094 0.825299
0.99855 0.97998 0.826154
1 0.982757 0.81944
0 0.0398566 0.280934
0.00994888 0.0232395 0.273259
0.125673 0.0211185 0.274693
0.359625 0 0.265431
0.62565 0 0.266011
0.791394 0 0.289601
0.805707 0 0.27509
0.807019 0 0.239704
0.805051 0 0.181643
0 0.0478981 0.283742
0 0.040177 0.262989
0.0975662 0.0345159 0.261204
0.334508 0.0181888 0.249287
0.590524 0 0.235248
0.786908 0 0.266697
0.804105 0 0.256809
0.805982 0 0.222889
0.803616 0 0.153964
0 0.108583 0.295796
0 0.0898146 0.267185
0.0344244 0.084947 0.259342
0.319097 0.0784161 0.250065
0.596841 0.000823987 0.233158
0.775616 0 0.22594
0.803677 0 0.253956
0.805798 0 0.220279
0.803281 0 0.147417
0 0.307271 0.31606
0 0.269688 0.276127
0 0.256413 0.254063
0.262043 0.259327 0.250828
0.595605 0.216785 0.236484
0.816022 0.0352331 0.227481
0.802365 0 0.230503
0.806058 0 0.22652
0.803525 0 0.152148
0 0.533608 0.33254
0 0.519768 0.316304
0 0.479637 0.261799
0.00836194 0.500816 0.23595
0.555917 0.511345 0.225116
0.866346 0.452003 0.226108
0.913115 0.333486 0.221592
0.813962 0.00389105 0.235126
0.804791 0 0.176593
0 0.69691 0.375982
0 0.690745 0.362203
0 0.688518 0.356222
0 0.673594 0.272602
0.365423 0.757458 0.223392
0.838102 0.771572 0.14931
0.99205 0.720027 0.235492
0.993942 0.624582 0.256306
0.870024 0.203891 0.252079
0 0.744579 0.504601
0 0.74287 0.48925
0 0.742 0.482475
0 0.741451 0.478416
0.0390936 0.772107 0.414237
0.76405 0.870359 0.350149
0.996979 0.905119 0.275608
1 0.900084 0.317205
1 0.862684 0.367559
0 0.754269 0.643549
0 0.753811 0.63447
0 0.753613 0.630289
0 0.75346 0.627649
0 0.753353 0.625818
0.47628 0.870665 0.635004
0.935454 0.944305 0.61062
1 0.952514 0.57612
1 0.957259 0.608286
0 0.76054 0.725124
0 0.760525 0.72459
0 0.76051 0.724346
0 0.760494 0.724102
0 0.760494 0.723995
0 0.760479 0.723705
0.815641 0.953033 0.830488
0.997971 0.980392 0.833616
1 0.983368 0.826932
0 0.0901808 0.46978
0 0.0865644 0.465553
0.0259403 0.0662242 0.496559
0.341024 0.0610819 0.507729
0.607935 0 0.479759
0.789456 0 0.460014
0.817151 0 0.494591
0.818662 0 0.457679
0.817517 0 0.428656
0 0.0981765 0.468513
0 0.0929122 0.457923
0.00271611 0.0842603 0.471962
0.309163 0.0785382 0.489189
0.584848 0 0.462562
0.784115 0 0.435981
0.814603 0 0.472465
0.816999 0 0.435966
0.815732 0 0.398032
0 0.139864 0.486076
0 0.126955 0.469505
0 0.124071 0.469078
0.283436 0.119265 0.489723
0.584955 0.0248417 0.46891
0.790005 0 0.435157
0.81326 0 0.462043
0.816541 0 0.429664
0.815167 0 0.387976
0 0.302449 0.517281
0 0.278706 0.491356
0 0.26978 0.4822
0.191882 0.274159 0.494011
0.574716 0.229267 0.480003
0.82919 0.0413825 0.450156
0.821225 0 0.423072
0.816464 0 0.42945
0.815045 0 0.385733
0 0.535729 0.562615
0 0.499413 0.523079
0 0.478401 0.48983
0.000106813 0.493248 0.480125
0.519661 0.508812 0.491325
0.845411 0.455131 0.463096
0.917082 0.3393 0.433829
0.835889 0.0115511 0.426596
0.815457 0 0.393164
0 0.697932 0.580636
0 0.69218 0.568994
0 0.688029 0.561822
0 0.682185 0.483803
0.268742 0.758907 0.489815
0.810712 0.76527 0.47158
0.98294 0.711284 0.457588
0.989883 0.624369 0.458579
0.890455 0.235004 0.450217
0 0.749111 0.632349
0 0.74847 0.621668
0 0.748165 0.616678
0 0.747967 0.613596
0.00213626 0.798413 0.544732
0.720562 0.89485 0.549294
0.981979 0.922744 0.486549
1 0.906752 0.503685
1 0.864561 0.548165
0 0.757702 0.689647
0 0.756939 0.682383
0 0.756573 0.678828
0 0.756359 0.67686
0 0.756222 0.675486
0.462181 0.878294 0.690318
0.924758 0.953246 0.689586
1 0.962463 0.659663
1 0.966613 0.686076
0 0.761242 0.740764
0 0.761181 0.739345
0 0.761151 0.73875
0 0.761135 0.738338
0 0.76112 0.738079
0 0.76112 0.737728
0.81387 0.953796 0.844251
0.997284 0.981491 0.85243
1 0.984924 0.845853
0 0.213489 0.628748
0 0.209583 0.625147
0 0.217258 0.631693
0.251606 0.228901 0.696284
0.6103 0.150256 0.723659
0.819715 0.00270085 0.689235
0.824063 0 0.656764
0.821897 0 0.639643
0.827253 0 0.620325
0 0.2224 0.633478
0 0.212879 0.62533
0 0.213107 0.62652
0.189441 0.21828 0.680079
0.578103 0.151476 0.710262
0.807919 0.000701915 0.672602
0.827222 0 0.641642
0.824765 0 0.626642
0.828519 0 0.598489
0 0.264485 0.661662
0 0.253727 0.651408
0 0.250431 0.651255
0.131243 0.257023 0.685893
0.564233 0.20148 0.711589
0.813657 0.0147555 0.677943
0.831235 0 0.644312
0.825116 0 0.621653
0.828046 0 0.589899
0 0.357626 0.689525
0 0.347021 0.682918
0 0.344717 0.68426
0.0610971 0.356069 0.703029
0.542123 0.329152 0.723934
0.833173 0.199725 0.704128
0.852674 0.0262455 0.663264
0.82565 0 0.616312
0.827832 0 0.58613
0 0.511849 0.700374
0 0.502159 0.692317
0 0.502037 0.691661
0 0.517296 0.704311
0.479469 0.537667 0.735378
0.822873 0.49395 0.72256
0.934081 0.390051 0.6916
0.88072 0.130999 0.66334
0.827848 0 0.586236
0 0.694896 0.738415
0 0.682399 0.72488
0 0.660533 0.694789
0 0.688579 0.693187
0.234546 0.748577 0.713252
0.778103 0.761532 0.734707
0.971267 0.713191 0.710964
0.990356 0.643778 0.697917
0.932998 0.366567 0.682643
0 0.751339 0.744884
0 0.750103 0.739437
0 0.749554 0.737041
0 0.748302 0.732387
0.00114443 0.8177 0.699626
0.673487 0.910521 0.739879
0.958389 0.927169 0.724239
1 0.902953 0.729564
1 0.865705 0.746441
0 0.76022 0.751598
0 0.759976 0.747707
0 0.759869 0.745769
0 0.759793 0.744717
0 0.759762 0.74406
0.455268 0.889876 0.775677
0.911391 0.96379 0.802289
1 0.975738 0.781567
1 0.977447 0.796826
0 0.761761 0.7673
0 0.76173 0.765362
0 0.761715 0.764431
0 0.7617 0.763729
0 0.7617 0.763302
0 0.761685 0.762997
0.815534 0.955642 0.870527
0.995056 0.98352 0.887739
1 0.988083 0.883574
0 0.514748 0.766766
0.00172427 0.515419 0.769238
0.0257267 0.526284 0.777111
0.310491 0.542519 0.799527
0.604944 0.546929 0.822232
0.860914 0.502754 0.831449
0.943008 0.40795 0.817304
0.905211 0.206531 0.775998
0.818402 0 0.693431
0 0.50341 0.762905
0 0.497688 0.762737
0.0159609 0.503746 0.768963
0.250141 0.517082 0.789227
0.566903 0.518944 0.813199
0.835737 0.470924 0.823423
0.93576 0.370565 0.809613
0.891493 0.148638 0.762722
0.811704 0 0.685817
0 0.516121 0.765911
0 0.507866 0.76466
0.00791943 0.511147 0.769345
0.214679 0.523171 0.788663
0.549783 0.525582 0.813199
0.826001 0.478553 0.824231
0.935454 0.37557 0.8103
0.896635 0.177508 0.767712
0.809873 0 0.68307
0 0.550713 0.774716
0 0.541604 0.772625
0 0.543816 0.775372
0.149386 0.556664 0.79324
0.527474 0.565164 0.819913
0.81709 0.525505 0.832807
0.943023 0.429526 0.820905
0.923033 0.293431 0.793088
0.809155 0 0.68162
0 0.619165 0.791501
0 0.611337 0.789761
0 0.614359 0.791241
0.0434272 0.6318 0.803555
0.483268 0.651255 0.833738
0.799756 0.633936 0.851545
0.956298 0.553811 0.844327
0.959884 0.472923 0.828458
0.829221 0 0.700908
0 0.704768 0.801221
0 0.70222 0.800763
0 0.708125 0.802884
0 0.730831 0.812192
0.332464 0.774227 0.843259
0.758694 0.788251 0.871809
0.957961 0.748562 0.87335
0.996323 0.702129 0.862028
0.980697 0.577935 0.843687
0 0.749157 0.804913
0 0.746777 0.802426
0 0.743084 0.796689
0 0.77174 0.799405
7.62951e-05 0.831266 0.819837
0.672847 0.906737 0.866545
0.939544 0.919554 0.886351
1 0.904448 0.879652
1 0.878767 0.878111
0 0.759899 0.801816
0 0.759838 0.800046
0 0.759808 0.799039
0 0.759793 0.798428
0 0.764263 0.796551
0.496086 0.904784 0.859556
0.903029 0.969573 0.894224
1 0.980865 0.893614
1 0.980102 0.896788
0 0.761746 0.799786
0 0.761807 0.797925
0 0.761822 0.796948
0 0.761837 0.796323
0 0.761852 0.79585
0 0.761852 0.795575
0.828641 0.958907 0.898482
0.992813 0.984863 0.914
1 0.990616 0.915709
0.439841 0.791272 0.85716
0.450324 0.789548 0.857435
0.490318 0.793896 0.860349
0.570443 0.802075 0.866545
0.709575 0.813825 0.877089
0.8645 0.820294 0.886702
0.978058 0.800687 0.888975
1 0.758526 0.883772
1 0.719554 0.877546
0.401602 0.779324 0.852995
0.40412 0.774548 0.852323
0.437278 0.776287 0.854459
0.522927 0.781918 0.860273
0.668833 0.79173 0.871077
0.84062 0.796277 0.88191
0.967208 0.771115 0.884016
0.999939 0.720729 0.877485
0.995499 0.652766 0.865721
0.393851 0.781384 0.852964
0.391333 0.774166 0.851591
0.422095 0.773861 0.853162
0.507057 0.778561 0.858732
0.655589 0.787808 0.869596
0.831998 0.792599 0.880949
0.963027 0.765591 0.883009
1 0.7122 0.87602
0.991714 0.632044 0.861875
0.381399 0.789883 0.853864
0.37467 0.781826 0.85214
0.40499 0.780835 0.853498
0.492058 0.784619 0.858854
0.644938 0.793118 0.869718
0.825788 0.798321 0.881453
0.960296 0.774136 0.88426
0.999725 0.720974 0.87744
0.994797 0.644312 0.864195
0.34197 0.810315 0.85565
0.332982 0.801785 0.853742
0.362631 0.800717 0.854978
0.460105 0.805081 0.860563
0.627329 0.814145 0.871885
0.817395 0.822049 0.884535
0.956741 0.803632 0.888502
1 0.75877 0.883696
0.999512 0.698833 0.873884
0.173449 0.840589 0.853956
0.157458 0.833692 0.852323
0.197299 0.835492 0.855222
0.341512 0.843259 0.862196
0.582437 0.85539 0.875456
0.799954 0.869963 0.890288
0.949874 0.864988 0.896864
1 0.835172 0.895064
1 0.803998 0.890867
0 0.832197 0.838697
0.00132753 0.829709 0.837125
0 0.833295 0.839414
0.0529335 0.851911 0.852018
0.43592 0.889479 0.873777
0.75465 0.925765 0.894652
0.936034 0.93695 0.90573
1 0.929229 0.907423
1 0.919799 0.906722
0 0.759747 0.819608
0 0.759579 0.819379
0 0.759472 0.819226
0 0.775235 0.822995
0.00517281 0.845396 0.846143
0.640208 0.927672 0.889921
0.912077 0.970764 0.909941
0.999222 0.980865 0.91574
1 0.982162 0.916503
0 0.761227 0.818555
0 0.761074 0.818006
0 0.760998 0.817746
0 0.760952 0.817533
0 0.760937 0.81738
0 0.797482 0.825177
0.859236 0.964385 0.906828
0.993423 0.985122 0.917311
1 0.991241 0.919707
0.775448 0.922713 0.896269
0.778775 0.923079 0.896513
0.785763 0.923827 0.897002
0.805264 0.926085 0.898375
0.845762 0.928054 0.900633
0.912947 0.932418 0.904295
0.978729 0.935683 0.907317
1 0.924239 0.907027
1 0.91014 0.905501
0.77499 0.922789 0.896254
0.77818 0.923293 0.896513
0.784588 0.923919 0.896956
0.801938 0.925948 0.898161
0.839231 0.928145 0.900343
0.903227 0.931838 0.903792
0.971115 0.936553 0.907149
1 0.927184 0.907286
1 0.910658 0.905592
0.774258 0.923217 0.896284
0.777447 0.923598 0.896513
0.783719 0.924285 0.896956
0.800687 0.926177 0.898131
0.837125 0.928496 0.900298
0.89984 0.932097 0.9037
0.968109 0.937224 0.907149
1 0.929046 0.907469
1 0.911757 0.90573
0.772519 0.924315 0.896361
0.77583 0.924651 0.89659
0.781964 0.925277 0.897017
0.798856 0.927138 0.898192
0.835325 0.929549 0.900359
0.897826 0.933471 0.903792
0.966171 0.939162 0.907347
1 0.932052 0.90782
1 0.914824 0.906126
0.767178 0.927413 0.896529
0.770794 0.927535 0.896742
0.77734 0.92813 0.897185
0.79443 0.929839 0.898344
0.832105 0.932631 0.900649
0.895506 0.937346 0.90425
0.964385 0.944533 0.908049
1 0.938155 0.908644
1 0.92282 0.907164
0.752178 0.934707 0.896819
0.757031 0.9346 0.897063
0.764141 0.935042 0.897505
0.782574 0.93666 0.898711
0.824018 0.940124 0.901366
0.890974 0.946807 0.905409
0.961563 0.957504 0.909819
1 0.952438 0.910643
1 0.940475 0.909545
0.709834 0.936034 0.895186
0.718593 0.937255 0.895827
0.729366 0.93904 0.896712
0.751507 0.941558 0.898207
0.802106 0.946517 0.901488
0.87895 0.95845 0.906996
0.95671 0.970993 0.912169
1 0.972473 0.913939
1 0.96817 0.91368
0.531975 0.910506 0.883818
0.566094 0.915648 0.886076
0.594446 0.920027 0.887785
0.644175 0.927855 0.890761
0.727184 0.942397 0.897627
0.843381 0.959884 0.906111
0.947173 0.976669 0.913619
1 0.983978 0.916808
1 0.986999 0.917967
0 0.763943 0.822736
0 0.763943 0.822736
0 0.763943 0.822736
0 0.763943 0.822736
0 0.832624 0.83798
0.668284 0.933303 0.893034
0.914748 0.973739 0.912367
0.997269 0.985977 0.917647
1 0.991485 0.919829
