recommended/Classic_Rec709.cube
TITLE "Software Leica Camera LUT Film V6.3 Rec709 Gamma 2.4"
LUT_3D_SIZE 33
0.00347906 0.00161746 0.00302129
0.00776684 0.00514229 0.0069276
0.0105287 0.00726329 0.0091249
0.0169528 0.0117189 0.0133211
0.0312047 0.0197604 0.0197299
0.0583658 0.0312047 0.0268406
0.0922408 0.0409094 0.0293889
0.129412 0.0492256 0.027512
0.174182 0.0570077 0.0250248
0.230289 0.0605936 0.0169528
0.296666 0.0534829 0.00062562
0.367132 0.0266117 0
0.438849 0 0
0.507103 0 0
0.568032 0 0
0.626856 0 0
0.691691 0 0
0.73817 0 0
0.765698 0 0
0.779736 0 0
0.787076 0 0.0296941
0.791913 0 0.0716869
0.795102 0 0.0917983
0.797299 0 0.101427
0.798306 0 0.103166
0.798779 0 0.10399
0.798932 0 0.104295
0.798962 0 0.104417
0.798993 0 0.104479
0.799008 0 0.104524
0.799008 0 0.10457
0.799023 0 0.104585
0.799023 0 0.104585
0.00534066 0.00326543 0.00491341
0.00794995 0.00537118 0.00721752
0.010132 0.00706493 0.0089723
0.0152743 0.0106813 0.0124056
0.0268101 0.0175479 0.0180972
0.0513619 0.0288853 0.0257572
0.0843977 0.0391546 0.0295567
0.120211 0.0472267 0.0281376
0.162371 0.0555428 0.0254215
0.215396 0.0605173 0.0205539
0.279408 0.0573129 0.00309758
0.34934 0.0343328 0
0.42089 0.00198367 0
0.491402 0 0
0.556619 0 0
0.616236 0 0
0.680598 0 0
0.730632 0 0
0.761501 0 0
0.777981 0 0
0.785946 0 0.0188907
0.791135 0 0.0659037
0.794491 0 0.088426
0.796918 0 0.0999771
0.798108 0 0.102892
0.798688 0 0.103838
0.798901 0 0.10425
0.798962 0 0.104387
0.798993 0 0.104463
0.799008 0 0.104509
0.799008 0 0.104555
0.799023 0 0.104585
0.799023 0 0.104585
0.0068513 0.00460822 0.00640879
0.0084535 0.00588998 0.00779736
0.0103456 0.00740063 0.009308
0.0146181 0.0104524 0.0122225
0.024445 0.0164797 0.0173342
0.047715 0.0276646 0.0252079
0.0803388 0.0383001 0.0296635
0.115724 0.0462806 0.0284886
0.156115 0.0547646 0.0255741
0.207401 0.0603037 0.0220188
0.268879 0.0593118 0.00454719
0.33843 0.0387427 0
0.40943 0.0037232 0
0.48043 0 0
0.546822 0 0
0.609644 0 0
0.674983 0 0
0.726955 0 0
0.759533 0 0
0.777096 0 0
0.785382 0 0.0135958
0.790738 0 0.0629892
0.794202 0 0.0868391
0.796735 0 0.0992752
0.798032 0 0.10277
0.798642 0 0.103746
0.798901 0 0.104219
0.798962 0 0.104372
0.798978 0 0.104463
0.798993 0 0.104509
0.799008 0 0.104555
0.799023 0 0.104585
0.799023 0 0.104585
0.00889601 0.00666819 0.00851453
0.00952163 0.00706493 0.0089723
0.0110475 0.00822461 0.010132
0.0145724 0.0108034 0.0125734
0.0230564 0.0161135 0.0171359
0.04477 0.0267796 0.0248112
0.0776684 0.0377813 0.0298009
0.113054 0.0458076 0.0287633
0.152895 0.0545205 0.0256809
0.203616 0.0601663 0.0225376
0.263371 0.0603799 0.0040589
0.331731 0.0421149 0
0.400885 0.00640879 0
0.471244 0 0
0.538476 0 0
0.601205 0 0
0.669657 0 0
0.724422 0 0
0.758083 0 0
0.776501 0 0
0.784985 0 0.0100404
0.790463 0 0.060914
0.794018 0 0.0857404
0.796597 0 0.0987869
0.797955 0 0.102678
0.798611 0 0.1037
0.798886 0 0.104204
0.798962 0 0.104372
0.798978 0 0.104463
0.798993 0 0.104509
0.799008 0 0.104555
0.799023 0 0.104585
0.799023 0 0.104585
0.0124361 0.0105592 0.012314
0.0121004 0.0100252 0.0118257
0.0130922 0.0106813 0.0124819
0.0157321 0.0125734 0.0142367
0.0223392 0.0167544 0.0178225
0.0412451 0.0260777 0.0246281
0.0746624 0.037232 0.0299229
0.110399 0.0453803 0.0292363
0.150149 0.0541848 0.0263676
0.200748 0.0600137 0.0234226
0.259892 0.060914 0.00486763
0.32752 0.0449378 0
0.395865 0.0123598 0
0.465003 0 0
0.5308 0 0
0.593256 0 0
0.661128 0 0
0.721996 0 0
0.757 0 0
0.775998 0 0
0.78468 0 0.00729381
0.790265 0 0.0594186
0.793866 0 0.0849165
0.796506 0 0.098436
0.797909 0 0.102586
0.798581 0 0.103655
0.798886 0 0.104189
0.798962 0 0.104356
0.798978 0 0.104448
0.798993 0 0.104509
0.799008 0 0.104555
0.799023 0 0.10457
0.799023 0 0.104585
0.0196231 0.0230411 0.0221408
0.0185397 0.0202487 0.0201572
0.0187991 0.0199588 0.0199588
0.020325 0.0209659 0.0207828
0.0243076 0.0233158 0.0227054
0.0375372 0.0292058 0.0268559
0.0686503 0.0373388 0.0305028
0.10602 0.0453956 0.0300755
0.146548 0.0543374 0.0276188
0.197696 0.0599832 0.0249332
0.257527 0.0611276 0.00891127
0.325032 0.0474861 0.000991836
0.393439 0.0227817 0
0.461357 0.000839246 0
0.525032 0 0
0.585382 0 0
0.651514 0 0
0.715434 0 0
0.755978 0 0
0.77557 0 0
0.784421 0 0.00495918
0.790082 0 0.057908
0.793759 0 0.0843214
0.796414 0 0.0979477
0.797864 0 0.102525
0.798566 0 0.103609
0.798886 0 0.104173
0.798962 0 0.104356
0.798978 0 0.104448
0.798993 0 0.104509
0.799008 0 0.104555
0.799023 0 0.10457
0.799023 0 0.104585
0.0184024 0.049897 0.0365606
0.020798 0.0444953 0.0342412
0.0218204 0.0424048 0.0333104
0.0227207 0.0419013 0.0331121
0.0247959 0.0421912 0.0333562
0.0319524 0.0436561 0.0343023
0.0565957 0.0437629 0.0339818
0.0975357 0.0507668 0.033051
0.140764 0.0578164 0.030518
0.192981 0.061738 0.0272068
0.254261 0.0628214 0.0137636
0.321721 0.0523995 0.00230411
0.392157 0.0345617 0
0.461418 0.00514229 0
0.524636 0 0
0.581323 0 0
0.642115 0 0
0.705745 0 0
0.752377 0 0
0.775158 0 0
0.784176 0 0.00274662
0.789914 0 0.0565805
0.793652 0 0.0836042
0.796323 0 0.0975357
0.797833 0 0.10248
0.79855 0 0.103578
0.798871 0 0.104173
0.798962 0 0.104356
0.798978 0 0.104448
0.798993 0 0.104509
0.799008 0 0.10454
0.799023 0 0.10457
0.799023 0 0.104585
0.00184634 0.080293 0.0460212
0.00375372 0.0745556 0.0446479
0.00492866 0.0714885 0.0438849
0.00581369 0.0699321 0.043473
0.00703441 0.0689708 0.0432288
0.0121462 0.068513 0.0430915
0.0415503 0.0659342 0.0414282
0.0861982 0.0691844 0.0394446
0.133486 0.0717937 0.0364233
0.187701 0.0725414 0.0307012
0.250538 0.0716716 0.0158999
0.318517 0.0629435 0.00215152
0.390723 0.0514534 0
0.462425 0.0191501 0
0.527596 0.000366217 0
0.584695 0 0
0.64033 0 0
0.6972 0 0
0.745312 0 0
0.773266 0 0
0.783963 0 0.00155642
0.789715 0 0.054902
0.793515 0 0.0826734
0.796262 0 0.0972305
0.797803 0 0.102434
0.798535 0 0.103563
0.798871 0 0.104158
0.798962 0 0.104356
0.798978 0 0.104448
0.798993 0 0.104509
0.799008 0 0.10454
0.799008 0 0.10457
0.799023 0 0.104585
0 0.112169 0.0512856
0 0.105531 0.0505074
0 0.101396 0.0499886
0 0.0998703 0.0496986
0 0.0985275 0.0494392
0 0.0974136 0.0492103
0.0175174 0.0972457 0.0487373
0.0702678 0.0989242 0.0465705
0.122637 0.099382 0.043061
0.180072 0.0990005 0.0367437
0.244831 0.096025 0.025864
0.314382 0.0908064 0.00727855
0.388312 0.0827802 0
0.461738 0.06009 0
0.530922 0.0146944 0
0.591501 0 0
0.647959 0 0
0.700374 0 0
0.742016 0 0
0.768994 0 0
0.783047 0 0.000595102
0.789471 0 0.0526131
0.793393 0 0.0819104
0.796201 0 0.0969711
0.797787 0 0.102403
0.79852 0 0.103532
0.798856 0 0.104158
0.798962 0 0.104341
0.798978 0 0.104448
0.798993 0 0.104494
0.799008 0 0.10454
0.799008 0 0.10457
0.799023 0 0.104585
0 0.153429 0.0526131
0 0.144701 0.0526589
0 0.13875 0.0525673
0 0.135851 0.0524453
0 0.133852 0.0523537
0 0.13225 0.0522927
0.000534066 0.13257 0.0522927
0.0428473 0.135103 0.0506905
0.103487 0.136278 0.0468299
0.165805 0.135882 0.0404517
0.233921 0.134157 0.0325322
0.307332 0.131212 0.00933852
0.382803 0.124178 0
0.458289 0.108949 0
0.531792 0.0743267 0
0.599405 0.0217746 0
0.659388 0 0
0.710735 0 0
0.748241 0 0
0.770809 0 0
0.781079 0 0
0.788708 0 0.0461738
0.793225 0 0.0807355
0.796139 0 0.0966812
0.797757 0 0.102373
0.79852 0 0.103517
0.798856 0 0.104158
0.798947 0 0.104341
0.798978 0 0.104448
0.798993 0 0.104494
0.799008 0 0.10454
0.799008 0 0.10457
0.799023 0 0.104585
0 0.203952 0.0459144
0 0.194141 0.0481422
0 0.186465 0.0496071
0 0.181445 0.0504005
0 0.178012 0.0507973
0 0.175799 0.0510262
0 0.17499 0.0510262
0.0105135 0.17731 0.0497902
0.0711681 0.179538 0.0457465
0.143435 0.180316 0.0363012
0.21709 0.180255 0.022797
0.295048 0.178393 0.00512703
0.37409 0.173007 0
0.45275 0.16199 0
0.529244 0.141115 0
0.602213 0.101747 0
0.669749 0.04477 0
0.724956 0.00630198 0
0.76054 0 0
0.780362 0 0.00387579
0.790402 0 0.0424964
0.788663 0 0.0413214
0.792523 0 0.0752728
0.796048 0 0.0962997
0.797742 0 0.102342
0.798505 0 0.103502
0.798856 0 0.104143
0.798947 0 0.104341
0.798978 0 0.104448
0.798993 0 0.104494
0.799008 0 0.10454
0.799008 0 0.10457
0.799023 0 0.104585
0 0.259876 0.0142214
0 0.251225 0.0209659
0 0.242115 0.0272374
0 0.23476 0.0312963
0 0.229648 0.0335241
0 0.226795 0.0347143
0 0.224826 0.0355993
0 0.225177 0.0354162
0.025864 0.22858 0.0311742
0.105623 0.231037 0.0202029
0.191638 0.23212 0.00250248
0.277333 0.231937 0
0.362173 0.228763 0
0.444114 0.220432 0
0.524163 0.205646 0
0.601038 0.183001 0
0.673701 0.146059 0
0.739086 0.0882429 0
0.786328 0.0273594 0.000656138
0.803418 0.00869764 0.0196078
0.804959 0.00541695 0.0946365
0.801877 0 0.0995041
0.795575 0 0.0847181
0.795514 0 0.0936446
0.797711 0 0.102312
0.798489 0 0.103502
0.798856 0 0.104143
0.798947 0 0.104341
0.798978 0 0.104448
0.798993 0 0.104494
0.799008 0 0.10454
0.799008 0 0.10457
0.799023 0 0.104585
0 0.318456 0
0 0.313146 0
0 0.303792 0.000808728
0 0.295262 0.00314336
0 0.287953 0.00477607
0 0.282689 0.00604257
0 0.279759 0.00680552
0 0.278737 0.00706493
0 0.281605 0.00416571
0.0451667 0.28716 0
0.149599 0.290883 0
0.248707 0.291676 0
0.342046 0.29102 0
0.430198 0.285634 0
0.515404 0.275273 0
0.597009 0.259403 0
0.672847 0.23682 0
0.74284 0.204395 0
0.803037 0.158709 0.000808728
0.836484 0.124453 0.0237583
0.833799 0.100801 0.0841535
0.8224 0.0439002 0.106264
0.811795 0.00204471 0.112139
0.802014 0 0.103319
0.797528 0 0.101549
0.798489 0 0.103487
0.798856 0 0.104143
0.798947 0 0.104341
0.798978 0 0.104448
0.798993 0 0.104494
0.799008 0 0.10454
0.799008 0 0.10457
0.799023 0 0.104585
0 0.376791 0
0 0.372473 0
0 0.367681 0
0 0.359091 0
0 0.350637 0
0 0.342016 0
0 0.337316 0
0 0.335561 0
0 0.337057 0
0.00674449 0.342809 0
0.0823224 0.350713 0
0.201877 0.354269 0
0.310948 0.355306 0
0.408988 0.352697 0
0.501213 0.345998 0.000122072
0.588357 0.335622 0.00149538
0.668498 0.319417 0.000106813
0.741436 0.297658 0
0.80589 0.268559 0
0.857313 0.234882 0.000701915
0.865782 0.215671 0.0508278
0.85713 0.183902 0.0860609
0.841489 0.120699 0.105562
0.823423 0.0339818 0.117525
0.808789 0 0.112352
0.799039 0 0.103914
0.798856 0 0.104143
0.798947 0 0.104341
0.798978 0 0.104433
0.798993 0 0.104494
0.799008 0 0.10454
0.799008 0 0.10457
0.799023 0 0.104585
0 0.4327 0
0 0.428672 0
0 0.426276 0
0 0.422385 0
0 0.414069 0
0 0.404135 0
0 0.395148 0
0 0.392599 0
0 0.393484 0
0 0.398993 0
0.0148013 0.408347 0
0.119127 0.417227 0
0.263401 0.420554 0
0.376974 0.420951 0
0.478935 0.417823 0
0.572656 0.410498 0
0.658778 0.398993 0
0.735882 0.383413 0
0.803449 0.363363 0
0.865827 0.334951 0.000122072
0.893812 0.310155 0.0167391
0.892866 0.285924 0.0480964
0.88159 0.252384 0.0753796
0.864027 0.201465 0.0965896
0.839765 0.105653 0.116121
0.817075 0.018143 0.117998
0.800916 0 0.106081
0.798947 0 0.104341
0.798978 0 0.104433
0.798993 0 0.104494
0.799008 0 0.10454
0.799008 0 0.10457
0.799023 0 0.104585
0 0.486107 0
0 0.482277 0
0 0.479759 0
0 0.478096 0
0 0.475395 0
0 0.46688 0
0 0.455467 0
0 0.446845 0
0 0.447456 0
0 0.453132 0
0 0.46273 0
0.0309148 0.476036 0
0.185946 0.484993 0
0.328893 0.488472 0
0.446601 0.487785 0
0.549432 0.48307 0
0.642512 0.47541 0
0.725109 0.464271 0
0.795895 0.449165 0
0.859449 0.429343 0
0.907866 0.402533 0
0.922545 0.378622 0.00254826
0.918334 0.35256 0.0222019
0.906538 0.318151 0.0513771
0.888975 0.27126 0.0788281
0.862226 0.194598 0.104707
0.828824 0.0594797 0.11989
0.803311 0 0.108507
0.798978 0 0.104433
0.798993 0 0.104494
0.799008 0 0.10454
0.799008 0 0.10457
0.799023 0 0.104585
0 0.536828 0
0 0.533135 0
0 0.530816 0
0 0.529213 0
0 0.527962 0
0 0.526467 0
0 0.517205 0
0 0.503227 0
0 0.497719 0
0 0.503288 0
0 0.513329 0
0.00387579 0.526192 0
0.0781262 0.54313 0
0.257664 0.552132 0
0.401053 0.555398 0
0.519387 0.554299 0
0.621714 0.550057 0
0.710796 0.541848 0
0.786206 0.530541 0
0.852262 0.51516 0
0.907515 0.49369 0
0.937987 0.468986 0
0.945113 0.444785 0
0.941115 0.417395 0.00572213
0.931212 0.383246 0.0270542
0.91426 0.337606 0.0562295
0.888075 0.268238 0.0850538
0.846128 0.131884 0.114885
0.805859 0 0.110979
0.798993 0 0.104494
0.799008 0 0.10454
0.799008 0 0.10457
0.799023 0 0.104585
0 0.584985 0
0 0.581262 0
0 0.579202 0
0 0.577569 0
0 0.576165 0
0 0.575097 0
0 0.573983 0
0 0.565545 0
0 0.548806 0
0 0.548867 0
0 0.557382 0
0 0.568048 0
0.0117647 0.588968 0
0.149523 0.609827 0
0.33521 0.618723 0
0.47805 0.621881 0
0.593637 0.619867 0
0.69192 0.615564 0
0.773922 0.608515 0
0.844862 0.596841 0
0.9028 0.580514 0
0.942046 0.560204 0
0.959121 0.537118 0
0.96318 0.511391 0
0.960616 0.482643 0.00172427
0.953414 0.448524 0.0154116
0.938811 0.4038 0.0376898
0.914137 0.336873 0.0621653
0.869398 0.215595 0.101289
0.811154 0.0149081 0.112535
0.799008 0 0.10454
0.799008 0 0.10457
0.799023 0 0.104585
0 0.619028 0.011017
0 0.616297 0.00810254
0 0.614862 0.00657664
0 0.613687 0.00547799
0 0.612833 0.00471504
0 0.612131 0.0040589
0 0.611505 0.00354009
0 0.610925 0.00303655
0 0.601892 0.00184634
0 0.587732 0
0 0.593637 0
0 0.604349 0
0 0.619379 0
0.0640421 0.646204 0
0.260761 0.664408 0
0.42208 0.677867 0
0.551583 0.683986 0
0.664958 0.682887 0
0.755428 0.679423 0
0.833265 0.671199 0
0.89543 0.659403 0
0.942931 0.644144 0
0.969024 0.625635 0
0.979263 0.60415 0
0.980529 0.578759 0
0.977829 0.549798 0.00157168
0.971557 0.514366 0.0133669
0.959731 0.469795 0.0252384
0.939116 0.40528 0.0417792
0.895979 0.289372 0.079881
0.819623 0.0510262 0.111437
0.799008 0 0.10457
0.799023 0 0.104585
0 0.652049 0.0945449
0 0.649073 0.0856794
0 0.647349 0.0804761
0 0.645975 0.0762951
0 0.644907 0.0730449
0 0.644053 0.0705272
0 0.643336 0.0682383
0 0.642664 0.0661479
0 0.64213 0.0644846
0 0.635233 0.0459297
0 0.624262 0.00961318
0 0.631754 0.00123598
0 0.642573 0
0.0386664 0.663203 0
0.224521 0.69012 0
0.384039 0.710262 0
0.514488 0.728603 0
0.631449 0.740154 0
0.730404 0.742031 0
0.815869 0.738872 0
0.884428 0.73077 0
0.937865 0.719951 0
0.972259 0.704906 0
0.989258 0.687846 0
0.994629 0.667628 0
0.995056 0.644038 0
0.993576 0.615702 0
0.989471 0.581384 0
0.978927 0.537087 0.0102846
0.961212 0.473579 0.0273594
0.922515 0.360281 0.0577707
0.832593 0.104311 0.107469
0.799023 0 0.104585
0 0.673716 0.156603
0 0.671901 0.15172
0 0.670848 0.148836
0 0.670008 0.146563
0 0.669337 0.144793
0 0.668803 0.143313
0 0.66836 0.142077
0 0.667918 0.140902
0 0.667597 0.13994
0 0.667308 0.139132
0 0.660822 0.122942
0 0.652964 0.0690776
0 0.66212 0.00527962
0.0255131 0.673976 0
0.193744 0.70042 0
0.367742 0.724193 0
0.492775 0.746639 0
0.608225 0.769955 0
0.709789 0.784741 0
0.799786 0.791226 0
0.871916 0.790143 0
0.930175 0.785046 0
0.969345 0.775525 0
0.991272 0.763256 0
0.999969 0.747677 0
0.999985 0.728786 0
0.999985 0.707225 0
0.999985 0.682124 0
0.999985 0.64976 0
0.994247 0.605997 0
0.980392 0.541054 0.0102846
0.947356 0.430869 0.0382239
0.877531 0.241245 0.0965744
0 0.692195 0.210971
0 0.690272 0.204974
0 0.689128 0.201419
0 0.688304 0.198749
0 0.687541 0.196338
0 0.686992 0.194644
0 0.686503 0.193164
0 0.686091 0.191821
0 0.685679 0.190524
0 0.685466 0.189792
0 0.685176 0.188876
0 0.678904 0.17084
0 0.67541 0.121706
0.0130312 0.686473 0.0838636
0.141787 0.70103 0.0301213
0.343954 0.729473 0.00109865
0.47219 0.752224 0
0.59646 0.774487 0
0.702373 0.795209 0
0.790692 0.812222 0
0.863096 0.823987 0
0.921294 0.831098 0
0.965011 0.831418 0
0.995392 0.825299 0
0.999985 0.814954 0
0.999985 0.800748 0
0.999985 0.783505 0
0.999985 0.76379 0
0.999985 0.74139 0
0.999985 0.713603 0
0.999771 0.673274 0
0.995422 0.61091 0.000503548
0.978515 0.533257 0.0123903
0 0.710857 0.274479
0 0.709545 0.268406
0 0.708721 0.264668
0 0.708156 0.262058
0 0.707652 0.2598
0 0.707134 0.257527
0 0.706737 0.25597
0 0.706401 0.254871
0 0.706035 0.253697
0 0.705699 0.252567
0 0.705364 0.251469
0 0.705028 0.250324
0 0.697292 0.222477
0.000122072 0.694377 0.171649
0.0774395 0.706859 0.134569
0.278843 0.725597 0.0606851
0.435767 0.754788 0.0280156
0.57348 0.77261 0
0.692546 0.793515 0
0.791989 0.81239 0
0.865888 0.83003 0
0.91986 0.8486 0
0.961929 0.862028 0
0.994476 0.867903 0
0.999985 0.868742 0
0.999985 0.862333 0
0.999985 0.851011 0.000366217
0.999985 0.834897 0.00534066
0.999985 0.81706 0.0168002
0.999985 0.79704 0.0222171
0.999985 0.771099 0.0221561
0.999985 0.734752 0.00915541
0.999893 0.693202 0
0 0.724193 0.340337
0 0.723308 0.334752
0 0.722789 0.331548
0 0.722347 0.328847
0 0.722042 0.327016
0 0.721614 0.324956
0 0.721233 0.32314
0 0.720928 0.32166
0 0.720638 0.32018
0 0.720409 0.319097
0 0.720119 0.317723
0 0.719966 0.317006
0 0.719753 0.315969
0 0.712245 0.280385
0.00840772 0.712932 0.230686
0.14638 0.724788 0.167697
0.351202 0.753597 0.140856
0.507851 0.77554 0.0803998
0.647868 0.795239 0.0351263
0.771695 0.814923 0
0.856657 0.830625 0
0.920836 0.846235 0
0.967559 0.861738 0
0.995575 0.874784 0
0.999985 0.883009 0
0.999985 0.88423 0.00172427
0.999985 0.881636 0.00743114
0.999985 0.876173 0.00593576
0.999985 0.869032 0.0119326
0.999985 0.858869 0.0371405
0.999985 0.845899 0.0555123
0.999985 0.826062 0.0642405
0.999985 0.801175 0.0551156
0 0.730312 0.392798
0 0.729763 0.387884
0 0.729458 0.385016
0 0.729229 0.382818
0 0.729076 0.381033
0 0.728954 0.379644
0 0.728862 0.378485
0 0.728756 0.377325
0 0.728679 0.376333
0 0.728588 0.375204
0 0.728527 0.374472
0 0.728466 0.373877
0 0.728405 0.373144
0 0.728359 0.372519
0 0.724437 0.334661
0.0159304 0.732891 0.29601
0.169284 0.750744 0.278676
0.403159 0.78291 0.252277
0.56228 0.804578 0.187655
0.711803 0.826078 0.123552
0.81677 0.840101 0.0851759
0.89955 0.853544 0.051667
0.95581 0.867628 0.0420996
0.988693 0.880873 0.0410163
0.999985 0.890059 0.0392004
0.999985 0.893858 0.0437629
0.999985 0.895232 0.064271
0.999985 0.895216 0.0810559
0.999985 0.893996 0.107622
0.999985 0.891508 0.117144
0.999985 0.885863 0.132631
0.999985 0.87863 0.14786
0.999985 0.869535 0.141421
0 0.739284 0.450874
0 0.738445 0.445426
0 0.737911 0.442237
0 0.737408 0.439475
0 0.737011 0.437217
0 0.73666 0.435248
0 0.7364 0.433799
0 0.736095 0.432105
0 0.735897 0.431006
0 0.735683 0.429725
0 0.735531 0.42887
0 0.735378 0.428016
0 0.735195 0.427039
0 0.735058 0.426246
0 0.73492 0.425467
0 0.737926 0.391424
0.0155642 0.755291 0.372
0.231098 0.780301 0.369146
0.45417 0.81265 0.362753
0.623819 0.8392 0.329717
0.755535 0.859037 0.28571
0.855116 0.873335 0.220645
0.923247 0.884184 0.183612
0.970062 0.893019 0.179065
0.998657 0.899275 0.174334
0.999985 0.902998 0.176303
0.999985 0.905562 0.188571
0.999985 0.907973 0.208194
0.999985 0.909743 0.226871
0.999985 0.910918 0.244968
0.999985 0.910506 0.256657
0.999985 0.907973 0.261326
0.999985 0.905043 0.260029
0 0.747478 0.512154
0 0.7467 0.506249
0 0.746273 0.502647
0 0.745907 0.499596
0 0.745632 0.497246
0 0.745403 0.495308
0 0.74519 0.493523
0 0.745022 0.491981
0 0.744854 0.490593
0 0.744701 0.489265
0 0.744564 0.488167
0 0.744472 0.487388
0 0.74435 0.486351
0 0.744274 0.485603
0 0.744183 0.484794
0 0.744076 0.483955
0 0.752514 0.449287
0.0342412 0.779126 0.444099
0.309545 0.809461 0.449363
0.530037 0.843076 0.446937
0.693812 0.868116 0.420356
0.809979 0.885649 0.389212
0.891524 0.897475 0.358312
0.950179 0.905608 0.333288
0.99118 0.911513 0.317327
1 0.914488 0.305501
1 0.916472 0.301488
1 0.919066 0.313359
1 0.921324 0.328237
1 0.92311 0.342535
1 0.924254 0.353475
1 0.924575 0.3608
1 0.924193 0.363317
0 0.751888 0.566094
0 0.751827 0.561563
0 0.751781 0.558785
0 0.751751 0.556695
0 0.75172 0.555077
0 0.751705 0.55346
0 0.751675 0.552224
0 0.751659 0.551034
0 0.751644 0.550027
