recommended/Classic_Rec709.cube
TITLE "Software Leica Camera LUT Film V6.3 Rec709 Gamma 2.4"
LUT_3D_SIZE 5
0.00347906 0.00161746 0.00302129
0.174182 0.0570077 0.0250248
0.691691 0 0
0.798306 0 0.103166
0.799023 0 0.104585
0 0.112169 0.0512856
0.122637 0.099382 0.043061
0.647959 0 0
0.797787 0 0.102403
0.799023 0 0.104585
0 0.536828 0
0 0.497719 0
0.621714 0.550057 0
0.931212 0.383246 0.0270542
0.799023 0 0.104585
0 0.730312 0.392798
0 0.728679 0.376333
0.169284 0.750744 0.278676
0.999985 0.890059 0.0392004
0.999985 0.869535 0.141421
0 0.760098 0.715557
0 0.760098 0.71548
0 0.760098 0.715358
0.831861 0.955032 0.823957
1 0.9823 0.814389
0.0302434 0.0176089 0.108934
0.147967 0.0470588 0.100893
0.667399 0 0.101915
0.800305 0 0.129213
0.799023 0 0.104585
0 0.111711 0.110521
0.0929885 0.0908675 0.0883497
0.606424 0 0.0683299
0.79939 0 0.125719
0.799023 0 0.104585
0 0.532357 0.119142
0 0.483619 0.0673075
0.583169 0.521904 0.0120241
0.91696 0.345632 0.0776989
0.799023 0 0.104585
0 0.734936 0.42977
0 0.731563 0.410025
0.103777 0.757214 0.33611
0.999985 0.894942 0.133028
0.999985 0.863325 0.254307
0 0.76025 0.718929
0 0.760235 0.718608
0 0.760235 0.718395
0.818647 0.953094 0.825299
1 0.982757 0.81944
0 0.0901808 0.46978
0.0259403 0.0662242 0.496559
0.607935 0 0.479759
0.817151 0 0.494591
0.817517 0 0.428656
0 0.139864 0.486076
0 0.124071 0.469078
0.584955 0.0248417 0.46891
0.81326 0 0.462043
0.815167 0 0.387976
0 0.535729 0.562615
0 0.478401 0.48983
0.519661 0.508812 0.491325
0.917082 0.3393 0.433829
0.815457 0 0.393164
0 0.749111 0.632349
0 0.748165 0.616678
0.00213626 0.798413 0.544732
0.981979 0.922744 0.486549
1 0.864561 0.548165
0 0.761242 0.740764
0 0.761151 0.73875
0 0.76112 0.738079
0.81387 0.953796 0.844251
1 0.984924 0.845853
0 0.514748 0.766766
0.0257267 0.526284 0.777111
0.604944 0.546929 0.822232
0.943008 0.40795 0.817304
0.818402 0 0.693431
0 0.516121 0.765911
0.00791943 0.511147 0.769345
0.549783 0.525582 0.813199
0.935454 0.37557 0.8103
0.809873 0 0.68307
0 0.619165 0.791501
0 0.614359 0.791241
0.483268 0.651255 0.833738
0.956298 0.553811 0.844327
0.829221 0 0.700908
0 0.749157 0.804913
0 0.743084 0.796689
7.62951e-05 0.831266 0.819837
0.939544 0.919554 0.886351
1 0.878767 0.878111
0 0.761746 0.799786
0 0.761822 0.796948
0 0.761852 0.79585
0.828641 0.958907 0.898482
1 0.990616 0.915709
0.775448 0.922713 0.896269
0.785763 0.923827 0.897002
0.845762 0.928054 0.900633
0.978729 0.935683 0.907317
1 0.91014 0.905501
0.774258 0.923217 0.896284
0.783719 0.924285 0.896956
0.837125 0.928496 0.900298
0.968109 0.937224 0.907149
1 0.911757 0.90573
0.767178 0.927413 0.896529
0.77734 0.92813 0.897185
0.832105 0.932631 0.900649
0.964385 0.944533 0.908049
1 0.92282 0.907164
0.709834 0.936034 0.895186
0.729366 0.93904 0.896712
0.802106 0.946517 0.901488
0.95671 0.970993 0.912169
1 0.96817 0.91368
0 0.763943 0.822736
0 0.763943 0.822736
0 0.832624 0.83798
0.914748 0.973739 0.912367
1 0.991485 0.919829
