luts/changyun_origin/origin2.cube
TITLE "Generated by Resolve"
LUT_3D_SIZE 5
0.0149844 0.0323339 0.0432593
0.184939 0.0488136 0.0306249
0.711055 0.0071107 0.0024567
0.868788 0.0102541 0.0228733
0.868788 0.0102541 0.0228733
0.00515755 0.122393 0.054902
0.113649 0.101198 0.0483864
0.689158 0.00839246 0.00183108
0.868788 0.0102541 0.0228733
0.868788 0.0102541 0.0228733
0.00158694 0.57998 0.144533
0.00140383 0.572213 0.142016
0.791623 0.538247 0.002533
0.960616 0.453819 0.0236515
0.954238 0.42388 0.0236515
0.0370642 0.864927 0.376806
0.0370642 0.864927 0.376806
0.0370642 0.864927 0.376806
1 0.864271 0.161089
1 0.852949 0.147158
0.0370642 0.864927 0.376806
0.0370642 0.864927 0.376806
0.0370642 0.864927 0.376806
0.999939 0.882704 0.185504
1 0.873198 0.172168
0.0145113 0.0294804 0.134401
0.192386 0.0505226 0.122133
0.71046 0.00231937 0.0689708
0.868955 0.00991836 0.0344701
0.868788 0.0102541 0.0228733
0.00399786 0.1122 0.105623
0.0671702 0.092256 0.0944076
0.687083 0.00434882 0.0407874
0.868788 0.0102541 0.0228733
0.868788 0.0102541 0.0228733
0.00143435 0.573739 0.142504
0.00125124 0.56582 0.139971
0.784543 0.530816 0.00242618
0.959014 0.446281 0.0236515
0.952483 0.415747 0.0236515
0.0370642 0.864927 0.376806
0.0370642 0.864927 0.376806
0.0370642 0.864927 0.376806
1 0.862638 0.158938
1 0.850889 0.144869
0.0370642 0.864927 0.376806
0.0370642 0.864927 0.376806
0.0370642 0.864927 0.376806
0.999863 0.88304 0.185779
1 0.873198 0.172168
0 0 0.506828
0.0938125 0 0.5084
0.783108 0.00161746 0.55787
0.887541 0.00915541 0.53933
0.887327 0.00909438 0.535439
0 0.000564584 0.498756
0 0 0.498772
0.761807 0.00114443 0.549996
0.887114 0.0090486 0.531685
0.886885 0.00900282 0.527779
0.00149538 0.59913 0.583612
0.00138857 0.590661 0.581079
0.661357 0.620706 0.552422
0.938598 0.435172 0.461402
0.932967 0.394781 0.458869
0.0147555 0.88455 0.58793
0.014725 0.884428 0.586572
0.0145266 0.883772 0.57998
0.998047 0.871336 0.304479
1 0.860059 0.314153
0.0141909 0.882078 0.562814
0.0141909 0.881941 0.561364
0.0141909 0.881239 0.55436
0.98703 0.897505 0.269383
1 0.886931 0.283177
0 0 0.729503
0 0 0.729503
0.773007 0.0260929 0.839445
0.915038 0.084123 0.865507
0.914977 0.0837873 0.865202
0 0 0.729503
0 0 0.729503
0.746624 0.0222934 0.835904
0.914916 0.0834669 0.864881
0.91487 0.0831311 0.864561
0.00300603 0.551659 0.886198
0.00289921 0.541161 0.884138
0.500343 0.560388 0.898939
0.956191 0.413596 0.896849
0.94754 0.352819 0.8878
0.0202182 0.91339 0.917403
0.0200656 0.912108 0.916991
0.0190585 0.904921 0.914733
0.962844 0.938643 0.882994
0.986481 0.92369 0.868727
0.0205081 0.915114 0.911467
0.0205081 0.915084 0.911147
0.0205081 0.914931 0.909514
0.90837 0.968795 0.874907
0.994781 0.952804 0.847471
0 0 0.729503
0 0 0.729503
0.760342 0.0243534 0.838026
0.915434 0.0865187 0.867811
0.915434 0.0865187 0.867811
0 0 0.729503
0 0 0.729503
0.732143 0.0206455 0.834333
0.915434 0.0865187 0.867811
0.915434 0.0865187 0.867811
0.00273136 0.526452 0.887724
0.00260929 0.514855 0.8851
0.461997 0.53695 0.906432
0.953674 0.388083 0.913161
0.943908 0.319158 0.901946
0.0208133 0.913252 0.947601
0.0207065 0.911925 0.94754
0.0193027 0.90312 0.946624
0.952316 0.940002 0.931868
0.990616 0.929137 0.923583
0.0212863 0.918837 0.947906
0.0212863 0.918837 0.947906
0.0212863 0.918837 0.947906
0.894667 0.970367 0.928191
0.993729 0.969726 0.923827
