luts/changyun_origin/origin1.cube
TITLE "Generated by Resolve"
LUT_3D_SIZE 9
0.0362707 0.057435 0.0656443
0.096849 0.0563821 0.0582437
0.215808 0.0514534 0.0394293
0.434684 0.0482338 0.0056611
0.725078 0.00936904 0.00482185
0.870588 0.0141909 0.0268101
0.870588 0.0141909 0.0268101
0.870588 0.0141909 0.0268101
0.870588 0.0141909 0.0268101
0.020737 0.0677043 0.0584115
0.0389715 0.0617685 0.0612955
0.184558 0.0536965 0.0455634
0.413046 0.0502174 0.00621042
0.715801 0.0096437 0.00454719
0.870588 0.0141909 0.0268101
0.870588 0.0141909 0.0268101
0.870588 0.0141909 0.0268101
0.870588 0.0141909 0.0268101
0.00361639 0.134173 0.0567941
0.00445563 0.126558 0.0554513
0.130327 0.11284 0.0491798
0.37847 0.0900282 0.0155032
0.704128 0.00999466 0.00419623
0.870588 0.0141909 0.0268101
0.870588 0.0141909 0.0268101
0.870588 0.0141909 0.0268101
0.870588 0.0141909 0.0268101
0 0.314351 0.0822003
0 0.308141 0.0813458
0 0.300374 0.0802777
0.415259 0.274144 0.0153658
0.746273 0.237736 0.00483711
0.88983 0.129351 0.0253605
0.870527 0.0141909 0.0268101
0.870588 0.0141909 0.0268101
0.870588 0.0141909 0.0268101
0.00189212 0.604303 0.150271
0.00180056 0.600687 0.14902
0.00170901 0.596399 0.147555
0.00141909 0.584314 0.14345
0.806912 0.568231 0.00726329
0.963928 0.526894 0.0284733
0.960998 0.486107 0.0297093
0.956817 0.46363 0.02916
0.955139 0.455039 0.0290684
0.0222934 0.828595 0.312627
0.0218814 0.827131 0.310796
0.0213779 0.82536 0.308598
0.0200351 0.820081 0.302342
0.39855 0.829297 0.219913
0.986465 0.805692 0.0868544
0.999283 0.768246 0.0743877
0.999023 0.758175 0.0694133
0.998871 0.754345 0.0677501
0.0402228 0.880247 0.381735
0.0402228 0.880247 0.381735
0.0402228 0.880247 0.381735
0.0402228 0.880247 0.381735
0.0402228 0.880247 0.381735
0.928542 0.920562 0.228077
0.999847 0.885756 0.174197
1 0.87689 0.163165
1 0.874891 0.1608
0.0402228 0.880247 0.381735
0.0402228 0.880247 0.381735
0.0402228 0.880247 0.381735
0.0402228 0.880247 0.381735
0.0402228 0.880247 0.381735
0.874952 0.925338 0.253849
0.999023 0.901854 0.195468
1 0.893965 0.183078
1 0.893965 0.183078
0.0402228 0.880247 0.381735
0.0402228 0.880247 0.381735
0.0402228 0.880247 0.381735
0.0402228 0.880247 0.381735
0.0402228 0.880247 0.381735
0.849088 0.926513 0.265415
0.998459 0.903517 0.197665
1 0.893965 0.183078
1 0.893965 0.183078
0.0343633 0.0570535 0.0769513
0.0889448 0.0565805 0.068513
0.211154 0.0517739 0.047837
0.431235 0.0484321 0.00689708
0.72369 0.00941482 0.00477607
0.870588 0.0141909 0.0268101
0.870588 0.0141909 0.0268101
0.870588 0.0141909 0.0268101
0.870588 0.0141909 0.0268101
0.0273747 0.0630808 0.0631571
0.0362707 0.057435 0.0656443
0.179156 0.054078 0.0464637
0.409369 0.0505684 0.00578317
0.714305 0.00968948 0.00450141
0.870588 0.0141909 0.0268101
0.870588 0.0141909 0.0268101
0.870588 0.0141909 0.0268101
0.870588 0.0141909 0.0268101
0.00428779 0.128115 0.0557259
0.00523384 0.120516 0.0543221
0.120989 0.106325 0.0484321
0.370535 0.0816358 0.0161898
0.702602 0.0100557 0.00415045
0.870588 0.0141909 0.0268101
0.870588 0.0141909 0.0268101
0.870588 0.0141909 0.0268101
0.870588 0.0141909 0.0268101
0 0.309468 0.081529
0 0.303136 0.0806592
0 0.295232 0.0795605
0.407691 0.268879 0.0164797
0.741436 0.23183 0.00471504
0.887251 0.117784 0.025391
0.870588 0.0141909 0.0268101
0.870588 0.0141909 0.0268101
0.870588 0.0141909 0.0268101
0.00181582 0.601465 0.149279
0.00173953 0.597818 0.148043
0.00163272 0.593408 0.146548
0.00135805 0.581323 0.142443
0.803861 0.564782 0.00714122
0.962997 0.523507 0.0282597
0.960357 0.482628 0.0296178
0.956085 0.459846 0.0291295
0.954406 0.451255 0.0290379
0.0219577 0.827451 0.311192
0.021561 0.825986 0.309361
0.0210575 0.824201 0.307164
0.0197147 0.818753 0.300816
0.389136 0.82739 0.219593
0.985901 0.804227 0.0855268
0.999237 0.766644 0.0735943
0.998962 0.756542 0.0686503
0.998779 0.75256 0.0670329
0.0402228 0.880247 0.381735
0.0402228 0.880247 0.381735
0.0402228 0.880247 0.381735
0.0402228 0.880247 0.381735
0.0402228 0.880247 0.381735
0.927382 0.91989 0.226978
0.999832 0.885039 0.173327
1 0.876051 0.162173
1 0.874052 0.159808
0.0402228 0.880247 0.381735
0.0402228 0.880247 0.381735
0.0402228 0.880247 0.381735
0.0402228 0.880247 0.381735
0.0402228 0.880247 0.381735
0.873014 0.925429 0.254719
0.998978 0.902007 0.195666
1 0.893965 0.183078
1 0.893965 0.183078
0.0402228 0.880247 0.381735
0.0402228 0.880247 0.381735
0.0402228 0.880247 0.381735
0.0402228 0.880247 0.381735
0.0402228 0.880247 0.381735
0.846723 0.926619 0.266484
0.998352 0.90367 0.197864
1 0.893965 0.183078
1 0.893965 0.183078
0.0186007 0.0508431 0.178058
0.0703746 0.0513771 0.17142
0.221256 0.0475013 0.146685
0.436545 0.0375677 0.10959
0.724926 0.00399786 0.0892195
0.871382 0.0124208 0.0780957
0.87097 0.0135042 0.0512245
0.870817 0.0141604 0.0378882
0.870771 0.0141909 0.0357824
0.0198062 0.0522774 0.168643
0.0202182 0.0523537 0.167117
0.18497 0.0495003 0.143114
0.413123 0.0427405 0.101167
0.714855 0.00444038 0.0757763
0.871122 0.0129549 0.0623941
0.870787 0.0141909 0.0363928
0.870695 0.0141909 0.0319066
0.870665 0.0141909 0.0302434
0.00177005 0.124453 0.122576
0.00242618 0.117021 0.122072
0.0784619 0.10454 0.110033
0.364828 0.0690929 0.0777905
0.702159 0.00540169 0.0584268
0.870863 0.0139467 0.0423285
0.870649 0.0141909 0.0296788
0.870588 0.0141909 0.0268101
0.870588 0.0141909 0.0268101
0 0.30457 0.0929885
0 0.297871 0.090425
0 0.289708 0.0875257
0.387152 0.270741 0.0222629
0.727489 0.227802 0.00723278
0.884047 0.103075 0.0256809
0.870588 0.0141909 0.0268101
0.870588 0.0141909 0.0268101
0.870588 0.0141909 0.0268101
0.00173953 0.597955 0.148089
0.00164797 0.594324 0.146853
0.00155642 0.589899 0.145357
0.0012665 0.577691 0.141207
0.800183 0.560632 0.00697337
0.961807 0.51931 0.0280156
0.959548 0.478294 0.0295109
0.9552 0.455299 0.0290684
0.953506 0.446586 0.0289769
0.0215763 0.826062 0.309468
0.0211643 0.824598 0.307637
0.0206455 0.82266 0.305303
0.0193027 0.81706 0.298878
0.377401 0.825101 0.219348
0.98526 0.802502 0.0839704
0.999191 0.76466 0.0726177
0.998871 0.754345 0.0677501
0.998688 0.750469 0.0661784
0.0402228 0.880247 0.381735
0.0402228 0.880247 0.381735
0.0402228 0.880247 0.381735
0.0402228 0.880247 0.381735
0.0402228 0.880247 0.381735
0.925994 0.919051 0.225574
0.999817 0.884245 0.172351
1 0.874952 0.160876
1 0.872953 0.158511
0.0402228 0.880247 0.381735
0.0402228 0.880247 0.381735
0.0402228 0.880247 0.381735
0.0402228 0.880247 0.381735
0.0402228 0.880247 0.381735
0.870497 0.925566 0.255833
0.998917 0.90219 0.195911
1 0.893965 0.183078
1 0.893965 0.183078
0.0402228 0.880247 0.381735
0.0402228 0.880247 0.381735
0.0402228 0.880247 0.381735
0.0402228 0.880247 0.381735
0.0402228 0.880247 0.381735
0.843687 0.926741 0.267842
0.99823 0.903838 0.198077
1 0.893965 0.183078
1 0.893965 0.183078
0.00296025 0.0151827 0.348852
0.0186007 0.0148318 0.3467
0.201556 0.0153353 0.334783
0.481422 0.0101167 0.328893
0.753353 0.00389105 0.313161
0.878553 0.0118257 0.310216
0.878141 0.0118257 0.299046
0.877928 0.0118257 0.293538
0.877852 0.0118257 0.291524
0.00323491 0.0160678 0.343709
0.00328069 0.0161898 0.342916
0.153994 0.00891127 0.328847
0.456214 0.014023 0.323079
0.743679 0.00366217 0.305989
0.878325 0.0118257 0.303624
0.877882 0.0118257 0.292195
0.877668 0.0118257 0.286549
0.877577 0.0118257 0.284535
0 0.0905013 0.313649
0 0.0792248 0.313832
0.0410925 0.0648203 0.307897
0.413214 0.0217136 0.30782
0.730999 0.00337224 0.296956
0.878004 0.0118257 0.295415
0.877546 0.0118257 0.283726
0.877333 0.0118257 0.277943
0.877241 0.0118257 0.275792
0 0.315816 0.324926
0 0.308766 0.322789
0 0.299931 0.320104
0.292744 0.304402 0.298909
0.697902 0.194797 0.233173
0.87953 0.0518349 0.256016
0.876661 0.0118257 0.2598
0.876448 0.0118257 0.253574
0.876371 0.0118257 0.251331
0.00199893 0.608713 0.306661
0.00190738 0.605035 0.304509
0.00180056 0.600458 0.302022
0.00151064 0.587869 0.29485
0.7393 0.57142 0.124514
0.943069 0.5252 0.169924
0.957946 0.487709 0.163485
0.95288 0.461219 0.154864
0.950988 0.451316 0.151736
0.0178836 0.823636 0.329091
0.0176394 0.821912 0.326589
0.0173495 0.819806 0.323537
0.016495 0.813977 0.314885
0.313375 0.822614 0.238804
0.97702 0.800809 0.0817884
0.999207 0.763455 0.076936
0.998764 0.752102 0.0708171
0.998566 0.74786 0.0687266
0.0402228 0.880247 0.381735
0.0402228 0.880247 0.381735
0.0402228 0.880247 0.381735
0.0402228 0.880247 0.381735
0.0402228 0.880247 0.381735
0.921965 0.916762 0.221729
0.999771 0.881926 0.169604
1 0.872053 0.157443
1 0.869978 0.155001
0.0402228 0.880247 0.381735
0.0402228 0.880247 0.381735
0.0402228 0.880247 0.381735
0.0402228 0.880247 0.381735
0.0402228 0.880247 0.381735
0.863188 0.925917 0.259098
0.998764 0.902663 0.196536
1 0.893965 0.183078
1 0.893965 0.183078
0.0402228 0.880247 0.381735
0.0402228 0.880247 0.381735
0.0402228 0.880247 0.381735
0.0402228 0.880247 0.381735
0.0402228 0.880247 0.381735
0.835508 0.927092 0.271504
0.997879 0.904341 0.198688
1 0.893965 0.183078
1 0.893965 0.183078
0 0.000991836 0.557366
0 0.0010071 0.55697
0.114885 0 0.556878
0.465431 0.000793469 0.581521
0.799268 0.00556954 0.607294
0.891539 0.0145724 0.595758
0.891218 0.014435 0.5897
0.891066 0.0143587 0.586816
0.891005 0.0143282 0.585626
0 0.00105287 0.554742
0 0.00106813 0.55436
0.0516518 0 0.548211
0.435172 0.000503548 0.575982
0.790249 0.00527962 0.603403
0.891356 0.0144808 0.592065
0.891035 0.0143435 0.586145
0.890867 0.0142672 0.583124
0.890822 0.0142519 0.582071
0 0.00311284 0.550729
0 0.00114443 0.551156
0 0.00115969 0.550683
0.395956 0.000122072 0.569314
0.778851 0.00489815 0.598688
0.891112 0.0143893 0.587732
0.890791 0.0142367 0.581674
0.890639 0.0141909 0.578637
0.890578 0.0141909 0.577569
0 0.271122 0.590234
0 0.26128 0.587182
0 0.249042 0.583535
0.191943 0.252735 0.591852
0.744564 0.132311 0.584375
0.890394 0.0142214 0.577371
0.89015 0.0141909 0.569299
0.889982 0.0141909 0.566232
0.889937 0.0141909 0.565164
0.00228885 0.625193 0.635004
0.00224308 0.621302 0.633738
0.00218204 0.616632 0.632242
0.00199893 0.603815 0.62829
0.680034 0.659205 0.613855
0.91664 0.523247 0.527245
0.946609 0.475349 0.523354
0.943069 0.445304 0.520562
0.941726 0.433982 0.519585
0.0114748 0.84477 0.641505
0.0112764 0.843168 0.640024
0.0110628 0.84126 0.638392
0.0104677 0.836057 0.633844
0.0862287 0.825467 0.582757
0.924758 0.824079 0.43508
0.995087 0.794598 0.457176
0.994232 0.785 0.45568
0.993896 0.781384 0.455055
0.0188296 0.902892 0.634684
0.0188144 0.902831 0.634012
0.0188144 0.90277 0.633204
0.0187839 0.902586 0.631174
0.0187228 0.902129 0.626062
0.813596 0.932433 0.428977
0.992142 0.892836 0.347356
0.999969 0.883986 0.356909
0.999969 0.8822 0.356603
0.0185855 0.901106 0.61471
0.0185855 0.901045 0.614038
0.0185702 0.900969 0.613245
0.0185397 0.900771 0.611109
0.0184634 0.900267 0.605814
0.726192 0.944945 0.472419
0.982574 0.915938 0.315526
0.999939 0.906889 0.323842
0.999939 0.906828 0.322591
0.0184787 0.90042 0.607385
0.0184787 0.900359 0.606714
0.0184634 0.900267 0.605814
0.0184176 0.900053 0.603555
0.0183413 0.89955 0.598138
0.68893 0.944411 0.48043
0.977813 0.91722 0.308324
0.999924 0.906493 0.316594
0.999939 0.906401 0.315404
0 0 0.737575
0 0 0.737423
0.000442512 0 0.735607
0.410559 0.0031281 0.782834
0.798413 0.0153658 0.82797
0.907362 0.0482643 0.839231
0.907088 0.0467842 0.836316
0.90695 0.0460822 0.834897
0.906889 0.0457923 0.834333
0 0 0.736599
0 0 0.736446
0 0 0.736233
0.374548 0.002533 0.776593
0.78851 0.0139467 0.824872
0.907195 0.0474098 0.837537
0.90692 0.0459449 0.834623
0.906783 0.045182 0.833112
0.906737 0.0449531 0.832639
0 0 0.735363
0 0 0.735195
0 0 0.735027
0.327062 0.0019379 0.768643
0.775189 0.0123751 0.821134
0.906905 0.0463417 0.835813
0.906706 0.0448463 0.832456
0.906584 0.0441444 0.831037
0.906523 0.0438544 0.830472
0 0.143206 0.763531
0 0.130312 0.759976
0 0.114885 0.755718
0.0955673 0.125795 0.758785
0.728725 0.00972 0.804379
0.906035 0.0435492 0.83151
0.906157 0.0419318 0.826612
0.906035 0.0413672 0.82504
0.905989 0.0411383 0.824399
0.00210575 0.601572 0.86186
0.00201419 0.597147 0.860838
0.00189212 0.591867 0.859586
0.00157168 0.577005 0.856153
0.583597 0.614191 0.871641
0.940185 0.538567 0.860685
0.955169 0.466316 0.842573
0.950286 0.428 0.837751
0.948348 0.413123 0.835874
0.0115663 0.84863 0.883192
0.011429 0.846998 0.882582
0.0112459 0.844968 0.881788
0.0107729 0.839506 0.879728
0.0343023 0.824308 0.865431
0.895079 0.890623 0.860807
0.972625 0.827253 0.79472
0.972549 0.815198 0.792889
0.972519 0.810712 0.792218
0.021561 0.922988 0.884749
0.0215457 0.922957 0.884428
0.0215457 0.922942 0.884108
0.0213626 0.922011 0.88307
0.0205234 0.917037 0.879973
0.722057 0.955337 0.835431
0.967117 0.928801 0.757
0.987045 0.914626 0.74464
0.986831 0.91313 0.744915
0.0214389 0.922316 0.87599
0.0214237 0.922286 0.875731
0.0214237 0.922271 0.87538
0.0214237 0.922194 0.874434
0.0213931 0.922011 0.872023
0.578424 0.961654 0.833631
0.93959 0.953384 0.72314
0.988907 0.936187 0.693004
0.989502 0.935683 0.691997
0.0214084 0.922057 0.872709
0.0213931 0.922042 0.87245
0.0213931 0.922011 0.872099
0.0213931 0.921935 0.871153
0.0213626 0.921752 0.868742
0.520867 0.958953 0.83267
0.930098 0.95552 0.724407
0.983581 0.937377 0.688182
0.989807 0.935042 0.684657
0 0 0.74287
0 0 0.74287
0 0 0.74287
0.345388 0.00569162 0.802991
0.782589 0.0301213 0.868696
0.914382 0.0911116 0.899779
0.914443 0.0909438 0.89955
0.914427 0.090837 0.899428
0.914427 0.0907759 0.899382
0 0 0.74287
0 0 0.74287
0 0 0.74287
0.303471 0.00509651 0.796017
0.771618 0.0284428 0.866941
0.914137 0.0907912 0.899565
0.914427 0.0908064 0.899397
0.914412 0.0906691 0.89926
0.914397 0.0906386 0.899229
0 0 0.74287
0 0 0.74287
0 0 0.74287
0.245899 0.00459297 0.78648
0.757351 0.0263981 0.864713
0.913848 0.090425 0.899306
0.914397 0.0906233 0.899199
0.914382 0.0905013 0.899077
0.914382 0.0904555 0.899031
0 0.049546 0.772946
0 0.0389563 0.768338
0 0.0278477 0.762966
0.0388495 0.00422675 0.752499
0.713527 0.0213169 0.858198
0.912444 0.0887617 0.898421
0.914321 0.0901198 0.89868
0.914305 0.0899977 0.898558
0.914305 0.0899519 0.898497
0.00222782 0.57142 0.922362
0.00216678 0.566705 0.921355
0.00210575 0.560845 0.920134
0.0019379 0.544549 0.916686
0.51664 0.586816 0.940261
0.940658 0.529747 0.958618
0.956466 0.454505 0.948775
0.950881 0.409369 0.941634
0.948684 0.391714 0.93875
0.0116426 0.841718 0.965743
0.0114748 0.839994 0.965347
0.0112764 0.837751 0.964828
0.0107576 0.831815 0.963424
0.0170138 0.813657 0.957565
0.87248 0.880491 0.973342
0.988388 0.856565 0.964584
0.988296 0.846021 0.964828
0.988281 0.842161 0.96492
0.0236362 0.928222 0.975296
0.0234989 0.927596 0.975113
0.023331 0.926787 0.974823
0.0228733 0.924651 0.974151
0.0218357 0.919173 0.97232
0.655833 0.950713 0.957198
0.953201 0.95317 0.946059
0.978531 0.943008 0.933822
0.978531 0.941344 0.933455
0.0239261 0.930465 0.971786
0.0239261 0.930449 0.971649
0.0239109 0.930434 0.971496
0.0238804 0.930388 0.971084
0.0238193 0.930297 0.970092
0.484581 0.963119 0.955688
0.915831 0.976165 0.936034
0.978988 0.966613 0.924392
0.984146 0.964385 0.923995
0.0238346 0.930327 0.970367
0.0238346 0.930312 0.970275
0.0238193 0.930297 0.970092
0.0237888 0.930251 0.969665
0.0237278 0.930159 0.968673
0.417929 0.960571 0.95552
0.904295 0.976425 0.934295
0.972671 0.970596 0.918654
0.9841 0.967865 0.917144
0 0 0.74287
0 0 0.74287
0 0 0.74287
0.311879 0.00523384 0.797421
0.773602 0.0287785 0.867338
0.914351 0.0918898 0.900755
0.914611 0.0921645 0.900832
0.914611 0.0921645 0.900832
0.914611 0.0921645 0.900832
0 0 0.74287
0 0 0.74287
0 0 0.74287
0.2663 0.00466926 0.789899
0.762325 0.0271 0.865553
0.914137 0.0916609 0.90071
0.914611 0.0921645 0.900832
0.914611 0.0921645 0.900832
0.914611 0.0921645 0.900832
0 0 0.74287
0 0 0.74287
0 0 0.74287
0.201999 0.00418097 0.779293
0.747082 0.0250706 0.863249
0.913863 0.0913863 0.900633
0.914611 0.0921645 0.900832
0.914611 0.0921645 0.900832
0.914611 0.0921645 0.900832
0 0.0128786 0.753613
0 0.0065156 0.748989
0 0.000701915 0.74435
0.0103304 1.5259e-05 0.746258
0.70132 0.020264 0.856489
0.912245 0.0899062 0.900069
0.914611 0.0921645 0.900832
0.914611 0.0921645 0.900832
0.914611 0.0921645 0.900832
0.00201419 0.551888 0.920073
0.00196841 0.546975 0.918944
0.00189212 0.540505 0.917418
0.00170901 0.522927 0.913237
0.489418 0.565316 0.941527
0.935775 0.506661 0.963195
0.953704 0.428855 0.954604
0.94757 0.379232 0.946426
0.945159 0.35967 0.94316
0.0115511 0.835676 0.978668
0.011429 0.833875 0.978271
0.0112764 0.831724 0.977813
0.0108492 0.825635 0.976516
0.0115358 0.80676 0.972686
0.862135 0.874235 0.993301
0.987778 0.858381 0.998352
0.987839 0.848371 0.998123
0.987823 0.844465 0.998062
0.0243534 0.928008 0.999039
0.024155 0.927382 0.998856
0.0238956 0.926543 0.998596
0.023209 0.924315 0.997925
0.0221866 0.918257 0.996017
0.623697 0.947341 0.992905
0.9467 0.951171 0.984543
0.985763 0.945968 0.979828
0.98616 0.944488 0.979919
0.0255589 0.933043 0.997131
0.0255436 0.933028 0.997009
0.0255131 0.933028 0.996902
0.0254673 0.932998 0.996597
0.0253452 0.932906 0.99588
0.439536 0.962585 0.990616
0.90779 0.973892 0.97435
0.97171 0.972366 0.971801
0.979339 0.970718 0.970581
0.0253758 0.932937 0.996063
0.0253758 0.932921 0.996002
0.0253452 0.932906 0.99588
0.0252995 0.932876 0.995575
0.0251774 0.932799 0.994827
0.370916 0.960006 0.990219
0.894209 0.976181 0.972213
0.963424 0.978393 0.9682
0.981186 0.976822 0.967971
0 0 0.74287
0 0 0.74287
0 0 0.74287
0.299168 0.00502022 0.795331
0.770413 0.0282902 0.866835
0.91429 0.0918288 0.90074
0.914611 0.0921645 0.900832
0.914611 0.0921645 0.900832
0.914611 0.0921645 0.900832
0 0 0.74287
0 0 0.74287
0 0 0.74287
0.251972 0.00460822 0.787533
0.75877 0.026627 0.865019
0.914076 0.0915999 0.900694
0.914611 0.0921645 0.900832
0.914611 0.0921645 0.900832
0.914611 0.0921645 0.900832
0 0 0.74287
0 0 0.74287
0 0 0.74287
0.185016 0.0039826 0.776501
0.74342 0.0245823 0.862699
0.913787 0.09131 0.900618
0.914611 0.0921645 0.900832
0.914611 0.0921645 0.900832
0.914611 0.0921645 0.900832
0 0.00408942 0.747082
0 0.000595102 0.744121
0 4.57771e-05 0.742962
0.00328069 0 0.743206
0.696864 0.0200809 0.855833
0.912093 0.0897688 0.900008
0.914611 0.0921645 0.900832
0.914611 0.0921645 0.900832
0.914611 0.0921645 0.900832
0.0019379 0.544564 0.918379
0.00187686 0.539315 0.917128
0.00181582 0.532845 0.915587
0.00163272 0.514977 0.911345
0.480262 0.555993 0.939529
0.933623 0.495109 0.961288
0.95201 0.415152 0.952377
0.945647 0.363729 0.943847
0.94316 0.343435 0.940459
0.011368 0.833097 0.978119
0.0112459 0.831296 0.977722
0.0110781 0.829068 0.977249
0.0106508 0.822965 0.975952
0.0103761 0.804364 0.972168
0.859846 0.871641 0.993027
0.98761 0.855711 0.998306
0.987823 0.845319 0.998077
0.987823 0.840986 0.998047
0.0240635 0.927077 0.998917
0.0238651 0.926406 0.998795
0.0236057 0.925582 0.998657
0.0229191 0.923384 0.998276
0.0220798 0.917235 0.99704
0.615503 0.94609 0.996658
0.94519 0.949935 0.989899
0.987549 0.945754 0.987488
0.988006 0.944305 0.987854
0.0260166 0.933364 1
0.0260166 0.933364 1
0.0260166 0.933364 1
0.0260166 0.933364 1
0.0260166 0.933364 1
0.425132 0.962295 0.99823
0.905058 0.97293 0.983749
0.969482 0.972259 0.982162
0.979004 0.970977 0.980911
0.0260166 0.933364 1
0.0260166 0.933364 1
0.0260166 0.933364 1
0.0260166 0.933364 1
0.0260166 0.933364 1
0.355169 0.959716 0.999084
0.890333 0.975952 0.982895
0.959762 0.978958 0.980804
0.978943 0.978637 0.980697
