luts/changyun_origin/origin2.cube
TITLE "Generated by Resolve"
LUT_3D_SIZE 33
0.0149844 0.0323339 0.0432593
0.0149844 0.0323339 0.0432593
0.0149844 0.0323339 0.0432593
0.038819 0.0309148 0.0393378
0.0690318 0.032166 0.0381018
0.0963149 0.0338903 0.0361791
0.120836 0.0366674 0.034699
0.150362 0.0459754 0.0336461
0.184939 0.0488136 0.0306249
0.227726 0.0508888 0.0241093
0.279362 0.052781 0.0260166
0.33959 0.0523079 0.017319
0.4094 0.0480964 0.00709545
0.486534 0.0399786 0.00105287
0.564538 0.026566 0
0.640406 0.0129244 0.00105287
0.711055 0.0071107 0.0024567
0.771511 0.00590524 0.00390631
0.821912 0.00567636 0.00987259
0.860624 0.00901808 0.0204166
0.868788 0.0102541 0.0228733
0.868788 0.0102541 0.0228733
0.868788 0.0102541 0.0228733
0.868788 0.0102541 0.0228733
0.868788 0.0102541 0.0228733
0.868788 0.0102541 0.0228733
0.868788 0.0102541 0.0228733
0.868788 0.0102541 0.0228733
0.868788 0.0102541 0.0228733
0.868788 0.0102541 0.0228733
0.868788 0.0102541 0.0228733
0.868788 0.0102541 0.0228733
0.868788 0.0102541 0.0228733
0.0149844 0.0323339 0.0432593
0.0149844 0.0323339 0.0432593
0.0149844 0.0323339 0.0432593
0.0272221 0.0313726 0.0409705
0.0574502 0.031693 0.0385901
0.0867475 0.0333104 0.0368963
0.111589 0.0343328 0.0350958
0.141741 0.0453346 0.0342107
0.17702 0.0480964 0.0314946
0.220447 0.0506294 0.0250553
0.272725 0.0526436 0.0264744
0.333471 0.0524147 0.0184176
0.403891 0.0486305 0.00775158
0.48188 0.0406348 0.0012665
0.560693 0.0272831 0
0.637522 0.0132753 0.000976577
0.708766 0.00724804 0.00239567
0.769711 0.00596628 0.00378424
0.820493 0.00572213 0.00958267
0.859953 0.00891127 0.0202029
0.868788 0.0102541 0.0228733
0.868788 0.0102541 0.0228733
0.868788 0.0102541 0.0228733
0.868788 0.0102541 0.0228733
0.868788 0.0102541 0.0228733
0.868788 0.0102541 0.0228733
0.868788 0.0102541 0.0228733
0.868788 0.0102541 0.0228733
0.868788 0.0102541 0.0228733
0.868788 0.0102541 0.0228733
0.868788 0.0102541 0.0228733
0.868788 0.0102541 0.0228733
0.868788 0.0102541 0.0228733
0.0149844 0.0323339 0.0432593
0.0149844 0.0323339 0.0432593
0.0149844 0.0323339 0.0432593
0.0152132 0.0323186 0.0432136
0.0462348 0.03122 0.0390326
0.0764172 0.0325628 0.0376898
0.102541 0.0340734 0.0357366
0.132616 0.0415503 0.0344244
0.16878 0.0473487 0.0324254
0.21297 0.0503853 0.0263828
0.265843 0.0525063 0.0269322
0.32723 0.0525368 0.0195315
0.398398 0.0491493 0.00839246
0.477211 0.0412757 0.00146487
0.556832 0.0280003 0
0.634409 0.0136568 0.000900282
0.706264 0.00740063 0.00231937
0.768002 0.00601205 0.00366217
0.819074 0.00576791 0.00929274
0.859266 0.00880446 0.0200046
0.868788 0.0102541 0.0228733
0.868788 0.0102541 0.0228733
0.868788 0.0102541 0.0228733
0.868788 0.0102541 0.0228733
0.868788 0.0102541 0.0228733
0.868788 0.0102541 0.0228733
0.868788 0.0102541 0.0228733
0.868788 0.0102541 0.0228733
0.868788 0.0102541 0.0228733
0.868788 0.0102541 0.0228733
0.868788 0.0102541 0.0228733
0.868788 0.0102541 0.0228733
0.868788 0.0102541 0.0228733
0.0149844 0.0323339 0.0432593
0.0149844 0.0323339 0.0432593
0.0149844 0.0323339 0.0432593
0.0149844 0.0323339 0.0432593
0.0350347 0.0307622 0.0395056
0.0650034 0.0319982 0.0382696
0.0928054 0.033753 0.0364385
0.122988 0.0375525 0.034638
0.160723 0.0467384 0.0329747
0.205158 0.0501259 0.0277714
0.258701 0.0523537 0.0274052
0.320974 0.0526284 0.0205692
0.39266 0.0496681 0.00909438
0.472419 0.0419623 0.00167849
0.552972 0.0287022 0
0.631418 0.014023 0.000823987
0.703868 0.00753796 0.00224308
0.76611 0.00607309 0.00352483
0.817655 0.00581369 0.00900282
0.858549 0.00869764 0.019791
0.868788 0.0102541 0.0228733
0.868788 0.0102541 0.0228733
0.868788 0.0102541 0.0228733
0.868788 0.0102541 0.0228733
0.868788 0.0102541 0.0228733
0.868788 0.0102541 0.0228733
0.868788 0.0102541 0.0228733
0.868788 0.0102541 0.0228733
0.868788 0.0102541 0.0228733
0.868788 0.0102541 0.0228733
0.868788 0.0102541 0.0228733
0.868788 0.0102541 0.0228733
0.868788 0.0102541 0.0228733
0.0204623 0.0460212 0.0400702
0.0200504 0.0440833 0.0405127
0.0192264 0.0421759 0.0409552
0.0184176 0.0402991 0.0413977
0.0230716 0.0377966 0.0406653
0.0526131 0.0356298 0.0389715
0.0821088 0.0350652 0.0370642
0.11313 0.0343786 0.0349889
0.152316 0.0461128 0.0335241
0.196979 0.0498665 0.029221
0.251652 0.0520333 0.0267491
0.314611 0.0527047 0.021561
0.38703 0.0500496 0.00988785
0.467491 0.042649 0.00189212
0.548989 0.0294499 0
0.628229 0.0145266 0.000732433
0.701366 0.00767529 0.00218204
0.764324 0.00611887 0.00340276
0.816236 0.00585946 0.0087129
0.857389 0.00859083 0.0194095
0.868788 0.0102541 0.0228733
0.868788 0.0102541 0.0228733
0.868788 0.0102541 0.0228733
0.868788 0.0102541 0.0228733
0.868788 0.0102541 0.0228733
0.868788 0.0102541 0.0228733
0.868788 0.0102541 0.0228733
0.868788 0.0102541 0.0228733
0.868788 0.0102541 0.0228733
0.868788 0.0102541 0.0228733
0.868788 0.0102541 0.0228733
0.868788 0.0102541 0.0228733
0.868788 0.0102541 0.0228733
0.0180972 0.0624399 0.0386206
0.0187228 0.0602884 0.0375677
0.0191196 0.0581064 0.0374456
0.0193484 0.0560616 0.0378882
0.0195926 0.0539559 0.0383459
0.0325017 0.0497444 0.0367742
0.0684977 0.0484627 0.0370031
0.0997482 0.0473487 0.0341497
0.137148 0.0472114 0.0315709
0.183917 0.0482795 0.0334325
0.242267 0.0508125 0.0268711
0.308248 0.052781 0.0225376
0.381262 0.0504311 0.0107118
0.462486 0.043183 0.00222782
0.545007 0.0301823 0
0.624842 0.0151217 0.000656138
0.698863 0.00782788 0.00210575
0.762402 0.00616464 0.00329595
0.81474 0.00590524 0.00840772
0.856245 0.00848402 0.019028
0.868788 0.0102541 0.0228733
0.868788 0.0102541 0.0228733
0.868788 0.0102541 0.0228733
0.868788 0.0102541 0.0228733
0.868788 0.0102541 0.0228733
0.868788 0.0102541 0.0228733
0.868788 0.0102541 0.0228733
0.868788 0.0102541 0.0228733
0.868788 0.0102541 0.0228733
0.868788 0.0102541 0.0228733
0.868788 0.0102541 0.0228733
0.868788 0.0102541 0.0228733
0.868788 0.0102541 0.0228733
0.0135042 0.0795911 0.0456245
0.0139467 0.0775006 0.045182
0.014374 0.0754101 0.0447242
0.0149386 0.0732738 0.0438392
0.0155947 0.071046 0.042771
0.0155032 0.0665751 0.0409094
0.0510872 0.0627604 0.0392004
0.0930648 0.0610513 0.0370184
0.128405 0.0603189 0.0383459
0.172168 0.0573587 0.037995
0.225284 0.0513466 0.033051
0.291035 0.0479438 0.0242924
0.374289 0.0508278 0.0117189
0.457435 0.0436408 0.00260929
0.541009 0.0309148 0
0.621592 0.0157015 0.000564584
0.696361 0.00798047 0.00202945
0.760494 0.0061799 0.00328069
0.813321 0.00595102 0.0081178
0.855146 0.0083772 0.0186618
0.868788 0.0102541 0.0228733
0.868788 0.0102541 0.0228733
0.868788 0.0102541 0.0228733
0.868788 0.0102541 0.0228733
0.868788 0.0102541 0.0228733
0.868788 0.0102541 0.0228733
0.868788 0.0102541 0.0228733
0.868788 0.0102541 0.0228733
0.868788 0.0102541 0.0228733
0.868788 0.0102541 0.0228733
0.868788 0.0102541 0.0228733
0.868788 0.0102541 0.0228733
0.868788 0.0102541 0.0228733
0.00943008 0.0982834 0.0498665
0.00988785 0.096376 0.0494087
0.0103761 0.094316 0.0489052
0.0108644 0.0922408 0.0484016
0.0113222 0.0901808 0.0479286
0.0117189 0.0882429 0.0475166
0.0185855 0.0824292 0.0466468
0.0771496 0.0792248 0.045182
0.128588 0.0782483 0.0434119
0.170336 0.0767834 0.0417487
0.220996 0.0725872 0.0372015
0.281224 0.0628061 0.0281376
0.355673 0.0532692 0.0149233
0.444984 0.0442206 0.00352483
0.536004 0.0318456 0
0.617609 0.0164034 0.000457771
0.693233 0.00814832 0.0019379
0.758114 0.00619516 0.00326543
0.811536 0.00601205 0.00775158
0.853727 0.00823987 0.0181888
0.868788 0.0102541 0.0228733
0.868788 0.0102541 0.0228733
0.868788 0.0102541 0.0228733
0.868788 0.0102541 0.0228733
0.868788 0.0102541 0.0228733
0.868788 0.0102541 0.0228733
0.868788 0.0102541 0.0228733
0.868788 0.0102541 0.0228733
0.868788 0.0102541 0.0228733
0.868788 0.0102541 0.0228733
0.868788 0.0102541 0.0228733
0.868788 0.0102541 0.0228733
0.868788 0.0102541 0.0228733
0.00515755 0.122393 0.054902
0.00540169 0.120485 0.0545663
0.00561532 0.118654 0.0542458
0.00585946 0.11667 0.0538796
0.00610361 0.114672 0.0535286
0.00634775 0.112673 0.0531777
0.00704967 0.1093 0.0524147
0.0285344 0.103288 0.0507057
0.113649 0.101198 0.0483864
0.177874 0.100084 0.0444648
0.230518 0.0983139 0.0393378
0.287282 0.0927901 0.0310826
0.355077 0.0809033 0.0178683
0.432853 0.0577554 0.00512703
0.519982 0.0340887 6.10361e-05
0.611353 0.0175174 0.000320439
0.689158 0.00839246 0.00183108
0.754925 0.00621042 0.00325017
0.809232 0.00608835 0.00727855
0.851865 0.00807202 0.0175784
0.868788 0.0102541 0.0228733
0.868788 0.0102541 0.0228733
0.868788 0.0102541 0.0228733
0.868788 0.0102541 0.0228733
0.868788 0.0102541 0.0228733
0.868788 0.0102541 0.0228733
0.868788 0.0102541 0.0228733
0.868788 0.0102541 0.0228733
0.868788 0.0102541 0.0228733
0.868788 0.0102541 0.0228733
0.868788 0.0102541 0.0228733
0.868788 0.0102541 0.0228733
0.868788 0.0102541 0.0228733
0.00195315 0.153689 0.0602884
0.00213626 0.151858 0.0599832
0.00230411 0.150027 0.0596628
0.00248722 0.148196 0.0593576
0.00267033 0.146258 0.0590219
0.00285344 0.144335 0.0587015
0.00303655 0.142306 0.0583505
0.00276188 0.137377 0.0578012
0.0615702 0.132403 0.054551
0.163424 0.129427 0.0488136
0.243046 0.12723 0.0410315
0.30544 0.123674 0.0312352
0.367926 0.116411 0.0185855
0.443534 0.103822 0.00608835
0.523766 0.07953 0.000503548
0.598444 0.0317998 0.000228885
0.677791 0.00840772 0.00149538
0.750744 0.00624094 0.00321965
0.806088 0.00619516 0.00663767
0.849424 0.00784314 0.0167697
0.868788 0.0102541 0.0228733
0.868788 0.0102541 0.0228733
0.868788 0.0102541 0.0228733
0.868788 0.0102541 0.0228733
0.868788 0.0102541 0.0228733
0.868788 0.0102541 0.0228733
0.868788 0.0102541 0.0228733
0.868788 0.0102541 0.0228733
0.868788 0.0102541 0.0228733
0.868788 0.0102541 0.0228733
0.868788 0.0102541 0.0228733
0.868788 0.0102541 0.0228733
0.868788 0.0102541 0.0228733
0.000122072 0.193561 0.0662394
0.000137331 0.191775 0.0659648
0.00015259 0.189975 0.0657054
0.000167849 0.188083 0.0654307
0.000167849 0.186282 0.0651713
0.000183108 0.184375 0.0648966
0.000213626 0.182498 0.0646067
0.000335698 0.180285 0.0642863
0.00238041 0.172213 0.0631266
0.103426 0.168383 0.0562142
0.225147 0.164538 0.0456855
0.319738 0.159762 0.0308843
0.392813 0.153414 0.016907
0.463127 0.146105 0.00619516
0.540154 0.133989 0.00109865
0.614649 0.109422 0.000595102
0.681147 0.0663462 0.00134279
0.738491 0.0144656 0.00296025
0.798795 0.00570687 0.00613413
0.84622 0.00753796 0.0157015
0.868788 0.0102541 0.0228733
0.868788 0.0102541 0.0228733
0.868788 0.0102541 0.0228733
0.868788 0.0102541 0.0228733
0.868788 0.0102541 0.0228733
0.868788 0.0102541 0.0228733
0.868788 0.0102541 0.0228733
0.868788 0.0102541 0.0228733
0.868788 0.0102541 0.0228733
0.868788 0.0102541 0.0228733
0.868788 0.0102541 0.0228733
0.868788 0.0102541 0.0228733
0.868788 0.0102541 0.0228733
0 0.241459 0.0732891
0 0.23978 0.0730449
0 0.238239 0.0728161
0 0.236576 0.0725567
0 0.234913 0.0723125
0 0.233127 0.0720531
0 0.231464 0.071809
0 0.229435 0.0715038
0 0.226581 0.0710918
0.0152285 0.216724 0.0676585
0.158984 0.212131 0.0543069
0.300999 0.205997 0.0343175
0.408133 0.198978 0.0155032
0.492287 0.191531 0.00440986
0.566262 0.185 0.000915541
0.636484 0.172427 0.000839246
0.701213 0.148669 0.00155642
0.757198 0.112993 0.00244144
0.802152 0.0676585 0.00509651
0.837537 0.0167391 0.0127565
0.86862 0.0101625 0.0228733
0.868788 0.0102541 0.0228733
0.868788 0.0102541 0.0228733
0.868788 0.0102541 0.0228733
0.868788 0.0102541 0.0228733
0.868788 0.0102541 0.0228733
0.868788 0.0102541 0.0228733
0.868788 0.0102541 0.0228733
0.868788 0.0102541 0.0228733
0.868788 0.0102541 0.0228733
0.868788 0.0102541 0.0228733
0.868788 0.0102541 0.0228733
0.868788 0.0102541 0.0228733
0 0.297704 0.0807813
0 0.2963 0.0805829
0 0.294774 0.0803693
0 0.293233 0.0801404
0 0.291707 0.0799268
0 0.290181 0.0796979
0 0.28864 0.0794842
0 0.286732 0.0792096
0 0.284184 0.0788281
0 0.279805 0.0782025
0.0424353 0.271611 0.0691081
0.231662 0.264179 0.0448768
0.38854 0.256413 0.017792
0.507958 0.247807 0.00389105
0.598276 0.240421 0.000793469
0.667399 0.232792 0.00134279
0.727245 0.219074 0.00199893
0.780056 0.197711 0.00294499
0.823133 0.169833 0.00541695
0.856764 0.139712 0.0108949
0.884169 0.108614 0.020737
0.877501 0.0639963 0.0224765
0.869642 0.0180667 0.0228733
0.868498 0.00985733 0.0228733
0.868742 0.0102541 0.0228733
0.868788 0.0102541 0.0228733
0.868788 0.0102541 0.0228733
0.868788 0.0102541 0.0228733
0.868788 0.0102541 0.0228733
0.868788 0.0102541 0.0228733
0.868788 0.0102541 0.0228733
0.868788 0.0102541 0.0228733
0.868788 0.0102541 0.0228733
0 0.36257 0.0909438
0 0.361212 0.0907149
0 0.359854 0.0905013
0 0.358511 0.0902724
0 0.357015 0.0900282
0 0.355657 0.0897993
0 0.354162 0.0895552
0 0.352544 0.0892805
0 0.35024 0.0888991
0 0.347127 0.0883803
0 0.339956 0.0870832
0.0829786 0.335149 0.0670787
0.320806 0.325292 0.0289464
0.488945 0.316548 0.00611887
0.613108 0.307912 0.00111391
0.698726 0.298253 0.00164797
0.760372 0.287785 0.00250248
0.809003 0.274769 0.00355535
0.847562 0.258564 0.00610361
0.87863 0.241581 0.0106661
0.903746 0.225681 0.0175021
0.903777 0.200916 0.0189822
0.897734 0.173251 0.0195773
0.892271 0.146304 0.0202335
0.887434 0.121065 0.0208286
0.883284 0.0978714 0.0212863
0.879789 0.0775921 0.0219577
0.876875 0.0603037 0.0226139
0.874495 0.0463722 0.0228733
0.872602 0.0353857 0.0228733
0.871092 0.0265812 0.0228733
0.869856 0.0194247 0.0228733
0.869535 0.0174258 0.0228733
0 0.433677 0.104875
0 0.432456 0.104616
0 0.43122 0.104341
0 0.429999 0.104067
0 0.428779 0.103792
0 0.427543 0.103532
0 0.426322 0.103258
0 0.424826 0.102922
0 0.422919 0.102495
0 0.420188 0.1019
0 0.416785 0.101152
0.000198367 0.404578 0.0988174
0.158999 0.406989 0.0600443
0.424613 0.396597 0.0151217
0.596307 0.387121 0.00210575
0.712734 0.375326 0.00158694
0.789136 0.362356 0.00277714
0.839765 0.350851 0.00456245
0.875532 0.340764 0.00759899
0.903502 0.331853 0.0128176
0.924071 0.322606 0.0190433
0.928222 0.307179 0.0210575
0.923995 0.288792 0.0203403
0.920089 0.271809 0.0196841
0.916548 0.256413 0.0193332
0.913466 0.243015 0.019028
0.910857 0.231678 0.0189212
0.908721 0.222416 0.0189212
0.906966 0.214817 0.0189212
0.905623 0.209003 0.0189212
0.90457 0.20444 0.0189212
0.903746 0.200778 0.0189822
0.903166 0.198062 0.0190433
0.000640879 0.507286 0.122728
0.00062562 0.506233 0.122454
0.000595102 0.505165 0.122179
0.000579843 0.504097 0.121889
0.000549325 0.503166 0.121645
0.000534066 0.502098 0.12137
0.000503548 0.50103 0.12108
0.00047303 0.499702 0.120729
0.000427253 0.497978 0.120272
0.000381476 0.495705 0.119677
0.00030518 0.49279 0.118914
0.000228885 0.48893 0.117891
0.012726 0.477867 0.108537
0.273091 0.485328 0.0499733
0.537194 0.475166 0.00823987
0.699458 0.462577 0.00157168
0.801801 0.447013 0.00276188
0.863813 0.432624 0.0052491
0.902403 0.422553 0.00932326
0.929641 0.416724 0.0155489
0.94548 0.410422 0.0215763
0.948882 0.399222 0.023621
0.945861 0.385519 0.0234836
0.943145 0.373144 0.0233616
0.940658 0.362066 0.0231327
0.938537 0.352697 0.0229038
0.936797 0.344945 0.0227207
0.935409 0.338827 0.0225681
0.934249 0.333715 0.0223239
0.933379 0.329885 0.0221408
0.932692 0.326833 0.0220035
0.932158 0.324529 0.0218814
0.931792 0.322866 0.0218051
0.00158694 0.57998 0.144533
0.00157168 0.579095 0.144228
0.00154116 0.57821 0.143938
0.0015259 0.57731 0.143664
0.00151064 0.576425 0.143374
0.00148013 0.575525 0.143084
0.00146487 0.574624 0.142794
0.00143435 0.573617 0.142473
0.00140383 0.572213 0.142016
0.00135805 0.570291 0.141405
0.00129702 0.567742 0.140581
0.00122072 0.564553 0.139559
0.00111391 0.560342 0.138201
0.0588235 0.557824 0.114107
0.406165 0.56405 0.0411536
0.650217 0.553674 0.00492866
0.791623 0.538247 0.002533
0.873869 0.521569 0.0055848
0.921553 0.508232 0.0103456
0.951888 0.501106 0.0174411
0.965866 0.494011 0.0225834
0.96669 0.483513 0.0236515
0.964492 0.47245 0.0236515
0.962448 0.462562 0.0236515
0.960616 0.453819 0.0236515
0.959091 0.446632 0.0236515
0.957839 0.44065 0.0236515
0.956832 0.435859 0.0236515
0.956039 0.432135 0.0236515
0.955398 0.429221 0.0236515
0.954894 0.426917 0.0236515
0.954528 0.425208 0.0236515
0.954238 0.42388 0.0236515
0.002533 0.647883 0.171588
0.00251774 0.647196 0.171252
0.00250248 0.646525 0.170932
0.00248722 0.645838 0.170596
0.0024567 0.645045 0.170214
0.00244144 0.644358 0.169879
0.00242618 0.643687 0.169543
0.00239567 0.642771 0.1691
0.00236515 0.641642 0.168551
0.00233463 0.640101 0.167895
0.00230411 0.637964 0.16701
0.00225834 0.635355 0.165911
0.0021973 0.631907 0.164477
0.002121 0.625635 0.161868
0.17467 0.63418 0.116304
0.543526 0.638651 0.0337377
0.752819 0.626703 0.005066
0.86598 0.610056 0.0059968
0.928573 0.594675 0.01178
0.966369 0.584512 0.0203555
0.982452 0.575097 0.0262303
0.982498 0.563272 0.0260166
0.980667 0.553231 0.0254826
0.979034 0.544854 0.0251774
0.977615 0.537667 0.024918
0.97644 0.53164 0.0247044
0.975479 0.526696 0.0245212
0.974701 0.522789 0.0243992
0.97409 0.519707 0.0243076
0.973587 0.517235 0.0242466
0.973236 0.51545 0.0242008
0.972946 0.514031 0.0241703
0.972732 0.512963 0.0241398
0.00442512 0.707851 0.205188
0.00440986 0.707347 0.204822
0.0043946 0.706722 0.20441
0.00437934 0.706203 0.204059
0.00434882 0.705592 0.203632
0.00433356 0.704967 0.203204
0.0043183 0.704448 0.202853
0.00430304 0.703731 0.202365
0.00427253 0.7028 0.201724
0.00424201 0.701564 0.200885
0.00419623 0.699916 0.199756
0.0041352 0.697841 0.198367
0.00402838 0.694926 0.196689
0.00389105 0.691371 0.194644
0.0113069 0.680354 0.184497
0.35079 0.70425 0.11516
0.671458 0.704662 0.0311437
0.837369 0.690547 0.0105745
0.921828 0.674754 0.0154726
0.970169 0.662196 0.0251469
0.993332 0.651942 0.0332494
0.995071 0.638636 0.0331884
0.993698 0.627298 0.0319982
0.992706 0.620279 0.0311894
0.991836 0.614267 0.0305028
0.990921 0.609079 0.0299535
0.990188 0.604929 0.0295109
0.989593 0.601587 0.02916
0.98912 0.598932 0.0288853
0.988769 0.596979 0.0286717
0.988479 0.595361 0.0285039
0.988281 0.594202 0.0283818
0.988113 0.593286 0.0282902
0.0078584 0.760082 0.246784
0.00779736 0.759594 0.246311
0.00773632 0.759106 0.245853
0.00767529 0.758618 0.24538
0.00761425 0.758144 0.244923
0.00755322 0.757656 0.244465
0.00749218 0.757168 0.243992
0.00740063 0.756481 0.243351
0.00730907 0.755703 0.242603
0.00717174 0.75462 0.241581
0.00700389 0.753262 0.240284
0.00677501 0.7514 0.238529
0.00653086 0.74905 0.236423
0.00633249 0.746059 0.233997
0.00608835 0.742275 0.230945
0.116976 0.743954 0.198001
0.532738 0.764263 0.112627
0.779278 0.759167 0.0366827
0.900908 0.744823 0.0263828
0.963485 0.730724 0.0353704
0.994568 0.719936 0.0468605
0.999588 0.707012 0.0467994
0.999435 0.694209 0.0436103
0.999176 0.686488 0.0416266
0.998978 0.681315 0.0404669
0.99881 0.677119 0.0395056
0.998672 0.673564 0.0387121
0.99852 0.670848 0.0381628
0.998322 0.668635 0.0378119
0.998154 0.666865 0.0375372
0.998032 0.665537 0.0373236
0.99794 0.66453 0.037171
0.997864 0.663767 0.0370489
0.0157015 0.806241 0.296559
0.0155947 0.805859 0.296086
0.0154574 0.805402 0.295506
0.0153201 0.804929 0.294926
0.0151827 0.804471 0.294331
0.0150454 0.803998 0.293751
0.0149386 0.803632 0.293278
0.0147707 0.803067 0.292576
0.0145418 0.802319 0.291646
0.0142672 0.801389 0.290471
0.0139162 0.800183 0.288945
0.0135805 0.798459 0.286976
0.0132296 0.796323 0.284611
0.0127718 0.793606 0.281605
0.0122225 0.790219 0.277836
0.0107576 0.780667 0.26717
0.342641 0.801068 0.20734
0.687572 0.811078 0.110842
0.863096 0.801953 0.0574655
0.947829 0.788586 0.0561532
0.990295 0.776699 0.0671855
0.999557 0.765057 0.0716869
1 0.752117 0.0656748
0.999985 0.742123 0.0610513
0.999985 0.737728 0.0591745
0.999969 0.734127 0.0576181
0.999969 0.731121 0.0563363
0.999969 0.728817 0.0553445
0.999954 0.727016 0.0545815
0.999954 0.725612 0.0540017
0.999939 0.724468 0.0535897
0.999939 0.723629 0.0532845
0.999924 0.723003 0.0530556
0.0273594 0.842451 0.344198
0.0272221 0.842069 0.343648
0.0271153 0.841749 0.343221
0.0270085 0.841428 0.342794
0.0268711 0.841031 0.342245
0.0267338 0.840635 0.341711
0.026627 0.84033 0.341268
0.0264897 0.839933 0.340734
0.0262608 0.839292 0.339864
0.0260166 0.83859 0.338888
0.0256657 0.837568 0.337484
0.0252384 0.836301 0.33576
0.0246586 0.834638 0.333486
0.0239567 0.832578 0.330678
0.0230564 0.829984 0.327108
0.0219883 0.826902 0.322896
0.148928 0.824826 0.286122
0.566949 0.84509 0.208728
0.807324 0.844068 0.120058
0.923537 0.833844 0.0918593
0.980499 0.821881 0.0935531
0.998535 0.810651 0.100023
0.999985 0.798901 0.0955978
1 0.788418 0.088014
1 0.782788 0.0839857
1 0.779767 0.0818341
1 0.777371 0.0801099
1 0.775479 0.0787976
1 0.773877 0.0778821
1 0.772641 0.0771801
1 0.771695 0.0766308
1 0.770932 0.0762036
1 0.770367 0.0758679
0.0350805 0.860136 0.36965
0.0350195 0.860014 0.369482
0.0349737 0.859907 0.369299
0.0349126 0.859754 0.369085
0.0348669 0.859632 0.368917
0.0348211 0.859525 0.368734
0.0347601 0.859373 0.368521
0.034699 0.859236 0.368307
0.0346075 0.859022 0.368002
0.0345006 0.858763 0.367605
0.0343633 0.858412 0.367086
0.0341802 0.857969 0.36643
0.0339055 0.857343 0.365484
0.0333104 0.856016 0.363592
0.0325933 0.854429 0.361303
0.031693 0.852415 0.358404
0.0350347 0.84564 0.347219
0.435325 0.867597 0.293599
0.73608 0.874144 0.202258
0.891066 0.866682 0.142382
0.965393 0.855924 0.127153
0.995575 0.844785 0.128603
0.999893 0.834348 0.125933
1 0.824796 0.117159
1 0.817121 0.110399
1 0.814496 0.108248
1 0.812436 0.106569
1 0.810712 0.105165
1 0.809476 0.104173
1 0.808408 0.103288
1 0.807675 0.102693
1 0.807095 0.10222
1 0.806607 0.101823
0.0370642 0.864927 0.376806
0.0370642 0.864927 0.376806
0.0370642 0.864927 0.376806
0.0370642 0.864927 0.376806
0.0370642 0.864927 0.376806
0.0370642 0.864927 0.376806
0.0370642 0.864927 0.376806
0.0370642 0.864927 0.376806
0.0370642 0.864927 0.376806
0.0370642 0.864927 0.376806
0.0370642 0.864927 0.376806
0.0370642 0.864927 0.376806
0.0370642 0.864927 0.376806
0.0370642 0.864927 0.376806
0.0370642 0.864927 0.376806
0.0366217 0.863874 0.375235
0.0361181 0.862654 0.373404
0.310811 0.882612 0.357366
0.657404 0.895201 0.281285
0.85185 0.890425 0.200977
0.946288 0.881209 0.165881
0.989761 0.870405 0.156695
0.999542 0.860319 0.154116
1 0.851362 0.145541
1 0.843992 0.137087
1 0.840131 0.132952
1 0.838453 0.131121
1 0.836957 0.129625
1 0.835828 0.128511
1 0.835004 0.127687
1 0.834318 0.127016
1 0.833799 0.126497
1 0.833417 0.126131
0.0370642 0.864927 0.376806
0.0370642 0.864927 0.376806
0.0370642 0.864927 0.376806
0.0370642 0.864927 0.376806
0.0370642 0.864927 0.376806
0.0370642 0.864927 0.376806
0.0370642 0.864927 0.376806
0.0370642 0.864927 0.376806
0.0370642 0.864927 0.376806
0.0370642 0.864927 0.376806
0.0370642 0.864927 0.376806
0.0370642 0.864927 0.376806
0.0370642 0.864927 0.376806
0.0370642 0.864927 0.376806
0.0370642 0.864927 0.376806
0.0370642 0.864927 0.376806
0.0370642 0.864927 0.376806
0.183993 0.87924 0.375875
0.584237 0.905531 0.332235
0.81059 0.906371 0.25304
0.925277 0.900099 0.205661
0.980804 0.890074 0.184924
0.998199 0.880034 0.178286
0.999969 0.871412 0.170336
1 0.864271 0.161089
1 0.858885 0.154116
1 0.857374 0.152209
1 0.856123 0.150683
1 0.855085 0.149538
1 0.854322 0.148684
1 0.853773 0.148074
1 0.853284 0.147539
1 0.852949 0.147158
0.0370642 0.864927 0.376806
0.0370642 0.864927 0.376806
0.0370642 0.864927 0.376806
0.0370642 0.864927 0.376806
0.0370642 0.864927 0.376806
0.0370642 0.864927 0.376806
0.0370642 0.864927 0.376806
0.0370642 0.864927 0.376806
0.0370642 0.864927 0.376806
0.0370642 0.864927 0.376806
0.0370642 0.864927 0.376806
0.0370642 0.864927 0.376806
0.0370642 0.864927 0.376806
0.0370642 0.864927 0.376806
0.0370642 0.864927 0.376806
0.0370642 0.864927 0.376806
0.0370642 0.864927 0.376806
0.0792554 0.869093 0.376226
0.519081 0.90341 0.348501
0.775311 0.90721 0.267414
0.907408 0.902525 0.214542
0.971572 0.896178 0.194446
0.996643 0.889097 0.189258
0.999893 0.882918 0.185687
1 0.87805 0.179217
1 0.874296 0.17377
1 0.871687 0.170275
1 0.870512 0.16878
1 0.869596 0.167636
1 0.868879 0.16672
1 0.86836 0.166064
1 0.867903 0.165484
1 0.867643 0.165164
0.0370642 0.864927 0.376806
0.0370642 0.864927 0.376806
0.0370642 0.864927 0.376806
0.0370642 0.864927 0.376806
0.0370642 0.864927 0.376806
0.0370642 0.864927 0.376806
