luts/changyun_origin/origin5.cube
TITLE "Generated by Resolve"
LUT_3D_SIZE 9
0.0228733 0.0291752 0.0276036
0.0429694 0.0324712 0.0354925
0.11751 0.0451362 0.0451057
0.300328 0.0639506 0.0480049
0.592432 0.043183 0.052491
0.789349 0.0475929 0.0860761
0.789349 0.0475929 0.0860761
0.789349 0.0475929 0.0860761
0.789349 0.0475929 0.0860761
0.0227817 0.0270848 0.0346227
0.0209812 0.027924 0.0324407
0.101823 0.0406195 0.0419776
0.281117 0.063798 0.0488594
0.582101 0.0434424 0.0511635
0.789349 0.0475929 0.0860761
0.789349 0.0475929 0.0860761
0.789349 0.0475929 0.0860761
0.789349 0.0475929 0.0860761
0.00395209 0.10222 0.0461738
0.00564584 0.0956588 0.0456703
0.0923629 0.0854505 0.045304
0.291096 0.0849622 0.0448005
0.569085 0.0437629 0.0495155
0.789349 0.0475929 0.0860761
0.789349 0.0475929 0.0860761
0.789349 0.0475929 0.0860761
0.789349 0.0475929 0.0860761
0 0.283742 0.0702831
0 0.277531 0.0695354
0 0.269749 0.0686046
0.37702 0.26305 0.00712596
0.68658 0.239536 0.0527657
0.832242 0.184207 0.0979629
0.790234 0.0564889 0.0870375
0.789349 0.0475929 0.0860761
0.789349 0.0475929 0.0860761
0 0.564889 0.122728
0 0.561456 0.121721
0 0.557397 0.120562
0 0.545968 0.117296
0.76112 0.547997 0.00537118
0.979034 0.522133 0.139178
0.988922 0.490257 0.157168
0.982788 0.467079 0.152529
0.979446 0.458351 0.150668
0 0.781384 0.255955
0 0.779751 0.254093
0 0.777768 0.251835
0 0.772229 0.245899
0.425925 0.797147 0.16199
0.989364 0.762463 0.0534981
1 0.747509 0.165927
1 0.739132 0.167239
1 0.735943 0.167727
0.00157168 0.857114 0.350179
0.00157168 0.857114 0.350179
0.00157168 0.857114 0.350179
0.00157168 0.857114 0.350179
0.00157168 0.857114 0.350179
0.917205 0.884489 0.149401
0.999969 0.849073 0.141253
1 0.841901 0.150607
1 0.840009 0.15082
0.00157168 0.857114 0.350179
0.00157168 0.857114 0.350179
0.00157168 0.857114 0.350179
0.00157168 0.857114 0.350179
0.00157168 0.857114 0.350179
0.848035 0.894057 0.172305
0.999588 0.86389 0.137835
1 0.858625 0.149676
1 0.858625 0.149676
0.00157168 0.857114 0.350179
0.00157168 0.857114 0.350179
0.00157168 0.857114 0.350179
0.00157168 0.857114 0.350179
0.00157168 0.857114 0.350179
0.818418 0.896666 0.182422
0.999329 0.86508 0.13637
1 0.858625 0.149676
1 0.858625 0.149676
0.0224002 0.0291905 0.0319219
0.0385138 0.0316167 0.0369573
0.114397 0.0449836 0.0453956
0.297551 0.0639353 0.0483101
0.590875 0.0432136 0.0522927
0.789349 0.0475929 0.0860761
0.789349 0.0475929 0.0860761
0.789349 0.0475929 0.0860761
0.789349 0.0475929 0.0860761
0.0228428 0.0278782 0.0318914
0.0228733 0.0291752 0.0276036
0.100069 0.0403296 0.0416266
0.277943 0.0637064 0.0489967
0.580438 0.0434882 0.0509499
0.789349 0.0475929 0.0860761
0.789349 0.0475929 0.0860761
0.789349 0.0475929 0.0860761
0.789349 0.0475929 0.0860761
0.00529488 0.0970016 0.0457618
0.00697337 0.0903029 0.0451667
0.0836347 0.0785534 0.0445869
0.280201 0.0778973 0.0454414
0.567407 0.0438392 0.0493172
0.789349 0.0475929 0.0860761
0.789349 0.0475929 0.0860761
0.789349 0.0475929 0.0860761
0.789349 0.0475929 0.0860761
0 0.278859 0.069688
0 0.272526 0.0689403
0 0.264591 0.0679942
0.369345 0.257603 0.00860609
0.680354 0.234073 0.0517586
0.828275 0.176669 0.0966049
0.789349 0.0475929 0.0860761
0.789349 0.0475929 0.0860761
0.789349 0.0475929 0.0860761
0 0.562203 0.121935
0 0.558755 0.120943
0 0.554574 0.119753
0 0.54313 0.116472
0.757961 0.544747 0.0053254
0.977569 0.518746 0.138323
0.987991 0.486671 0.156451
0.981323 0.463218 0.151705
0.977966 0.45449 0.149859
0 0.780102 0.25449
0 0.778454 0.252628
0 0.776471 0.25037
0 0.770886 0.244526
0.417594 0.795377 0.16202
0.988724 0.761074 0.0524605
1 0.746166 0.16614
1 0.737774 0.167437
1 0.734462 0.167941
0.00157168 0.857114 0.350179
0.00157168 0.857114 0.350179
0.00157168 0.857114 0.350179
0.00157168 0.857114 0.350179
0.00157168 0.857114 0.350179
0.915663 0.883757 0.14847
0.999969 0.84828 0.140826
1 0.841108 0.150698
1 0.839216 0.150912
0.00157168 0.857114 0.350179
0.00157168 0.857114 0.350179
0.00157168 0.857114 0.350179
0.00157168 0.857114 0.350179
0.00157168 0.857114 0.350179
0.845655 0.894301 0.173068
0.999573 0.863996 0.137713
1 0.858625 0.149676
1 0.858625 0.149676
0.00157168 0.857114 0.350179
0.00157168 0.857114 0.350179
0.00157168 0.857114 0.350179
0.00157168 0.857114 0.350179
0.00157168 0.857114 0.350179
0.815793 0.89688 0.183352
0.999268 0.865187 0.136294
1 0.858625 0.149676
1 0.858625 0.149676
0.0165866 0.0348516 0.103166
0.0289006 0.0352941 0.101564
0.151095 0.0450446 0.101976
0.3019 0.053666 0.0846876
0.583673 0.0266728 0.101305
0.785046 0.053315 0.138582
0.786221 0.0540017 0.127214
0.786786 0.0542458 0.121187
0.786999 0.0539864 0.118502
0.0169528 0.0352789 0.0970626
0.0169985 0.0353246 0.0960098
0.120638 0.0426795 0.0974136
0.280766 0.0548867 0.0788281
0.573968 0.0278782 0.0940719
0.785748 0.0538033 0.132265
0.786923 0.0541085 0.119539
0.787518 0.0532387 0.111849
0.787747 0.0529183 0.10901
0.00527962 0.0923781 0.0940566
0.00364691 0.0842908 0.0906233
0.0551156 0.0801251 0.0869917
0.261921 0.0729839 0.0757305
0.562036 0.0296178 0.0850385
0.786603 0.0541695 0.123186
0.787823 0.0528115 0.108049
0.788388 0.0515145 0.100404
0.788571 0.050782 0.097734
0 0.271321 0.103563
0 0.26482 0.100069
0 0.25687 0.0960098
0.357733 0.261479 0.0411994
0.664622 0.226963 0.0709392
0.822156 0.166384 0.100191
0.789349 0.0475929 0.0860761
0.789349 0.0475929 0.0860761
0.789349 0.0475929 0.0860761
0 0.558877 0.120989
0 0.555428 0.119997
0 0.551247 0.118807
0 0.539681 0.115496
0.754162 0.540841 0.0052491
0.975616 0.514534 0.137224
0.986847 0.482185 0.15555
0.979553 0.458595 0.150729
0.97615 0.449744 0.148836
0 0.778546 0.25272
0 0.776913 0.250858
0 0.774823 0.248554
0 0.769177 0.242786
0.407187 0.79324 0.162158
0.987991 0.759411 0.0512245
1 0.744533 0.1664
1 0.735943 0.167727
1 0.732708 0.168215
0.00157168 0.857114 0.350179
0.00157168 0.857114 0.350179
0.00157168 0.857114 0.350179
0.00157168 0.857114 0.350179
0.00157168 0.857114 0.350179
0.913848 0.882826 0.14728
0.999969 0.847379 0.140291
1 0.84007 0.15082
1 0.838178 0.151034
0.00157168 0.857114 0.350179
0.00157168 0.857114 0.350179
0.00157168 0.857114 0.350179
0.00157168 0.857114 0.350179
0.00157168 0.857114 0.350179
0.842573 0.894621 0.17406
0.999542 0.864134 0.137545
1 0.858625 0.149676
1 0.858625 0.149676
0.00157168 0.857114 0.350179
0.00157168 0.857114 0.350179
0.00157168 0.857114 0.350179
0.00157168 0.857114 0.350179
0.00157168 0.857114 0.350179
0.812421 0.897154 0.184527
0.999191 0.865324 0.136233
1 0.858625 0.149676
1 0.858625 0.149676
0.0203555 0.0164645 0.25568
0.0225986 0.0167697 0.254154
0.139315 0.0267033 0.253086
0.396963 0.0265812 0.270878
0.626535 0.00030518 0.251469
0.778515 0.0361181 0.259998
0.776623 0.0379339 0.25124
0.776165 0.0387579 0.247288
0.775998 0.0390631 0.245838
0.0208133 0.0171969 0.250736
0.0208896 0.017319 0.249973
0.102861 0.0225681 0.245289
0.372274 0.0314336 0.264485
0.615732 0.000289921 0.244923
0.777005 0.0372625 0.254536
0.776059 0.0389563 0.246311
0.775601 0.0398108 0.242252
0.775433 0.0401007 0.240803
6.10361e-05 0.0833143 0.245579
0.000244144 0.0745861 0.243519
0.0375982 0.0647593 0.242771
0.337392 0.0369116 0.253895
0.601328 0.000198367 0.236469
0.776318 0.0384833 0.248631
0.775372 0.0402228 0.240223
0.774884 0.0410925 0.236072
0.774716 0.041413 0.234516
0.00102235 0.265476 0.287022
0.000946059 0.260258 0.284627
0.000747692 0.253712 0.281621
0.277226 0.289509 0.286824
0.624796 0.205921 0.219181
0.796017 0.122896 0.233402
0.774609 0.043534 0.224018
0.774899 0.0442969 0.220203
0.775006 0.0445716 0.21883
0.00015259 0.55317 0.326284
0.000122072 0.549676 0.324193
0.000106813 0.545312 0.321782
3.0518e-05 0.533394 0.314809
0.708843 0.557702 0.158221
0.940017 0.51107 0.235035
0.961868 0.47364 0.238148
0.95082 0.448936 0.231113
0.946639 0.439658 0.228489
0 0.776623 0.322805
0 0.774884 0.320043
0 0.772763 0.316701
0 0.766873 0.307149
0.338674 0.792172 0.20174
0.979217 0.757626 0.0878309
1 0.743099 0.198703
1 0.733639 0.193866
1 0.730129 0.192065
0.00157168 0.857114 0.350179
0.00157168 0.857114 0.350179
0.00157168 0.857114 0.350179
0.00157168 0.857114 0.350179
0.00157168 0.857114 0.350179
0.908583 0.880308 0.14406
0.999954 0.844831 0.138735
1 0.837324 0.151141
1 0.83537 0.151354
0.00157168 0.857114 0.350179
0.00157168 0.857114 0.350179
0.00157168 0.857114 0.350179
0.00157168 0.857114 0.350179
0.00157168 0.857114 0.350179
0.834104 0.895384 0.176913
0.999481 0.864469 0.137102
1 0.858625 0.149676
1 0.858625 0.149676
0.00157168 0.857114 0.350179
0.00157168 0.857114 0.350179
0.00157168 0.857114 0.350179
0.00157168 0.857114 0.350179
0.00157168 0.857114 0.350179
0.803326 0.897887 0.187732
0.998978 0.865675 0.136019
1 0.858625 0.149676
1 0.858625 0.149676
0.0216983 0.018555 0.472541
0.0216678 0.0185092 0.472114
0.111116 0.011429 0.470542
0.38735 0 0.496452
0.735363 0 0.543847
0.879026 0 0.538079
0.87631 0 0.531411
0.874998 0 0.528222
0.874464 0 0.526925
0.0214237 0.018265 0.469642
0.0213779 0.0182193 0.469215
0.0712902 0.0153201 0.467124
0.359258 0 0.48809
0.725093 0 0.539712
0.877379 0 0.53402
0.874708 0 0.527504
0.87335 0 0.524178
0.872877 0 0.523018
0.0197452 0.0215915 0.466285
0.0210422 0.0178836 0.465675
0.0209812 0.0178378 0.465126
0.324285 0 0.478813
0.712184 0 0.534661
0.875425 0 0.529244
0.872694 0 0.522576
0.871336 3.0518e-05 0.519234
0.870878 4.57771e-05 0.518059
0 0.270191 0.530205
0 0.261738 0.526558
0 0.251255 0.522164
0.198566 0.257649 0.543282
0.702647 0.141543 0.547951
0.863401 0.000259403 0.516777
0.867292 0.000244144 0.50901
0.86595 0.00030518 0.505653
0.865492 0.000335698 0.504479
0.0256809 0.546868 0.580636
0.0239109 0.544244 0.579705
0.0217746 0.54107 0.578592
0.015671 0.532433 0.575662
0.654505 0.635493 0.591028
0.881682 0.501076 0.49192
0.918288 0.441505 0.472953
0.910765 0.413748 0.468956
0.907897 0.403311 0.467506
0.0638285 0.754971 0.606043
0.0636301 0.753185 0.604746
0.0634928 0.751034 0.603265
0.0630655 0.74522 0.599176
0.145846 0.775525 0.561044
0.919066 0.79173 0.445808
0.999084 0.75668 0.455726
0.99881 0.747219 0.453147
0.998688 0.743679 0.45211
0.027451 0.861753 0.629099
0.0271153 0.86183 0.62858
0.0267338 0.861921 0.627985
0.025742 0.86215 0.626444
0.0232548 0.86273 0.622599
0.776745 0.91928 0.404105
0.995941 0.862333 0.357214
1 0.854597 0.37702
1 0.852323 0.377111
0.0177462 0.864027 0.614038
0.0174105 0.864103 0.613535
0.0171206 0.864179 0.612924
0.0164492 0.864393 0.611261
0.0147707 0.864881 0.607141
0.687617 0.934844 0.431342
0.98732 0.889464 0.311971
1 0.883406 0.343297
1 0.883238 0.342229
0.0152743 0.864744 0.608377
0.0150607 0.864805 0.607843
0.0147707 0.864881 0.607141
0.0140536 0.865095 0.605386
0.0123445 0.865599 0.60119
0.653132 0.933501 0.437842
0.982223 0.890181 0.301335
0.999985 0.882567 0.337362
1 0.882414 0.336507
0.0422065 0.0575113 0.674784
0.0421759 0.0574197 0.67451
0.0498817 0.0582589 0.67422
0.373571 0.0397192 0.695598
0.734203 0 0.746029
0.92314 0.0128023 0.779751
0.922805 0.0121309 0.776761
0.922652 0.0117952 0.775311
0.922591 0.0116732 0.774731
0.0419928 0.0570077 0.673136
0.0419623 0.0569162 0.672862
0.0419165 0.0568093 0.672496
0.344656 0.0429999 0.691035
0.72285 0 0.74165
0.922942 0.0124056 0.778012
0.922621 0.0117342 0.775021
0.922438 0.0113832 0.773465
0.922393 0.0112764 0.772992
0.0417182 0.0563668 0.671016
0.0416876 0.0562753 0.670741
0.0416419 0.056199 0.670466
0.306462 0.0462654 0.685115
0.707881 0 0.73608
0.920592 0.0113985 0.775692
0.922377 0.0112306 0.772793
0.92221 0.0109102 0.771344
0.922148 0.0107729 0.770764
0.0158083 0.23032 0.713252
0.0163882 0.220081 0.709651
0.0171359 0.207416 0.705242
0.151614 0.201053 0.710796
0.670024 0.021622 0.729793
0.912276 0.00849927 0.769421
0.921706 0.00988785 0.766796
0.921569 0.00970474 0.765301
0.921508 0.00962844 0.764691
0.00108339 0.591684 0.809674
0.00115969 0.587945 0.808499
0.00122072 0.583505 0.80705
0.00140383 0.570962 0.803098
0.57995 0.598917 0.829801
0.943481 0.517494 0.813016
0.98761 0.453101 0.791959
0.984161 0.418952 0.787869
0.982589 0.405676 0.786267
0.0630808 0.764218 0.814664
0.0621042 0.763088 0.814298
0.0608988 0.761669 0.813794
0.0575875 0.7579 0.812558
0.116243 0.762295 0.806653
0.876997 0.866255 0.819821
0.992111 0.786419 0.749584
0.990814 0.773541 0.745769
0.990326 0.768765 0.74432
0.151385 0.828275 0.806455
0.151583 0.828229 0.806134
0.151766 0.828183 0.805814
0.15108 0.826749 0.804547
0.145327 0.819165 0.800412
0.719463 0.963317 0.797284
0.987137 0.940841 0.738094
0.999908 0.920272 0.730388
0.999893 0.917586 0.730282
0.154696 0.827939 0.798535
0.154772 0.827939 0.798321
0.154879 0.827939 0.798032
0.155154 0.827939 0.797208
0.155871 0.827924 0.795148
0.622232 0.96405 0.790936
0.95494 0.978866 0.712902
0.999435 0.957 0.69099
0.999756 0.956207 0.690135
0.155673 0.827924 0.795727
0.155749 0.827924 0.795514
0.15584 0.827924 0.795224
0.15613 0.827924 0.7944
0.156832 0.827924 0.79234
0.58262 0.955276 0.786389
0.941283 0.981033 0.712795
0.996139 0.957839 0.685969
0.999756 0.954879 0.68368
0.0583352 0.128756 0.794598
0.0583047 0.128527 0.794324
0.0582742 0.128298 0.794034
0.351324 0.125185 0.813535
0.730495 0.0427405 0.854215
0.935882 0.0656901 0.888029
0.937026 0.065156 0.88661
0.936919 0.0645762 0.885817
0.936873 0.0643473 0.885496
0.0581826 0.127581 0.793194
0.0581521 0.127352 0.79292
0.0581369 0.127123 0.79263
0.317601 0.125612 0.808789
0.719432 0.0455482 0.851331
0.93283 0.0635996 0.886595
0.936889 0.0644388 0.885618
0.936767 0.0638132 0.884764
0.936736 0.0636301 0.884504
0.0580148 0.126101 0.791424
0.0579843 0.125948 0.791241
0.0579538 0.125704 0.790951
0.273518 0.126314 0.802808
0.705226 0.049073 0.8477
0.929076 0.0611276 0.884886
0.936721 0.0635386 0.884367
0.936599 0.0629587 0.883589
0.936553 0.0627146 0.883253
0.0374456 0.213489 0.807111
0.0387274 0.202899 0.803891
0.0405585 0.190127 0.800168
0.128283 0.157336 0.793683
0.66276 0.0594644 0.83769
0.916747 0.0531167 0.879744
0.936233 0.0610971 0.881025
0.936126 0.0605325 0.880247
0.93608 0.0602884 0.879911
0.0105898 0.590631 0.926238
0.0107729 0.586831 0.924559
0.0109865 0.582132 0.922576
0.0116121 0.569055 0.917021
0.538094 0.587076 0.952331
0.941634 0.512306 0.963226
0.992248 0.443626 0.948775
0.987472 0.40235 0.939376
0.985229 0.386206 0.935393
0.00492866 0.801205 0.963394
0.00480659 0.799924 0.963149
0.0047303 0.798199 0.962722
0.00450141 0.793606 0.961486
0.032929 0.791745 0.959106
0.843488 0.851209 0.989349
1 0.824201 0.969329
0.999969 0.810529 0.963241
0.999969 0.805554 0.961028
0.0475013 0.864149 0.944625
0.0469673 0.863416 0.944518
0.0463417 0.862409 0.944213
0.0445258 0.859861 0.943709
0.040238 0.853529 0.942184
0.685588 0.949065 0.955612
0.983078 0.979629 0.957321
1 0.966751 0.93872
1 0.963638 0.937285
0.0565194 0.863905 0.936065
0.056733 0.863798 0.935775
0.0569619 0.863676 0.93547
0.0576181 0.86334 0.934569
0.0591592 0.862562 0.932464
0.580377 0.952285 0.943832
0.933608 0.999985 0.949615
0.999969 0.997192 0.929915
1 0.995972 0.929747
0.0587167 0.862791 0.933074
0.0588693 0.862715 0.932876
0.0591592 0.862562 0.932464
0.0598306 0.862226 0.931563
0.0613718 0.861448 0.929473
0.530266 0.942275 0.937377
0.916732 1 0.949386
0.999908 0.999908 0.920745
1 0.999466 0.91986
0.0586557 0.131502 0.797864
0.0586557 0.131502 0.797864
0.0586557 0.131502 0.797864
0.325673 0.130739 0.815381
0.722866 0.0523842 0.859113
0.93434 0.0690623 0.894118
0.938186 0.0710613 0.894743
0.938186 0.0710613 0.894743
0.938186 0.0710613 0.894743
0.0586557 0.131502 0.797864
0.0586557 0.131502 0.797864
0.0586557 0.131502 0.797864
0.290501 0.132326 0.811978
0.711894 0.0568399 0.857618
0.931334 0.0675059 0.893629
0.938186 0.0710613 0.894743
0.938186 0.0710613 0.894743
0.938186 0.0710613 0.894743
0.0586557 0.131502 0.797864
0.0586557 0.131502 0.797864
0.0586557 0.131502 0.797864
0.245106 0.134981 0.807584
0.697398 0.0627146 0.855695
0.927581 0.0655528 0.893019
0.938186 0.0710613 0.894743
0.938186 0.0710613 0.894743
0.938186 0.0710613 0.894743
0.046128 0.177996 0.806119
0.0490578 0.163806 0.802762
0.0529793 0.146151 0.798901
0.0964675 0.135668 0.798444
0.654795 0.0792401 0.850431
0.914412 0.0592966 0.890715
0.938186 0.0710613 0.894743
0.938186 0.0710613 0.894743
0.938186 0.0710613 0.894743
0.0128786 0.581918 0.945891
0.0130465 0.578149 0.944488
0.0133059 0.573236 0.942535
0.014023 0.559853 0.937224
0.519005 0.577951 0.974792
0.93489 0.50132 0.988373
0.990738 0.426642 0.975906
0.985245 0.382284 0.965866
0.982757 0.364721 0.961547
0.00247196 0.806104 0.999481
0.00254826 0.804669 0.999435
0.00263981 0.802976 0.999359
0.00289921 0.798138 0.999161
0.0212711 0.791959 0.998581
0.830365 0.844175 1
0.999771 0.828519 0.999832
1 0.815366 0.999741
1 0.810483 0.99971
0.00939956 0.883619 0.999466
0.00921645 0.882856 0.999313
0.00898756 0.881849 0.9991
0.00836194 0.879133 0.998505
0.00756847 0.872358 0.996963
0.644236 0.944366 0.993286
0.974792 0.977264 0.99823
1 0.97229 0.996551
1 0.970214 0.996643
0.0162051 0.886625 0.992615
0.0163729 0.886519 0.992355
0.016556 0.886397 0.992096
0.0170138 0.886091 0.991379
0.0180972 0.885374 0.9897
0.523781 0.950134 0.981949
0.928054 0.999512 0.998474
0.999664 0.999237 0.992554
1 0.998871 0.991806
0.0178225 0.885557 0.990143
0.0179294 0.885481 0.989975
0.0180972 0.885374 0.9897
0.0185702 0.885069 0.988998
0.0197147 0.884306 0.987228
0.468177 0.941192 0.977783
0.910491 1 0.999435
0.996216 1 0.990021
1 1 0.99028
0.0586557 0.131502 0.797864
0.0586557 0.131502 0.797864
0.0586557 0.131502 0.797864
0.315618 0.131151 0.814435
0.719753 0.0536507 0.858686
0.933501 0.0686351 0.89398
0.938186 0.0710613 0.894743
0.938186 0.0710613 0.894743
0.938186 0.0710613 0.894743
0.0586557 0.131502 0.797864
0.0586557 0.131502 0.797864
0.0586557 0.131502 0.797864
0.279988 0.13286 0.81091
0.708507 0.0582132 0.857176
0.930449 0.0670481 0.893477
0.938186 0.0710613 0.894743
0.938186 0.0710613 0.894743
0.938186 0.0710613 0.894743
0.0586557 0.131502 0.797864
0.0586557 0.131502 0.797864
0.0586557 0.131502 0.797864
0.233646 0.135744 0.806546
0.693904 0.0641337 0.855222
0.926635 0.0650797 0.892866
0.938186 0.0710613 0.894743
0.938186 0.0710613 0.894743
0.938186 0.0710613 0.894743
0.0504921 0.156939 0.801175
0.0538338 0.143969 0.798749
0.0582742 0.132494 0.79794
0.081529 0.134264 0.797879
0.650721 0.0806287 0.849973
0.913268 0.0587625 0.890517
0.938186 0.0710613 0.894743
0.938186 0.0710613 0.894743
0.938186 0.0710613 0.894743
0.013138 0.576318 0.943755
0.0133516 0.57232 0.942168
0.013611 0.567407 0.940215
0.0143435 0.553796 0.934829
0.51165 0.570764 0.972442
0.931792 0.491798 0.986847
0.989364 0.414374 0.973297
0.983291 0.368368 0.962463
0.980636 0.350118 0.9579
0.00257877 0.804059 0.999405
0.00265507 0.802625 0.999344
0.00276188 0.80087 0.999268
0.00302129 0.796033 0.999069
0.0170443 0.788128 0.998337
0.827451 0.84062 1
0.999542 0.824567 0.999817
1 0.811444 0.99971
1 0.806485 0.999695
0.00891127 0.882628 0.999588
0.00860609 0.881895 0.999619
0.00822461 0.880995 0.999649
0.00720226 0.878569 0.999756
0.00588998 0.87245 0.999878
0.635798 0.942306 0.996887
0.972869 0.975555 1
1 0.971954 1
1 0.96997 1
0.0118257 0.889525 0.999329
0.0118257 0.889525 0.999329
0.0118257 0.889525 0.999329
0.0118257 0.889525 0.999329
0.0118257 0.889525 0.999329
0.50782 0.949691 0.989731
0.920012 0.999847 1
0.999176 0.999451 1
1 0.999298 1
0.0118257 0.889525 0.999329
0.0118257 0.889525 0.999329
0.0118257 0.889525 0.999329
0.0118257 0.889525 0.999329
0.0118257 0.889525 0.999329
0.449439 0.94136 0.987884
0.899702 1 1
0.9935 1 1
1 1 1
