luts/changyun_origin/origin3.cube
TITLE "Generated by Resolve"
LUT_3D_SIZE 33
0.0394293 0.0523537 0.0580606
0.0394293 0.0523537 0.0580606
0.0394293 0.0523537 0.0580606
0.0582742 0.0529946 0.0578317
0.0916457 0.0525368 0.0550088
0.121019 0.0522774 0.0514534
0.145892 0.0516365 0.0477913
0.172946 0.0504005 0.0435492
0.20415 0.0478981 0.0373846
0.241657 0.0443885 0.0290074
0.289448 0.0484169 0.0179751
0.344747 0.0498207 0.00492866
0.407218 0.0450294 0.00584421
0.474403 0.0374762 0.002121
0.541955 0.0252842 0.00308232
0.607996 0.0145113 0.00526436
0.66923 0.0111238 0.00769055
0.721599 0.0110933 0.0102235
0.765042 0.0125734 0.0170291
0.79707 0.0161135 0.0273289
0.801297 0.0173495 0.0291752
0.801297 0.0173495 0.0291752
0.801297 0.0173495 0.0291752
0.801297 0.0173495 0.0291752
0.801297 0.0173495 0.0291752
0.801297 0.0173495 0.0291752
0.801297 0.0173495 0.0291752
0.801297 0.0173495 0.0291752
0.801297 0.0173495 0.0291752
0.801297 0.0173495 0.0291752
0.801297 0.0173495 0.0291752
0.801297 0.0173495 0.0291752
0.801297 0.0173495 0.0291752
0.0394293 0.0523537 0.0580606
0.0394293 0.0523537 0.0580606
0.0394293 0.0523537 0.0580606
0.0483101 0.0527504 0.0580606
0.0793774 0.0528878 0.0564431
0.110765 0.052369 0.0527352
0.136904 0.0518959 0.0491035
0.165133 0.0510262 0.0450141
0.197055 0.0484779 0.0388647
0.235325 0.0449378 0.0304723
0.282734 0.0469062 0.0193942
0.3393 0.0501259 0.00553903
0.402441 0.0453956 0.0062562
0.470359 0.0381018 0.00218204
0.538628 0.0259556 0.00299077
0.605432 0.014725 0.00518807
0.667247 0.0111696 0.00758373
0.720073 0.0110781 0.0100862
0.763821 0.0125124 0.0167391
0.796719 0.0160067 0.0271763
0.801297 0.0173495 0.0291752
0.801297 0.0173495 0.0291752
0.801297 0.0173495 0.0291752
0.801297 0.0173495 0.0291752
0.801297 0.0173495 0.0291752
0.801297 0.0173495 0.0291752
0.801297 0.0173495 0.0291752
0.801297 0.0173495 0.0291752
0.801297 0.0173495 0.0291752
0.801297 0.0173495 0.0291752
0.801297 0.0173495 0.0291752
0.801297 0.0173495 0.0291752
0.801297 0.0173495 0.0291752
0.0394293 0.0523537 0.0580606
0.0394293 0.0523537 0.0580606
0.0394293 0.0523537 0.0580606
0.0395972 0.0523537 0.0580606
0.066804 0.0529946 0.0573739
0.0995346 0.0523995 0.054078
0.127504 0.0521248 0.0504921
0.156741 0.0512856 0.0462196
0.189654 0.049073 0.0404059
0.22884 0.045594 0.0319524
0.275776 0.0453193 0.0208591
0.333745 0.0504311 0.0061799
0.397665 0.0457771 0.00666819
0.4663 0.0387121 0.00222782
0.535302 0.026627 0.00289921
0.602686 0.0149386 0.00511177
0.66508 0.0112154 0.0074464
0.718608 0.0110628 0.00996414
0.7626 0.0124514 0.016434
0.796368 0.0158999 0.0270237
0.801297 0.0173495 0.0291752
0.801297 0.0173495 0.0291752
0.801297 0.0173495 0.0291752
0.801297 0.0173495 0.0291752
0.801297 0.0173495 0.0291752
0.801297 0.0173495 0.0291752
0.801297 0.0173495 0.0291752
0.801297 0.0173495 0.0291752
0.801297 0.0173495 0.0291752
0.801297 0.0173495 0.0291752
0.801297 0.0173495 0.0291752
0.801297 0.0173495 0.0291752
0.801297 0.0173495 0.0291752
0.0394293 0.0523537 0.0580606
0.0394293 0.0523537 0.0580606
0.0394293 0.0523537 0.0580606
0.0394293 0.0523537 0.0580606
0.0539712 0.0529946 0.0580606
0.0873732 0.0526589 0.0555123
0.117327 0.0523537 0.051957
0.147875 0.0515755 0.0475166
0.182345 0.0496529 0.0417945
0.222034 0.0462806 0.0335088
0.268544 0.0436866 0.022385
0.328161 0.0506447 0.00732433
0.392615 0.0461891 0.0068513
0.462135 0.0393378 0.00228885
0.531991 0.0273136 0.00280766
0.600031 0.0151522 0.00503548
0.663005 0.0112764 0.00732433
0.716991 0.0110628 0.00984207
0.761379 0.0123751 0.016144
0.796002 0.0157931 0.0268559
0.801297 0.0173495 0.0291752
0.801297 0.0173495 0.0291752
0.801297 0.0173495 0.0291752
0.801297 0.0173495 0.0291752
0.801297 0.0173495 0.0291752
0.801297 0.0173495 0.0291752
0.801297 0.0173495 0.0291752
0.801297 0.0173495 0.0291752
0.801297 0.0173495 0.0291752
0.801297 0.0173495 0.0291752
0.801297 0.0173495 0.0291752
0.801297 0.0173495 0.0291752
0.801297 0.0173495 0.0291752
0.0295109 0.0607614 0.0548257
0.0309758 0.059617 0.0552682
0.0323491 0.0584268 0.0557259
0.0336919 0.0572671 0.0561685
0.041413 0.0564279 0.0562753
0.0728466 0.0556954 0.0557412
0.105119 0.0538949 0.0525063
0.138491 0.0518502 0.0488746
0.174716 0.0502632 0.0432136
0.214939 0.0469978 0.0351263
0.262348 0.0437171 0.0238956
0.322438 0.050721 0.0090486
0.387488 0.0466316 0.00621042
0.457847 0.0399939 0.00234989
0.528557 0.0280003 0.00270085
0.597253 0.0155184 0.00489815
0.660838 0.0113222 0.00720226
0.715465 0.0110475 0.00970474
0.760174 0.012314 0.0158541
0.795056 0.0156863 0.0265354
0.801297 0.0173495 0.0291752
0.801297 0.0173495 0.0291752
0.801297 0.0173495 0.0291752
0.801297 0.0173495 0.0291752
0.801297 0.0173495 0.0291752
0.801297 0.0173495 0.0291752
0.801297 0.0173495 0.0291752
0.801297 0.0173495 0.0291752
0.801297 0.0173495 0.0291752
0.801297 0.0173495 0.0291752
0.801297 0.0173495 0.0291752
0.801297 0.0173495 0.0291752
0.801297 0.0173495 0.0291752
0.018204 0.0707866 0.0507668
0.0184329 0.068864 0.0515145
0.0196231 0.0673838 0.0521096
0.0213016 0.0662547 0.0525673
0.0230259 0.0651102 0.0530404
0.0509651 0.0655833 0.0500191
0.0869459 0.0637827 0.0491493
0.119432 0.0617838 0.0450141
0.157183 0.0588083 0.0395056
0.202136 0.0532845 0.0334325
0.254353 0.0457008 0.025391
0.316716 0.0507973 0.0107729
0.382254 0.0470741 0.00555428
0.453483 0.040528 0.00254826
0.525124 0.0287022 0.00260929
0.594339 0.0160067 0.0047303
0.658671 0.0113832 0.00708019
0.713817 0.0110475 0.00958267
0.758892 0.012253 0.0155337
0.79411 0.0155795 0.026215
0.801297 0.0173495 0.0291752
0.801297 0.0173495 0.0291752
0.801297 0.0173495 0.0291752
0.801297 0.0173495 0.0291752
0.801297 0.0173495 0.0291752
0.801297 0.0173495 0.0291752
0.801297 0.0173495 0.0291752
0.801297 0.0173495 0.0291752
0.801297 0.0173495 0.0291752
0.801297 0.0173495 0.0291752
0.801297 0.0173495 0.0291752
0.801297 0.0173495 0.0291752
0.801297 0.0173495 0.0291752
0.0165103 0.0856794 0.0478676
0.0166629 0.0839551 0.0472419
0.0168154 0.0822461 0.0466163
0.0170291 0.0803998 0.0469825
0.0172732 0.0784161 0.0477607
0.0235294 0.0759747 0.0451667
0.0664378 0.0739605 0.0439155
0.108125 0.0717479 0.0422522
0.142748 0.0691691 0.0372625
0.18674 0.0652323 0.0315251
0.238544 0.0585336 0.0270848
0.299092 0.0498054 0.0189517
0.37528 0.0469978 0.00541695
0.449088 0.041001 0.00282292
0.521691 0.0294041 0.00251774
0.591531 0.0164645 0.00456245
0.656504 0.011429 0.00694286
0.712169 0.0110475 0.00950637
0.757671 0.012192 0.0152438
0.793225 0.0154726 0.0258946
0.801297 0.0173495 0.0291752
0.801297 0.0173495 0.0291752
0.801297 0.0173495 0.0291752
0.801297 0.0173495 0.0291752
0.801297 0.0173495 0.0291752
0.801297 0.0173495 0.0291752
0.801297 0.0173495 0.0291752
0.801297 0.0173495 0.0291752
0.801297 0.0173495 0.0291752
0.801297 0.0173495 0.0291752
0.801297 0.0173495 0.0291752
0.801297 0.0173495 0.0291752
0.801297 0.0173495 0.0291752
0.014847 0.101106 0.0530251
0.0150759 0.0995041 0.0525673
0.0153048 0.0977798 0.052079
0.0155337 0.0960555 0.0515908
0.0157321 0.0943313 0.0510414
0.0158541 0.0927291 0.0504616
0.0277256 0.087892 0.0479286
0.08925 0.085893 0.0428168
0.138918 0.0837262 0.0394446
0.179828 0.0820172 0.0341192
0.230365 0.0769818 0.0343023
0.288273 0.0673381 0.0248569
0.354925 0.0508278 0.0119173
0.436164 0.0404364 0.00350958
0.517372 0.0302892 0.00239567
0.588113 0.0170291 0.00436408
0.653803 0.0115053 0.00679026
0.710109 0.0110475 0.00941482
0.75613 0.0121004 0.0148775
0.792065 0.0153353 0.0254978
0.801297 0.0173495 0.0291752
0.801297 0.0173495 0.0291752
0.801297 0.0173495 0.0291752
0.801297 0.0173495 0.0291752
0.801297 0.0173495 0.0291752
0.801297 0.0173495 0.0291752
0.801297 0.0173495 0.0291752
0.801297 0.0173495 0.0291752
0.801297 0.0173495 0.0291752
0.801297 0.0173495 0.0291752
0.801297 0.0173495 0.0291752
0.801297 0.0173495 0.0291752
0.801297 0.0173495 0.0291752
0.0122377 0.122454 0.0579232
0.0124361 0.120668 0.0575875
0.0126345 0.118959 0.0572824
0.0128328 0.117113 0.0569467
0.0130465 0.115251 0.0565957
0.0132448 0.11339 0.05626
0.0135195 0.109758 0.0555886
0.0411841 0.106783 0.0507515
0.123537 0.105226 0.0465705
0.186297 0.103639 0.0416419
0.237263 0.101213 0.0365148
0.291829 0.0956588 0.0274815
0.355612 0.0840925 0.0147097
0.42739 0.0625315 0.00479133
0.502937 0.0347906 0.00236515
0.582574 0.0176852 0.00404364
0.650278 0.0115816 0.00657664
0.707347 0.0110475 0.00929274
0.754147 0.0119936 0.0143893
0.790555 0.0151675 0.024979
0.801297 0.0173495 0.0291752
0.801297 0.0173495 0.0291752
0.801297 0.0173495 0.0291752
0.801297 0.0173495 0.0291752
0.801297 0.0173495 0.0291752
0.801297 0.0173495 0.0291752
0.801297 0.0173495 0.0291752
0.801297 0.0173495 0.0291752
0.801297 0.0173495 0.0291752
0.801297 0.0173495 0.0291752
0.801297 0.0173495 0.0291752
0.801297 0.0173495 0.0291752
0.801297 0.0173495 0.0291752
0.00906386 0.152239 0.0630808
0.00926223 0.150484 0.0627909
0.00944533 0.148714 0.0624857
0.00962844 0.14696 0.0621805
0.00981155 0.145098 0.0618753
0.0100099 0.143252 0.0615549
0.0102235 0.141299 0.0612192
0.0113069 0.136156 0.0601358
0.0723735 0.135164 0.0528115
0.17322 0.132097 0.0464942
0.249607 0.12929 0.0373236
0.308232 0.125582 0.0273442
0.36701 0.11873 0.015671
0.43653 0.107408 0.00596628
0.508125 0.085069 0.00276188
0.573236 0.0400549 0.00381476
0.640406 0.0119478 0.00636301
0.703716 0.0110475 0.0091249
0.751446 0.0118563 0.0137484
0.788556 0.0149386 0.0242924
0.801297 0.0173495 0.0291752
0.801297 0.0173495 0.0291752
0.801297 0.0173495 0.0291752
0.801297 0.0173495 0.0291752
0.801297 0.0173495 0.0291752
0.801297 0.0173495 0.0291752
0.801297 0.0173495 0.0291752
0.801297 0.0173495 0.0291752
0.801297 0.0173495 0.0291752
0.801297 0.0173495 0.0291752
0.801297 0.0173495 0.0291752
0.801297 0.0173495 0.0291752
0.801297 0.0173495 0.0291752
0.00779736 0.190677 0.0687419
0.00784314 0.188968 0.0684977
0.00788891 0.187243 0.0682536
0.00794995 0.185412 0.0680095
0.00799573 0.183703 0.0677653
0.0080415 0.181872 0.0675059
0.00808728 0.180072 0.0672618
0.00814832 0.177935 0.0669413
0.0089723 0.169223 0.0654002
0.115099 0.169757 0.0533303
0.234012 0.165698 0.0410773
0.322438 0.160891 0.0262303
0.389563 0.155032 0.0139162
0.454047 0.149004 0.00601205
0.522911 0.138201 0.00321965
0.588006 0.115831 0.00421149
0.645853 0.0768597 0.00596628
0.694957 0.0249027 0.00823987
0.745052 0.0116884 0.0125734
0.785931 0.0146334 0.0233921
0.801297 0.0173495 0.0291752
0.801297 0.0173495 0.0291752
0.801297 0.0173495 0.0291752
0.801297 0.0173495 0.0291752
0.801297 0.0173495 0.0291752
0.801297 0.0173495 0.0291752
0.801297 0.0173495 0.0291752
0.801297 0.0173495 0.0291752
0.801297 0.0173495 0.0291752
0.801297 0.0173495 0.0291752
0.801297 0.0173495 0.0291752
0.801297 0.0173495 0.0291752
0.801297 0.0173495 0.0291752
0.00656138 0.236713 0.0749828
0.00660716 0.235111 0.0747692
0.00665293 0.233616 0.0745708
0.00668345 0.232013 0.0743572
0.00672923 0.230411 0.0741436
0.00677501 0.228687 0.0739147
0.00682078 0.227085 0.0737011
0.00686656 0.225147 0.0734417
0.00694286 0.2224 0.0730755
0.0259556 0.215747 0.0662394
0.172305 0.211963 0.0496681
0.307149 0.205997 0.0292821
0.405035 0.199832 0.0126497
0.480629 0.193774 0.00492866
0.546487 0.188586 0.00393683
0.607965 0.177279 0.00497444
0.66421 0.155764 0.00654612
0.712306 0.123232 0.00839246
0.750713 0.0815442 0.0119783
0.780529 0.032578 0.0206302
0.800916 0.0157626 0.0291752
0.801297 0.0173495 0.0291752
0.801297 0.0173495 0.0291752
0.801297 0.0173495 0.0291752
0.801297 0.0173495 0.0291752
0.801297 0.0173495 0.0291752
0.801297 0.0173495 0.0291752
0.801297 0.0173495 0.0291752
0.801297 0.0173495 0.0291752
0.801297 0.0173495 0.0291752
0.801297 0.0173495 0.0291752
0.801297 0.0173495 0.0291752
0.801297 0.0173495 0.0291752
0.0055848 0.290486 0.0818494
0.00560006 0.289143 0.0816663
0.00561532 0.287678 0.0814832
0.00563058 0.286213 0.0812848
0.00564584 0.284749 0.0810864
0.00564584 0.283284 0.0808881
0.0056611 0.281819 0.0806897
0.00567636 0.279973 0.0804456
0.00570687 0.277531 0.0801251
0.00573739 0.273228 0.0795453
0.0525826 0.269337 0.0649577
0.244877 0.262379 0.0388342
0.389593 0.255833 0.0145571
0.496376 0.249027 0.00514229
0.575677 0.243397 0.0043946
0.635996 0.236851 0.00576791
0.688075 0.224613 0.0074464
0.733333 0.205386 0.00920119
0.769955 0.180575 0.0125734
0.798444 0.153887 0.0187686
0.819074 0.124147 0.0277256
0.812329 0.080766 0.0289616
0.804044 0.0333257 0.0291752
0.80032 0.0130007 0.0291752
0.801221 0.0171054 0.0291752
0.801297 0.0173495 0.0291752
0.801297 0.0173495 0.0291752
0.801297 0.0173495 0.0291752
0.801297 0.0173495 0.0291752
0.801297 0.0173495 0.0291752
0.801297 0.0173495 0.0291752
0.801297 0.0173495 0.0291752
0.801297 0.0173495 0.0291752
0.00552377 0.35259 0.0917983
0.00552377 0.351293 0.0915694
0.00552377 0.350011 0.0913558
0.00552377 0.348714 0.0911269
0.00552377 0.347295 0.0908827
0.00552377 0.345998 0.0906539
0.00552377 0.344579 0.0904097
0.00552377 0.343023 0.0901503
0.00552377 0.340826 0.0897688
0.00552377 0.33785 0.08925
0.00527962 0.330388 0.088014
0.0987716 0.330922 0.0609598
0.330648 0.322362 0.0239109
0.481849 0.315877 0.00654612
0.590036 0.309377 0.00492866
0.66389 0.301579 0.00668345
0.717357 0.292714 0.00846876
0.759197 0.281239 0.0102693
0.792172 0.267262 0.0138094
0.818204 0.252354 0.0191653
0.837415 0.236591 0.0252384
0.836515 0.212573 0.0260777
0.831312 0.186267 0.0266728
0.826368 0.160372 0.0272526
0.821897 0.136065 0.0277714
0.817975 0.113802 0.0282597
0.814588 0.0940719 0.028687
0.811719 0.0771496 0.0290379
0.809308 0.0631876 0.0291752
0.807324 0.0519417 0.0291752
0.805737 0.0429541 0.0291752
0.804456 0.0356451 0.0291752
0.803708 0.0315709 0.0291752
0.00552377 0.420066 0.105699
0.00552377 0.418906 0.10544
0.00552377 0.417746 0.10518
0.00552377 0.416587 0.104906
0.00552377 0.415412 0.104646
0.00552377 0.414252 0.104387
0.00552377 0.413092 0.104128
0.00552377 0.411673 0.103807
0.00552377 0.409857 0.103395
0.00552377 0.407279 0.102815
0.00552377 0.404044 0.102083
0.00601205 0.392752 0.0989548
0.181567 0.400717 0.0525063
0.426581 0.392981 0.01355
0.576455 0.386282 0.00581369
0.675792 0.377005 0.00695811
0.7411 0.366751 0.00915541
0.785107 0.357107 0.0120089
0.816632 0.348455 0.0162814
0.839658 0.339971 0.021561
0.855055 0.329915 0.0269627
0.857908 0.314549 0.0284276
0.85417 0.296788 0.0279698
0.850706 0.280385 0.0275731
0.847547 0.265583 0.0272221
0.844816 0.252705 0.0269169
0.842542 0.241871 0.0266575
0.840726 0.233051 0.0264439
0.839231 0.225803 0.026276
0.838087 0.220264 0.026154
0.837186 0.21593 0.0260471
0.836484 0.212436 0.0260777
0.835981 0.209857 0.0261387
0.00695811 0.489677 0.123812
0.0069276 0.488685 0.123537
0.00691234 0.487678 0.123247
0.00688182 0.486671 0.122972
0.00686656 0.485786 0.122728
0.00683604 0.484779 0.122438
0.00680552 0.483772 0.122148
0.00677501 0.482521 0.121798
0.00674449 0.480888 0.12134
0.00668345 0.478752 0.120745
0.00662242 0.475975 0.119966
0.00653086 0.472343 0.118944
0.0225834 0.466667 0.104936
0.294163 0.476905 0.0439002
0.524819 0.470115 0.0119783
0.664286 0.460624 0.00735485
0.751522 0.448585 0.00976577
0.805264 0.4374 0.01355
0.839551 0.429221 0.018616
0.861616 0.422812 0.0241703
0.872786 0.414832 0.0286259
0.876631 0.404227 0.0307164
0.873884 0.390799 0.0305791
0.871412 0.378698 0.030457
0.869169 0.367895 0.0302281
0.867262 0.35877 0.0299992
0.865675 0.351217 0.0298161
0.864424 0.345266 0.0296635
0.863371 0.340307 0.0294652
0.862593 0.336599 0.0293126
0.861952 0.333623 0.0291905
0.861479 0.331395 0.029099
0.861143 0.329778 0.0290379
0.00978103 0.557961 0.14667
0.00973526 0.557153 0.146349
0.00970474 0.556313 0.146044
0.00965896 0.555474 0.145739
0.00961318 0.554635 0.145449
0.00956741 0.553796 0.145144
0.00952163 0.552972 0.144839
0.00947585 0.55201 0.144503
0.00941482 0.550698 0.14403
0.00932326 0.548898 0.143374
0.00920119 0.546517 0.142519
0.0090486 0.543526 0.141436
0.00885023 0.539574 0.140017
0.0784466 0.544442 0.106889
0.411765 0.552407 0.0413367
0.622385 0.546227 0.0130159
0.744732 0.534859 0.0107118
0.815412 0.522118 0.0149538
0.85716 0.511986 0.0211795
0.881102 0.504555 0.0276188
0.890776 0.496101 0.0309148
0.892958 0.486351 0.0322118
0.890944 0.475624 0.0318608
0.888991 0.46598 0.0315251
0.887312 0.45745 0.0314183
0.885908 0.450431 0.0313268
0.884749 0.444587 0.0312657
0.883833 0.439918 0.0312047
0.883101 0.436271 0.0311589
0.882536 0.433448 0.0311131
0.882078 0.431189 0.0310826
0.881743 0.429541 0.0310674
0.881483 0.428244 0.0310521
0.0137942 0.620951 0.17586
0.0137179 0.62034 0.175494
0.0136416 0.619715 0.175128
0.0135653 0.619089 0.174762
0.013489 0.618372 0.174334
0.0134127 0.617746 0.173968
0.0133364 0.617136 0.173602
0.0132448 0.616297 0.173098
0.0131228 0.615274 0.172488
0.0130312 0.613855 0.171786
0.0128939 0.611872 0.170825
0.0127413 0.609461 0.169635
0.0125429 0.606287 0.168078
0.0122835 0.600275 0.165057
0.208148 0.617304 0.108232
0.532937 0.625269 0.0422217
0.715038 0.61912 0.0178073
0.813169 0.607111 0.0190433
0.867796 0.595499 0.0263218
0.897917 0.58613 0.0338293
0.908934 0.575784 0.0377203
0.909499 0.564508 0.0372778
0.907637 0.554665 0.036759
0.905806 0.546441 0.0360266
0.90425 0.539361 0.0353857
0.902937 0.533455 0.0348516
0.901854 0.528588 0.0344244
0.90103 0.524773 0.0341497
0.900404 0.521767 0.0339971
0.899901 0.519341 0.0338598
0.89955 0.517601 0.0337682
0.89926 0.516213 0.0337072
0.899046 0.515175 0.0336461
0.0215763 0.675349 0.213703
0.0214694 0.674891 0.213291
0.0213321 0.674327 0.212818
0.0212253 0.673869 0.212406
0.0211032 0.673304 0.211917
0.0209659 0.672755 0.211429
0.0208591 0.672297 0.211032
0.0207065 0.671641 0.210468
0.0205081 0.670817 0.209735
0.0202487 0.669703 0.208759
0.0198978 0.668223 0.207462
0.0194858 0.666362 0.205875
0.0191348 0.663722 0.203983
0.0187076 0.660502 0.201663
0.03299 0.654627 0.186572
0.373373 0.685206 0.1122
0.651225 0.693767 0.0497139
0.796124 0.686778 0.031632
0.870466 0.675364 0.0372473
0.910948 0.664851 0.0463722
0.927428 0.653468 0.0511025
0.928573 0.640497 0.0498054
0.926192 0.629053 0.0476387
0.924269 0.621881 0.0462043
0.922621 0.615732 0.0449836
0.921294 0.610513 0.0441596
0.920226 0.606332 0.0434882
0.919371 0.60296 0.0429694
0.918685 0.60029 0.0425422
0.918181 0.598321 0.0422217
0.917769 0.596689 0.0419776
0.917479 0.595529 0.0417945
0.917235 0.594598 0.0416419
0.035462 0.721538 0.261128
0.0352789 0.721111 0.260609
0.0350958 0.720684 0.26009
0.0349126 0.720272 0.259571
0.0347295 0.719844 0.259068
0.0345312 0.719417 0.258549
0.0343481 0.719005 0.25803
0.0340887 0.71841 0.257313
0.0337987 0.717739 0.256489
0.0333867 0.716808 0.25536
0.0328679 0.715633 0.25391
0.032166 0.714015 0.251957
0.0313878 0.711955 0.249592
0.0306249 0.709331 0.246815
0.0296635 0.705989 0.24329
0.166354 0.719646 0.196994
0.539406 0.749584 0.121874
0.755398 0.754589 0.0679637
0.862577 0.746563 0.0589456
0.917067 0.735836 0.0669261
0.94258 0.724498 0.0733196
0.947433 0.711284 0.0713664
0.945235 0.698207 0.0670176
0.943084 0.69012 0.0641184
0.941558 0.684749 0.0622568
0.940307 0.680369 0.0607309
0.939269 0.676677 0.0594492
0.93846 0.673854 0.0585336
0.937835 0.671565 0.0579232
0.937331 0.669734 0.057435
0.93695 0.66836 0.0570687
0.93666 0.667338 0.0567941
0.936431 0.666529 0.0565652
0.0554971 0.758938 0.310826
0.055314 0.758663 0.31043
0.0550851 0.758328 0.309941
0.0548714 0.757992 0.309453
0.0546426 0.757656 0.308949
0.0544137 0.757321 0.308461
0.0542458 0.757046 0.308064
0.0539712 0.756649 0.307469
0.0536049 0.7561 0.306676
0.0531624 0.755428 0.305684
0.0525826 0.754559 0.304402
0.0517891 0.753201 0.302525
0.0508278 0.751492 0.300191
0.0495918 0.749325 0.29723
0.0480507 0.746609 0.293507
0.049546 0.74052 0.280858
0.381552 0.782193 0.210452
0.685374 0.805051 0.137911
0.839185 0.804211 0.099382
0.914 0.795132 0.0963607
0.950637 0.784421 0.102434
0.962051 0.771908 0.101442
0.961852 0.758755 0.0953841
0.959487 0.748165 0.0894179
0.958206 0.743587 0.0870375
0.957137 0.739834 0.0850843
0.956268 0.736706 0.0834516
0.955596 0.73431 0.0822003
0.955062 0.732448 0.0812238
0.95465 0.730968 0.0804913
0.954314 0.729778 0.0799725
0.95407 0.728908 0.0796063
0.953887 0.728252 0.0793317
0.073228 0.784466 0.349248
0.0730297 0.784192 0.348837
0.0728618 0.783978 0.348501
0.0727092 0.783764 0.348165
0.0725109 0.78349 0.347738
0.0723125 0.783215 0.347326
0.0721599 0.783001 0.34699
0.0719615 0.782727 0.346578
0.0716411 0.7823 0.345907
0.0712902 0.781811 0.345144
0.0707866 0.781094 0.34406
0.0701457 0.780224 0.342718
0.0693217 0.779095 0.340963
0.0682994 0.777676 0.338796
0.0670024 0.775876 0.336034
0.0654612 0.773754 0.332769
0.212787 0.795544 0.289097
0.587488 0.836973 0.224796
0.798413 0.846494 0.161318
0.900816 0.841215 0.136995
0.950484 0.83154 0.135058
0.970367 0.819821 0.134325
0.973953 0.807553 0.128069
0.972396 0.79649 0.120134
0.970993 0.790524 0.115663
0.970169 0.787381 0.113359
0.969512 0.784894 0.111528
0.968994 0.782925 0.110124
0.968551 0.781262 0.109071
0.9682 0.779965 0.108263
0.967926 0.778988 0.107652
0.967712 0.778195 0.107164
0.967559 0.7776 0.106783
0.0852216 0.799146 0.372808
0.0851148 0.799008 0.372595
0.0849928 0.798871 0.372381
0.0848402 0.798718 0.372107
0.0847334 0.798581 0.371893
0.0846113 0.798444 0.371664
0.0844587 0.798276 0.371389
0.0843214 0.798108 0.37113
0.0841077 0.797879 0.370748
0.0838483 0.797589 0.37026
0.0834974 0.797192 0.369604
0.0830549 0.796689 0.36878
0.0824598 0.796002 0.367666
0.0816205 0.794965 0.366003
0.0806134 0.793713 0.364004
0.0793317 0.792142 0.361471
0.0993362 0.794064 0.349218
0.473686 0.85417 0.301167
0.74284 0.876112 0.234272
0.878248 0.87509 0.187228
0.943542 0.866896 0.171435
0.972625 0.856184 0.166842
0.981521 0.845029 0.160189
0.981704 0.834714 0.151217
0.980194 0.82623 0.143832
0.979492 0.823484 0.141543
0.978958 0.821347 0.139757
0.9785 0.819547 0.138262
0.97818 0.818265 0.137194
0.97789 0.817151 0.136263
0.977691 0.816373 0.135622
0.977539 0.815778 0.135119
0.977417 0.815259 0.134691
0.0900282 0.804593 0.381735
0.0900282 0.804593 0.381735
0.0900282 0.804593 0.381735
0.0900282 0.804593 0.381735
0.0900282 0.804593 0.381735
0.0900282 0.804593 0.381735
0.0900282 0.804593 0.381735
0.0900282 0.804593 0.381735
0.0900282 0.804593 0.381735
0.0900282 0.804593 0.381735
0.0900282 0.804593 0.381735
0.0900282 0.804593 0.381735
0.0900282 0.804593 0.381735
0.0900282 0.804593 0.381735
0.0900282 0.804593 0.381735
0.0889754 0.803388 0.379767
0.0877394 0.801999 0.377493
0.357595 0.858244 0.352926
0.67866 0.896162 0.304631
0.848676 0.899962 0.241352
0.93167 0.893629 0.209445
0.970565 0.883818 0.197498
0.985122 0.873213 0.18941
0.987869 0.863371 0.179965
0.986984 0.855009 0.171099
0.986206 0.850675 0.166476
0.985779 0.848859 0.16463
0.985382 0.847257 0.163134
0.985092 0.846067 0.16202
0.984863 0.845182 0.161212
0.984695 0.844465 0.16054
0.984558 0.8439 0.160021
0.984451 0.843503 0.15964
0.0900282 0.804593 0.381735
0.0900282 0.804593 0.381735
0.0900282 0.804593 0.381735
0.0900282 0.804593 0.381735
0.0900282 0.804593 0.381735
0.0900282 0.804593 0.381735
0.0900282 0.804593 0.381735
0.0900282 0.804593 0.381735
0.0900282 0.804593 0.381735
0.0900282 0.804593 0.381735
0.0900282 0.804593 0.381735
0.0900282 0.804593 0.381735
0.0900282 0.804593 0.381735
0.0900282 0.804593 0.381735
0.0900282 0.804593 0.381735
0.0900282 0.804593 0.381735
0.0900282 0.804593 0.381735
0.246067 0.84361 0.370275
0.614939 0.903471 0.348302
0.816297 0.916304 0.288075
0.91722 0.914137 0.246799
0.965698 0.90515 0.225681
0.985885 0.894972 0.214679
0.991592 0.885481 0.20444
0.991928 0.877348 0.195178
0.991058 0.871138 0.187762
0.990662 0.869474 0.185977
0.990341 0.868086 0.184512
0.990066 0.866972 0.183337
0.989883 0.866133 0.182483
0.989731 0.865538 0.181872
0.989609 0.865019 0.181323
0.989517 0.864637 0.180926
0.0900282 0.804593 0.381735
0.0900282 0.804593 0.381735
0.0900282 0.804593 0.381735
0.0900282 0.804593 0.381735
0.0900282 0.804593 0.381735
0.0900282 0.804593 0.381735
0.0900282 0.804593 0.381735
0.0900282 0.804593 0.381735
0.0900282 0.804593 0.381735
0.0900282 0.804593 0.381735
0.0900282 0.804593 0.381735
0.0900282 0.804593 0.381735
0.0900282 0.804593 0.381735
0.0900282 0.804593 0.381735
0.0900282 0.804593 0.381735
0.0900282 0.804593 0.381735
0.0900282 0.804593 0.381735
