luts/changyun_origin/origin5.cube
TITLE "Generated by Resolve"
LUT_3D_SIZE 5
0.0228733 0.0291752 0.0276036
0.11751 0.0451362 0.0451057
0.592432 0.043183 0.052491
0.789349 0.0475929 0.0860761
0.789349 0.0475929 0.0860761
0.00395209 0.10222 0.0461738
0.0923629 0.0854505 0.045304
0.569085 0.0437629 0.0495155
0.789349 0.0475929 0.0860761
0.789349 0.0475929 0.0860761
0 0.564889 0.122728
0 0.557397 0.120562
0.76112 0.547997 0.00537118
0.988922 0.490257 0.157168
0.979446 0.458351 0.150668
0.00157168 0.857114 0.350179
0.00157168 0.857114 0.350179
0.00157168 0.857114 0.350179
0.999969 0.849073 0.141253
1 0.840009 0.15082
0.00157168 0.857114 0.350179
0.00157168 0.857114 0.350179
0.00157168 0.857114 0.350179
0.999329 0.86508 0.13637
1 0.858625 0.149676
0.0165866 0.0348516 0.103166
0.151095 0.0450446 0.101976
0.583673 0.0266728 0.101305
0.786221 0.0540017 0.127214
0.786999 0.0539864 0.118502
0.00527962 0.0923781 0.0940566
0.0551156 0.0801251 0.0869917
0.562036 0.0296178 0.0850385
0.787823 0.0528115 0.108049
0.788571 0.050782 0.097734
0 0.558877 0.120989
0 0.551247 0.118807
0.754162 0.540841 0.0052491
0.986847 0.482185 0.15555
0.97615 0.449744 0.148836
0.00157168 0.857114 0.350179
0.00157168 0.857114 0.350179
0.00157168 0.857114 0.350179
0.999969 0.847379 0.140291
1 0.838178 0.151034
0.00157168 0.857114 0.350179
0.00157168 0.857114 0.350179
0.00157168 0.857114 0.350179
0.999191 0.865324 0.136233
1 0.858625 0.149676
0.0216983 0.018555 0.472541
0.111116 0.011429 0.470542
0.735363 0 0.543847
0.87631 0 0.531411
0.874464 0 0.526925
0.0197452 0.0215915 0.466285
0.0209812 0.0178378 0.465126
0.712184 0 0.534661
0.872694 0 0.522576
0.870878 4.57771e-05 0.518059
0.0256809 0.546868 0.580636
0.0217746 0.54107 0.578592
0.654505 0.635493 0.591028
0.918288 0.441505 0.472953
0.907897 0.403311 0.467506
0.027451 0.861753 0.629099
0.0267338 0.861921 0.627985
0.0232548 0.86273 0.622599
0.995941 0.862333 0.357214
1 0.852323 0.377111
0.0152743 0.864744 0.608377
0.0147707 0.864881 0.607141
0.0123445 0.865599 0.60119
0.982223 0.890181 0.301335
1 0.882414 0.336507
0.0583352 0.128756 0.794598
0.0582742 0.128298 0.794034
0.730495 0.0427405 0.854215
0.937026 0.065156 0.88661
0.936873 0.0643473 0.885496
0.0580148 0.126101 0.791424
0.0579538 0.125704 0.790951
0.705226 0.049073 0.8477
0.936721 0.0635386 0.884367
0.936553 0.0627146 0.883253
0.0105898 0.590631 0.926238
0.0109865 0.582132 0.922576
0.538094 0.587076 0.952331
0.992248 0.443626 0.948775
0.985229 0.386206 0.935393
0.0475013 0.864149 0.944625
0.0463417 0.862409 0.944213
0.040238 0.853529 0.942184
0.983078 0.979629 0.957321
1 0.963638 0.937285
0.0587167 0.862791 0.933074
0.0591592 0.862562 0.932464
0.0613718 0.861448 0.929473
0.916732 1 0.949386
1 0.999466 0.91986
0.0586557 0.131502 0.797864
0.0586557 0.131502 0.797864
0.719753 0.0536507 0.858686
0.938186 0.0710613 0.894743
0.938186 0.0710613 0.894743
0.0586557 0.131502 0.797864
0.0586557 0.131502 0.797864
0.693904 0.0641337 0.855222
0.938186 0.0710613 0.894743
0.938186 0.0710613 0.894743
0.013138 0.576318 0.943755
0.013611 0.567407 0.940215
0.51165 0.570764 0.972442
0.989364 0.414374 0.973297
0.980636 0.350118 0.9579
0.00891127 0.882628 0.999588
0.00822461 0.880995 0.999649
0.00588998 0.87245 0.999878
0.972869 0.975555 1
1 0.96997 1
0.0118257 0.889525 0.999329
0.0118257 0.889525 0.999329
0.0118257 0.889525 0.999329
0.899702 1 1
1 1 1
