luts/changyun_origin/origin3.cube
TITLE "Generated by Resolve"
LUT_3D_SIZE 5
0.0394293 0.0523537 0.0580606
0.20415 0.0478981 0.0373846
0.66923 0.0111238 0.00769055
0.801297 0.0173495 0.0291752
0.801297 0.0173495 0.0291752
0.0122377 0.122454 0.0579232
0.123537 0.105226 0.0465705
0.650278 0.0115816 0.00657664
0.801297 0.0173495 0.0291752
0.801297 0.0173495 0.0291752
0.00978103 0.557961 0.14667
0.00941482 0.550698 0.14403
0.744732 0.534859 0.0107118
0.887312 0.45745 0.0314183
0.881483 0.428244 0.0310521
0.0900282 0.804593 0.381735
0.0900282 0.804593 0.381735
0.0900282 0.804593 0.381735
0.991928 0.877348 0.195178
0.989517 0.864637 0.180926
0.0900282 0.804593 0.381735
0.0900282 0.804593 0.381735
0.0900282 0.804593 0.381735
0.993332 0.898116 0.219181
0.994751 0.886946 0.204761
0.0271305 0.0485542 0.134188
0.209079 0.0437476 0.138552
0.669108 0.00648508 0.0872206
0.801556 0.0158999 0.0516823
0.801358 0.0167086 0.0366827
0.0295567 0.108827 0.108797
0.0800336 0.0961013 0.100847
0.648478 0.00764477 0.0578012
0.801312 0.0171511 0.0310521
0.801297 0.0173495 0.0286564
0.00949111 0.552132 0.144533
0.00910964 0.544717 0.141863
0.738415 0.527535 0.0102693
0.885847 0.45008 0.0313268
0.879881 0.420325 0.03093
0.0900282 0.804593 0.381735
0.0900282 0.804593 0.381735
0.0900282 0.804593 0.381735
0.991424 0.875563 0.193164
0.988983 0.862394 0.178607
0.0900282 0.804593 0.381735
0.0900282 0.804593 0.381735
0.0900282 0.804593 0.381735
0.992996 0.898482 0.219638
0.994751 0.886946 0.204761
0.00601205 0.0110628 0.386969
0.096025 0.0149844 0.403632
0.736019 0.00808728 0.575692
0.82031 0.0168002 0.559472
0.820111 0.0166934 0.555718
0.00759899 0.0129397 0.382879
0.00610361 0.0111696 0.382391
0.717556 0.00729381 0.56762
0.819898 0.0166018 0.552087
0.819699 0.0165408 0.548302
0.141253 0.543038 0.551995
0.139437 0.535668 0.54847
0.632715 0.621332 0.582574
0.874235 0.447822 0.498116
0.868788 0.408621 0.494224
0.183948 0.798306 0.608316
0.183474 0.79826 0.607187
0.18114 0.797971 0.601785
0.983688 0.888258 0.361471
0.992645 0.876722 0.369741
0.174823 0.797345 0.587457
0.174258 0.797314 0.586221
0.171511 0.797131 0.580194
0.971084 0.914794 0.325887
0.998383 0.903975 0.332708
0.0141909 0.0140841 0.511101
0.0141909 0.0140688 0.511086
0.716548 0.0341497 0.8
0.843198 0.0896315 0.833707
0.843183 0.0895247 0.8336
0.0141909 0.0139925 0.511009
0.0141909 0.0139773 0.510994
0.692103 0.0308537 0.794186
0.843168 0.0894026 0.833509
0.843153 0.0892958 0.833417
0.137819 0.504753 0.722667
0.135485 0.49575 0.719188
0.509911 0.55465 0.782055
0.885939 0.430732 0.878401
0.876738 0.370657 0.868544
0.242878 0.82591 0.83772
0.242161 0.824445 0.836957
0.238437 0.816693 0.832975
0.969436 0.970062 0.917342
0.993042 0.95729 0.905547
0.243595 0.827848 0.834897
0.243565 0.827817 0.834699
0.243427 0.827619 0.833661
0.922515 0.993774 0.905989
0.999985 0.987655 0.892882
0.0141909 0.0141909 0.511193
0.0141909 0.0141909 0.511193
0.704768 0.0324407 0.797253
0.84332 0.0904555 0.834379
0.84332 0.0904555 0.834379
0.0141909 0.0141909 0.511193
0.0141909 0.0141909 0.511193
0.678538 0.0295109 0.790951
0.84332 0.0904555 0.834379
0.84332 0.0904555 0.834379
0.13196 0.481849 0.714595
0.129351 0.47187 0.710536
0.476051 0.52372 0.771862
0.880354 0.392966 0.880842
0.870741 0.3252 0.869581
0.243763 0.825879 0.854612
0.24303 0.824353 0.853895
0.238941 0.815824 0.849928
0.961868 0.966842 0.957443
1 0.962539 0.956695
0.246845 0.832303 0.857603
0.246845 0.832303 0.857603
0.246845 0.832303 0.857603
0.918608 0.990616 0.953445
1 1 0.952041
