luts/changyun_origin/origin1.cube
TITLE "Generated by Resolve"
LUT_3D_SIZE 33
0.0362707 0.057435 0.0656443
0.0362707 0.057435 0.0656443
0.0362707 0.057435 0.0656443
0.0620432 0.0568246 0.0623789
0.096849 0.0563821 0.0582437
0.127886 0.0561379 0.0545663
0.154147 0.0554055 0.0505074
0.18265 0.0538338 0.0458839
0.215808 0.0514534 0.0394293
0.255344 0.0479438 0.0305943
0.306752 0.0521553 0.0192111
0.366415 0.0536507 0.00535592
0.434684 0.0482338 0.0056611
0.508751 0.0392004 0.00173953
0.583627 0.0257877 0.00157168
0.657099 0.0134585 0.00280766
0.725078 0.00936904 0.00482185
0.783154 0.00866712 0.00706493
0.831083 0.00952163 0.0138705
0.865522 0.0135805 0.0249638
0.870588 0.0141909 0.0268101
0.870588 0.0141909 0.0268101
0.870588 0.0141909 0.0268101
0.870588 0.0141909 0.0268101
0.870588 0.0141909 0.0268101
0.870588 0.0141909 0.0268101
0.870588 0.0141909 0.0268101
0.870588 0.0141909 0.0268101
0.870588 0.0141909 0.0268101
0.870588 0.0141909 0.0268101
0.870588 0.0141909 0.0268101
0.870588 0.0141909 0.0268101
0.870588 0.0141909 0.0268101
0.0362707 0.057435 0.0656443
0.0362707 0.057435 0.0656443
0.0362707 0.057435 0.0656443
0.0492561 0.0570687 0.0639506
0.0838941 0.0567178 0.0599527
0.117037 0.0562142 0.0558938
0.144701 0.0557565 0.0519875
0.174258 0.0544137 0.0472877
0.208347 0.0520027 0.0410925
0.248646 0.0485237 0.0320897
0.299657 0.0505226 0.020737
0.360479 0.0539101 0.00611887
0.429419 0.0487221 0.00613413
0.504295 0.0398566 0.00178531
0.579919 0.0264897 0.00157168
0.654292 0.0137331 0.00276188
0.722896 0.00944533 0.00476081
0.781445 0.00866712 0.00694286
0.82974 0.00952163 0.0135805
0.865095 0.0135348 0.0248112
0.870588 0.0141909 0.0268101
0.870588 0.0141909 0.0268101
0.870588 0.0141909 0.0268101
0.870588 0.0141909 0.0268101
0.870588 0.0141909 0.0268101
0.870588 0.0141909 0.0268101
0.870588 0.0141909 0.0268101
0.870588 0.0141909 0.0268101
0.870588 0.0141909 0.0268101
0.870588 0.0141909 0.0268101
0.870588 0.0141909 0.0268101
0.870588 0.0141909 0.0268101
0.870588 0.0141909 0.0268101
0.0362707 0.057435 0.0656443
0.0362707 0.057435 0.0656443
0.0362707 0.057435 0.0656443
0.0365301 0.057435 0.0656138
0.0708324 0.0568246 0.0614481
0.10518 0.0562448 0.0572213
0.134737 0.0559854 0.0535134
0.165484 0.0548562 0.0486915
0.20058 0.0525826 0.0428321
0.24181 0.0491798 0.0336156
0.292287 0.0488441 0.0223087
0.354406 0.0541695 0.00689708
0.42417 0.0491951 0.00660716
0.49984 0.0405127 0.00184634
0.576226 0.0272068 0.00157168
0.651255 0.0140383 0.00271611
0.7205 0.00950637 0.00468452
0.779828 0.00866712 0.00682078
0.828397 0.00952163 0.0132906
0.864668 0.013489 0.0246586
0.870588 0.0141909 0.0268101
0.870588 0.0141909 0.0268101
0.870588 0.0141909 0.0268101
0.870588 0.0141909 0.0268101
0.870588 0.0141909 0.0268101
0.870588 0.0141909 0.0268101
0.870588 0.0141909 0.0268101
0.870588 0.0141909 0.0268101
0.870588 0.0141909 0.0268101
0.870588 0.0141909 0.0268101
0.870588 0.0141909 0.0268101
0.870588 0.0141909 0.0268101
0.870588 0.0141909 0.0268101
0.0362707 0.057435 0.0656443
0.0362707 0.057435 0.0656443
0.0362707 0.057435 0.0656443
0.0362707 0.057435 0.0656443
0.057557 0.0568246 0.0628672
0.0923323 0.0564889 0.0588388
0.12398 0.056199 0.0551308
0.156207 0.055314 0.0501717
0.192752 0.0531319 0.0441901
0.234638 0.0498817 0.0352178
0.284657 0.0470893 0.0239567
0.348333 0.0543526 0.00813306
0.418616 0.0496986 0.0068513
0.495262 0.0411994 0.00189212
0.572534 0.027924 0.00157168
0.648341 0.0143282 0.00265507
0.718196 0.00958267 0.00460822
0.778027 0.00866712 0.00668345
0.82707 0.00950637 0.0129854
0.864225 0.0134279 0.0244907
0.870588 0.0141909 0.0268101
0.870588 0.0141909 0.0268101
0.870588 0.0141909 0.0268101
0.870588 0.0141909 0.0268101
0.870588 0.0141909 0.0268101
0.870588 0.0141909 0.0268101
0.870588 0.0141909 0.0268101
0.870588 0.0141909 0.0268101
0.870588 0.0141909 0.0268101
0.870588 0.0141909 0.0268101
0.870588 0.0141909 0.0268101
0.870588 0.0141909 0.0268101
0.870588 0.0141909 0.0268101
0.020737 0.0677043 0.0584115
0.022858 0.0662699 0.0593729
0.0250553 0.0648356 0.0603952
0.0271763 0.0634318 0.061387
0.0389715 0.0617685 0.0612955
0.0770581 0.0595865 0.0592203
0.111101 0.0578775 0.0555886
0.14638 0.0557259 0.0517281
0.184558 0.0536965 0.0455634
0.227146 0.0506142 0.0368963
0.277928 0.0471504 0.0254673
0.342138 0.0544747 0.00991836
0.413046 0.0502174 0.00621042
0.490547 0.0419013 0.00195315
0.568719 0.0286564 0.00157168
0.645243 0.0147707 0.00262455
0.715801 0.0096437 0.00454719
0.776318 0.00866712 0.00656138
0.825727 0.00950637 0.0126955
0.863218 0.0132601 0.0241245
0.870588 0.0141909 0.0268101
0.870588 0.0141909 0.0268101
0.870588 0.0141909 0.0268101
0.870588 0.0141909 0.0268101
0.870588 0.0141909 0.0268101
0.870588 0.0141909 0.0268101
0.870588 0.0141909 0.0268101
0.870588 0.0141909 0.0268101
0.870588 0.0141909 0.0268101
0.870588 0.0141909 0.0268101
0.870588 0.0141909 0.0268101
0.870588 0.0141909 0.0268101
0.870588 0.0141909 0.0268101
0.00759899 0.0797436 0.0512093
0.00698863 0.0779889 0.0521706
0.00813306 0.0763409 0.0531319
0.0102693 0.074876 0.0540322
0.0124666 0.0733806 0.0549477
0.0527047 0.070573 0.0523079
0.0917678 0.0683604 0.0517128
0.126253 0.0664225 0.0475166
0.166415 0.0632181 0.0424201
0.213611 0.0574197 0.0355383
0.26923 0.0492714 0.026978
0.335943 0.0545968 0.0117037
0.407324 0.0507668 0.00555428
0.48574 0.0425422 0.00215152
0.564904 0.0293889 0.00157168
0.641993 0.0153048 0.00259403
0.713405 0.00972 0.00447089
0.774487 0.00866712 0.00643931
0.824308 0.00950637 0.0123903
0.862211 0.0131075 0.023743
0.870588 0.0141909 0.0268101
0.870588 0.0141909 0.0268101
0.870588 0.0141909 0.0268101
0.870588 0.0141909 0.0268101
0.870588 0.0141909 0.0268101
0.870588 0.0141909 0.0268101
0.870588 0.0141909 0.0268101
0.870588 0.0141909 0.0268101
0.870588 0.0141909 0.0268101
0.870588 0.0141909 0.0268101
0.870588 0.0141909 0.0268101
0.870588 0.0141909 0.0268101
0.870588 0.0141909 0.0268101
0.0102541 0.0940719 0.0471962
0.0106355 0.0922103 0.0465553
0.011017 0.0903487 0.0458991
0.0106661 0.0885634 0.0464179
0.0100404 0.0867475 0.0474098
0.0194553 0.0827497 0.0455634
0.0697642 0.0790112 0.0459907
0.114336 0.0769055 0.0449226
0.151064 0.0742046 0.0394293
0.197162 0.0700694 0.0335088
0.25243 0.0630503 0.0287175
0.317388 0.0537423 0.0200351
0.399771 0.0507362 0.00547799
0.480873 0.0431373 0.00242618
0.56109 0.0301366 0.00157168
0.638849 0.0158083 0.00256352
0.711009 0.00979629 0.0043946
0.772641 0.00866712 0.00636301
0.822965 0.00949111 0.0120851
0.86125 0.0129397 0.0233768
0.870588 0.0141909 0.0268101
0.870588 0.0141909 0.0268101
0.870588 0.0141909 0.0268101
0.870588 0.0141909 0.0268101
0.870588 0.0141909 0.0268101
0.870588 0.0141909 0.0268101
0.870588 0.0141909 0.0268101
0.870588 0.0141909 0.0268101
0.870588 0.0141909 0.0268101
0.870588 0.0141909 0.0268101
0.870588 0.0141909 0.0268101
0.870588 0.0141909 0.0268101
0.870588 0.0141909 0.0268101
0.00695811 0.111025 0.0522164
0.00727855 0.109224 0.0518196
0.00762951 0.107301 0.0513924
0.00798047 0.105379 0.0509651
0.00834669 0.103487 0.0504463
0.00862135 0.101732 0.0498512
0.0242466 0.0954147 0.0484932
0.0939803 0.0919051 0.0448463
0.146746 0.0897383 0.0414435
0.190326 0.0880293 0.0359655
0.243717 0.0829786 0.0364996
0.305425 0.0723888 0.0264286
0.377829 0.0548257 0.0125887
0.466682 0.0428321 0.00320439
0.556283 0.0310521 0.00157168
0.635019 0.0164492 0.002533
0.708019 0.00988785 0.0043183
0.770352 0.00866712 0.0062562
0.821271 0.00949111 0.0117189
0.860029 0.0127413 0.0229191
0.870588 0.0141909 0.0268101
0.870588 0.0141909 0.0268101
0.870588 0.0141909 0.0268101
0.870588 0.0141909 0.0268101
0.870588 0.0141909 0.0268101
0.870588 0.0141909 0.0268101
0.870588 0.0141909 0.0268101
0.870588 0.0141909 0.0268101
0.870588 0.0141909 0.0268101
0.870588 0.0141909 0.0268101
0.870588 0.0141909 0.0268101
0.870588 0.0141909 0.0268101
0.870588 0.0141909 0.0268101
0.00361639 0.134173 0.0567941
0.00383001 0.132296 0.0564584
0.00402838 0.130495 0.0561379
0.00424201 0.128527 0.0558022
0.00445563 0.126558 0.0554513
0.00468452 0.12459 0.0551003
0.00497444 0.120607 0.0543526
0.0409705 0.115175 0.0524147
0.130327 0.11284 0.0491798
0.196872 0.111238 0.0444953
0.251286 0.108736 0.0387427
0.309453 0.102739 0.02916
0.37847 0.0900282 0.0155032
0.457038 0.0667124 0.00457771
0.540475 0.0361791 0.00157168
0.62884 0.0171969 0.00242618
0.704128 0.00999466 0.00419623
0.767269 0.00866712 0.00613413
0.819089 0.00947585 0.0112459
0.858396 0.0124819 0.0223087
0.870588 0.0141909 0.0268101
0.870588 0.0141909 0.0268101
0.870588 0.0141909 0.0268101
0.870588 0.0141909 0.0268101
0.870588 0.0141909 0.0268101
0.870588 0.0141909 0.0268101
0.870588 0.0141909 0.0268101
0.870588 0.0141909 0.0268101
0.870588 0.0141909 0.0268101
0.870588 0.0141909 0.0268101
0.870588 0.0141909 0.0268101
0.870588 0.0141909 0.0268101
0.870588 0.0141909 0.0268101
0.000961318 0.166003 0.0619364
0.00109865 0.164111 0.0616465
0.00123598 0.162219 0.0613413
0.00137331 0.160342 0.0610513
0.0015259 0.158358 0.0607462
0.00166323 0.156374 0.0604257
0.00181582 0.154284 0.0601053
0.00331121 0.148852 0.0590066
0.0759747 0.144793 0.0553292
0.183062 0.141787 0.0493324
0.264332 0.139055 0.0396735
0.327214 0.13489 0.0289616
0.390967 0.12723 0.016495
0.467308 0.114656 0.00555428
0.546304 0.0900587 0.00170901
0.61857 0.041474 0.00218204
0.693156 0.0103914 0.00378424
0.763226 0.00866712 0.00596628
0.816129 0.00946059 0.0105898
0.856275 0.0121309 0.0215152
0.870588 0.0141909 0.0268101
0.870588 0.0141909 0.0268101
0.870588 0.0141909 0.0268101
0.870588 0.0141909 0.0268101
0.870588 0.0141909 0.0268101
0.870588 0.0141909 0.0268101
0.870588 0.0141909 0.0268101
0.870588 0.0141909 0.0268101
0.870588 0.0141909 0.0268101
0.870588 0.0141909 0.0268101
0.870588 0.0141909 0.0268101
0.870588 0.0141909 0.0268101
0.870588 0.0141909 0.0268101
0 0.207218 0.0677958
0 0.205402 0.0675364
0 0.203586 0.0672618
0 0.201648 0.0669871
0 0.199832 0.0667124
0 0.197894 0.0664378
1.5259e-05 0.195972 0.0661479
7.62951e-05 0.193683 0.0658274
0.00343328 0.184268 0.0641794
0.121416 0.181979 0.0562905
0.247425 0.177829 0.0439612
0.342412 0.172717 0.0281224
0.415625 0.165988 0.0146181
0.486778 0.159014 0.00576791
0.562829 0.146822 0.00230411
0.635096 0.122164 0.00238041
0.699336 0.0800031 0.00355535
0.75375 0.0243992 0.00541695
0.809094 0.00883497 0.00946059
0.853483 0.0116732 0.0204623
0.870588 0.0141909 0.0268101
0.870588 0.0141909 0.0268101
0.870588 0.0141909 0.0268101
0.870588 0.0141909 0.0268101
0.870588 0.0141909 0.0268101
0.870588 0.0141909 0.0268101
0.870588 0.0141909 0.0268101
0.870588 0.0141909 0.0268101
0.870588 0.0141909 0.0268101
0.870588 0.0141909 0.0268101
0.870588 0.0141909 0.0268101
0.870588 0.0141909 0.0268101
0.870588 0.0141909 0.0268101
0 0.256291 0.074464
0 0.254582 0.0742504
0 0.252979 0.0740368
0 0.25127 0.0738231
0 0.249546 0.0735943
0 0.247715 0.0733501
0 0.245991 0.0731365
0 0.243915 0.0728618
0 0.24097 0.0724804
0.0239719 0.232395 0.0677348
0.181674 0.227222 0.0526436
0.325734 0.221195 0.0309758
0.432425 0.214054 0.0132296
0.516045 0.206958 0.00436408
0.589029 0.200549 0.00238041
0.657359 0.187839 0.00303655
0.719814 0.16405 0.00411994
0.773129 0.128847 0.00556954
0.815488 0.084062 0.00891127
0.848157 0.0318151 0.0174868
0.870207 0.0137484 0.0268101
0.870588 0.0141909 0.0268101
0.870588 0.0141909 0.0268101
0.870588 0.0141909 0.0268101
0.870588 0.0141909 0.0268101
0.870588 0.0141909 0.0268101
0.870588 0.0141909 0.0268101
0.870588 0.0141909 0.0268101
0.870588 0.0141909 0.0268101
0.870588 0.0141909 0.0268101
0.870588 0.0141909 0.0268101
0.870588 0.0141909 0.0268101
0.870588 0.0141909 0.0268101
0 0.314351 0.0822003
0 0.312886 0.082002
0 0.311315 0.0817731
0 0.309728 0.0815595
0 0.308141 0.0813458
0 0.306569 0.0811322
0 0.304982 0.0809033
0 0.303014 0.0806287
0 0.300374 0.0802777
0 0.295705 0.0796216
0.054963 0.289235 0.0683299
0.258595 0.281575 0.0413825
0.415259 0.274144 0.0153658
0.532998 0.266056 0.00453193
0.620783 0.259266 0.00280766
0.688243 0.251514 0.00370794
0.746273 0.237736 0.00483711
0.796307 0.216785 0.00631724
0.836515 0.190021 0.00962844
0.867369 0.161227 0.0162509
0.88983 0.129351 0.0253605
0.882551 0.0832227 0.0265965
0.873671 0.0332952 0.0268101
0.869657 0.0122072 0.0268101
0.870527 0.0141909 0.0268101
0.870588 0.0141909 0.0268101
0.870588 0.0141909 0.0268101
0.870588 0.0141909 0.0268101
0.870588 0.0141909 0.0268101
0.870588 0.0141909 0.0268101
0.870588 0.0141909 0.0268101
0.870588 0.0141909 0.0268101
0.870588 0.0141909 0.0268101
0 0.381353 0.0930037
0 0.379965 0.0927443
0 0.378561 0.0924849
0 0.377172 0.0922408
0 0.375631 0.0919509
0 0.374228 0.0917067
0 0.372702 0.0914321
0 0.371023 0.0911269
0 0.368643 0.0906844
0 0.365438 0.0901045
0 0.357534 0.0889296
0.104799 0.355383 0.0650797
0.3505 0.3458 0.0256657
0.51635 0.337865 0.00634775
0.635599 0.329992 0.00317388
0.7178 0.321065 0.00407416
0.777707 0.310842 0.00555428
0.824231 0.298054 0.00758373
0.860319 0.282887 0.0111849
0.888197 0.266651 0.0167239
0.90898 0.2495 0.0231785
0.908446 0.223774 0.024445
0.902907 0.195621 0.024445
0.897704 0.168002 0.0248875
0.892927 0.142092 0.0254063
0.888655 0.118303 0.0258946
0.884978 0.097322 0.0263218
0.88188 0.0793927 0.0266728
0.879286 0.0646372 0.0268101
0.87718 0.0527962 0.0268101
0.875486 0.0433051 0.0268101
0.874113 0.0356146 0.0268101
0.87332 0.0315862 0.0268101
0 0.454505 0.107744
0 0.453239 0.107469
0 0.451972 0.107195
0 0.450721 0.106905
0 0.449454 0.10663
0 0.448188 0.106355
0 0.446921 0.106081
0 0.44538 0.105745
0 0.443412 0.105318
0 0.440604 0.104692
0 0.437095 0.103929
0.00154116 0.42501 0.10074
0.192569 0.430442 0.0568551
0.454307 0.420981 0.0149691
0.619547 0.412329 0.00463874
0.730251 0.401602 0.00427253
0.803265 0.390005 0.00624094
0.852018 0.379202 0.00906386
0.886397 0.369741 0.0133364
0.910994 0.360525 0.0191958
0.927306 0.349599 0.0246433
0.9308 0.333272 0.026566
0.926863 0.314168 0.0261387
0.923232 0.296529 0.025742
0.919936 0.280629 0.0251316
0.917082 0.266804 0.0246128
0.914733 0.255177 0.024445
0.91284 0.245716 0.024445
0.911284 0.237964 0.024445
0.910094 0.232029 0.024445
0.909163 0.227375 0.024445
0.908431 0.223636 0.024445
0.907881 0.220874 0.024445
0.000640879 0.530098 0.126696
0.00062562 0.529015 0.126406
0.000595102 0.527916 0.126101
0.000579843 0.526818 0.125811
0.000549325 0.525856 0.125551
0.000534066 0.524773 0.125261
0.000503548 0.523674 0.124956
0.00047303 0.522316 0.12459
0.000427253 0.520531 0.124102
0.000381476 0.518212 0.123476
0.00030518 0.515206 0.122667
0.000228885 0.511238 0.121584
0.0221408 0.503746 0.109239
0.311238 0.511345 0.0485237
0.562142 0.502113 0.0125429
0.718364 0.490608 0.00503548
0.815274 0.476921 0.00663767
0.873899 0.464668 0.0103304
0.910628 0.455879 0.01561
0.934081 0.449104 0.0218051
0.945998 0.440665 0.0265965
0.950149 0.429358 0.0287938
0.947311 0.415015 0.0285954
0.944762 0.40209 0.0284276
0.942443 0.390524 0.0281682
0.940475 0.380743 0.0279393
0.938842 0.372656 0.0277409
0.93756 0.366262 0.0275883
0.936461 0.360937 0.0274357
0.935653 0.356954 0.0273136
0.934997 0.353765 0.0272068
0.934508 0.35137 0.0271305
0.934157 0.34963 0.0270848
0.00189212 0.604303 0.150271
0.0018616 0.603418 0.149935
0.00184634 0.602502 0.14963
0.00181582 0.601587 0.149325
0.00180056 0.600687 0.14902
0.00178531 0.599771 0.148699
0.00175479 0.598871 0.148394
0.00173953 0.597818 0.148043
0.00170901 0.596399 0.147555
0.00166323 0.594446 0.146899
0.0016022 0.591852 0.146014
0.0015259 0.588602 0.144915
0.00141909 0.584314 0.14345
0.0874952 0.585946 0.114351
0.438895 0.590799 0.0452735
0.672084 0.581933 0.0112764
0.806912 0.568231 0.00726329
0.883528 0.554177 0.0111543
0.927977 0.543343 0.0178225
0.953368 0.535622 0.0246891
0.963928 0.526894 0.0284733
0.966476 0.516716 0.0301213
0.964553 0.505379 0.0300755
0.962676 0.495155 0.0299229
0.960998 0.486107 0.0297093
0.959609 0.47866 0.0295262
0.958465 0.472465 0.0293584
0.957549 0.467491 0.0292363
0.956817 0.46363 0.02916
0.956222 0.460594 0.0291295
0.955764 0.458198 0.029099
0.955413 0.456428 0.0290837
0.955139 0.455039 0.0290684
0.00357061 0.672877 0.180041
0.00355535 0.672206 0.17966
0.00352483 0.671519 0.179294
0.00350958 0.670832 0.178927
0.00349432 0.670039 0.1785
0.00347906 0.669352 0.178134
0.0034638 0.668681 0.177752
0.00343328 0.667765 0.177264
0.00340276 0.666636 0.176654
0.00337224 0.66508 0.175937
0.00331121 0.662928 0.174945
0.00325017 0.660288 0.173739
0.00315862 0.656825 0.172152
0.0030518 0.650385 0.168963
0.226886 0.662501 0.116823
0.572519 0.666407 0.0431983
0.771115 0.656016 0.0137942
0.876738 0.641596 0.0136721
0.934462 0.628962 0.0210117
0.966323 0.619242 0.0294652
0.978668 0.60882 0.0335241
0.980331 0.597604 0.033814
0.979232 0.587655 0.0333562
0.977768 0.579217 0.0329137
0.976516 0.571969 0.0325475
0.975464 0.565911 0.0322423
0.974594 0.560906 0.0319829
0.973907 0.556954 0.0317845
0.973342 0.553811 0.031632
0.972885 0.551278 0.0314946
0.972564 0.549477 0.0314031
0.972305 0.548028 0.031342
0.972107 0.546944 0.031281
0.00657664 0.733242 0.218067
0.00653086 0.732723 0.217655
0.00646983 0.732097 0.217182
0.00642405 0.731579 0.21677
0.00637827 0.730938 0.216281
0.00631724 0.730312 0.215808
0.00627146 0.729793 0.215396
0.00621042 0.729061 0.214832
0.00613413 0.72813 0.214115
0.00601205 0.726879 0.213153
0.00587472 0.7252 0.211856
0.00569162 0.72311 0.210269
0.00553903 0.720165 0.208362
0.00534066 0.716594 0.206027
0.0298161 0.709316 0.192065
0.398795 0.732082 0.119249
0.69575 0.732509 0.0462654
0.850446 0.720668 0.0236057
0.928344 0.707301 0.0286259
0.970245 0.696086 0.0383154
0.988205 0.684794 0.0436255
0.991287 0.672374 0.0433661
0.990692 0.661433 0.0415503
0.989776 0.654521 0.0404059
0.988983 0.648615 0.0394293
0.988205 0.643458 0.0388495
0.987564 0.639323 0.0383764
0.98706 0.635996 0.0379797
0.986664 0.633371 0.0376898
0.986358 0.631418 0.0374609
0.986114 0.629816 0.0372778
0.985946 0.628672 0.0371405
0.985809 0.627756 0.0370336
0.0125734 0.785824 0.264775
0.0124819 0.785336 0.264271
0.0123903 0.784863 0.263783
0.0122988 0.784375 0.263279
0.0122072 0.783902 0.262791
0.0121157 0.783413 0.262287
0.0120241 0.78294 0.261799
0.011902 0.782254 0.261097
0.0117494 0.781491 0.260304
0.0115511 0.780438 0.25922
0.0112917 0.77908 0.257832
0.010956 0.777264 0.25594
0.0105898 0.774914 0.253635
0.0102846 0.771893 0.250889
0.00988785 0.768063 0.24741
0.176684 0.773877 0.20824
0.569741 0.791104 0.123552
0.79736 0.786648 0.0590677
0.909102 0.774701 0.0466011
0.964752 0.762661 0.0545205
0.990326 0.751202 0.0616922
0.996826 0.738796 0.0609293
0.997284 0.726726 0.0572671
0.996872 0.719234 0.0548257
0.99649 0.714229 0.0533455
0.996185 0.71017 0.0521401
0.995926 0.706722 0.051133
0.995697 0.704082 0.0504005
0.995453 0.701915 0.049897
0.99527 0.700191 0.0495003
0.995132 0.698894 0.0491951
0.995026 0.697917 0.0489662
0.994949 0.697154 0.0487984
0.0222934 0.828595 0.312627
0.0222019 0.82829 0.312245
0.0220951 0.827909 0.311757
0.0219883 0.827527 0.311284
0.0218814 0.827131 0.310796
0.0217746 0.826749 0.310323
0.0216831 0.826444 0.309941
0.021561 0.825986 0.309361
0.0213779 0.82536 0.308598
0.0211643 0.824598 0.307637
0.0208896 0.82359 0.306401
0.0205081 0.822034 0.304585
0.0200351 0.820081 0.302342
0.01944 0.817594 0.299489
0.0186923 0.814481 0.295933
0.0257725 0.80705 0.284337
0.39855 0.829297 0.219913
0.714656 0.836454 0.131655
0.874418 0.828412 0.0856489
0.950835 0.816953 0.0807355
0.986465 0.805692 0.0868544
0.997467 0.793851 0.0871443
0.999329 0.781903 0.0813153
0.999374 0.772381 0.0764324
0.999283 0.768246 0.0743877
0.999191 0.764858 0.0727092
0.999115 0.762036 0.0713207
0.999069 0.759869 0.0702373
0.999023 0.758175 0.0694133
0.998978 0.756832 0.0687724
0.998932 0.755749 0.0683299
0.998886 0.75494 0.0679942
0.998871 0.754345 0.0677501
0.0313115 0.857694 0.349981
0.0312047 0.857389 0.349584
0.0311284 0.857145 0.349248
0.0310369 0.856901 0.348928
0.03093 0.85658 0.348516
0.0308232 0.856275 0.348104
0.0307469 0.856031 0.347784
0.0306401 0.855726 0.347372
0.0304723 0.855238 0.346716
0.0302892 0.854673 0.345983
0.0300145 0.85388 0.344915
0.0296788 0.852888 0.343603
0.0292363 0.851591 0.341894
0.028687 0.849989 0.339773
0.0280003 0.847959 0.337072
0.0271763 0.845548 0.333883
0.211627 0.851865 0.300862
0.605936 0.870481 0.225269
0.823758 0.867948 0.148836
0.928527 0.858534 0.120012
0.9776 0.847791 0.117006
0.995407 0.836423 0.116594
0.999374 0.825345 0.111131
0.999878 0.815549 0.103853
0.999908 0.810269 0.0999008
0.999893 0.807492 0.0978103
0.999893 0.80528 0.0961471
0.999878 0.80354 0.0948653
0.999863 0.802045 0.0939193
0.999847 0.8009 0.0932021
0.999832 0.800015 0.0926528
0.999817 0.799313 0.092195
0.999817 0.798779 0.0918746
0.0377356 0.874159 0.372992
0.0376745 0.874022 0.372778
0.0376135 0.873869 0.372564
0.0375372 0.873686 0.372305
0.0374762 0.873533 0.372091
0.0374151 0.873381 0.371878
0.0373388 0.873198 0.371603
0.0372625 0.873014 0.371344
0.037171 0.872755 0.370962
0.0370336 0.872419 0.370489
0.0368505 0.871977 0.369848
0.0366217 0.871412 0.369055
0.0363165 0.870649 0.367956
0.0358587 0.86949 0.366339
0.0353094 0.868086 0.364385
0.0346227 0.866316 0.361913
0.0648508 0.86421 0.352529
0.483635 0.89247 0.309239
0.759747 0.896849 0.22565
0.898619 0.889067 0.17055
0.964248 0.878996 0.152407
0.991165 0.868299 0.147402
0.998642 0.858122 0.14139
0.999847 0.849058 0.133059
1 0.841703 0.12549
1 0.839292 0.1234
1 0.837415 0.121782
1 0.835843 0.120424
1 0.834714 0.119448
1 0.833738 0.118593
1 0.833066 0.118013
1 0.832547 0.117556
1 0.83209 0.117174
0.0402228 0.880247 0.381735
0.0402228 0.880247 0.381735
0.0402228 0.880247 0.381735
0.0402228 0.880247 0.381735
0.0402228 0.880247 0.381735
0.0402228 0.880247 0.381735
0.0402228 0.880247 0.381735
0.0402228 0.880247 0.381735
0.0402228 0.880247 0.381735
0.0402228 0.880247 0.381735
0.0402228 0.880247 0.381735
0.0402228 0.880247 0.381735
0.0402228 0.880247 0.381735
0.0402228 0.880247 0.381735
0.0402228 0.880247 0.381735
0.0396735 0.87892 0.379812
0.0390326 0.877363 0.377569
0.35874 0.903456 0.36556
0.688685 0.917952 0.301228
0.863111 0.911757 0.226413
0.947265 0.902541 0.190295
0.984756 0.892302 0.177127
0.997055 0.882445 0.168978
0.999603 0.873823 0.160388
0.999924 0.86659 0.151156
1 0.862867 0.146593
1 0.861295 0.144808
1 0.859922 0.14342
1 0.858885 0.142382
1 0.858122 0.141619
1 0.857496 0.140993
1 0.857008 0.14052
1 0.856672 0.140169
0.0402228 0.880247 0.381735
0.0402228 0.880247 0.381735
0.0402228 0.880247 0.381735
0.0402228 0.880247 0.381735
0.0402228 0.880247 0.381735
0.0402228 0.880247 0.381735
0.0402228 0.880247 0.381735
0.0402228 0.880247 0.381735
0.0402228 0.880247 0.381735
0.0402228 0.880247 0.381735
0.0402228 0.880247 0.381735
0.0402228 0.880247 0.381735
0.0402228 0.880247 0.381735
0.0402228 0.880247 0.381735
0.0402228 0.880247 0.381735
0.0402228 0.880247 0.381735
0.0402228 0.880247 0.381735
0.234424 0.898833 0.381537
0.620996 0.928313 0.34995
0.826291 0.927398 0.275532
0.928542 0.920562 0.228077
0.976532 0.910811 0.205051
0.994369 0.901152 0.193362
0.999008 0.892729 0.183551
0.999847 0.885756 0.174197
1 0.880461 0.167346
1 0.879042 0.165698
1 0.877867 0.164309
1 0.87689 0.163165
1 0.876188 0.162325
1 0.875669 0.161715
1 0.875212 0.161181
1 0.874891 0.1608
0.0402228 0.880247 0.381735
0.0402228 0.880247 0.381735
0.0402228 0.880247 0.381735
0.0402228 0.880247 0.381735
0.0402228 0.880247 0.381735
0.0402228 0.880247 0.381735
0.0402228 0.880247 0.381735
0.0402228 0.880247 0.381735
0.0402228 0.880247 0.381735
0.0402228 0.880247 0.381735
0.0402228 0.880247 0.381735
0.0402228 0.880247 0.381735
0.0402228 0.880247 0.381735
0.0402228 0.880247 0.381735
0.0402228 0.880247 0.381735
0.0402228 0.880247 0.381735
0.0402228 0.880247 0.381735
0.128176 0.888624 0.381216
0.559182 0.925841 0.363531
0.794842 0.928359 0.289189
0.912657 0.923003 0.237186
0.968536 0.916594 0.21474
0.99176 0.909773 0.20502
0.998306 0.903731 0.19794
0.99968 0.898909 0.19118
0.999954 0.895094 0.184955
1 0.892546 0.18143
1 0.891432 0.180133
1 0.890578 0.179126
1 0.889891 0.178347
1 0.889403 0.177768
1 0.888975 0.177264
1 0.888716 0.176974
0.0402228 0.880247 0.381735
0.0402228 0.880247 0.381735
0.0402228 0.880247 0.381735
0.0402228 0.880247 0.381735
0.0402228 0.880247 0.381735
