luts/changyun_origin/origin3.cube
TITLE "Generated by Resolve"
LUT_3D_SIZE 9
0.0394293 0.0523537 0.0580606
0.0916457 0.0525368 0.0550088
0.20415 0.0478981 0.0373846
0.407218 0.0450294 0.00584421
0.66923 0.0111238 0.00769055
0.801297 0.0173495 0.0291752
0.801297 0.0173495 0.0291752
0.801297 0.0173495 0.0291752
0.801297 0.0173495 0.0291752
0.0295109 0.0607614 0.0548257
0.041413 0.0564279 0.0562753
0.174716 0.0502632 0.0432136
0.387488 0.0466316 0.00621042
0.660838 0.0113222 0.00720226
0.801297 0.0173495 0.0291752
0.801297 0.0173495 0.0291752
0.801297 0.0173495 0.0291752
0.801297 0.0173495 0.0291752
0.0122377 0.122454 0.0579232
0.0130465 0.115251 0.0565957
0.123537 0.105226 0.0465705
0.355612 0.0840925 0.0147097
0.650278 0.0115816 0.00657664
0.801297 0.0173495 0.0291752
0.801297 0.0173495 0.0291752
0.801297 0.0173495 0.0291752
0.801297 0.0173495 0.0291752
0.0055848 0.290486 0.0818494
0.00564584 0.284749 0.0810864
0.00570687 0.277531 0.0801251
0.389593 0.255833 0.0145571
0.688075 0.224613 0.0074464
0.819074 0.124147 0.0277256
0.801221 0.0171054 0.0291752
0.801297 0.0173495 0.0291752
0.801297 0.0173495 0.0291752
0.00978103 0.557961 0.14667
0.00961318 0.554635 0.145449
0.00941482 0.550698 0.14403
0.00885023 0.539574 0.140017
0.744732 0.534859 0.0107118
0.890776 0.496101 0.0309148
0.887312 0.45745 0.0314183
0.883101 0.436271 0.0311589
0.881483 0.428244 0.0310521
0.0554971 0.758938 0.310826
0.0546426 0.757656 0.308949
0.0536049 0.7561 0.306676
0.0508278 0.751492 0.300191
0.381552 0.782193 0.210452
0.950637 0.784421 0.102434
0.958206 0.743587 0.0870375
0.955062 0.732448 0.0812238
0.953887 0.728252 0.0793317
0.0900282 0.804593 0.381735
0.0900282 0.804593 0.381735
0.0900282 0.804593 0.381735
0.0900282 0.804593 0.381735
0.0900282 0.804593 0.381735
0.91722 0.914137 0.246799
0.991928 0.877348 0.195178
0.990066 0.866972 0.183337
0.989517 0.864637 0.180926
0.0900282 0.804593 0.381735
0.0900282 0.804593 0.381735
0.0900282 0.804593 0.381735
0.0900282 0.804593 0.381735
0.0900282 0.804593 0.381735
0.864256 0.916823 0.269566
0.994125 0.896178 0.216846
0.994751 0.886946 0.204761
0.994751 0.886946 0.204761
0.0900282 0.804593 0.381735
0.0900282 0.804593 0.381735
0.0900282 0.804593 0.381735
0.0900282 0.804593 0.381735
0.0900282 0.804593 0.381735
0.838727 0.916671 0.279484
0.993332 0.898116 0.219181
0.994751 0.886946 0.204761
0.994751 0.886946 0.204761
0.0379797 0.0523537 0.0659495
0.084184 0.0527657 0.064744
0.199664 0.048127 0.045243
0.404074 0.045182 0.00694286
0.667964 0.0111543 0.00761425
0.801297 0.0173495 0.0291752
0.801297 0.0173495 0.0291752
0.801297 0.0173495 0.0291752
0.801297 0.0173495 0.0291752
0.0338598 0.0569924 0.0573281
0.0394293 0.0523537 0.0580606
0.169696 0.05066 0.0441596
0.384131 0.0469215 0.00578317
0.65948 0.0113527 0.00712596
0.801297 0.0173495 0.0291752
0.801297 0.0173495 0.0291752
0.801297 0.0173495 0.0291752
0.801297 0.0173495 0.0291752
0.0128786 0.116716 0.0568704
0.0137026 0.109606 0.0554513
0.114733 0.0992447 0.0460212
0.348287 0.076173 0.0153201
0.648905 0.0116426 0.0065156
0.801297 0.0173495 0.0291752
0.801297 0.0173495 0.0291752
0.801297 0.0173495 0.0291752
0.801297 0.0173495 0.0291752
0.00563058 0.285969 0.0812543
0.00567636 0.280095 0.0804608
0.00573739 0.27277 0.0794842
0.382681 0.250904 0.0155489
0.683696 0.219074 0.00729381
0.816724 0.113344 0.0277562
0.801297 0.0173495 0.0291752
0.801297 0.0173495 0.0291752
0.801297 0.0173495 0.0291752
0.0096437 0.555352 0.145708
0.00947585 0.55201 0.144503
0.00927749 0.547951 0.143038
0.0087129 0.536828 0.139025
0.741863 0.531548 0.0104982
0.88983 0.492897 0.0306859
0.886656 0.45417 0.0313726
0.882383 0.432731 0.0311131
0.880766 0.424704 0.0309911
0.0548257 0.757931 0.309346
0.0539712 0.756649 0.307469
0.0529488 0.755093 0.305196
0.0501564 0.750332 0.298604
0.372381 0.779812 0.209903
0.949615 0.782742 0.100999
0.957702 0.741817 0.0861067
0.954559 0.730648 0.080354
0.953323 0.726299 0.0784924
0.0900282 0.804593 0.381735
0.0900282 0.804593 0.381735
0.0900282 0.804593 0.381735
0.0900282 0.804593 0.381735
0.0900282 0.804593 0.381735
0.915831 0.913268 0.245624
0.991684 0.876509 0.194232
0.989837 0.865995 0.18233
0.989288 0.863661 0.179919
0.0900282 0.804593 0.381735
0.0900282 0.804593 0.381735
0.0900282 0.804593 0.381735
0.0900282 0.804593 0.381735
0.0900282 0.804593 0.381735
0.862333 0.916838 0.270314
0.994064 0.896345 0.21706
0.994751 0.886946 0.204761
0.994751 0.886946 0.204761
0.0900282 0.804593 0.381735
0.0900282 0.804593 0.381735
0.0900282 0.804593 0.381735
0.0900282 0.804593 0.381735
0.0900282 0.804593 0.381735
0.836378 0.91664 0.280385
0.993179 0.898283 0.219394
0.994751 0.886946 0.204761
0.994751 0.886946 0.204761
0.0271305 0.0485542 0.134188
0.0649882 0.0511025 0.134966
0.209079 0.0437476 0.138552
0.408621 0.035172 0.104112
0.669108 0.00648508 0.0872206
0.801999 0.0148165 0.0775769
0.801556 0.0158999 0.0516823
0.801373 0.0165713 0.0386511
0.801358 0.0167086 0.0366827
0.0281376 0.0493782 0.127764
0.0284276 0.0493935 0.126711
0.175021 0.0461891 0.135668
0.38735 0.0399481 0.095964
0.659968 0.0068513 0.0744335
0.801724 0.0153353 0.0625925
0.801358 0.0166629 0.0372473
0.801328 0.0169833 0.0331121
0.801312 0.0171054 0.0315862
0.0295567 0.108827 0.108797
0.0286412 0.102525 0.106966
0.0800336 0.0961013 0.100847
0.342992 0.0642252 0.0736095
0.648478 0.00764477 0.0578012
0.801434 0.0163424 0.0429999
0.801312 0.0171511 0.0310521
0.801297 0.0173495 0.0285344
0.801297 0.0173495 0.0286564
0.0090486 0.280308 0.0933242
0.00875868 0.27422 0.0907607
0.00843824 0.266804 0.087892
0.363958 0.252506 0.0204013
0.671092 0.215518 0.00776684
0.813748 0.0995499 0.0277562
0.801297 0.0173495 0.0291752
0.801297 0.0173495 0.0291752
0.801297 0.0173495 0.0291752
0.00949111 0.552132 0.144533
0.00932326 0.548775 0.143328
0.00910964 0.544717 0.141863
0.00854505 0.533486 0.137819
0.738415 0.527535 0.0102693
0.888624 0.48893 0.0304112
0.885847 0.45008 0.0313268
0.881529 0.428473 0.0310521
0.879881 0.420325 0.03093
0.0540169 0.75671 0.307561
0.0531624 0.755428 0.305684
0.0520943 0.75375 0.303258
0.0493324 0.748867 0.29659
0.360952 0.776959 0.209369
0.94844 0.780758 0.099321
0.957092 0.73962 0.0849775
0.953887 0.728252 0.0793317
0.952682 0.72401 0.0775158
0.0900282 0.804593 0.381735
0.0900282 0.804593 0.381735
0.0900282 0.804593 0.381735
0.0900282 0.804593 0.381735
0.0900282 0.804593 0.381735
0.914183 0.9122 0.244129
0.991424 0.875563 0.193164
0.989532 0.864713 0.181003
0.988983 0.862394 0.178607
0.0900282 0.804593 0.381735
0.0900282 0.804593 0.381735
0.0900282 0.804593 0.381735
0.0900282 0.804593 0.381735
0.0900282 0.804593 0.381735
0.859846 0.916854 0.27129
0.993973 0.896559 0.217319
0.994751 0.886946 0.204761
0.994751 0.886946 0.204761
0.0900282 0.804593 0.381735
0.0900282 0.804593 0.381735
0.0900282 0.804593 0.381735
0.0900282 0.804593 0.381735
0.0900282 0.804593 0.381735
0.833402 0.916609 0.281544
0.992996 0.898482 0.219638
0.994751 0.886946 0.204761
0.994751 0.886946 0.204761
0.0116579 0.0198825 0.245457
0.0231632 0.0205081 0.245777
0.178332 0.0200046 0.291096
0.449149 0.0096437 0.312184
0.694392 0.00610361 0.299809
0.808438 0.0141909 0.297581
0.808087 0.0141909 0.287022
0.807904 0.0141909 0.281804
0.807843 0.0141909 0.279896
0.0120241 0.0205692 0.242176
0.0120851 0.020676 0.241672
0.130785 0.0167544 0.267201
0.426337 0.0130007 0.306569
0.685664 0.00584421 0.292943
0.80824 0.0141909 0.291356
0.807874 0.0141909 0.280522
0.807691 0.0141909 0.275166
0.807614 0.0141909 0.273259
0.0243381 0.0836194 0.23299
0.0218357 0.0740063 0.23122
0.0485847 0.0637827 0.228473
0.387182 0.019852 0.291875
0.674266 0.00552377 0.284276
0.807965 0.0141909 0.283589
0.807599 0.0141909 0.272496
0.807401 0.0141909 0.267018
0.80734 0.0141909 0.264973
0.0712749 0.274525 0.283803
0.0698253 0.268574 0.280964
0.0679942 0.261097 0.277424
0.279377 0.282734 0.2813
0.643992 0.183474 0.222751
0.809323 0.0508125 0.246174
0.806821 0.0141909 0.249805
0.806622 0.0141909 0.2439
0.806546 0.0141909 0.241764
0.0660868 0.543648 0.308049
0.0655222 0.540383 0.305959
0.0649119 0.536294 0.303563
0.0631266 0.525109 0.296651
0.682948 0.53698 0.121096
0.871321 0.49482 0.165179
0.884611 0.459052 0.158495
0.879515 0.434119 0.15024
0.877607 0.424796 0.147265
0.0593423 0.751431 0.326863
0.05832 0.750027 0.324163
0.057084 0.748318 0.320897
0.0534981 0.743542 0.311574
0.300618 0.771603 0.227008
0.938674 0.778485 0.0967117
0.956695 0.738354 0.0889906
0.953185 0.725856 0.0819562
0.951873 0.721218 0.0796063
0.0900282 0.804593 0.381735
0.0900282 0.804593 0.381735
0.0900282 0.804593 0.381735
0.0900282 0.804593 0.381735
0.0900282 0.804593 0.381735
0.909422 0.909239 0.240009
0.990662 0.872847 0.190127
0.988739 0.861341 0.177508
0.988174 0.85893 0.175021
0.0900282 0.804593 0.381735
0.0900282 0.804593 0.381735
0.0900282 0.804593 0.381735
0.0900282 0.804593 0.381735
0.0900282 0.804593 0.381735
0.852628 0.916823 0.274098
0.993759 0.897124 0.21799
0.994751 0.886946 0.204761
0.994751 0.886946 0.204761
0.0900282 0.804593 0.381735
0.0900282 0.804593 0.381735
0.0900282 0.804593 0.381735
0.0900282 0.804593 0.381735
0.0900282 0.804593 0.381735
0.825345 0.916518 0.284672
0.992493 0.899031 0.22031
0.994751 0.886946 0.204761
0.994751 0.886946 0.204761
0.00601205 0.0110628 0.386969
0.00602731 0.0110781 0.386709
0.096025 0.0149844 0.403632
0.426001 0.00428779 0.536706
0.736019 0.00808728 0.575692
0.820615 0.0169375 0.565042
0.82031 0.0168002 0.559472
0.820157 0.0167239 0.556817
0.820111 0.0166934 0.555718
0.00604257 0.0111086 0.385183
0.00605783 0.0111086 0.384909
0.047303 0.00738537 0.385901
0.395956 0.00515755 0.526482
0.727855 0.00772107 0.572061
0.820432 0.016846 0.561654
0.820127 0.0167086 0.556207
0.819974 0.0166476 0.553429
0.819928 0.0166171 0.552453
0.00759899 0.0129397 0.382879
0.00610361 0.0111543 0.382727
0.00610361 0.0111696 0.382391
0.356695 0.00679026 0.512139
0.717556 0.00729381 0.56762
0.820203 0.0167544 0.557656
0.819898 0.0166018 0.552087
0.819745 0.0165408 0.549294
0.819699 0.0165408 0.548302
0.0669566 0.242573 0.453101
0.0648203 0.234195 0.449302
0.0621653 0.223804 0.444678
0.200778 0.238605 0.467124
0.686839 0.124895 0.554009
0.819608 0.0165103 0.548135
0.819272 0.016434 0.540642
0.81912 0.0163882 0.537789
0.819059 0.0163882 0.536812
0.141253 0.543038 0.551995
0.140429 0.539681 0.550393
0.139437 0.535668 0.54847
0.136736 0.524605 0.543328
0.632715 0.621332 0.582574
0.847395 0.493812 0.50248
0.874235 0.447822 0.498116
0.870268 0.419333 0.495247
0.868788 0.408621 0.494224
0.176593 0.739513 0.600931
0.176028 0.737987 0.599573
0.175357 0.736187 0.598032
0.173495 0.731289 0.593774
0.209003 0.731823 0.555962
0.896773 0.807675 0.43508
0.964675 0.778546 0.455711
0.961257 0.767742 0.453254
0.959976 0.763684 0.452262
0.183948 0.798306 0.608316
0.183734 0.798291 0.607797
0.183474 0.79826 0.607187
0.182803 0.798169 0.605646
0.18114 0.797971 0.601785
0.808438 0.924117 0.434089
0.983688 0.888258 0.361471
0.993088 0.878798 0.37026
0.992645 0.876722 0.369741
0.177417 0.797543 0.593179
0.177203 0.797513 0.592676
0.176928 0.797482 0.59205
0.17615 0.797436 0.590372
0.174258 0.797314 0.586221
0.725444 0.932448 0.471672
0.97644 0.913741 0.332784
0.998535 0.904723 0.34081
0.998505 0.904601 0.33959
0.174823 0.797345 0.587457
0.174578 0.79733 0.586923
0.174258 0.797314 0.586221
0.173449 0.797269 0.584451
0.171511 0.797131 0.580194
0.688991 0.928847 0.477272
0.971084 0.914794 0.325887
0.998367 0.904097 0.333837
0.998383 0.903975 0.332708
0.0132906 0.0117342 0.507103
0.0132906 0.0117342 0.506996
0.0134127 0.0100862 0.505531
0.351949 0.0214694 0.64863
0.733837 0.0184024 0.76939
0.836149 0.0479744 0.782284
0.835874 0.0465705 0.77969
0.835737 0.0458991 0.778439
0.835691 0.0456245 0.777935
0.0132448 0.0117342 0.506447
0.0132448 0.0117342 0.50634
0.0132296 0.0117342 0.506203
0.317388 0.0223545 0.629587
0.724468 0.0171664 0.766171
0.835996 0.0471504 0.780789
0.835721 0.0457618 0.778195
0.835569 0.0450294 0.776852
0.835523 0.0448157 0.776425
0.0131838 0.0117494 0.505623
0.0131838 0.0117494 0.505501
0.0131685 0.0117494 0.505394
0.273289 0.0234989 0.604654
0.711803 0.0159762 0.762112
0.835767 0.0462043 0.779278
0.835508 0.0447242 0.776272
0.83537 0.0440375 0.775006
0.835325 0.0437781 0.774502
0.0433814 0.137835 0.546181
0.0406653 0.126726 0.541909
0.0374304 0.113451 0.536828
0.109041 0.128176 0.549233
0.66772 0.0115511 0.744472
0.835142 0.0436561 0.775525
0.834958 0.0419318 0.771069
0.834836 0.041413 0.769696
0.834775 0.0412146 0.769146
0.142275 0.528527 0.690272
0.141299 0.524742 0.688746
0.140139 0.520241 0.686915
0.136889 0.507546 0.681804
0.566903 0.582971 0.749233
0.874632 0.512093 0.803143
0.884504 0.441108 0.785245
0.878523 0.404364 0.780453
0.876326 0.390204 0.778653
0.204623 0.744732 0.756237
0.204044 0.743191 0.755444
0.203296 0.741253 0.754437
0.201343 0.736065 0.751781
0.214191 0.72343 0.740841
0.893858 0.891707 0.831952
0.956771 0.820722 0.769543
0.953628 0.807004 0.766537
0.952438 0.801923 0.765408
0.234211 0.817517 0.77734
0.234165 0.817472 0.777142
0.234134 0.817441 0.776928
0.233646 0.816464 0.776013
0.231266 0.811383 0.772656
0.749081 0.948486 0.810193
0.972671 0.93753 0.745937
0.99028 0.92163 0.73341
0.989761 0.919875 0.733516
0.233143 0.816587 0.771664
0.233112 0.816556 0.771496
0.233066 0.816526 0.771267
0.232944 0.816419 0.770657
0.232654 0.816175 0.769085
0.648859 0.93254 0.803159
0.948302 0.964019 0.717937
0.995544 0.946014 0.689967
0.996033 0.945434 0.689021
0.232731 0.816251 0.769528
0.2327 0.81622 0.769375
0.232654 0.816175 0.769146
0.232547 0.816083 0.768536
0.232242 0.815824 0.766964
0.605219 0.920348 0.797024
0.938933 0.965911 0.718837
0.990097 0.947005 0.685634
0.996002 0.944549 0.682368
0.0141909 0.0140841 0.511101
0.0141909 0.0140841 0.511086
0.0141909 0.0140688 0.511086
0.289082 0.0275883 0.631327
0.716548 0.0341497 0.8
0.843153 0.0897536 0.833814
0.843198 0.0896315 0.833707
0.843198 0.0895552 0.833631
0.843183 0.0895247 0.8336
0.0141909 0.0140383 0.511055
0.0141909 0.0140383 0.511055
0.0141909 0.014023 0.51104
0.251911 0.0280461 0.61062
0.705928 0.032578 0.797482
0.843 0.0895399 0.833692
0.843198 0.0895399 0.833616
0.843183 0.0894484 0.833539
0.843183 0.0894179 0.833524
0.0141909 0.0139925 0.511009
0.0141909 0.0139773 0.511009
0.0141909 0.0139773 0.510994
0.203174 0.0276646 0.584909
0.692103 0.0308537 0.794186
0.842802 0.0892805 0.833555
0.843168 0.0894026 0.833509
0.843168 0.0893263 0.833448
0.843153 0.0892958 0.833417
0.0247959 0.0578164 0.537987
0.0226749 0.0486 0.53341
0.0204166 0.0388647 0.528084
0.0432136 0.0156863 0.521187
0.6495 0.0270695 0.783627
0.841978 0.0882124 0.833051
0.843122 0.0890669 0.833234
0.843122 0.0889906 0.833173
0.843107 0.0889601 0.833143
0.137819 0.504753 0.722667
0.136782 0.50074 0.721111
0.135485 0.49575 0.719188
0.131899 0.481865 0.713787
0.509911 0.55465 0.782055
0.874342 0.504829 0.888273
0.885939 0.430732 0.878401
0.879133 0.387381 0.871244
0.876738 0.370657 0.868544
0.205905 0.740856 0.80737
0.205264 0.739208 0.806668
0.204486 0.737118 0.805768
0.202396 0.731548 0.803388
0.201663 0.715007 0.79559
0.875349 0.88191 0.918013
0.985595 0.860288 0.926452
0.98291 0.848264 0.925582
0.981933 0.84387 0.925261
0.242878 0.82591 0.83772
0.242573 0.825284 0.837415
0.242161 0.824445 0.836957
0.241123 0.822278 0.835859
0.238437 0.816693 0.832975
0.745907 0.930648 0.905531
0.969436 0.970062 0.917342
0.993347 0.959228 0.906035
0.993042 0.95729 0.905547
0.243732 0.828046 0.835935
0.243717 0.828031 0.835828
0.243717 0.828 0.835737
0.243671 0.827939 0.835416
0.243565 0.827817 0.834699
0.6094 0.916869 0.883833
0.934401 0.994125 0.90808
0.99617 0.986175 0.899229
0.999969 0.983856 0.898787
0.243595 0.827848 0.834897
0.24358 0.827832 0.834836
0.243565 0.827817 0.834699
0.243519 0.827756 0.834394
0.243427 0.827619 0.833661
0.556573 0.905028 0.874739
0.922515 0.993774 0.905989
0.99144 0.990311 0.894163
0.999985 0.987655 0.892882
0.0141909 0.0141909 0.511193
0.0141909 0.0141909 0.511193
0.0141909 0.0141909 0.511193
0.259174 0.0279545 0.614603
0.707851 0.0328985 0.797986
0.843122 0.0903182 0.834318
0.84332 0.0904555 0.834379
0.84332 0.0904555 0.834379
0.84332 0.0904555 0.834379
0.0141909 0.0141909 0.511193
0.0141909 0.0141909 0.511193
0.0141909 0.0141909 0.511193
0.220127 0.0279393 0.593561
0.69691 0.0313726 0.795392
0.842954 0.0901961 0.834257
0.84332 0.0904555 0.834379
0.84332 0.0904555 0.834379
0.84332 0.0904555 0.834379
0.0141909 0.0141909 0.511193
0.0141909 0.0141909 0.511193
0.0141909 0.0141909 0.511193
0.167819 0.0268406 0.568109
0.682109 0.0298772 0.791806
0.842756 0.0900587 0.834195
0.84332 0.0904555 0.834379
0.84332 0.0904555 0.834379
0.84332 0.0904555 0.834379
0.0171359 0.0258335 0.520058
0.01561 0.0202182 0.515923
0.0141756 0.0148318 0.511711
0.0221714 0.0149844 0.514565
0.637598 0.0263218 0.780575
0.841871 0.0889754 0.833951
0.84332 0.0904555 0.834379
0.84332 0.0904555 0.834379
0.84332 0.0904555 0.834379
0.133577 0.48809 0.717098
0.132494 0.483894 0.715419
0.13106 0.478386 0.713191
0.127138 0.463416 0.707103
0.484733 0.532631 0.77557
0.867536 0.482124 0.891081
0.882383 0.406088 0.88307
0.87538 0.358953 0.87512
0.872831 0.34049 0.872084
0.204364 0.735592 0.814267
0.203738 0.733898 0.813565
0.202991 0.731884 0.812726
0.20087 0.726146 0.81033
0.196429 0.708797 0.803403
0.865553 0.8748 0.928603
0.98645 0.863371 0.958007
0.984009 0.851911 0.956603
0.983047 0.847532 0.956085
0.244221 0.826841 0.855024
0.2439 0.826185 0.854673
0.243488 0.82533 0.854185
0.242374 0.823026 0.852918
0.239368 0.8168 0.849531
0.720241 0.922271 0.922408
0.963394 0.968261 0.952575
0.999771 0.964096 0.949218
0.999802 0.962417 0.949203
0.246525 0.831846 0.855314
0.246509 0.83183 0.855222
0.246494 0.8318 0.855131
0.246464 0.831754 0.854902
0.246387 0.831647 0.854322
0.577234 0.910719 0.901183
0.929152 0.991196 0.944228
0.991974 0.993317 0.943099
0.999237 0.991791 0.942123
0.246403 0.831678 0.854475
0.246403 0.831662 0.854414
0.246387 0.831647 0.854322
0.246357 0.831601 0.854078
0.246265 0.831479 0.853483
0.523323 0.899138 0.892302
0.917235 0.992462 0.942611
0.984558 0.999664 0.939818
1 0.998627 0.940169
0.0141909 0.0141909 0.511193
0.0141909 0.0141909 0.511193
0.0141909 0.0141909 0.511193
0.248112 0.0280461 0.608515
0.704768 0.0324407 0.797253
0.843076 0.0902876 0.834302
0.84332 0.0904555 0.834379
0.84332 0.0904555 0.834379
0.84332 0.0904555 0.834379
0.0141909 0.0141909 0.511193
0.0141909 0.0141909 0.511193
0.0141909 0.0141909 0.511193
0.208209 0.0277104 0.587457
0.693462 0.0310216 0.794553
0.842908 0.0901656 0.834241
0.84332 0.0904555 0.834379
0.84332 0.0904555 0.834379
0.84332 0.0904555 0.834379
0.0141909 0.0141909 0.511193
0.0141909 0.0141909 0.511193
0.0141909 0.0141909 0.511193
0.15433 0.0265202 0.561959
0.678538 0.0295109 0.790951
0.84271 0.090013 0.83418
0.84332 0.0904555 0.834379
0.84332 0.0904555 0.834379
0.84332 0.0904555 0.834379
0.0149996 0.0179599 0.514168
0.0141756 0.014725 0.511635
0.0141909 0.0142367 0.511223
0.0146944 0.0139315 0.511116
0.633219 0.026276 0.77937
0.841779 0.0888685 0.833936
0.84332 0.0904555 0.834379
0.84332 0.0904555 0.834379
0.84332 0.0904555 0.834379
0.13196 0.481849 0.714595
0.130785 0.477363 0.712764
0.129351 0.47187 0.710536
0.125368 0.456641 0.704356
0.476051 0.52372 0.771862
0.864622 0.470756 0.88893
0.880354 0.392966 0.880842
0.87335 0.34432 0.872709
0.870741 0.3252 0.869581
0.203464 0.733166 0.81326
0.202838 0.731472 0.812558
0.20206 0.729381 0.811673
0.199939 0.723659 0.809293
0.194919 0.706538 0.802441
0.862654 0.871717 0.927306
0.985718 0.860334 0.957641
0.983246 0.848478 0.956191
0.982238 0.843687 0.955673
0.243763 0.825879 0.854612
0.243442 0.825193 0.854292
0.24303 0.824353 0.853895
0.241947 0.82211 0.852842
0.238941 0.815824 0.849928
0.712902 0.919661 0.923201
0.961868 0.966842 0.957443
1 0.964157 0.956451
1 0.962539 0.956695
0.246845 0.832303 0.857603
0.246845 0.832303 0.857603
0.246845 0.832303 0.857603
0.246845 0.832303 0.857603
0.246845 0.832303 0.857603
0.566598 0.90869 0.904448
0.929412 0.989227 0.953704
0.990158 0.993225 0.952636
0.999496 0.992264 0.95172
0.246845 0.832303 0.857603
0.246845 0.832303 0.857603
0.246845 0.832303 0.857603
0.246845 0.832303 0.857603
0.246845 0.832303 0.857603
0.51165 0.897063 0.896437
0.918608 0.990616 0.953445
0.981079 0.999939 0.951553
1 1 0.952041
