luts/changyun_origin/origin4.cube
TITLE "Generated by Resolve"
LUT_3D_SIZE 33
0.0236515 0.0283818 0.0236515
0.0236515 0.0283818 0.0236515
0.0236515 0.0283818 0.0236515
0.0277714 0.0288243 0.0298924
0.0603494 0.0337072 0.0299687
0.084535 0.0356756 0.0279698
0.0959945 0.0391546 0.0363622
0.119844 0.0462348 0.0398871
0.151324 0.0515908 0.0419623
0.190448 0.0559243 0.0425116
0.238788 0.0586404 0.0420233
0.294118 0.0600137 0.0400244
0.356924 0.059617 0.037705
0.426566 0.0557259 0.0356451
0.499702 0.0502937 0.0365301
0.571221 0.0475929 0.0433509
0.639109 0.0496529 0.0522774
0.700679 0.0557412 0.0626688
0.75314 0.0635691 0.0747082
0.796414 0.0737011 0.0879225
0.810101 0.0776532 0.0930037
0.810101 0.0776532 0.0930037
0.810101 0.0776532 0.0930037
0.810101 0.0776532 0.0930037
0.810101 0.0776532 0.0930037
0.810101 0.0776532 0.0930037
0.810101 0.0776532 0.0930037
0.810101 0.0776532 0.0930037
0.810101 0.0776532 0.0930037
0.810101 0.0776532 0.0930037
0.810101 0.0776532 0.0930037
0.810101 0.0776532 0.0930037
0.810101 0.0776532 0.0930037
0.0236515 0.0283818 0.0236515
0.0236515 0.0283818 0.0236515
0.0236515 0.0283818 0.0236515
0.0236362 0.0283665 0.0274205
0.0485237 0.0314183 0.0299687
0.0771344 0.0350958 0.0279545
0.0903487 0.0373083 0.0340887
0.112276 0.04477 0.0391394
0.143862 0.0504768 0.0417182
0.183825 0.055314 0.0424811
0.232654 0.0583963 0.0421759
0.288518 0.0598611 0.0402075
0.352026 0.0598001 0.0378882
0.422309 0.0559701 0.0357061
0.496056 0.0505684 0.0364385
0.56849 0.0475929 0.0430457
0.636866 0.0495308 0.0519417
0.698848 0.0554818 0.0623026
0.751659 0.0632792 0.0743267
0.79527 0.0733806 0.0874952
0.810101 0.0776532 0.0930037
0.810101 0.0776532 0.0930037
0.810101 0.0776532 0.0930037
0.810101 0.0776532 0.0930037
0.810101 0.0776532 0.0930037
0.810101 0.0776532 0.0930037
0.810101 0.0776532 0.0930037
0.810101 0.0776532 0.0930037
0.810101 0.0776532 0.0930037
0.810101 0.0776532 0.0930037
0.810101 0.0776532 0.0930037
0.810101 0.0776532 0.0930037
0.810101 0.0776532 0.0930037
0.0236515 0.0283818 0.0236515
0.0236515 0.0283818 0.0236515
0.0236515 0.0283818 0.0236515
0.0236515 0.0283818 0.0237278
0.0361944 0.0297551 0.0299229
0.0675669 0.0346838 0.0294957
0.0869001 0.0363317 0.030457
0.105165 0.0423285 0.0379187
0.136095 0.0493172 0.0414435
0.177081 0.0546426 0.0424353
0.226291 0.0581521 0.0423285
0.282795 0.0597238 0.0404059
0.347143 0.0599832 0.038056
0.418051 0.0562142 0.0357519
0.492393 0.0508431 0.036347
0.56553 0.0475929 0.04271
0.634409 0.0494087 0.0515602
0.697093 0.0552529 0.0619516
0.750164 0.0629892 0.0739605
0.794125 0.0730449 0.087068
0.810101 0.0776532 0.0930037
0.810101 0.0776532 0.0930037
0.810101 0.0776532 0.0930037
0.810101 0.0776532 0.0930037
0.810101 0.0776532 0.0930037
0.810101 0.0776532 0.0930037
0.810101 0.0776532 0.0930037
0.810101 0.0776532 0.0930037
0.810101 0.0776532 0.0930037
0.810101 0.0776532 0.0930037
0.810101 0.0776532 0.0930037
0.810101 0.0776532 0.0930037
0.810101 0.0776532 0.0930037
0.0236515 0.0283818 0.0236515
0.0236515 0.0283818 0.0236515
0.0236515 0.0283818 0.0236515
0.0236515 0.0283818 0.0236515
0.0236362 0.0283665 0.0298161
0.0562295 0.0329137 0.0299687
0.0827192 0.0353552 0.027039
0.097673 0.0397345 0.0366522
0.128969 0.0479896 0.0407874
0.170016 0.0539559 0.0423896
0.219684 0.0578775 0.0424964
0.277058 0.0595865 0.0406195
0.342016 0.0601358 0.0382391
0.413657 0.0564736 0.0358129
0.488746 0.0511177 0.0362554
0.562692 0.0475929 0.0424048
0.632044 0.0492866 0.0512093
0.695171 0.0549783 0.0615549
0.748684 0.0626993 0.073579
0.79292 0.072694 0.0866102
0.810101 0.0776532 0.0930037
0.810101 0.0776532 0.0930037
0.810101 0.0776532 0.0930037
0.810101 0.0776532 0.0930037
0.810101 0.0776532 0.0930037
0.810101 0.0776532 0.0930037
0.810101 0.0776532 0.0930037
0.810101 0.0776532 0.0930037
0.810101 0.0776532 0.0930037
0.810101 0.0776532 0.0930037
0.810101 0.0776532 0.0930037
0.810101 0.0776532 0.0930037
0.810101 0.0776532 0.0930037
0.0226902 0.0288853 0.0293584
0.0229648 0.0276646 0.0286107
0.0230716 0.0277867 0.0278019
0.0231785 0.0279088 0.0270237
0.0225986 0.0284276 0.0276036
0.0421912 0.0320439 0.0304265
0.07187 0.0358129 0.029099
0.0909438 0.0374762 0.034699
0.121569 0.0465553 0.0400549
0.162646 0.0532387 0.0423285
0.213046 0.0574502 0.0425116
0.271214 0.0594797 0.0408637
0.33698 0.0601968 0.0384375
0.409155 0.056733 0.0358587
0.484962 0.0514076 0.0361639
0.55967 0.0476234 0.0420691
0.629587 0.0491646 0.0508431
0.693339 0.0547341 0.0611887
0.747189 0.0623941 0.0731975
0.791638 0.0723735 0.0861982
0.810101 0.0776532 0.0930037
0.810101 0.0776532 0.0930037
0.810101 0.0776532 0.0930037
0.810101 0.0776532 0.0930037
0.810101 0.0776532 0.0930037
0.810101 0.0776532 0.0930037
0.810101 0.0776532 0.0930037
0.810101 0.0776532 0.0930037
0.810101 0.0776532 0.0930037
0.810101 0.0776532 0.0930037
0.810101 0.0776532 0.0930037
0.810101 0.0776532 0.0930037
0.810101 0.0776532 0.0930037
0.0180056 0.054612 0.0343786
0.0187686 0.0519875 0.0339361
0.0194247 0.0487831 0.0333257
0.0199893 0.0453956 0.0326543
0.0205539 0.0419318 0.0319524
0.0269932 0.0395361 0.031632
0.0576333 0.0417792 0.032639
0.0836957 0.0430762 0.0344549
0.115389 0.0466316 0.0387121
0.156054 0.0524453 0.0417487
0.206378 0.057084 0.0424353
0.26537 0.0593729 0.0410925
0.331823 0.0602426 0.0386358
0.404608 0.057023 0.035996
0.481193 0.0516976 0.0360723
0.556466 0.0476692 0.0417487
0.627131 0.0490272 0.0504616
0.691371 0.0544747 0.0608072
0.745632 0.062089 0.0728008
0.790372 0.0720378 0.0857862
0.810101 0.0776532 0.0930037
0.810101 0.0776532 0.0930037
0.810101 0.0776532 0.0930037
0.810101 0.0776532 0.0930037
0.810101 0.0776532 0.0930037
0.810101 0.0776532 0.0930037
0.810101 0.0776532 0.0930037
0.810101 0.0776532 0.0930037
0.810101 0.0776532 0.0930037
0.810101 0.0776532 0.0930037
0.810101 0.0776532 0.0930037
0.810101 0.0776532 0.0930037
0.810101 0.0776532 0.0930037
0.0126955 0.0744182 0.036759
0.0131075 0.0723125 0.03682
0.0135195 0.070222 0.0368963
0.0141756 0.0677501 0.0365911
0.0149691 0.0650492 0.0361334
0.0163119 0.0608225 0.035462
0.0492103 0.0554513 0.0349279
0.0887312 0.0550698 0.0379492
0.120729 0.0563363 0.0403754
0.15967 0.0589456 0.0417945
0.20528 0.0603342 0.0420386
0.260334 0.0601663 0.0401617
0.326726 0.0605325 0.038407
0.400046 0.0573129 0.0361639
0.477424 0.0519722 0.0359808
0.553399 0.047715 0.041413
0.624674 0.0489052 0.0500954
0.689433 0.0542611 0.0604562
0.744137 0.061799 0.0724346
0.789166 0.0717327 0.0853895
0.810101 0.0776532 0.0930037
0.810101 0.0776532 0.0930037
0.810101 0.0776532 0.0930037
0.810101 0.0776532 0.0930037
0.810101 0.0776532 0.0930037
0.810101 0.0776532 0.0930037
0.810101 0.0776532 0.0930037
0.810101 0.0776532 0.0930037
0.810101 0.0776532 0.0930037
0.810101 0.0776532 0.0930037
0.810101 0.0776532 0.0930037
0.810101 0.0776532 0.0930037
0.810101 0.0776532 0.0930037
0.00840772 0.0950027 0.0388342
0.00894179 0.0925917 0.0381781
0.00952163 0.0899977 0.0374762
0.0101167 0.0874037 0.0367742
0.0106203 0.0850385 0.036408
0.0110018 0.0831006 0.0364385
0.0229953 0.0809949 0.0370184
0.0855116 0.0773938 0.0389258
0.136187 0.0786755 0.0425727
0.177615 0.0795911 0.0437324
0.221698 0.0788281 0.0423285
0.272663 0.0758373 0.0390936
0.330098 0.0706951 0.0345159
0.397009 0.0619516 0.0325322
0.472663 0.0523384 0.0358587
0.54963 0.047776 0.0410315
0.621607 0.0487526 0.0496376
0.687007 0.0540017 0.0600443
0.74226 0.0614328 0.0719615
0.78761 0.0713207 0.0848859
0.810101 0.0776532 0.0930037
0.810101 0.0776532 0.0930037
0.810101 0.0776532 0.0930037
0.810101 0.0776532 0.0930037
0.810101 0.0776532 0.0930037
0.810101 0.0776532 0.0930037
0.810101 0.0776532 0.0930037
0.810101 0.0776532 0.0930037
0.810101 0.0776532 0.0930037
0.810101 0.0776532 0.0930037
0.810101 0.0776532 0.0930037
0.810101 0.0776532 0.0930037
0.810101 0.0776532 0.0930037
0.00274662 0.125582 0.0434272
0.00311284 0.12314 0.0433204
0.00344854 0.120806 0.0432288
0.00383001 0.118242 0.043122
0.00421149 0.115694 0.0430304
0.00457771 0.113146 0.0429236
0.00544747 0.109606 0.0415045
0.0467079 0.110597 0.0429236
0.133364 0.106142 0.0386206
0.2 0.109331 0.0430762
0.253223 0.108888 0.0426947
0.301747 0.10602 0.0392309
0.355642 0.101717 0.0335851
0.417243 0.0941482 0.0288853
0.480781 0.0762188 0.0284428
0.545922 0.0508736 0.0394446
0.617609 0.0485389 0.0490272
0.683757 0.0536507 0.0594644
0.739849 0.0609445 0.0713359
0.78555 0.0707866 0.0842145
0.810101 0.0776532 0.0930037
0.810101 0.0776532 0.0930037
0.810101 0.0776532 0.0930037
0.810101 0.0776532 0.0930037
0.810101 0.0776532 0.0930037
0.810101 0.0776532 0.0930037
0.810101 0.0776532 0.0930037
0.810101 0.0776532 0.0930037
0.810101 0.0776532 0.0930037
0.810101 0.0776532 0.0930037
0.810101 0.0776532 0.0930037
0.810101 0.0776532 0.0930037
0.810101 0.0776532 0.0930037
9.15541e-05 0.164248 0.0513771
0.000183108 0.162005 0.0507668
0.000259403 0.159777 0.0501564
0.000335698 0.157549 0.049546
0.000427253 0.155184 0.0489052
0.000503548 0.152834 0.048249
0.000595102 0.150378 0.0475776
0.00500496 0.146807 0.0490272
0.0958267 0.147036 0.0445563
0.196796 0.143114 0.0368353
0.277928 0.14464 0.0383917
0.342702 0.142657 0.0373083
0.395483 0.138018 0.0333562
0.452293 0.133379 0.0297246
0.513848 0.124437 0.0292821
0.572473 0.106722 0.0329595
0.62414 0.0755016 0.0417639
0.679484 0.053193 0.0587167
0.736553 0.0603037 0.0705119
0.782864 0.0700847 0.0833448
0.810101 0.0776532 0.0930037
0.810101 0.0776532 0.0930037
0.810101 0.0776532 0.0930037
0.810101 0.0776532 0.0930037
0.810101 0.0776532 0.0930037
0.810101 0.0776532 0.0930037
0.810101 0.0776532 0.0930037
0.810101 0.0776532 0.0930037
0.810101 0.0776532 0.0930037
0.810101 0.0776532 0.0930037
0.810101 0.0776532 0.0930037
0.810101 0.0776532 0.0930037
0.810101 0.0776532 0.0930037
0 0.211185 0.0579232
0 0.209125 0.0576638
0 0.207065 0.0574044
0 0.204868 0.0571145
0 0.202808 0.0568551
0 0.20061 0.0565805
0 0.198428 0.0563058
0 0.195819 0.0559548
0.0176699 0.193317 0.0536202
0.15903 0.191379 0.042359
0.27483 0.188098 0.0291142
0.367468 0.186343 0.0289921
0.441978 0.181827 0.0318456
0.500938 0.17734 0.0323796
0.556603 0.171939 0.0339971
0.610727 0.161685 0.0377508
0.660029 0.144259 0.043183
0.703075 0.118013 0.0513313
0.739574 0.0814679 0.0652628
0.779324 0.0691691 0.0821851
0.810101 0.0776532 0.0930037
0.810101 0.0776532 0.0930037
0.810101 0.0776532 0.0930037
0.810101 0.0776532 0.0930037
0.810101 0.0776532 0.0930037
0.810101 0.0776532 0.0930037
0.810101 0.0776532 0.0930037
0.810101 0.0776532 0.0930037
0.810101 0.0776532 0.0930037
0.810101 0.0776532 0.0930037
0.810101 0.0776532 0.0930037
0.810101 0.0776532 0.0930037
0.810101 0.0776532 0.0930037
0 0.264637 0.0639353
0 0.262821 0.0637369
0 0.261128 0.0635691
0 0.259312 0.063386
0 0.257481 0.0631876
0 0.255528 0.0629892
0 0.253712 0.0628061
0 0.251499 0.0625772
0 0.248371 0.0622568
0.0551156 0.248554 0.0533455
0.238132 0.244053 0.0329595
0.363928 0.238895 0.0145724
0.464576 0.235035 0.0204166
0.54641 0.229374 0.0319829
0.609766 0.224842 0.0402686
0.658763 0.218372 0.0452888
0.703212 0.207355 0.0508431
0.742885 0.191516 0.0577859
0.775876 0.170413 0.0663005
0.802274 0.143755 0.0767834
0.819577 0.109957 0.0891585
0.810101 0.0776532 0.0930037
0.810101 0.0776532 0.0930037
0.810101 0.0776532 0.0930037
0.810101 0.0776532 0.0930037
0.810101 0.0776532 0.0930037
0.810101 0.0776532 0.0930037
0.810101 0.0776532 0.0930037
0.810101 0.0776532 0.0930037
0.810101 0.0776532 0.0930037
0.810101 0.0776532 0.0930037
0.810101 0.0776532 0.0930037
0.810101 0.0776532 0.0930037
0 0.324514 0.0711833
0 0.323033 0.0710002
0 0.321416 0.0707866
0 0.319799 0.070573
0 0.318181 0.0703593
0 0.316579 0.0701457
0 0.314961 0.0699321
0 0.312947 0.0696727
0 0.310246 0.0693217
0.000320439 0.305562 0.0688487
0.114336 0.310536 0.0484779
0.328313 0.303029 0.0174716
0.460197 0.296712 0.00390631
0.566583 0.291279 0.0192264
0.648981 0.285603 0.0380865
0.708186 0.280568 0.0504616
0.752056 0.272984 0.0596017
0.787686 0.262669 0.0679789
0.817823 0.249592 0.0768902
0.842634 0.234409 0.0867781
0.863111 0.217426 0.0970321
0.849546 0.186709 0.0929732
0.83534 0.153689 0.0895094
0.822919 0.119936 0.0889601
0.812802 0.0869612 0.0918135
0.810101 0.0776532 0.0930037
0.810101 0.0776532 0.0930037
0.810101 0.0776532 0.0930037
0.810101 0.0776532 0.0930037
0.810101 0.0776532 0.0930037
0.810101 0.0776532 0.0930037
0.810101 0.0776532 0.0930037
0.810101 0.0776532 0.0930037
0 0.390188 0.0816968
0 0.388846 0.0814679
0 0.387518 0.0812543
0 0.386175 0.0810254
0 0.38471 0.080766
0 0.383368 0.0805371
0 0.381903 0.080293
0 0.380285 0.0800183
0 0.378012 0.0796216
0 0.374945 0.0791028
0.00317388 0.369268 0.0768292
0.203555 0.378653 0.0386969
0.425711 0.36846 0.00549325
0.560967 0.360983 0.00350958
0.664118 0.354757 0.0224002
0.738857 0.348745 0.0443427
0.79237 0.342779 0.0622721
0.831281 0.335668 0.0765087
0.860594 0.327031 0.0891737
0.883955 0.317571 0.100679
0.903441 0.3075 0.111498
0.898543 0.287556 0.110063
0.887663 0.265705 0.105745
0.877516 0.245167 0.102037
0.868391 0.226505 0.0988937
0.860441 0.209979 0.0962844
0.853849 0.195972 0.094255
0.848386 0.184192 0.0926223
0.844114 0.174548 0.0914931
0.840848 0.166842 0.0907301
0.838239 0.160662 0.0901198
0.836118 0.155642 0.0896162
0.834714 0.152056 0.0894484
0 0.458473 0.0950332
0 0.457313 0.094789
0 0.456168 0.0945296
0 0.455009 0.0942855
0 0.453849 0.0940261
0 0.452689 0.0937819
0 0.451545 0.0935225
0 0.450126 0.0932174
0 0.448325 0.0928206
0 0.445762 0.092256
0 0.442557 0.0915541
0.0260624 0.445533 0.0800946
0.313542 0.449638 0.0280308
0.525505 0.438102 0.00270085
0.657496 0.429847 0.00627146
0.751156 0.422309 0.0260929
0.817411 0.415488 0.0525216
0.864332 0.409735 0.0768444
0.897704 0.404532 0.0971237
0.922072 0.399191 0.113481
0.94107 0.393545 0.12697
0.943954 0.380636 0.129915
0.935912 0.363638 0.126146
0.928481 0.347997 0.122683
0.921798 0.334478 0.119783
0.915999 0.322744 0.117266
0.911223 0.3131 0.115267
0.907393 0.305379 0.113695
0.90425 0.299031 0.112398
0.901854 0.294194 0.111406
0.899962 0.290394 0.110643
0.898497 0.287434 0.110048
0.897429 0.285298 0.109621
0 0.525261 0.110872
0 0.524315 0.110628
0 0.523369 0.110384
0 0.522423 0.110124
0 0.521584 0.109911
0 0.520638 0.109667
0 0.519692 0.109422
0 0.518502 0.109117
0 0.51696 0.108721
0 0.514946 0.108186
0 0.512337 0.107515
0 0.508904 0.10663
0.0954604 0.520363 0.080293
0.428107 0.519341 0.0216526
0.624781 0.508431 0.00289921
0.74641 0.499046 0.00834669
0.82797 0.49044 0.0315709
0.884413 0.483711 0.06421
0.923964 0.479805 0.0952926
0.951492 0.477974 0.120424
0.970092 0.47657 0.139452
0.980026 0.471168 0.14963
0.975311 0.45742 0.146761
0.971069 0.445029 0.144167
0.966781 0.434043 0.141772
0.963058 0.424781 0.139712
0.959991 0.417121 0.138018
0.957549 0.411078 0.136675
0.955352 0.406165 0.135576
0.953704 0.402487 0.134768
0.952392 0.399542 0.134112
0.951415 0.39733 0.133623
0.950698 0.395727 0.133272
0 0.588418 0.129793
0 0.587671 0.129534
0 0.586908 0.12929
0 0.58613 0.12903
0 0.585367 0.128786
0 0.584588 0.128542
0 0.583825 0.128283
0 0.58294 0.127993
0 0.581735 0.127611
0 0.580087 0.127077
0 0.57789 0.12636
0 0.575143 0.12546
0 0.571511 0.124285
0.223819 0.589502 0.07776
0.544289 0.585901 0.0193027
0.720226 0.575433 0.00260929
0.823682 0.56527 0.010544
0.892012 0.556497 0.0393378
0.938598 0.551034 0.0797131
0.968978 0.549722 0.116152
0.986313 0.5505 0.143404
0.996323 0.550774 0.162539
0.995666 0.541344 0.162081
0.994537 0.532418 0.160845
0.992966 0.524117 0.159442
0.991669 0.517311 0.158282
0.9906 0.511635 0.157321
0.989731 0.507088 0.156542
0.988968 0.503517 0.155917
0.98819 0.500664 0.155367
0.987579 0.498405 0.154925
0.987137 0.496742 0.154604
0.986786 0.49543 0.15436
4.57771e-05 0.645533 0.153338
4.57771e-05 0.644968 0.153063
3.0518e-05 0.644404 0.152773
3.0518e-05 0.643839 0.152483
3.0518e-05 0.643168 0.152148
1.5259e-05 0.642603 0.151873
1.5259e-05 0.642039 0.151583
1.5259e-05 0.641291 0.151202
0 0.640345 0.150729
0 0.639063 0.150149
0 0.637263 0.149371
0 0.635081 0.148425
0 0.632197 0.147173
0.00479133 0.627665 0.143542
0.379828 0.651621 0.0749218
0.657893 0.647135 0.0179751
0.802716 0.635859 0.00418097
0.887449 0.625254 0.0156558
0.94284 0.617319 0.0522774
0.976944 0.614054 0.0983902
0.992859 0.613611 0.135668
0.998489 0.613489 0.160311
0.999893 0.609323 0.16846
0.999741 0.60264 0.168078
0.999619 0.596902 0.167773
0.999512 0.592111 0.167498
0.99942 0.588159 0.167285
0.999283 0.584955 0.167025
0.999146 0.582361 0.166781
0.999023 0.580255 0.166567
0.998947 0.578759 0.16643
0.998871 0.577569 0.166308
0.998825 0.576669 0.166217
0.00155642 0.695521 0.182284
0.0015259 0.695094 0.181994
0.00149538 0.694575 0.181628
0.00146487 0.694148 0.181323
0.00141909 0.693629 0.180957
0.00138857 0.693095 0.180591
0.00135805 0.692668 0.180285
0.00131228 0.692058 0.179858
0.0012665 0.691279 0.179309
0.0011902 0.690242 0.178576
0.00108339 0.688853 0.1776
0.000976577 0.687114 0.17641
0.000900282 0.684688 0.17496
0.000793469 0.681727 0.17319
0.121782 0.69218 0.149798
0.535286 0.706676 0.0736553
0.756451 0.699001 0.0212711
0.870619 0.687221 0.0109102
0.937835 0.677134 0.0286717
0.977829 0.670939 0.0718547
0.99501 0.668589 0.11751
0.9991 0.66685 0.149508
1 0.664408 0.16788
1 0.659403 0.168139
1 0.655131 0.168353
1 0.651301 0.168399
1 0.648249 0.168444
1 0.645792 0.168475
1 0.643839 0.16849
1 0.64239 0.168505
1 0.641199 0.168521
1 0.64036 0.168536
1 0.639673 0.168536
0.00663767 0.739269 0.217502
0.00656138 0.738857 0.217121
0.00648508 0.73846 0.216739
0.00640879 0.738048 0.216373
0.00633249 0.737652 0.215991
0.0062562 0.73724 0.215625
0.0061799 0.736843 0.215244
0.00605783 0.736278 0.214725
0.00593576 0.735622 0.214115
0.00576791 0.734737 0.213291
0.00553903 0.733608 0.212238
0.0052491 0.732067 0.210819
0.00492866 0.730098 0.209079
0.00463874 0.727596 0.207004
0.00427253 0.724422 0.204395
0.341009 0.746456 0.153582
0.672099 0.750866 0.0751354
0.836789 0.740566 0.0328985
0.924208 0.729 0.0282597
0.973342 0.720211 0.0518044
0.994553 0.715267 0.0943618
0.999252 0.712398 0.132418
0.999954 0.70927 0.157809
1 0.705623 0.164874
1 0.702098 0.165194
1 0.699245 0.165454
1 0.696834 0.165682
1 0.694957 0.165835
1 0.693416 0.165957
1 0.692195 0.166049
1 0.691264 0.166125
1 0.690578 0.166171
1 0.690028 0.166217
0.0151675 0.77612 0.254292
0.0150912 0.775845 0.253986
0.0149844 0.775494 0.253605
0.0148775 0.775143 0.253223
0.0147707 0.774807 0.252842
0.0146639 0.774456 0.252461
0.0145724 0.774182 0.252171
0.0144503 0.77377 0.251713
0.0142824 0.773205 0.251102
0.0140688 0.772519 0.25034
0.0137942 0.771618 0.249348
0.0134432 0.77026 0.247959
0.0130465 0.768566 0.246235
0.0125429 0.766415 0.244038
0.011902 0.763729 0.241291
0.084184 0.76585 0.226688
0.546181 0.788083 0.153384
0.781109 0.78378 0.0818494
0.900114 0.772183 0.0543221
0.963546 0.761532 0.0555123
0.992081 0.754284 0.0794537
0.998947 0.749752 0.114199
0.999924 0.745922 0.14255
1 0.742641 0.160357
1 0.739773 0.160769
1 0.737423 0.161105
1 0.73547 0.161379
1 0.733959 0.161593
1 0.732784 0.161761
1 0.731868 0.161898
1 0.731106 0.16199
1 0.730556 0.162051
1 0.730129 0.162112
0.0235294 0.803113 0.284566
0.0234379 0.802823 0.28423
0.0233616 0.802579 0.283955
0.0232853 0.80235 0.283696
0.0231937 0.80206 0.283345
0.0231022 0.801755 0.283009
0.0230259 0.801526 0.28275
0.0229343 0.801221 0.282399
0.0227817 0.800748 0.281865
0.0226291 0.800214 0.281254
0.022385 0.799451 0.280385
0.0220951 0.798505 0.279301
0.0216983 0.797269 0.277882
0.0212253 0.795727 0.276127
0.0206149 0.793774 0.273899
0.0198978 0.79147 0.27126
0.383566 0.811444 0.227039
0.703807 0.816312 0.149325
0.863828 0.806821 0.0968185
0.947463 0.795407 0.0798047
0.986893 0.786236 0.0839399
0.998077 0.779904 0.104646
0.999847 0.775311 0.129534
1 0.771634 0.149676
1 0.769039 0.156512
1 0.767086 0.156832
1 0.765545 0.157092
1 0.764324 0.15729
1 0.763287 0.157427
1 0.762478 0.157549
1 0.761868 0.157626
1 0.761379 0.157702
1 0.761013 0.157748
0.0301366 0.820661 0.305455
0.0300603 0.820493 0.305257
0.029984 0.820325 0.305043
0.0299077 0.820096 0.304784
0.0298314 0.819928 0.304585
0.0297551 0.81976 0.304372
0.0296635 0.819547 0.304128
0.029572 0.819333 0.303868
0.0294499 0.819028 0.303502
0.0292821 0.818631 0.303044
0.0290684 0.818112 0.302419
0.0287938 0.817472 0.30164
0.0284276 0.816602 0.300603
0.0279698 0.815381 0.299138
0.0274357 0.813916 0.297383
0.0267491 0.812055 0.295171
0.182773 0.821027 0.280751
0.611841 0.840101 0.217777
0.817304 0.834134 0.148089
0.925002 0.822736 0.113985
0.978469 0.812268 0.103975
0.996277 0.80441 0.109804
0.999649 0.798825 0.124468
0.999985 0.794751 0.140688
1 0.791531 0.153918
1 0.789792 0.154055
1 0.788418 0.154162
1 0.787274 0.154238
1 0.78645 0.154299
1 0.785748 0.15436
1 0.78526 0.154391
1 0.784878 0.154421
1 0.784543 0.154452
0.0331273 0.827741 0.313924
0.0331273 0.827741 0.313924
0.0331273 0.827741 0.313924
0.0331273 0.827741 0.313924
0.0331273 0.827741 0.313924
0.0331273 0.827741 0.313924
0.0331273 0.827741 0.313924
0.0331273 0.827741 0.313924
0.0331273 0.827741 0.313924
0.0331273 0.827741 0.313924
0.0331273 0.827741 0.313924
0.0331273 0.827741 0.313924
0.0331273 0.827741 0.313924
0.0331273 0.827741 0.313924
0.0331273 0.827741 0.313924
0.0324712 0.826185 0.312062
0.0317082 0.824369 0.309895
0.514473 0.856611 0.274632
0.764767 0.855085 0.200687
0.897963 0.844678 0.15082
0.966705 0.833585 0.129244
0.993332 0.82443 0.124132
0.999237 0.817731 0.128588
0.999954 0.812909 0.137682
1 0.809369 0.148501
1 0.807324 0.153063
1 0.806119 0.153079
1 0.805097 0.15314
1 0.804318 0.153185
1 0.803754 0.153216
1 0.803281 0.153231
1 0.80293 0.153262
1 0.80267 0.153277
0.0331273 0.827741 0.313924
0.0331273 0.827741 0.313924
0.0331273 0.827741 0.313924
0.0331273 0.827741 0.313924
0.0331273 0.827741 0.313924
0.0331273 0.827741 0.313924
0.0331273 0.827741 0.313924
0.0331273 0.827741 0.313924
0.0331273 0.827741 0.313924
0.0331273 0.827741 0.313924
0.0331273 0.827741 0.313924
0.0331273 0.827741 0.313924
0.0331273 0.827741 0.313924
0.0331273 0.827741 0.313924
0.0331273 0.827741 0.313924
0.0331273 0.827741 0.313924
0.0331273 0.827741 0.313924
0.411093 0.858106 0.300603
0.71368 0.866529 0.237888
0.869795 0.860273 0.182895
0.952911 0.850904 0.154376
0.989013 0.840909 0.141299
0.998352 0.833265 0.138231
0.999847 0.827741 0.140703
1 0.823713 0.146319
1 0.820859 0.153109
1 0.819745 0.153109
1 0.818814 0.153109
1 0.818067 0.153094
1 0.817517 0.153094
1 0.817136 0.153094
1 0.816785 0.153094
1 0.816541 0.153094
0.0331273 0.827741 0.313924
0.0331273 0.827741 0.313924
0.0331273 0.827741 0.313924
0.0331273 0.827741 0.313924
0.0331273 0.827741 0.313924
0.0331273 0.827741 0.313924
0.0331273 0.827741 0.313924
0.0331273 0.827741 0.313924
0.0331273 0.827741 0.313924
0.0331273 0.827741 0.313924
0.0331273 0.827741 0.313924
0.0331273 0.827741 0.313924
0.0331273 0.827741 0.313924
0.0331273 0.827741 0.313924
0.0331273 0.827741 0.313924
0.0331273 0.827741 0.313924
0.0331273 0.827741 0.313924
0.296315 0.849378 0.306569
0.667033 0.866911 0.252506
0.845319 0.861891 0.191562
0.93991 0.853697 0.159899
0.983871 0.84622 0.147387
0.997452 0.840543 0.143969
0.99971 0.83653 0.144183
0.999969 0.833906 0.147112
1 0.832029 0.151598
1 0.830365 0.153094
1 0.829496 0.153094
1 0.828809 0.153094
1 0.828275 0.153094
1 0.827893 0.153094
1 0.827558 0.153094
1 0.827359 0.153094
0.0331273 0.827741 0.313924
0.0331273 0.827741 0.313924
0.0331273 0.827741 0.313924
0.0331273 0.827741 0.313924
0.0331273 0.827741 0.313924
0.0331273 0.827741 0.313924
0.0331273 0.827741 0.313924
0.0331273 0.827741 0.313924
0.0331273 0.827741 0.313924
0.0331273 0.827741 0.313924
0.0331273 0.827741 0.313924
0.0331273 0.827741 0.313924
0.0331273 0.827741 0.313924
0.0331273 0.827741 0.313924
0.0331273 0.827741 0.313924
0.0331273 0.827741 0.313924
0.0331273 0.827741 0.313924
0.177813 0.839719 0.309545
0.624063 0.866743 0.264607
0.822736 0.863111 0.199725
0.928237 0.85507 0.16347
0.979141 0.84744 0.14873
0.995941 0.84152 0.144167
0.999451 0.837339 0.143938
0.999954 0.834516 0.145861
1 0.832593 0.150057
1 0.831479 0.153094
1 0.831479 0.153094
1 0.831479 0.153094
1 0.831479 0.153094
1 0.831479 0.153094
1 0.831479 0.153094
1 0.831479 0.153094
0.0331273 0.827741 0.313924
