luts/changyun_origin/origin1.cube
TITLE "Generated by Resolve"
LUT_3D_SIZE 5
0.0362707 0.057435 0.0656443
0.215808 0.0514534 0.0394293
0.725078 0.00936904 0.00482185
0.870588 0.0141909 0.0268101
0.870588 0.0141909 0.0268101
0.00361639 0.134173 0.0567941
0.130327 0.11284 0.0491798
0.704128 0.00999466 0.00419623
0.870588 0.0141909 0.0268101
0.870588 0.0141909 0.0268101
0.00189212 0.604303 0.150271
0.00170901 0.596399 0.147555
0.806912 0.568231 0.00726329
0.960998 0.486107 0.0297093
0.955139 0.455039 0.0290684
0.0402228 0.880247 0.381735
0.0402228 0.880247 0.381735
0.0402228 0.880247 0.381735
0.999847 0.885756 0.174197
1 0.874891 0.1608
0.0402228 0.880247 0.381735
0.0402228 0.880247 0.381735
0.0402228 0.880247 0.381735
0.998459 0.903517 0.197665
1 0.893965 0.183078
0.0186007 0.0508431 0.178058
0.221256 0.0475013 0.146685
0.724926 0.00399786 0.0892195
0.87097 0.0135042 0.0512245
0.870771 0.0141909 0.0357824
0.00177005 0.124453 0.122576
0.0784619 0.10454 0.110033
0.702159 0.00540169 0.0584268
0.870649 0.0141909 0.0296788
0.870588 0.0141909 0.0268101
0.00173953 0.597955 0.148089
0.00155642 0.589899 0.145357
0.800183 0.560632 0.00697337
0.959548 0.478294 0.0295109
0.953506 0.446586 0.0289769
0.0402228 0.880247 0.381735
0.0402228 0.880247 0.381735
0.0402228 0.880247 0.381735
0.999817 0.884245 0.172351
1 0.872953 0.158511
0.0402228 0.880247 0.381735
0.0402228 0.880247 0.381735
0.0402228 0.880247 0.381735
0.99823 0.903838 0.198077
1 0.893965 0.183078
0 0.000991836 0.557366
0.114885 0 0.556878
0.799268 0.00556954 0.607294
0.891218 0.014435 0.5897
0.891005 0.0143282 0.585626
0 0.00311284 0.550729
0 0.00115969 0.550683
0.778851 0.00489815 0.598688
0.890791 0.0142367 0.581674
0.890578 0.0141909 0.577569
0.00228885 0.625193 0.635004
0.00218204 0.616632 0.632242
0.680034 0.659205 0.613855
0.946609 0.475349 0.523354
0.941726 0.433982 0.519585
0.0188296 0.902892 0.634684
0.0188144 0.90277 0.633204
0.0187228 0.902129 0.626062
0.992142 0.892836 0.347356
0.999969 0.8822 0.356603
0.0184787 0.90042 0.607385
0.0184634 0.900267 0.605814
0.0183413 0.89955 0.598138
0.977813 0.91722 0.308324
0.999939 0.906401 0.315404
0 0 0.74287
0 0 0.74287
0.782589 0.0301213 0.868696
0.914443 0.0909438 0.89955
0.914427 0.0907759 0.899382
0 0 0.74287
0 0 0.74287
0.757351 0.0263981 0.864713
0.914397 0.0906233 0.899199
0.914382 0.0904555 0.899031
0.00222782 0.57142 0.922362
0.00210575 0.560845 0.920134
0.51664 0.586816 0.940261
0.956466 0.454505 0.948775
0.948684 0.391714 0.93875
0.0236362 0.928222 0.975296
0.023331 0.926787 0.974823
0.0218357 0.919173 0.97232
0.953201 0.95317 0.946059
0.978531 0.941344 0.933455
0.0238346 0.930327 0.970367
0.0238193 0.930297 0.970092
0.0237278 0.930159 0.968673
0.904295 0.976425 0.934295
0.9841 0.967865 0.917144
0 0 0.74287
0 0 0.74287
0.770413 0.0282902 0.866835
0.914611 0.0921645 0.900832
0.914611 0.0921645 0.900832
0 0 0.74287
0 0 0.74287
0.74342 0.0245823 0.862699
0.914611 0.0921645 0.900832
0.914611 0.0921645 0.900832
0.0019379 0.544564 0.918379
0.00181582 0.532845 0.915587
0.480262 0.555993 0.939529
0.95201 0.415152 0.952377
0.94316 0.343435 0.940459
0.0240635 0.927077 0.998917
0.0236057 0.925582 0.998657
0.0220798 0.917235 0.99704
0.94519 0.949935 0.989899
0.988006 0.944305 0.987854
0.0260166 0.933364 1
0.0260166 0.933364 1
0.0260166 0.933364 1
0.890333 0.975952 0.982895
0.978943 0.978637 0.980697
