luts/changyun_origin/origin5.cube
TITLE "Generated by Resolve"
LUT_3D_SIZE 33
0.0228733 0.0291752 0.0276036
0.0228733 0.0291752 0.0276036
0.0228733 0.0291752 0.0276036
0.0166629 0.0288548 0.0353857
0.0429694 0.0324712 0.0354925
0.0666819 0.0356756 0.035584
0.0850233 0.0382086 0.0367742
0.101213 0.0405127 0.0418555
0.11751 0.0451362 0.0451057
0.148119 0.0530404 0.048661
0.190158 0.0583352 0.0502785
0.240833 0.0623941 0.0501717
0.300328 0.0639506 0.0480049
0.367849 0.062501 0.0444038
0.442542 0.0563668 0.0425574
0.51873 0.0480812 0.0450752
0.592432 0.043183 0.052491
0.66125 0.0413672 0.0615549
0.722332 0.041825 0.0707408
0.773129 0.0459144 0.0820935
0.789349 0.0475929 0.0860761
0.789349 0.0475929 0.0860761
0.789349 0.0475929 0.0860761
0.789349 0.0475929 0.0860761
0.789349 0.0475929 0.0860761
0.789349 0.0475929 0.0860761
0.789349 0.0475929 0.0860761
0.789349 0.0475929 0.0860761
0.789349 0.0475929 0.0860761
0.789349 0.0475929 0.0860761
0.789349 0.0475929 0.0860761
0.789349 0.0475929 0.0860761
0.789349 0.0475929 0.0860761
0.0228733 0.0291752 0.0276036
0.0228733 0.0291752 0.0276036
0.0228733 0.0291752 0.0276036
0.0172274 0.0287175 0.0323033
0.0327153 0.0311284 0.0354925
0.0585489 0.0345617 0.0355535
0.0785534 0.0373083 0.0355993
0.0984665 0.0400702 0.0413214
0.11252 0.0433967 0.0440833
0.142641 0.0518502 0.048188
0.18468 0.0576791 0.0502327
0.235676 0.0621653 0.0502327
0.295598 0.0639506 0.0482185
0.363668 0.0627604 0.0446326
0.438727 0.0567483 0.0426032
0.51577 0.0484016 0.0448463
0.58999 0.0432441 0.0521706
0.659113 0.0414282 0.061265
0.720577 0.0418097 0.0704662
0.771771 0.0457771 0.0817578
0.789349 0.0475929 0.0860761
0.789349 0.0475929 0.0860761
0.789349 0.0475929 0.0860761
0.789349 0.0475929 0.0860761
0.789349 0.0475929 0.0860761
0.789349 0.0475929 0.0860761
0.789349 0.0475929 0.0860761
0.789349 0.0475929 0.0860761
0.789349 0.0475929 0.0860761
0.789349 0.0475929 0.0860761
0.789349 0.0475929 0.0860761
0.789349 0.0475929 0.0860761
0.789349 0.0475929 0.0860761
0.0228733 0.0291752 0.0276036
0.0228733 0.0291752 0.0276036
0.0228733 0.0291752 0.0276036
0.0227665 0.0291752 0.0276951
0.0230106 0.0297704 0.0354314
0.049485 0.033341 0.0355077
0.071519 0.0363317 0.0355993
0.092607 0.0392615 0.0393378
0.107317 0.0415961 0.0430304
0.137087 0.0505379 0.0476844
0.178988 0.0569924 0.0501869
0.230396 0.0619211 0.050309
0.290852 0.0639506 0.0484321
0.359487 0.0630198 0.0448768
0.434913 0.0571298 0.042649
0.512581 0.0487373 0.0445869
0.58732 0.0433051 0.0518349
0.657084 0.041474 0.0609903
0.718807 0.0418097 0.0701915
0.770428 0.0456397 0.0814374
0.789349 0.0475929 0.0860761
0.789349 0.0475929 0.0860761
0.789349 0.0475929 0.0860761
0.789349 0.0475929 0.0860761
0.789349 0.0475929 0.0860761
0.789349 0.0475929 0.0860761
0.789349 0.0475929 0.0860761
0.789349 0.0475929 0.0860761
0.789349 0.0475929 0.0860761
0.789349 0.0475929 0.0860761
0.789349 0.0475929 0.0860761
0.789349 0.0475929 0.0860761
0.789349 0.0475929 0.0860761
0.0228733 0.0291752 0.0276036
0.0228733 0.0291752 0.0276036
0.0228733 0.0291752 0.0276036
0.0228733 0.0291752 0.0276036
0.0136263 0.0284123 0.0353094
0.0393988 0.0320134 0.0354925
0.063859 0.0352789 0.035584
0.0864118 0.0383917 0.037232
0.104509 0.0410468 0.0424811
0.131273 0.0491646 0.0471504
0.173083 0.0562905 0.0501411
0.225132 0.0615854 0.0503548
0.285908 0.06392 0.0486458
0.355184 0.0632944 0.0451209
0.431098 0.0575113 0.04271
0.509514 0.049073 0.0443427
0.584772 0.0433661 0.0514992
0.654856 0.0415198 0.0607004
0.717037 0.0418097 0.0699016
0.768994 0.0454871 0.0810864
0.789349 0.0475929 0.0860761
0.789349 0.0475929 0.0860761
0.789349 0.0475929 0.0860761
0.789349 0.0475929 0.0860761
0.789349 0.0475929 0.0860761
0.789349 0.0475929 0.0860761
0.789349 0.0475929 0.0860761
0.789349 0.0475929 0.0860761
0.789349 0.0475929 0.0860761
0.789349 0.0475929 0.0860761
0.789349 0.0475929 0.0860761
0.789349 0.0475929 0.0860761
0.789349 0.0475929 0.0860761
0.0227817 0.0270848 0.0346227
0.0228733 0.0270542 0.0339513
0.0228733 0.0273899 0.0329137
0.0228733 0.0277256 0.0319066
0.0209812 0.027924 0.0324407
0.0274357 0.0289616 0.0352331
0.0543526 0.0336461 0.0354467
0.0797436 0.0374762 0.0355993
0.101823 0.0406195 0.0419776
0.1252 0.0477302 0.0465858
0.167391 0.0555581 0.0498207
0.219745 0.0611276 0.0503548
0.281117 0.063798 0.0488594
0.350759 0.0635691 0.0453803
0.427161 0.057908 0.0427558
0.506279 0.0494392 0.0441596
0.582101 0.0434424 0.0511635
0.652735 0.0415808 0.0604105
0.715267 0.0417945 0.0696269
0.767498 0.0453346 0.0807202
0.789349 0.0475929 0.0860761
0.789349 0.0475929 0.0860761
0.789349 0.0475929 0.0860761
0.789349 0.0475929 0.0860761
0.789349 0.0475929 0.0860761
0.789349 0.0475929 0.0860761
0.789349 0.0475929 0.0860761
0.789349 0.0475929 0.0860761
0.789349 0.0475929 0.0860761
0.789349 0.0475929 0.0860761
0.789349 0.0475929 0.0860761
0.789349 0.0475929 0.0860761
0.789349 0.0475929 0.0860761
0.0203098 0.0363775 0.0362249
0.0210575 0.0327916 0.0356909
0.0214847 0.0309606 0.0354009
0.0216983 0.0303044 0.0352636
0.0219272 0.029633 0.0351263
0.0238193 0.0328527 0.035935
0.0445869 0.0316777 0.0356146
0.0640726 0.0396277 0.0365759
0.0892348 0.0441138 0.0395972
0.12108 0.0484321 0.0451057
0.161852 0.055024 0.0493172
0.214359 0.0606851 0.0503548
0.276188 0.0636606 0.0490883
0.346365 0.0636912 0.0456245
0.423209 0.05832 0.0428016
0.502907 0.0498512 0.044007
0.579431 0.0435035 0.0508278
0.650477 0.0416266 0.0601358
0.71342 0.0417945 0.069337
0.766018 0.045182 0.0803388
0.789349 0.0475929 0.0860761
0.789349 0.0475929 0.0860761
0.789349 0.0475929 0.0860761
0.789349 0.0475929 0.0860761
0.789349 0.0475929 0.0860761
0.789349 0.0475929 0.0860761
0.789349 0.0475929 0.0860761
0.789349 0.0475929 0.0860761
0.789349 0.0475929 0.0860761
0.789349 0.0475929 0.0860761
0.789349 0.0475929 0.0860761
0.789349 0.0475929 0.0860761
0.789349 0.0475929 0.0860761
0.0144503 0.0620584 0.0403906
0.0151675 0.0597696 0.0399023
0.0158694 0.057496 0.0394141
0.0166018 0.0542916 0.0388952
0.0173648 0.0505989 0.0383459
0.0181277 0.0499428 0.0388037
0.032639 0.0466316 0.0383001
0.0644236 0.0451667 0.0390478
0.0896315 0.0475319 0.0430457
0.121599 0.0519112 0.0453956
0.160494 0.0562753 0.0481575
0.209812 0.0605783 0.0502327
0.271351 0.0635386 0.0492409
0.34197 0.0637369 0.0458686
0.419272 0.0587167 0.0428626
0.499657 0.050248 0.0438392
0.576761 0.0435798 0.0504921
0.648234 0.0416876 0.0598917
0.71165 0.0417945 0.0690623
0.764599 0.0450446 0.0799878
0.789349 0.0475929 0.0860761
0.789349 0.0475929 0.0860761
0.789349 0.0475929 0.0860761
0.789349 0.0475929 0.0860761
0.789349 0.0475929 0.0860761
0.789349 0.0475929 0.0860761
0.789349 0.0475929 0.0860761
0.789349 0.0475929 0.0860761
0.789349 0.0475929 0.0860761
0.789349 0.0475929 0.0860761
0.789349 0.0475929 0.0860761
0.789349 0.0475929 0.0860761
0.789349 0.0475929 0.0860761
0.00906386 0.0811017 0.043946
0.00946059 0.0793622 0.0437171
0.00988785 0.0774853 0.043473
0.0102998 0.0756237 0.0432136
0.0108492 0.0735943 0.0428626
0.0115053 0.0715038 0.0424201
0.012665 0.0673533 0.0417639
0.0577554 0.0636606 0.0421454
0.0972763 0.0631723 0.0461891
0.129503 0.0642405 0.0482795
0.169482 0.0655375 0.0491493
0.21648 0.0644846 0.0484474
0.271901 0.0645609 0.0471046
0.33785 0.0641337 0.0450904
0.414313 0.059205 0.0429236
0.495689 0.050721 0.0436561
0.573434 0.0436561 0.0500649
0.645457 0.0417639 0.0595865
0.709422 0.0417792 0.0687114
0.762783 0.0448615 0.0795453
0.789349 0.0475929 0.0860761
0.789349 0.0475929 0.0860761
0.789349 0.0475929 0.0860761
0.789349 0.0475929 0.0860761
0.789349 0.0475929 0.0860761
0.789349 0.0475929 0.0860761
0.789349 0.0475929 0.0860761
0.789349 0.0475929 0.0860761
0.789349 0.0475929 0.0860761
0.789349 0.0475929 0.0860761
0.789349 0.0475929 0.0860761
0.789349 0.0475929 0.0860761
0.789349 0.0475929 0.0860761
0.00395209 0.10222 0.0461738
0.00436408 0.100603 0.0460517
0.00476081 0.0990463 0.0459297
0.00520333 0.0973526 0.0457923
0.00564584 0.0956588 0.0456703
0.00607309 0.0939651 0.0455329
0.00653086 0.0919051 0.0453193
0.0212863 0.0898451 0.045304
0.0923629 0.0854505 0.045304
0.14548 0.0883192 0.0497597
0.189929 0.0893111 0.0505074
0.236332 0.088014 0.0488289
0.291096 0.0849622 0.0448005
0.350851 0.0770733 0.038819
0.416938 0.0652018 0.0360571
0.49102 0.0519417 0.0422675
0.569085 0.0437629 0.0495155
0.641733 0.0418708 0.0591745
0.706538 0.0417792 0.0682536
0.760388 0.0446174 0.0789502
0.789349 0.0475929 0.0860761
0.789349 0.0475929 0.0860761
0.789349 0.0475929 0.0860761
0.789349 0.0475929 0.0860761
0.789349 0.0475929 0.0860761
0.789349 0.0475929 0.0860761
0.789349 0.0475929 0.0860761
0.789349 0.0475929 0.0860761
0.789349 0.0475929 0.0860761
0.789349 0.0475929 0.0860761
0.789349 0.0475929 0.0860761
0.789349 0.0475929 0.0860761
0.789349 0.0475929 0.0860761
0.000183108 0.132403 0.0480201
0.000335698 0.130541 0.0479133
0.000488289 0.128695 0.0478065
0.00062562 0.126848 0.047715
0.000793469 0.124895 0.0476081
0.000946059 0.122942 0.0474861
0.00111391 0.120897 0.0473793
0.00111391 0.118547 0.0462501
0.0549935 0.12137 0.0486305
0.141207 0.116823 0.0448463
0.211063 0.120348 0.0483406
0.267903 0.120165 0.0473487
0.31986 0.116457 0.0433661
0.379461 0.112062 0.0362097
0.447044 0.105119 0.0314794
0.512413 0.0864576 0.0325017
0.570809 0.0542763 0.0400549
0.63682 0.0419928 0.0586404
0.702632 0.0417639 0.0676432
0.757244 0.0442969 0.078172
0.789349 0.0475929 0.0860761
0.789349 0.0475929 0.0860761
0.789349 0.0475929 0.0860761
0.789349 0.0475929 0.0860761
0.789349 0.0475929 0.0860761
0.789349 0.0475929 0.0860761
0.789349 0.0475929 0.0860761
0.789349 0.0475929 0.0860761
0.789349 0.0475929 0.0860761
0.789349 0.0475929 0.0860761
0.789349 0.0475929 0.0860761
0.789349 0.0475929 0.0860761
0.789349 0.0475929 0.0860761
0 0.174014 0.0523995
0 0.172045 0.0516823
0 0.170092 0.0509651
0 0.168002 0.0502174
0 0.166049 0.0495003
0 0.163958 0.0487373
0 0.161929 0.048127
0 0.159655 0.048127
0.00166323 0.157107 0.0558328
0.10248 0.160754 0.0492714
0.205844 0.157336 0.0383307
0.290883 0.158938 0.0401465
0.359976 0.156649 0.038941
0.418097 0.151019 0.0347753
0.48043 0.146166 0.0315862
0.546288 0.137514 0.0331579
0.607385 0.12221 0.0399176
0.658381 0.0938125 0.049546
0.701732 0.0565347 0.0641947
0.753109 0.0438849 0.0771344
0.789349 0.0475929 0.0860761
0.789349 0.0475929 0.0860761
0.789349 0.0475929 0.0860761
0.789349 0.0475929 0.0860761
0.789349 0.0475929 0.0860761
0.789349 0.0475929 0.0860761
0.789349 0.0475929 0.0860761
0.789349 0.0475929 0.0860761
0.789349 0.0475929 0.0860761
0.789349 0.0475929 0.0860761
0.789349 0.0475929 0.0860761
0.789349 0.0475929 0.0860761
0.789349 0.0475929 0.0860761
0 0.224887 0.06392
0 0.223148 0.0636759
0 0.22153 0.063447
0 0.219791 0.0632029
0 0.218067 0.0629587
0 0.216205 0.0626993
0 0.214466 0.0624552
0 0.212345 0.06215
0 0.209369 0.061738
0.0197299 0.210834 0.0585489
0.165484 0.209445 0.044358
0.286137 0.206226 0.025742
0.383047 0.204761 0.0264897
0.462501 0.200153 0.0314641
0.527077 0.193973 0.0348974
0.586297 0.188449 0.0386358
0.642771 0.178378 0.0450752
0.69369 0.16286 0.0537118
0.73727 0.142947 0.0647288
0.771862 0.117327 0.0776989
0.793088 0.0787671 0.0893263
0.789349 0.0475929 0.0860761
0.789349 0.0475929 0.0860761
0.789349 0.0475929 0.0860761
0.789349 0.0475929 0.0860761
0.789349 0.0475929 0.0860761
0.789349 0.0475929 0.0860761
0.789349 0.0475929 0.0860761
0.789349 0.0475929 0.0860761
0.789349 0.0475929 0.0860761
0.789349 0.0475929 0.0860761
0.789349 0.0475929 0.0860761
0.789349 0.0475929 0.0860761
0 0.283742 0.0702831
0 0.282292 0.0700999
0 0.280705 0.0699168
0 0.279118 0.0697185
0 0.277531 0.0695354
0 0.275959 0.0693523
0 0.274372 0.0691539
0 0.272389 0.068925
0 0.269749 0.0686046
0 0.266316 0.0681926
0.0566262 0.271778 0.0560922
0.245975 0.267399 0.029099
0.37702 0.26305 0.00712596
0.483894 0.258839 0.0160525
0.570062 0.252934 0.0329137
0.635218 0.247532 0.0442664
0.68658 0.239536 0.0527657
0.73225 0.228992 0.0616312
0.771969 0.215396 0.0720836
0.805097 0.200168 0.0847791
0.832242 0.184207 0.0979629
0.821408 0.156329 0.0951705
0.809155 0.12575 0.0924086
0.796338 0.0893721 0.0900282
0.790234 0.0564889 0.0870375
0.789349 0.0475929 0.0860761
0.789349 0.0475929 0.0860761
0.789349 0.0475929 0.0860761
0.789349 0.0475929 0.0860761
0.789349 0.0475929 0.0860761
0.789349 0.0475929 0.0860761
0.789349 0.0475929 0.0860761
0.789349 0.0475929 0.0860761
0 0.349447 0.0780346
0 0.348074 0.0778363
0 0.346716 0.0776379
0 0.345342 0.0774548
0 0.343847 0.0772412
0 0.342473 0.0770581
0 0.340963 0.0768444
0 0.33933 0.0766155
0 0.336996 0.0762798
0 0.333852 0.0758373
0 0.330144 0.0756237
0.115938 0.340444 0.048188
0.33843 0.332891 0.00932326
0.476509 0.327108 0.00103761
0.587488 0.32166 0.0151064
0.670878 0.316152 0.0392767
0.730785 0.309895 0.0564584
0.775692 0.301503 0.0703593
0.812116 0.291524 0.082948
0.843015 0.281071 0.0964065
0.868894 0.270481 0.109789
0.864744 0.251041 0.109483
0.854261 0.229908 0.105699
0.844999 0.210208 0.102373
0.836988 0.192584 0.0996262
0.830304 0.177356 0.0975052
0.824903 0.16466 0.0960403
0.820462 0.15407 0.0949416
0.816876 0.145266 0.0941024
0.814038 0.138125 0.0934615
0.81178 0.132418 0.0929732
0.809934 0.127764 0.0925612
0.808484 0.123949 0.0923018
0 0.421118 0.0893263
0 0.419883 0.0890974
0 0.418647 0.0888838
0 0.417426 0.0886549
0 0.41619 0.0884413
0 0.414954 0.0882124
0 0.413718 0.0879988
0 0.412207 0.0877241
0 0.410285 0.0873884
0 0.407538 0.0869001
0 0.40412 0.0862745
0.00154116 0.40499 0.0815137
0.209918 0.415152 0.032929
0.437888 0.405432 0.00137331
0.578378 0.398688 0.00213626
0.683299 0.392233 0.0193027
0.758099 0.385763 0.0459907
0.812085 0.378943 0.0705119
0.852781 0.371313 0.0907759
0.885512 0.363088 0.107912
0.913054 0.355077 0.122728
0.917556 0.341604 0.126574
0.907256 0.325063 0.123293
0.89781 0.30985 0.120302
0.890059 0.296712 0.1178
0.883314 0.285283 0.115633
0.878065 0.275898 0.113924
0.874022 0.268376 0.112581
0.870695 0.262211 0.111482
0.868147 0.257496 0.110643
0.866163 0.253788 0.109972
0.864698 0.250935 0.109468
0.863661 0.248859 0.109087
0 0.494316 0.104463
0 0.493278 0.104234
0 0.492226 0.104005
0 0.491173 0.103777
0 0.490257 0.103578
0 0.489204 0.103334
0 0.488151 0.103105
0 0.486854 0.102815
0 0.485145 0.102449
0 0.482918 0.101961
0 0.480034 0.10132
0 0.476219 0.100481
0.0285496 0.487861 0.082414
0.324285 0.492576 0.0196078
0.538659 0.48217 0.0015259
0.674266 0.474006 0.00425727
0.768261 0.465766 0.0235752
0.835645 0.458015 0.0558785
0.886748 0.451133 0.0879835
0.925475 0.445243 0.114046
0.953643 0.440269 0.134279
0.969116 0.432319 0.145144
0.962081 0.418143 0.142184
0.955749 0.405356 0.139498
0.949493 0.394324 0.137255
0.944091 0.385077 0.135393
0.93962 0.377432 0.133852
0.93608 0.371405 0.132631
0.933089 0.366598 0.131655
0.930846 0.362997 0.130922
0.929061 0.360113 0.130343
0.927718 0.357946 0.1299
0.926741 0.35639 0.12958
0 0.564889 0.122728
0 0.56405 0.122469
0 0.56318 0.12221
0 0.562325 0.121965
0 0.561456 0.121721
0 0.560601 0.121477
0 0.559731 0.121233
0 0.558755 0.120943
0 0.557397 0.120562
0 0.55555 0.120027
0 0.553094 0.119326
0 0.550027 0.118456
0 0.545968 0.117296
0.114076 0.566644 0.0802625
0.441428 0.567025 0.0169833
0.640177 0.557534 0.00149538
0.76112 0.547997 0.00537118
0.844419 0.53814 0.0285496
0.908217 0.529122 0.0685435
0.953124 0.523857 0.10811
0.979034 0.522133 0.139178
0.994079 0.521141 0.161944
0.993072 0.510018 0.160906
0.991318 0.499611 0.15903
0.988922 0.490257 0.157168
0.986938 0.482567 0.155627
0.98529 0.476173 0.15436
0.983978 0.471046 0.153338
0.982788 0.467079 0.152529
0.981613 0.463996 0.151873
0.980682 0.461555 0.151354
0.979995 0.459754 0.150973
0.979446 0.458351 0.150668
0 0.63035 0.146609
0 0.629694 0.146319
0 0.629038 0.146029
0 0.628382 0.145739
0 0.627604 0.145403
0 0.626947 0.145113
0 0.626291 0.144823
0 0.625406 0.144427
0 0.624308 0.143954
0 0.622827 0.143374
0 0.620768 0.142596
0 0.61825 0.141634
0 0.614939 0.140368
0 0.61088 0.13872
0.258213 0.638315 0.076173
0.562203 0.6374 0.0153353
0.73373 0.62742 0.00151064
0.837659 0.616068 0.00706493
0.915053 0.604395 0.0367285
0.966537 0.596872 0.08542
0.989853 0.595071 0.130434
0.997757 0.595743 0.162341
0.999725 0.591134 0.172778
0.999481 0.583093 0.171954
0.999268 0.576165 0.171237
0.9991 0.570397 0.170642
0.998947 0.565637 0.170153
0.998749 0.561776 0.169635
0.998505 0.558663 0.169131
0.998322 0.556146 0.168719
0.998184 0.554345 0.168429
0.998077 0.552911 0.1682
0.998001 0.551827 0.168032
0 0.688426 0.176272
0 0.687938 0.175952
0 0.687327 0.175586
0 0.686839 0.175265
0 0.686244 0.174884
0 0.685649 0.174502
0 0.685145 0.174182
0 0.684443 0.173754
0 0.683558 0.173175
0 0.682353 0.172427
0 0.680766 0.171405
0 0.678767 0.170169
0 0.675944 0.168688
0 0.672496 0.166888
0.0373236 0.682078 0.151385
0.418479 0.7028 0.07364
0.674296 0.699214 0.0157473
0.814572 0.687617 0.00254826
0.907805 0.674144 0.0119478
0.968566 0.66363 0.0514382
0.993454 0.659754 0.106462
0.998871 0.658885 0.149218
1 0.657343 0.174884
1 0.651347 0.175097
1 0.64622 0.17528
1 0.641642 0.175189
1 0.63798 0.175113
1 0.635035 0.175051
1 0.632685 0.175006
1 0.630961 0.174975
1 0.629541 0.174945
1 0.628519 0.174929
1 0.62771 0.174914
0 0.738445 0.213321
0 0.737987 0.212924
0 0.737514 0.212512
0 0.737057 0.2121
0 0.736599 0.211704
0 0.736141 0.211292
0 0.735683 0.21088
0 0.735027 0.210315
0 0.734295 0.209659
0 0.733288 0.208759
0 0.731991 0.207614
0 0.730236 0.206073
0 0.727993 0.204211
0 0.725139 0.202045
0 0.721523 0.199313
0.215045 0.745373 0.158343
0.570611 0.757198 0.0737316
0.769284 0.749508 0.0207828
0.8869 0.735531 0.00975052
0.961913 0.722438 0.0264286
0.992935 0.715648 0.0743572
0.99913 0.713161 0.125628
0.999924 0.710597 0.161532
1 0.7066 0.171664
1 0.702403 0.172091
1 0.698985 0.172442
1 0.696086 0.172732
1 0.693858 0.172946
1 0.692027 0.173053
1 0.690547 0.173144
1 0.689448 0.17322
1 0.688624 0.173266
1 0.687984 0.173312
0 0.781384 0.255955
0 0.781048 0.255558
0 0.780621 0.25507
0 0.780179 0.254582
0 0.779751 0.254093
0 0.779324 0.253605
0 0.778973 0.253208
0 0.778454 0.252628
0 0.777768 0.251835
0 0.776913 0.250858
0 0.775784 0.249577
0 0.774197 0.247913
0 0.772229 0.245899
0 0.769711 0.243336
0 0.766583 0.240146
0.0210117 0.767575 0.231708
0.425925 0.797147 0.16199
0.697673 0.799115 0.0767529
0.850263 0.787152 0.0352636
0.946181 0.772152 0.0288853
0.989364 0.762463 0.0534981
0.998734 0.757977 0.0995346
0.999893 0.754345 0.139788
1 0.750942 0.165393
1 0.747509 0.165927
1 0.744686 0.166369
1 0.742336 0.166735
1 0.740536 0.16701
1 0.739132 0.167239
1 0.738018 0.167407
1 0.737118 0.167544
1 0.736446 0.167651
1 0.735943 0.167727
0.000732433 0.816907 0.298024
0.000717174 0.81651 0.297536
0.000701915 0.816175 0.297139
0.000686656 0.815854 0.296727
0.000671397 0.815442 0.296239
0.000656138 0.81503 0.295735
0.000656138 0.81471 0.295338
0.000640879 0.814298 0.294835
0.000610361 0.813657 0.294041
0.000579843 0.812924 0.293141
0.000549325 0.811856 0.291844
0.000488289 0.810559 0.290257
0.000427253 0.808835 0.288151
0.000350958 0.806714 0.285557
0.000244144 0.804028 0.282277
0.000122072 0.800855 0.278386
0.25536 0.822293 0.242023
0.60322 0.83592 0.158618
0.797848 0.828992 0.0870222
0.918715 0.813748 0.057969
0.981125 0.801099 0.0584115
0.997452 0.794095 0.0854047
0.999771 0.789487 0.120562
1 0.785519 0.149813
1 0.782513 0.159701
1 0.780163 0.16022
1 0.778302 0.160616
1 0.776852 0.160937
1 0.775601 0.161151
1 0.774655 0.161334
1 0.773922 0.161456
1 0.773327 0.161563
1 0.772885 0.161639
0.00106813 0.844953 0.334173
0.00105287 0.844648 0.333776
0.00105287 0.844358 0.333394
0.00103761 0.843976 0.332906
0.00102235 0.843687 0.332509
0.0010071 0.843381 0.332113
0.000991836 0.843015 0.331624
0.000976577 0.842649 0.331136
0.000961318 0.84213 0.330465
0.0009308 0.841459 0.32958
0.000885023 0.840574 0.328405
0.000839246 0.83946 0.32694
0.000793469 0.837964 0.324987
0.000793469 0.836042 0.322515
0.000793469 0.833722 0.319539
0.000793469 0.830793 0.31577
0.0826886 0.836591 0.303777
0.496986 0.862852 0.237156
0.734752 0.862455 0.152255
0.880278 0.848676 0.101701
0.965972 0.833448 0.0840314
0.994354 0.823819 0.0908064
0.999466 0.817823 0.111971
0.999954 0.813245 0.135729
1 0.809476 0.154803
1 0.807385 0.155108
1 0.805753 0.155352
1 0.804379 0.155566
1 0.803403 0.155703
1 0.802548 0.15584
1 0.801953 0.155932
1 0.801495 0.155993
1 0.801114 0.156054
0.00157168 0.857114 0.350179
0.00157168 0.857114 0.350179
0.00157168 0.857114 0.350179
0.00157168 0.857114 0.350179
0.00157168 0.857114 0.350179
0.00157168 0.857114 0.350179
0.00157168 0.857114 0.350179
0.00157168 0.857114 0.350179
0.00157168 0.857114 0.350179
0.00157168 0.857114 0.350179
0.00157168 0.857114 0.350179
0.00157168 0.857114 0.350179
0.00157168 0.857114 0.350179
0.00157168 0.857114 0.350179
0.00157168 0.857114 0.350179
0.00146487 0.854444 0.346654
0.00134279 0.851331 0.342565
0.39202 0.882322 0.300572
0.667872 0.888411 0.216846
0.836072 0.877653 0.149691
0.943526 0.861158 0.116594
0.988556 0.84889 0.108904
0.998596 0.841154 0.115846
0.999863 0.835599 0.130419
1 0.83122 0.145892
1 0.828641 0.152132
1 0.827161 0.1523
1 0.82591 0.152483
1 0.824979 0.152605
1 0.824292 0.152712
1 0.823728 0.152789
1 0.823285 0.15285
1 0.822965 0.152895
0.00157168 0.857114 0.350179
0.00157168 0.857114 0.350179
0.00157168 0.857114 0.350179
0.00157168 0.857114 0.350179
0.00157168 0.857114 0.350179
0.00157168 0.857114 0.350179
0.00157168 0.857114 0.350179
0.00157168 0.857114 0.350179
0.00157168 0.857114 0.350179
0.00157168 0.857114 0.350179
0.00157168 0.857114 0.350179
0.00157168 0.857114 0.350179
0.00157168 0.857114 0.350179
0.00157168 0.857114 0.350179
0.00157168 0.857114 0.350179
0.00157168 0.857114 0.350179
0.00157168 0.857114 0.350179
0.287144 0.88423 0.331304
0.607111 0.901778 0.260578
0.793835 0.898497 0.191226
0.917205 0.884489 0.149401
0.979614 0.87013 0.130663
0.996674 0.860685 0.127749
0.999603 0.854109 0.132906
0.999969 0.849073 0.141253
1 0.845365 0.150347
1 0.843976 0.150423
1 0.842817 0.1505
1 0.841901 0.150607
1 0.84123 0.150683
1 0.840742 0.150744
1 0.840314 0.15079
1 0.840009 0.15082
0.00157168 0.857114 0.350179
0.00157168 0.857114 0.350179
0.00157168 0.857114 0.350179
0.00157168 0.857114 0.350179
0.00157168 0.857114 0.350179
0.00157168 0.857114 0.350179
0.00157168 0.857114 0.350179
0.00157168 0.857114 0.350179
0.00157168 0.857114 0.350179
0.00157168 0.857114 0.350179
0.00157168 0.857114 0.350179
0.00157168 0.857114 0.350179
0.00157168 0.857114 0.350179
0.00157168 0.857114 0.350179
0.00157168 0.857114 0.350179
0.00157168 0.857114 0.350179
0.00157168 0.857114 0.350179
0.178073 0.874434 0.340337
0.555154 0.90042 0.277195
0.762097 0.900359 0.203082
0.895796 0.888731 0.157458
0.970031 0.87715 0.13843
0.994675 0.869841 0.134218
0.999237 0.865232 0.136278
0.999878 0.861875 0.141115
0.999985 0.859373 0.147463
1 0.857237 0.149737
1 0.856138 0.149798
1 0.855299 0.149844
1 0.854627 0.149874
1 0.854139 0.149905
1 0.853727 0.14992
1 0.853483 0.149935
0.00157168 0.857114 0.350179
0.00157168 0.857114 0.350179
0.00157168 0.857114 0.350179
0.00157168 0.857114 0.350179
0.00157168 0.857114 0.350179
0.00157168 0.857114 0.350179
0.00157168 0.857114 0.350179
0.00157168 0.857114 0.350179
0.00157168 0.857114 0.350179
0.00157168 0.857114 0.350179
0.00157168 0.857114 0.350179
0.00157168 0.857114 0.350179
0.00157168 0.857114 0.350179
0.00157168 0.857114 0.350179
0.00157168 0.857114 0.350179
0.00157168 0.857114 0.350179
0.00157168 0.857114 0.350179
0.0804456 0.865019 0.345815
0.508263 0.898604 0.290501
0.73431 0.90135 0.213809
0.877195 0.891035 0.163012
0.961654 0.878889 0.14023
0.991821 0.871061 0.134569
0.998703 0.866163 0.135729
0.999832 0.862669 0.139498
0.999954 0.860136 0.145174
1 0.858625 0.149676
1 0.858625 0.149676
1 0.858625 0.149676
1 0.858625 0.149676
1 0.858625 0.149676
1 0.858625 0.149676
1 0.858625 0.149676
0.00157168 0.857114 0.350179
0.00157168 0.857114 0.350179
0.00157168 0.857114 0.350179
0.00157168 0.857114 0.350179
0.00157168 0.857114 0.350179
0.00157168 0.857114 0.350179
0.00157168 0.857114 0.350179
0.00157168 0.857114 0.350179
0.00157168 0.857114 0.350179
