luts/changyun_origin/origin2.cube
TITLE "Generated by Resolve"
LUT_3D_SIZE 9
0.0149844 0.0323339 0.0432593
0.0690318 0.032166 0.0381018
0.184939 0.0488136 0.0306249
0.4094 0.0480964 0.00709545
0.711055 0.0071107 0.0024567
0.868788 0.0102541 0.0228733
0.868788 0.0102541 0.0228733
0.868788 0.0102541 0.0228733
0.868788 0.0102541 0.0228733
0.0204623 0.0460212 0.0400702
0.0230716 0.0377966 0.0406653
0.152316 0.0461128 0.0335241
0.38703 0.0500496 0.00988785
0.701366 0.00767529 0.00218204
0.868788 0.0102541 0.0228733
0.868788 0.0102541 0.0228733
0.868788 0.0102541 0.0228733
0.868788 0.0102541 0.0228733
0.00515755 0.122393 0.054902
0.00610361 0.114672 0.0535286
0.113649 0.101198 0.0483864
0.355077 0.0809033 0.0178683
0.689158 0.00839246 0.00183108
0.868788 0.0102541 0.0228733
0.868788 0.0102541 0.0228733
0.868788 0.0102541 0.0228733
0.868788 0.0102541 0.0228733
0 0.297704 0.0807813
0 0.291707 0.0799268
0 0.284184 0.0788281
0.38854 0.256413 0.017792
0.727245 0.219074 0.00199893
0.884169 0.108614 0.020737
0.868742 0.0102541 0.0228733
0.868788 0.0102541 0.0228733
0.868788 0.0102541 0.0228733
0.00158694 0.57998 0.144533
0.00151064 0.576425 0.143374
0.00140383 0.572213 0.142016
0.00111391 0.560342 0.138201
0.791623 0.538247 0.002533
0.965866 0.494011 0.0225834
0.960616 0.453819 0.0236515
0.956039 0.432135 0.0236515
0.954238 0.42388 0.0236515
0.0157015 0.806241 0.296559
0.0151827 0.804471 0.294331
0.0145418 0.802319 0.291646
0.0132296 0.796323 0.284611
0.342641 0.801068 0.20734
0.990295 0.776699 0.0671855
0.999985 0.737728 0.0591745
0.999954 0.727016 0.0545815
0.999924 0.723003 0.0530556
0.0370642 0.864927 0.376806
0.0370642 0.864927 0.376806
0.0370642 0.864927 0.376806
0.0370642 0.864927 0.376806
0.0370642 0.864927 0.376806
0.925277 0.900099 0.205661
1 0.864271 0.161089
1 0.855085 0.149538
1 0.852949 0.147158
0.0370642 0.864927 0.376806
0.0370642 0.864927 0.376806
0.0370642 0.864927 0.376806
0.0370642 0.864927 0.376806
0.0370642 0.864927 0.376806
0.865232 0.904616 0.230762
0.999969 0.88101 0.183291
1 0.873198 0.172168
1 0.873198 0.172168
0.0370642 0.864927 0.376806
0.0370642 0.864927 0.376806
0.0370642 0.864927 0.376806
0.0370642 0.864927 0.376806
0.0370642 0.864927 0.376806
0.83621 0.905623 0.242557
0.999939 0.882704 0.185504
1 0.873198 0.172168
1 0.873198 0.172168
0.019852 0.0323339 0.0525978
0.0625467 0.0318303 0.0460059
0.180468 0.0485847 0.0370947
0.405814 0.0484779 0.00701915
0.709606 0.00720226 0.00241093
0.868788 0.0102541 0.0228733
0.868788 0.0102541 0.0228733
0.868788 0.0102541 0.0228733
0.868788 0.0102541 0.0228733
0.0184939 0.0399329 0.0427863
0.0149844 0.0323339 0.0432593
0.146761 0.0457008 0.033875
0.383322 0.0502937 0.0104219
0.699794 0.00776684 0.00213626
0.868788 0.0102541 0.0228733
0.868788 0.0102541 0.0228733
0.868788 0.0102541 0.0228733
0.868788 0.0102541 0.0228733
0.00590524 0.116243 0.0538186
0.00703441 0.108461 0.0523384
0.104723 0.0948501 0.0474708
0.34699 0.0728008 0.0184176
0.687556 0.00849927 0.00180056
0.868788 0.0102541 0.0228733
0.868788 0.0102541 0.0228733
0.868788 0.0102541 0.0228733
0.868788 0.0102541 0.0228733
0 0.292988 0.0801099
0 0.286854 0.0792248
0 0.27921 0.0781109
0.38114 0.251423 0.0191043
0.722332 0.213519 0.00192264
0.881514 0.0973373 0.0207523
0.868788 0.0102541 0.0228733
0.868788 0.0102541 0.0228733
0.868788 0.0102541 0.0228733
0.0015259 0.577188 0.143618
0.00143435 0.573617 0.142473
0.00132753 0.569268 0.14107
0.00103761 0.557397 0.137255
0.788403 0.53489 0.00247196
0.964813 0.4907 0.0224155
0.959899 0.450462 0.0236515
0.955245 0.428489 0.0236515
0.95346 0.420249 0.0236515
0.0152895 0.804837 0.294804
0.0147707 0.803067 0.292576
0.0141299 0.800931 0.289891
0.0129854 0.794873 0.282994
0.332494 0.799069 0.207095
0.989609 0.775097 0.0657969
0.999969 0.736019 0.0584421
0.999954 0.725292 0.0538796
0.999908 0.721141 0.0523842
0.0370642 0.864927 0.376806
0.0370642 0.864927 0.376806
0.0370642 0.864927 0.376806
0.0370642 0.864927 0.376806
0.0370642 0.864927 0.376806
0.923949 0.899382 0.204395
1 0.863493 0.160082
1 0.854185 0.148531
1 0.852049 0.146166
0.0370642 0.864927 0.376806
0.0370642 0.864927 0.376806
0.0370642 0.864927 0.376806
0.0370642 0.864927 0.376806
0.0370642 0.864927 0.376806
0.863066 0.904707 0.231617
0.999969 0.881163 0.18349
1 0.873198 0.172168
1 0.873198 0.172168
0.0370642 0.864927 0.376806
0.0370642 0.864927 0.376806
0.0370642 0.864927 0.376806
0.0370642 0.864927 0.376806
0.0370642 0.864927 0.376806
0.833539 0.905715 0.243656
0.999908 0.882856 0.185626
1 0.873198 0.172168
1 0.873198 0.172168
0.0145113 0.0294804 0.134401
0.0488441 0.0285344 0.129702
0.192386 0.0505226 0.122133
0.411337 0.0411536 0.0906233
0.71046 0.00231937 0.0689708
0.869291 0.00906386 0.0577859
0.868955 0.00991836 0.0344701
0.868788 0.0102388 0.0234684
0.868788 0.0102541 0.0228733
0.0155795 0.0304112 0.12694
0.0158083 0.0303655 0.125658
0.154437 0.0475013 0.116686
0.387411 0.0453651 0.0834669
0.700069 0.00296025 0.056733
0.869093 0.00965896 0.0437018
0.868788 0.0102541 0.0228733
0.868788 0.0102541 0.0228733
0.868788 0.0102541 0.0228733
0.00399786 0.1122 0.105623
0.00509651 0.104356 0.104494
0.0671702 0.092256 0.0944076
0.340581 0.0620432 0.0650645
0.687083 0.00434882 0.0407874
0.868849 0.010132 0.0271305
0.868788 0.0102541 0.0228733
0.868788 0.0102541 0.0228733
0.868788 0.0102541 0.0228733
0 0.287709 0.0846418
0 0.281392 0.0834516
0 0.273655 0.0818952
0.362112 0.252842 0.0228428
0.708751 0.2103 0.00218204
0.877974 0.0831769 0.0208286
0.868788 0.0102541 0.0228733
0.868788 0.0102541 0.0228733
0.868788 0.0102541 0.0228733
0.00143435 0.573739 0.142504
0.00135805 0.570169 0.14136
0.00125124 0.56582 0.139971
0.000961318 0.553826 0.13611
0.784543 0.530816 0.00242618
0.96347 0.486595 0.0222171
0.959014 0.446281 0.0236515
0.954299 0.424125 0.0236515
0.952483 0.415747 0.0236515
0.0148013 0.803159 0.292699
0.0142672 0.801389 0.290471
0.0136873 0.79913 0.287724
0.0126802 0.793027 0.280964
0.31986 0.796658 0.206928
0.988815 0.77322 0.0641489
0.999969 0.733928 0.0575418
0.999924 0.723003 0.0530556
0.999893 0.718959 0.0515908
0.0370642 0.864927 0.376806
0.0370642 0.864927 0.376806
0.0370642 0.864927 0.376806
0.0370642 0.864927 0.376806
0.0370642 0.864927 0.376806
0.922362 0.898497 0.202792
1 0.862638 0.158938
1 0.85301 0.147234
1 0.850889 0.144869
0.0370642 0.864927 0.376806
0.0370642 0.864927 0.376806
0.0370642 0.864927 0.376806
0.0370642 0.864927 0.376806
0.0370642 0.864927 0.376806
0.860258 0.90483 0.232731
0.999969 0.881346 0.183749
1 0.873198 0.172168
1 0.873198 0.172168
0.0370642 0.864927 0.376806
0.0370642 0.864927 0.376806
0.0370642 0.864927 0.376806
0.0370642 0.864927 0.376806
0.0370642 0.864927 0.376806
0.830137 0.905821 0.245045
0.999863 0.88304 0.185779
1 0.873198 0.172168
1 0.873198 0.172168
0.000320439 0.00015259 0.291569
0.00444038 0.00015259 0.287877
0.173312 0.027863 0.294728
0.452903 0.0157931 0.290227
0.735042 0.000671397 0.275837
0.875563 0.00769055 0.275364
0.875181 0.00756847 0.264897
0.874983 0.00747692 0.259739
0.874922 0.0074464 0.257847
0.000610361 0.000885023 0.286656
0.000640879 0.0010071 0.285908
0.12723 0.024033 0.288426
0.427604 0.0208133 0.284962
0.724941 0.000503548 0.269062
0.875334 0.00764477 0.269169
0.874937 0.00746166 0.258473
0.874754 0.00737011 0.253193
0.874678 0.00733959 0.251316
1.5259e-05 0.0826429 0.277333
7.62951e-05 0.0713359 0.276081
0.0316625 0.055436 0.268605
0.386252 0.0293584 0.271672
0.711772 0.000213626 0.260533
0.875059 0.00750744 0.261494
0.874647 0.00732433 0.250553
0.874464 0.00723278 0.245151
0.874388 0.00720226 0.243137
0 0.296773 0.28986
0 0.290028 0.287907
0 0.281559 0.285451
0.273442 0.281865 0.261402
0.677302 0.177966 0.196246
0.872969 0.0344549 0.22208
0.873854 0.00709545 0.228199
0.873671 0.00709545 0.2224
0.873594 0.00709545 0.220295
0.00135805 0.581262 0.270695
0.00131228 0.577646 0.268757
0.00125124 0.573144 0.266545
0.00108339 0.5608 0.260151
0.725887 0.535622 0.0750134
0.939162 0.490181 0.12929
0.955932 0.454597 0.124224
0.949859 0.428779 0.11603
0.947585 0.419135 0.113085
0.0134432 0.798657 0.292836
0.0130922 0.796811 0.290562
0.012665 0.794568 0.287785
0.0115053 0.788327 0.279957
0.260731 0.794171 0.217792
0.980285 0.771344 0.0582132
0.999969 0.732448 0.0563516
0.999893 0.720531 0.0520027
0.999847 0.716106 0.0504921
0.0370642 0.864927 0.376806
0.0370642 0.864927 0.376806
0.0370642 0.864927 0.376806
0.0370642 0.864927 0.376806
0.0370642 0.864927 0.376806
0.917754 0.896071 0.198367
1 0.860166 0.155734
1 0.849912 0.143801
1 0.847715 0.14136
0.0370642 0.864927 0.376806
0.0370642 0.864927 0.376806
0.0370642 0.864927 0.376806
0.0370642 0.864927 0.376806
0.0370642 0.864927 0.376806
0.852049 0.905119 0.236057
0.999969 0.881834 0.18439
1 0.873198 0.172168
1 0.873198 0.172168
0.0370642 0.864927 0.376806
0.0370642 0.864927 0.376806
0.0370642 0.864927 0.376806
0.0370642 0.864927 0.376806
0.0370642 0.864927 0.376806
0.820951 0.906111 0.248814
0.999771 0.883543 0.186221
1 0.873198 0.172168
1 0.873198 0.172168
0 0 0.506828
0 0 0.506371
0.0938125 0 0.5084
0.440742 0 0.53611
0.783108 0.00161746 0.55787
0.887877 0.00923171 0.545083
0.887541 0.00915541 0.53933
0.887388 0.00910964 0.536568
0.887327 0.00909438 0.535439
0 0 0.50367
0 0 0.503212
0.0355535 0 0.501808
0.41001 0 0.530602
0.773693 0.00140383 0.55433
0.887678 0.00918593 0.541573
0.887358 0.00910964 0.535943
0.88719 0.00906386 0.533059
0.887129 0.0090486 0.532067
0 0.000564584 0.498756
0 0 0.499352
0 0 0.498772
0.370275 0 0.523903
0.761807 0.00114443 0.549996
0.887434 0.0091249 0.537438
0.887114 0.0090486 0.531685
0.886946 0.00900282 0.528801
0.886885 0.00900282 0.527779
0 0.257374 0.545953
0 0.247974 0.543069
0 0.236332 0.539635
0.172808 0.236301 0.545541
0.723262 0.116564 0.531167
0.886732 0.00898756 0.527626
0.886473 0.00891127 0.519951
0.886305 0.00888075 0.517037
0.886259 0.00886549 0.51603
0.00149538 0.59913 0.583612
0.00144961 0.595285 0.582467
0.00138857 0.590661 0.581079
0.00122072 0.577981 0.577493
0.661357 0.620706 0.552422
0.90605 0.481971 0.461753
0.938598 0.435172 0.461402
0.934508 0.405829 0.45951
0.932967 0.394781 0.458869
0.00794995 0.81854 0.583352
0.00782788 0.8168 0.581857
0.00767529 0.814725 0.580179
0.00727855 0.809079 0.57554
0.0561532 0.793408 0.524453
0.925597 0.785519 0.355352
0.998779 0.761852 0.405402
0.998276 0.751553 0.403723
0.998032 0.747707 0.403006
0.0147555 0.88455 0.58793
0.0147402 0.884489 0.587304
0.014725 0.884428 0.586572
0.0146639 0.884245 0.58468
0.0145266 0.883772 0.57998
0.812589 0.912566 0.368612
0.998047 0.871336 0.304479
1 0.862058 0.314855
1 0.860059 0.314153
0.0142214 0.88275 0.569512
0.0142061 0.882689 0.568887
0.0141909 0.882612 0.56817
0.0141909 0.882429 0.566217
0.0141909 0.881941 0.561364
0.720287 0.926986 0.426673
0.991608 0.896239 0.277501
1 0.887449 0.291051
1 0.887373 0.289891
0.0141909 0.882078 0.562814
0.0141909 0.882017 0.562188
0.0141909 0.881941 0.561364
0.0141909 0.881727 0.559304
0.0141909 0.881239 0.55436
0.681758 0.926619 0.437217
0.98703 0.897505 0.269383
1 0.887022 0.284276
1 0.886931 0.283177
0 0 0.690623
0 0 0.690364
0 0 0.688411
0.386923 0 0.726711
0.785183 0.00428779 0.768917
0.903807 0.0264286 0.777493
0.903532 0.0255589 0.774502
0.90341 0.0251316 0.773053
0.903349 0.0249638 0.772473
0 0 0.689052
0 0 0.688777
0 0 0.688426
0.350835 0 0.720943
0.774731 0.00370794 0.765988
0.903655 0.0259251 0.775753
0.90338 0.0250553 0.772763
0.903243 0.0245975 0.771206
0.903197 0.0244602 0.770733
0 0 0.687037
0 0 0.686763
0 0 0.686503
0.302968 0 0.713237
0.760784 0.00331121 0.762478
0.903471 0.0254978 0.77409
0.903181 0.0243992 0.770535
0.903059 0.0239719 0.769085
0.902998 0.0238041 0.768505
0 0.125963 0.712444
0 0.113802 0.709133
0 0.0994278 0.705089
0.0854963 0.104875 0.70576
0.712673 0.00248722 0.74696
0.902983 0.0243381 0.770016
0.902647 0.0226596 0.764538
0.902525 0.0224155 0.763027
0.90248 0.0223239 0.762417
0.00210575 0.578668 0.80383
0.00202945 0.574273 0.802808
0.0019379 0.569039 0.801556
0.00169375 0.554284 0.798138
0.56875 0.58613 0.809949
0.934569 0.493736 0.786435
0.954314 0.426657 0.767742
0.948714 0.389807 0.763882
0.946502 0.375479 0.762387
0.00866712 0.825055 0.818616
0.00859083 0.823392 0.818067
0.00848402 0.821317 0.817349
0.00819409 0.815763 0.815473
0.0243381 0.797284 0.800885
0.892439 0.862928 0.785779
0.973983 0.789197 0.71812
0.972915 0.776211 0.715663
0.972503 0.771389 0.714733
0.0181582 0.906706 0.822751
0.0181582 0.906676 0.822431
0.0181582 0.906645 0.82211
0.0180209 0.905821 0.821118
0.0172732 0.901503 0.818341
0.707835 0.939849 0.766934
0.973266 0.904723 0.678218
0.996277 0.88983 0.672496
0.996033 0.88806 0.672862
0.0179751 0.905928 0.814038
0.0179599 0.905913 0.813779
0.0179599 0.905882 0.813443
0.0179294 0.905791 0.812497
0.0178683 0.905592 0.810117
0.56701 0.946181 0.770916
0.945678 0.933761 0.644022
0.997971 0.915953 0.622858
0.998535 0.915419 0.62208
0.0178836 0.905653 0.810803
0.0178836 0.905623 0.810544
0.0178683 0.905592 0.810193
0.0178531 0.905516 0.809262
0.017792 0.905303 0.806867
0.505745 0.942519 0.769696
0.935149 0.936095 0.644587
0.992782 0.91693 0.616632
0.998703 0.914778 0.615213
0 0 0.729503
0 0 0.729503
0 0 0.729503
0.326848 0.0047303 0.780591
0.773007 0.0260929 0.839445
0.915114 0.0846265 0.865995
0.915038 0.084123 0.865507
0.914992 0.0838941 0.865293
0.914977 0.0837873 0.865202
0 0 0.729503
0 0 0.729503
0 0 0.729503
0.284688 0.00430304 0.774411
0.761517 0.0243534 0.837888
0.915068 0.0843977 0.865751
0.914977 0.0838331 0.865232
0.914946 0.0835737 0.864988
0.914931 0.0834974 0.864912
0 0 0.729503
0 0 0.729503
0 0 0.729503
0.226444 0.00393683 0.76582
0.746624 0.0222934 0.835904
0.915007 0.0841382 0.865476
0.914916 0.0834669 0.864881
0.914885 0.083238 0.864652
0.91487 0.0831311 0.864561
0 0.0441749 0.754818
0 0.034287 0.750713
0 0.0237583 0.745617
0.0314183 0.00283818 0.738445
0.701198 0.0182345 0.830152
0.914504 0.0830396 0.864637
0.914748 0.082475 0.863935
0.914717 0.0822461 0.863706
0.914702 0.0821546 0.863615
0.00300603 0.551659 0.886198
0.00296025 0.546975 0.885267
0.00289921 0.541161 0.884138
0.00271611 0.525002 0.881041
0.500343 0.560388 0.898939
0.940948 0.49015 0.909178
0.956191 0.413596 0.896849
0.94995 0.369818 0.890379
0.94754 0.352819 0.8878
0.00968948 0.819898 0.913115
0.00956741 0.818158 0.91281
0.00943008 0.815915 0.912413
0.00906386 0.809964 0.911299
0.0102388 0.789075 0.904143
0.865538 0.858 0.910765
0.99321 0.819394 0.889845
0.99411 0.807752 0.890455
0.994446 0.80351 0.890654
0.0202182 0.91339 0.917403
0.0201572 0.91284 0.917266
0.0200656 0.912108 0.916991
0.0198215 0.910231 0.916442
0.0190585 0.904921 0.914733
0.647639 0.938033 0.896773
0.962844 0.938643 0.882994
0.986816 0.925582 0.869383
0.986481 0.92369 0.868727
0.0205081 0.915282 0.9131
0.0205081 0.915267 0.912932
0.0205081 0.915251 0.912764
0.0205081 0.91519 0.912276
0.0205081 0.915084 0.911147
0.467552 0.948943 0.89601
0.921248 0.968048 0.875257
0.989456 0.951644 0.855985
0.99501 0.948821 0.855238
0.0205081 0.915114 0.911467
0.0205081 0.915114 0.91136
0.0205081 0.915084 0.911147
0.0205081 0.915038 0.910658
0.0205081 0.914931 0.909514
0.392248 0.945205 0.895201
0.90837 0.968795 0.874907
0.982773 0.956359 0.849897
0.994781 0.952804 0.847471
0 0 0.729503
0 0 0.729503
0 0 0.729503
0.293187 0.00444038 0.775647
0.763653 0.0248417 0.838468
0.915434 0.0865187 0.867826
0.915434 0.0865187 0.867811
0.915434 0.0865187 0.867811
0.915434 0.0865187 0.867811
0 0 0.729503
0 0 0.729503
0 0 0.729503
0.247242 0.00393683 0.768933
0.751888 0.0231479 0.836896
0.915434 0.0865187 0.867842
0.915434 0.0865187 0.867811
0.915434 0.0865187 0.867811
0.915434 0.0865187 0.867811
0 0 0.729503
0 0 0.729503
0 0 0.729503
0.182422 0.0034638 0.75935
0.735973 0.0211337 0.834821
0.915434 0.0865187 0.867842
0.915434 0.0865187 0.867811
0.915434 0.0865187 0.867811
0.915434 0.0865187 0.867811
0 0.00956741 0.737057
0 0.00424201 0.732479
0 0 0.727977
0.00419623 0 0.730632
0.688685 0.0176089 0.82887
0.914916 0.0861677 0.867658
0.915434 0.0865187 0.867811
0.915434 0.0865187 0.867811
0.915434 0.0865187 0.867811
0.00280766 0.533715 0.889342
0.00274662 0.528832 0.888273
0.00268559 0.522438 0.886824
0.00250248 0.505028 0.882872
0.471427 0.546029 0.908324
0.937255 0.478767 0.924712
0.95555 0.401358 0.915267
0.94876 0.353536 0.907546
0.946105 0.334752 0.904494
0.0099794 0.815198 0.93579
0.00984207 0.813413 0.935622
0.00968948 0.811292 0.935424
0.00926223 0.805264 0.934844
0.00854505 0.785245 0.930617
0.854017 0.851347 0.940658
0.997879 0.828 0.937865
0.998047 0.816434 0.938735
0.99794 0.812085 0.939132
0.0208896 0.914076 0.947601
0.0208286 0.913512 0.947478
0.0207675 0.912764 0.94728
0.0205692 0.910765 0.946792
0.0194705 0.904234 0.945083
0.614923 0.93489 0.934401
0.953613 0.941253 0.926131
0.988907 0.931075 0.915999
0.989044 0.929168 0.915709
0.0212863 0.918441 0.944167
0.0212863 0.918425 0.944015
0.0212863 0.91841 0.943877
0.0212863 0.918364 0.943481
0.0212863 0.918273 0.94255
0.41883 0.948516 0.93193
0.912886 0.967575 0.918578
0.985214 0.962219 0.913542
0.992905 0.95967 0.912856
0.0212863 0.918288 0.942794
0.0212863 0.918288 0.942687
0.0212863 0.918273 0.94255
0.0212863 0.918227 0.942153
0.0212863 0.91812 0.941176
0.340978 0.944671 0.93109
0.898299 0.970199 0.917006
0.976532 0.969238 0.908705
0.994476 0.966217 0.907927
0 0 0.729503
0 0 0.729503
0 0 0.729503
0.2804 0.00424201 0.7738
0.760342 0.0243534 0.838026
0.915434 0.0865187 0.867826
0.915434 0.0865187 0.867811
0.915434 0.0865187 0.867811
0.915434 0.0865187 0.867811
0 0 0.729503
0 0 0.729503
0 0 0.729503
0.232715 0.00393683 0.766751
0.74818 0.0226749 0.836423
0.915434 0.0865187 0.867842
0.915434 0.0865187 0.867811
0.915434 0.0865187 0.867811
0.915434 0.0865187 0.867811
0 0 0.729503
0 0 0.729503
0 0 0.729503
0.165393 0.00320439 0.756878
0.732143 0.0206455 0.834333
0.915419 0.0865187 0.867842
0.915434 0.0865187 0.867811
0.915434 0.0865187 0.867811
0.915434 0.0865187 0.867811
0 0.0024567 0.730526
0 0 0.728206
0 0 0.729397
0.00123598 0 0.729824
0.684092 0.0174563 0.82829
0.91487 0.0861219 0.867643
0.915434 0.0865187 0.867811
0.915434 0.0865187 0.867811
0.915434 0.0865187 0.867811
0.00273136 0.526452 0.887724
0.00267033 0.521248 0.886549
0.00260929 0.514855 0.8851
0.00242618 0.497139 0.881086
0.461997 0.53695 0.906432
0.934798 0.46746 0.922942
0.953674 0.388083 0.913161
0.94667 0.338643 0.905119
0.943908 0.319158 0.901946
0.00979629 0.81265 0.935546
0.00965896 0.810864 0.935378
0.00950637 0.808652 0.935164
0.00907912 0.802625 0.9346
0.0084535 0.783429 0.930999
0.851362 0.848417 0.940703
0.997452 0.825055 0.938399
0.997971 0.813001 0.939055
0.997864 0.808301 0.939437
0.0208133 0.913252 0.947601
0.0207675 0.912657 0.94757
0.0207065 0.911925 0.94754
0.0205386 0.909957 0.947433
0.0193027 0.90312 0.946624
0.606073 0.933486 0.938308
0.952316 0.940002 0.931868
0.990295 0.930922 0.923445
0.990616 0.929137 0.923583
0.0212863 0.918837 0.947906
0.0212863 0.918837 0.947906
0.0212863 0.918837 0.947906
0.0212863 0.918837 0.947906
0.0212863 0.918837 0.947906
0.403174 0.948165 0.939651
0.910292 0.966812 0.928496
0.983001 0.964004 0.926497
0.990997 0.961944 0.925689
0.0212863 0.918837 0.947906
0.0212863 0.918837 0.947906
0.0212863 0.918837 0.947906
0.0212863 0.918837 0.947906
0.0212863 0.918837 0.947906
0.323583 0.944289 0.940169
0.894667 0.970367 0.928191
0.973129 0.972152 0.923949
0.993729 0.969726 0.923827
