luts/changyun_origin/origin4.cube
TITLE "Generated by Resolve"
LUT_3D_SIZE 5
0.0236515 0.0283818 0.0236515
0.151324 0.0515908 0.0419623
0.639109 0.0496529 0.0522774
0.810101 0.0776532 0.0930037
0.810101 0.0776532 0.0930037
0.00274662 0.125582 0.0434272
0.133364 0.106142 0.0386206
0.617609 0.0485389 0.0490272
0.810101 0.0776532 0.0930037
0.810101 0.0776532 0.0930037
0 0.588418 0.129793
0 0.581735 0.127611
0.823682 0.56527 0.010544
0.992966 0.524117 0.159442
0.986786 0.49543 0.15436
0.0331273 0.827741 0.313924
0.0331273 0.827741 0.313924
0.0331273 0.827741 0.313924
1 0.823713 0.146319
1 0.816541 0.153094
0.0331273 0.827741 0.313924
0.0331273 0.827741 0.313924
0.0331273 0.827741 0.313924
0.999756 0.836408 0.144228
1 0.831479 0.153094
0.0249027 0.0339208 0.107347
0.198138 0.0478676 0.108415
0.624079 0.0335851 0.107256
0.808438 0.0725567 0.126467
0.809369 0.0742046 0.119173
0.00802625 0.114351 0.104631
0.0813001 0.0998398 0.0932479
0.605493 0.0350805 0.0903182
0.81001 0.0762188 0.112322
0.810254 0.0773175 0.104005
0 0.583047 0.128038
0 0.576242 0.125826
0.817609 0.558923 0.0102846
0.991608 0.516976 0.158221
0.984634 0.487449 0.152819
0.0331273 0.827741 0.313924
0.0331273 0.827741 0.313924
0.0331273 0.827741 0.313924
0.999985 0.822354 0.145464
1 0.815045 0.153094
0.0331273 0.827741 0.313924
0.0331273 0.827741 0.313924
0.0331273 0.827741 0.313924
0.99968 0.836606 0.144167
1 0.831479 0.153094
0.0320287 0.032166 0.426825
0.154345 0.0250401 0.426871
0.782712 0 0.501686
0.899062 0.00813306 0.499733
0.898619 0.00816358 0.496193
0.0294652 0.0372778 0.422202
0.0315251 0.0311284 0.420935
0.762829 0 0.493782
0.898177 0.00820935 0.49276
0.897551 0.00816358 0.489097
0.10399 0.5729 0.542245
0.101762 0.567636 0.540459
0.721325 0.657603 0.541466
0.930373 0.481926 0.442664
0.924102 0.445853 0.436652
0.0320592 0.845136 0.58761
0.0316167 0.845243 0.586786
0.0294957 0.845762 0.582788
0.995865 0.836652 0.354223
1 0.828428 0.365194
0.0244602 0.846937 0.572137
0.0241245 0.847013 0.571206
0.0224308 0.847395 0.566644
0.98587 0.856107 0.310216
1 0.848768 0.330053
0.0761883 0.153307 0.678584
0.076112 0.152895 0.678203
0.788556 0.0838788 0.728328
0.926482 0.0742199 0.742214
0.926436 0.0740215 0.74197
0.0757305 0.150988 0.676463
0.0756542 0.150652 0.676143
0.767605 0.0897841 0.726085
0.92639 0.0738231 0.741726
0.92636 0.0736248 0.741482
0.0433356 0.62359 0.789502
0.0429847 0.616114 0.787594
0.627466 0.618021 0.7991
0.987396 0.501137 0.796262
0.979812 0.448615 0.788205
0.195132 0.839918 0.803098
0.19408 0.838605 0.802838
0.188678 0.831861 0.801572
0.978973 0.913161 0.793881
0.999878 0.900175 0.7832
0.197787 0.839048 0.796536
0.197818 0.838895 0.796201
0.197986 0.838087 0.794491
0.935058 0.939345 0.788312
0.999786 0.93167 0.773724
0.0766613 0.155673 0.680766
0.0766613 0.155673 0.680766
0.779797 0.0932479 0.730144
0.926772 0.0756695 0.744015
0.926772 0.0756695 0.744015
0.0766613 0.155673 0.680766
0.0766613 0.155673 0.680766
0.758251 0.102464 0.729244
0.926772 0.0756695 0.744015
0.926772 0.0756695 0.744015
0.0443427 0.611093 0.798306
0.0442359 0.603159 0.796582
0.600732 0.603052 0.808423
0.984024 0.473121 0.806989
0.974853 0.412909 0.797009
0.186618 0.85391 0.836515
0.185595 0.852781 0.836652
0.180209 0.846906 0.837293
0.972625 0.911299 0.834424
1 0.905852 0.832532
0.190875 0.858656 0.835889
0.190875 0.858656 0.835889
0.190875 0.858656 0.835889
0.921736 0.939055 0.833631
0.999863 0.942504 0.828809
