luts/changyun_origin/origin4.cube
TITLE "Generated by Resolve"
LUT_3D_SIZE 9
0.0236515 0.0283818 0.0236515
0.0603494 0.0337072 0.0299687
0.151324 0.0515908 0.0419623
0.356924 0.059617 0.037705
0.639109 0.0496529 0.0522774
0.810101 0.0776532 0.0930037
0.810101 0.0776532 0.0930037
0.810101 0.0776532 0.0930037
0.810101 0.0776532 0.0930037
0.0226902 0.0288853 0.0293584
0.0225986 0.0284276 0.0276036
0.121569 0.0465553 0.0400549
0.33698 0.0601968 0.0384375
0.629587 0.0491646 0.0508431
0.810101 0.0776532 0.0930037
0.810101 0.0776532 0.0930037
0.810101 0.0776532 0.0930037
0.810101 0.0776532 0.0930037
0.00274662 0.125582 0.0434272
0.00421149 0.115694 0.0430304
0.133364 0.106142 0.0386206
0.355642 0.101717 0.0335851
0.617609 0.0485389 0.0490272
0.810101 0.0776532 0.0930037
0.810101 0.0776532 0.0930037
0.810101 0.0776532 0.0930037
0.810101 0.0776532 0.0930037
0 0.324514 0.0711833
0 0.318181 0.0703593
0 0.310246 0.0693217
0.460197 0.296712 0.00390631
0.752056 0.272984 0.0596017
0.863111 0.217426 0.0970321
0.812802 0.0869612 0.0918135
0.810101 0.0776532 0.0930037
0.810101 0.0776532 0.0930037
0 0.588418 0.129793
0 0.585367 0.128786
0 0.581735 0.127611
0 0.571511 0.124285
0.823682 0.56527 0.010544
0.986313 0.5505 0.143404
0.992966 0.524117 0.159442
0.988968 0.503517 0.155917
0.986786 0.49543 0.15436
0.0151675 0.77612 0.254292
0.0147707 0.774807 0.252842
0.0142824 0.773205 0.251102
0.0130465 0.768566 0.246235
0.546181 0.788083 0.153384
0.992081 0.754284 0.0794537
1 0.739773 0.160769
1 0.732784 0.161761
1 0.730129 0.162112
0.0331273 0.827741 0.313924
0.0331273 0.827741 0.313924
0.0331273 0.827741 0.313924
0.0331273 0.827741 0.313924
0.0331273 0.827741 0.313924
0.952911 0.850904 0.154376
1 0.823713 0.146319
1 0.818067 0.153094
1 0.816541 0.153094
0.0331273 0.827741 0.313924
0.0331273 0.827741 0.313924
0.0331273 0.827741 0.313924
0.0331273 0.827741 0.313924
0.0331273 0.827741 0.313924
0.908812 0.857053 0.169696
0.999863 0.835477 0.144976
1 0.831479 0.153094
1 0.831479 0.153094
0.0331273 0.827741 0.313924
0.0331273 0.827741 0.313924
0.0331273 0.827741 0.313924
0.0331273 0.827741 0.313924
0.0331273 0.827741 0.313924
0.887922 0.858885 0.176669
0.999756 0.836408 0.144228
1 0.831479 0.153094
1 0.831479 0.153094
0.0231632 0.0288548 0.0322881
0.0543221 0.0327306 0.0343481
0.148013 0.0512398 0.0427863
0.353597 0.0595712 0.0391699
0.637675 0.0495766 0.0520638
0.810101 0.0776532 0.0930037
0.810101 0.0776532 0.0930037
0.810101 0.0776532 0.0930037
0.810101 0.0776532 0.0930037
0.0231022 0.0282597 0.0277409
0.0236515 0.0283818 0.0236515
0.116686 0.0456245 0.0395666
0.333654 0.0602274 0.0385748
0.628061 0.049073 0.0505989
0.810101 0.0776532 0.0930037
0.810101 0.0776532 0.0930037
0.810101 0.0776532 0.0930037
0.810101 0.0776532 0.0930037
0.00390631 0.117708 0.0431067
0.00552377 0.107774 0.0422827
0.12108 0.0976577 0.0387732
0.342657 0.0934157 0.0342412
0.616053 0.0484779 0.0487984
0.810101 0.0776532 0.0930037
0.810101 0.0776532 0.0930037
0.810101 0.0776532 0.0930037
0.810101 0.0776532 0.0930037
0 0.319524 0.0705425
0 0.313069 0.069688
0 0.305013 0.0686198
0.452155 0.291173 0.00448615
0.746014 0.267216 0.0585489
0.858595 0.209232 0.0954757
0.810101 0.0776532 0.0930037
0.810101 0.0776532 0.0930037
0.810101 0.0776532 0.0930037
0 0.586023 0.129
0 0.58294 0.127993
0 0.579202 0.126787
0 0.568978 0.123461
0.820935 0.562402 0.0104372
0.985382 0.547463 0.142702
0.992355 0.520943 0.158892
0.988006 0.499947 0.15523
0.985824 0.491859 0.153674
0.014847 0.775082 0.253147
0.0144503 0.77377 0.251713
0.013962 0.772168 0.249958
0.0127718 0.767422 0.24506
0.538506 0.78674 0.153552
0.991623 0.753124 0.0785229
1 0.738659 0.160922
1 0.731655 0.161913
1 0.728893 0.162264
0.0331273 0.827741 0.313924
0.0331273 0.827741 0.313924
0.0331273 0.827741 0.313924
0.0331273 0.827741 0.313924
0.0331273 0.827741 0.313924
0.951873 0.850309 0.153567
1 0.823072 0.145937
1 0.817426 0.153094
1 0.815885 0.153094
0.0331273 0.827741 0.313924
0.0331273 0.827741 0.313924
0.0331273 0.827741 0.313924
0.0331273 0.827741 0.313924
0.0331273 0.827741 0.313924
0.907225 0.857221 0.170214
0.999847 0.835554 0.1449
1 0.831479 0.153094
1 0.831479 0.153094
0.0331273 0.827741 0.313924
0.0331273 0.827741 0.313924
0.0331273 0.827741 0.313924
0.0331273 0.827741 0.313924
0.0331273 0.827741 0.313924
0.886015 0.859037 0.17731
0.999725 0.8365 0.144198
1 0.831479 0.153094
1 0.831479 0.153094
0.0249027 0.0339208 0.107347
0.0421149 0.034699 0.105959
0.198138 0.0478676 0.108415
0.365332 0.0437934 0.0912337
0.624079 0.0335851 0.107256
0.806806 0.0705272 0.13753
0.808438 0.0725567 0.126467
0.809186 0.0736858 0.121019
0.809369 0.0742046 0.119173
0.0234836 0.034287 0.100267
0.02327 0.0342565 0.0990463
0.158373 0.0452735 0.102129
0.342306 0.0466468 0.0844739
0.615717 0.034165 0.099794
0.807813 0.0716259 0.131044
0.809308 0.073991 0.11986
0.809781 0.0754864 0.114824
0.809949 0.0760357 0.112963
0.00802625 0.114351 0.104631
0.0075227 0.105135 0.100328
0.0813001 0.0998398 0.0932479
0.315648 0.0861219 0.0790417
0.605493 0.0350805 0.0903182
0.808927 0.0733043 0.122835
0.81001 0.0762188 0.112322
0.810285 0.0772412 0.106523
0.810254 0.0773175 0.104005
0 0.312108 0.122515
0 0.305379 0.118929
0 0.297169 0.114733
0.437079 0.297047 0.0472572
0.727169 0.259709 0.0796979
0.851072 0.197467 0.0996872
0.810101 0.0776532 0.0930037
0.810101 0.0776532 0.0930037
0.810101 0.0776532 0.0930037
0 0.583047 0.128038
0 0.57998 0.127031
0 0.576242 0.125826
0 0.565896 0.122454
0.817609 0.558923 0.0102846
0.984146 0.543648 0.141802
0.991608 0.516976 0.158221
0.986847 0.495659 0.154406
0.984634 0.487449 0.152819
0.0144656 0.773831 0.251789
0.0140688 0.772519 0.25034
0.0135805 0.770809 0.248493
0.0124208 0.765957 0.243565
0.528939 0.785122 0.153841
0.991104 0.751751 0.077409
1 0.737285 0.16112
1 0.730129 0.162112
1 0.727428 0.162448
0.0331273 0.827741 0.313924
0.0331273 0.827741 0.313924
0.0331273 0.827741 0.313924
0.0331273 0.827741 0.313924
0.0331273 0.827741 0.313924
0.950668 0.849577 0.152544
0.999985 0.822354 0.145464
1 0.816587 0.153094
1 0.815045 0.153094
0.0331273 0.827741 0.313924
0.0331273 0.827741 0.313924
0.0331273 0.827741 0.313924
0.0331273 0.827741 0.313924
0.0331273 0.827741 0.313924
0.905165 0.85742 0.170871
0.999832 0.83566 0.144823
1 0.831479 0.153094
1 0.831479 0.153094
0.0331273 0.827741 0.313924
0.0331273 0.827741 0.313924
0.0331273 0.827741 0.313924
0.0331273 0.827741 0.313924
0.0331273 0.827741 0.313924
0.883574 0.859236 0.178134
0.99968 0.836606 0.144167
1 0.831479 0.153094
1 0.831479 0.153094
0.0192569 0.0160983 0.246021
0.0284886 0.0161898 0.2439
0.186557 0.0224308 0.249317
0.470161 0.00749218 0.27422
0.689555 0.00196841 0.259617
0.81442 0.0521401 0.262516
0.811475 0.0537118 0.253986
0.810162 0.0543832 0.249928
0.809674 0.0546273 0.248447
0.0195315 0.016434 0.241642
0.0195773 0.0164797 0.24097
0.141176 0.0196841 0.239979
0.444724 0.011429 0.26807
0.679484 0.00146487 0.253697
0.812558 0.0531624 0.257359
0.809842 0.054551 0.248936
0.808499 0.0552377 0.24477
0.808011 0.0554818 0.24329
0.000213626 0.103685 0.244617
0.000640879 0.0922408 0.241077
0.0562753 0.0812085 0.240024
0.40116 0.0149386 0.253437
0.666392 0.0009308 0.24622
0.810605 0.0541543 0.251316
0.807813 0.0555734 0.242695
0.806439 0.0562753 0.238437
0.80592 0.0565347 0.236851
0.0361334 0.305669 0.296727
0.0332952 0.300542 0.294575
0.0298619 0.294118 0.291859
0.357137 0.339162 0.293217
0.681727 0.242466 0.227176
0.822934 0.147829 0.231479
0.802884 0.0582895 0.225788
0.801892 0.0589151 0.221683
0.801541 0.059144 0.220188
0.000274662 0.577752 0.337606
0.000228885 0.574609 0.33576
0.000183108 0.570672 0.333608
4.57771e-05 0.559899 0.327474
0.768261 0.57908 0.180941
0.952743 0.538079 0.238209
0.967742 0.506294 0.239017
0.960281 0.482841 0.23209
0.957458 0.474022 0.229511
0.00648508 0.773144 0.335698
0.00640879 0.771649 0.333272
0.00630198 0.769833 0.330358
0.00595102 0.764767 0.321996
0.444038 0.785412 0.203815
0.982376 0.750332 0.117464
1 0.736431 0.193668
1 0.728466 0.188495
1 0.725521 0.186511
0.0331273 0.827741 0.313924
0.0331273 0.827741 0.313924
0.0331273 0.827741 0.313924
0.0331273 0.827741 0.313924
0.0331273 0.827741 0.313924
0.947112 0.847547 0.149706
0.999985 0.82031 0.144106
1 0.814359 0.153094
1 0.812772 0.153079
0.0331273 0.827741 0.313924
0.0331273 0.827741 0.313924
0.0331273 0.827741 0.313924
0.0331273 0.827741 0.313924
0.0331273 0.827741 0.313924
0.899245 0.857954 0.172839
0.999817 0.83592 0.144594
1 0.831479 0.153094
1 0.831479 0.153094
0.0331273 0.827741 0.313924
0.0331273 0.827741 0.313924
0.0331273 0.827741 0.313924
0.0331273 0.827741 0.313924
0.0331273 0.827741 0.313924
0.877028 0.859785 0.180346
0.999588 0.836912 0.144076
1 0.831479 0.153094
1 0.831479 0.153094
0.0320287 0.032166 0.426825
0.0319982 0.032105 0.426474
0.154345 0.0250401 0.426871
0.46424 0 0.454948
0.782712 0 0.501686
0.899718 0.00807202 0.504997
0.899062 0.00813306 0.499733
0.898741 0.00816358 0.497215
0.898619 0.00816358 0.496193
0.0318303 0.0317693 0.424521
0.0317998 0.0317082 0.42417
0.0988785 0.0286259 0.422461
0.436469 0 0.449332
0.773922 0 0.498131
0.899321 0.00810254 0.501793
0.898665 0.00816358 0.496651
0.898344 0.00819409 0.494011
0.898222 0.00820935 0.493095
0.0294652 0.0372778 0.422202
0.0315557 0.0312047 0.421363
0.0315251 0.0311284 0.420935
0.400671 0.000747692 0.442512
0.762829 0 0.493782
0.898848 0.00814832 0.498009
0.898177 0.00820935 0.49276
0.897749 0.00819409 0.490074
0.897551 0.00816358 0.489097
0.0115816 0.324407 0.499046
0.0115969 0.315923 0.495842
0.0116121 0.305409 0.491966
0.273213 0.306218 0.503975
0.754864 0.19707 0.502159
0.894408 0.00834669 0.488228
0.895949 0.00788891 0.481605
0.895354 0.0077821 0.478828
0.89514 0.00775158 0.477852
0.10399 0.5729 0.542245
0.102968 0.57052 0.541436
0.101762 0.567636 0.540459
0.098558 0.559777 0.537926
0.721325 0.657603 0.541466
0.90695 0.53724 0.459739
0.930373 0.481926 0.442664
0.925841 0.455726 0.43827
0.924102 0.445853 0.436652
0.05626 0.753902 0.564828
0.0561837 0.752361 0.56376
0.0561685 0.7505 0.562554
0.0561227 0.74548 0.559213
0.2177 0.779339 0.525567
0.936965 0.78819 0.434867
0.997452 0.756115 0.434058
0.996796 0.748272 0.432074
0.996521 0.745327 0.431281
0.0320592 0.845136 0.58761
0.0318608 0.845182 0.587228
0.0316167 0.845243 0.586786
0.0310216 0.845396 0.585641
0.0294957 0.845762 0.582788
0.840589 0.878904 0.400854
0.995865 0.836652 0.354223
1 0.83003 0.36527
1 0.828428 0.365194
0.0261387 0.846571 0.576471
0.0259403 0.846616 0.576089
0.0257572 0.846662 0.575631
0.0252842 0.846769 0.57435
0.0241245 0.847013 0.571206
0.769665 0.891371 0.422232
0.989578 0.855482 0.318715
1 0.849485 0.336477
1 0.849363 0.33547
0.0244602 0.846937 0.572137
0.0243229 0.846983 0.57174
0.0241245 0.847013 0.571206
0.023621 0.847135 0.569863
0.0224308 0.847395 0.566644
0.739818 0.891325 0.427512
0.98587 0.856107 0.310216
0.999985 0.848875 0.330907
1 0.848768 0.330053
0.0571298 0.0793164 0.586725
0.057084 0.0792096 0.586511
0.0708171 0.0800488 0.586175
0.457099 0.063798 0.615
0.785458 0.00177005 0.654444
0.917937 0.0305486 0.683604
0.917647 0.0294804 0.681376
0.91751 0.0289616 0.680308
0.917464 0.0287633 0.679881
0.0568704 0.0786755 0.585412
0.0568246 0.0785687 0.585199
0.0567636 0.0784314 0.584909
0.426886 0.0670634 0.610742
0.776059 0.00189212 0.651164
0.917769 0.0299229 0.682307
0.917494 0.0288548 0.680095
0.917342 0.0283055 0.67895
0.917296 0.0281376 0.678584
0.0565194 0.0778668 0.583749
0.0564736 0.07776 0.583535
0.0564279 0.0776532 0.583322
0.386435 0.0704509 0.605264
0.76376 0.00234989 0.647334
0.917205 0.0289006 0.680613
0.917281 0.0280766 0.678447
0.917144 0.0275578 0.677378
0.917098 0.0273442 0.676936
0.0328069 0.285023 0.63444
0.0330205 0.27422 0.630793
0.033341 0.260594 0.626154
0.208835 0.243214 0.627192
0.730861 0.0601663 0.644602
0.915358 0.0259556 0.676066
0.916732 0.0259403 0.674006
0.916594 0.0255589 0.672892
0.916548 0.0254063 0.672435
0.0460059 0.621866 0.718135
0.0447395 0.618738 0.71725
0.0432441 0.61503 0.716167
0.0390631 0.604547 0.713176
0.66421 0.630533 0.728664
0.955047 0.565087 0.710063
0.982742 0.508309 0.696345
0.97908 0.477028 0.694224
0.977508 0.464759 0.693355
0.162844 0.759167 0.723003
0.16231 0.758221 0.722713
0.161669 0.757046 0.722332
0.159945 0.753872 0.721386
0.214405 0.759243 0.712154
0.912047 0.846708 0.718624
0.98938 0.790295 0.670665
0.987915 0.780209 0.66772
0.98735 0.776455 0.666606
0.167636 0.814969 0.717601
0.167468 0.814954 0.717357
0.167285 0.814923 0.717128
0.166903 0.813703 0.716228
0.166247 0.807248 0.713329
0.795071 0.912276 0.710948
0.9832 0.888624 0.660029
0.999695 0.875654 0.652247
0.999664 0.874113 0.652125
0.162676 0.814862 0.711696
0.162524 0.814862 0.711528
0.162325 0.814862 0.711299
0.161791 0.814878 0.710689
0.160403 0.814923 0.709117
0.71635 0.916838 0.710994
0.960296 0.913268 0.643778
0.99942 0.897246 0.626017
0.999756 0.896712 0.625315
0.1608 0.814908 0.709575
0.160647 0.814908 0.709407
0.160449 0.814923 0.709178
0.159899 0.814923 0.708568
0.158526 0.814969 0.706996
0.68304 0.913085 0.709941
0.951293 0.914855 0.643351
0.995956 0.898116 0.622766
0.999756 0.895842 0.620584
0.0761883 0.153307 0.678584
0.0761425 0.153094 0.678386
0.076112 0.152895 0.678203
0.439033 0.156695 0.705379
0.788556 0.0838788 0.728328
0.926253 0.074052 0.742489
0.926482 0.0742199 0.742214
0.926452 0.0740826 0.742046
0.926436 0.0740215 0.74197
0.0759899 0.152285 0.677638
0.0759442 0.152071 0.677455
0.0758984 0.151873 0.677272
0.403342 0.156603 0.701198
0.779416 0.0865034 0.727382
0.925597 0.0729229 0.742061
0.926436 0.0740368 0.742
0.926406 0.0738842 0.741817
0.926406 0.0738384 0.741756
0.0757305 0.150988 0.676463
0.0757 0.150851 0.676326
0.0756542 0.150652 0.676143
0.354421 0.155978 0.695598
0.767605 0.0897841 0.726085
0.924819 0.0715801 0.741573
0.92639 0.0738231 0.741726
0.92636 0.0736706 0.741543
0.92636 0.0736248 0.741482
0.052903 0.253254 0.697902
0.0541543 0.240528 0.694118
0.0560006 0.224598 0.689403
0.168353 0.19028 0.683207
0.73167 0.0991073 0.721889
0.921813 0.0673381 0.740032
0.926268 0.073228 0.740978
0.926238 0.0730755 0.74081
0.926238 0.0730144 0.740734
0.0433356 0.62359 0.789502
0.043183 0.620249 0.788632
0.0429847 0.616114 0.787594
0.0424811 0.604608 0.78471
0.627466 0.618021 0.7991
0.956466 0.559228 0.803998
0.987396 0.501137 0.796262
0.982086 0.4636 0.7906
0.979812 0.448615 0.788205
0.142855 0.793164 0.813123
0.141924 0.792187 0.81294
0.140703 0.790875 0.812634
0.137469 0.787396 0.811765
0.168414 0.783581 0.805966
0.893385 0.840803 0.815274
0.999588 0.819608 0.801205
0.999527 0.810422 0.800046
0.999512 0.80708 0.799603
0.195132 0.839918 0.803098
0.194675 0.839368 0.803021
0.19408 0.838605 0.802838
0.192508 0.836683 0.802518
0.188678 0.831861 0.801572
0.755474 0.907713 0.806561
0.978973 0.913161 0.793881
0.999893 0.9019 0.783581
0.999878 0.900175 0.7832
0.19762 0.839857 0.798245
0.197635 0.83978 0.798077
0.19765 0.839689 0.797909
0.197711 0.83946 0.797391
0.197818 0.838895 0.796201
0.66923 0.914855 0.806012
0.94551 0.939086 0.788937
0.99733 0.929564 0.778363
0.999878 0.927275 0.777432
0.197787 0.839048 0.796536
0.197803 0.839002 0.796429
0.197818 0.838895 0.796201
0.197879 0.838651 0.795682
0.197986 0.838087 0.794491
0.628046 0.909239 0.803372
0.935058 0.939345 0.788312
0.994049 0.934127 0.775433
0.999786 0.93167 0.773724
0.0766613 0.155673 0.680766
0.0766613 0.155673 0.680766
0.0766613 0.155673 0.680766
0.412314 0.161685 0.706371
0.782361 0.092134 0.730251
0.925963 0.0742962 0.743725
0.926772 0.0756695 0.744015
0.926772 0.0756695 0.744015
0.926772 0.0756695 0.744015
0.0766613 0.155673 0.680766
0.0766613 0.155673 0.680766
0.0766613 0.155673 0.680766
0.373846 0.162402 0.702953
0.773297 0.0960861 0.729885
0.925322 0.073228 0.743496
0.926772 0.0756695 0.744015
0.926772 0.0756695 0.744015
0.926772 0.0756695 0.744015
0.0766613 0.155673 0.680766
0.0766613 0.155673 0.680766
0.0766613 0.155673 0.680766
0.320851 0.163058 0.698528
0.761166 0.101213 0.729366
0.924529 0.0719005 0.743206
0.926772 0.0756695 0.744015
0.926772 0.0756695 0.744015
0.926772 0.0756695 0.744015
0.0610208 0.209812 0.692195
0.0636912 0.196719 0.689281
0.0677501 0.180331 0.685939
0.136706 0.161898 0.685054
0.725002 0.115068 0.727687
0.921157 0.0662394 0.742138
0.926772 0.0756695 0.744015
0.926772 0.0756695 0.744015
0.926772 0.0756695 0.744015
0.0444495 0.616053 0.799374
0.044358 0.612726 0.798657
0.0442969 0.608347 0.797711
0.0441291 0.596445 0.795132
0.608286 0.60972 0.809796
0.952285 0.547112 0.816281
0.985611 0.484398 0.808759
0.979568 0.443229 0.802106
0.977005 0.426688 0.799344
0.132738 0.799741 0.835874
0.13167 0.798688 0.835721
0.130388 0.797421 0.835538
0.126741 0.793851 0.835019
0.141253 0.787274 0.831052
0.883223 0.835676 0.841306
0.999954 0.823285 0.837324
1 0.81471 0.837125
1 0.811414 0.83714
0.187259 0.854597 0.836362
0.186862 0.854063 0.836316
0.186328 0.853346 0.836225
0.184924 0.851453 0.836011
0.181277 0.846708 0.83534
0.73518 0.905257 0.832609
0.974121 0.912444 0.829465
1 0.907347 0.825284
1 0.905791 0.825223
0.191836 0.856519 0.831739
0.191867 0.856428 0.831586
0.191913 0.856352 0.831418
0.19202 0.856123 0.830976
0.192248 0.855589 0.829953
0.634577 0.910994 0.829816
0.939422 0.936187 0.825238
0.997238 0.935119 0.819715
0.999985 0.933455 0.818647
0.192187 0.855726 0.830213
0.192218 0.855665 0.830106
0.192248 0.855589 0.829953
0.192355 0.85536 0.829511
0.192599 0.854795 0.828428
0.592935 0.904509 0.827405
0.927962 0.938415 0.825071
0.992493 0.941619 0.817609
0.999939 0.940688 0.817136
0.0766613 0.155673 0.680766
0.0766613 0.155673 0.680766
0.0766613 0.155673 0.680766
0.401541 0.161913 0.705379
0.779797 0.0932479 0.730144
0.92578 0.0740063 0.743664
0.926772 0.0756695 0.744015
0.926772 0.0756695 0.744015
0.926772 0.0756695 0.744015
0.0766613 0.155673 0.680766
0.0766613 0.155673 0.680766
0.0766613 0.155673 0.680766
0.361837 0.162539 0.701946
0.770459 0.0972763 0.729763
0.925139 0.0729229 0.743435
0.926772 0.0756695 0.744015
0.926772 0.0756695 0.744015
0.926772 0.0756695 0.744015
0.0766613 0.155673 0.680766
0.0766613 0.155673 0.680766
0.0766613 0.155673 0.680766
0.307088 0.163241 0.697368
0.758251 0.102464 0.729244
0.924315 0.0715496 0.743145
0.926772 0.0756695 0.744015
0.926772 0.0756695 0.744015
0.926772 0.0756695 0.744015
0.0650492 0.190784 0.688075
0.0690776 0.176654 0.685161
0.076051 0.157366 0.681117
0.114763 0.159731 0.683589
0.721477 0.116243 0.727504
0.920851 0.0657359 0.742046
0.926772 0.0756695 0.744015
0.926772 0.0756695 0.744015
0.926772 0.0756695 0.744015
0.0443427 0.611093 0.798306
0.0442969 0.607538 0.797528
0.0442359 0.603159 0.796582
0.0440528 0.591058 0.793973
0.600732 0.603052 0.808423
0.950195 0.538338 0.814984
0.984024 0.473121 0.806989
0.977539 0.430137 0.799924
0.974853 0.412909 0.797009
0.131212 0.79823 0.83566
0.130129 0.797177 0.835508
0.128786 0.795865 0.835309
0.125154 0.792279 0.834791
0.133486 0.784772 0.831266
0.881025 0.833295 0.841337
0.999924 0.820813 0.837354
1 0.812116 0.83711
1 0.808591 0.837217
0.186618 0.85391 0.836515
0.18616 0.853407 0.836576
0.185595 0.852781 0.836652
0.1841 0.851118 0.836881
0.180209 0.846906 0.837293
0.729458 0.903761 0.83537
0.972625 0.911299 0.834424
1 0.907378 0.832288
1 0.905852 0.832532
0.190875 0.858656 0.835889
0.190875 0.858656 0.835889
0.190875 0.858656 0.835889
0.190875 0.858656 0.835889
0.190875 0.858656 0.835889
0.627588 0.909789 0.835004
0.935515 0.935882 0.832792
0.996689 0.935195 0.829358
0.999985 0.933883 0.828275
0.190875 0.858656 0.835889
0.190875 0.858656 0.835889
0.190875 0.858656 0.835889
0.190875 0.858656 0.835889
0.190875 0.858656 0.835889
0.584421 0.903197 0.833844
0.921736 0.939055 0.833631
0.990356 0.942412 0.829389
0.999863 0.942504 0.828809
